;Generated with Makelangelo 7.52.1
;FLAVOR:Marlin-polargraph
;MINX:-78.029
;MINY:-95.000
;MAXX:75.908
;MAXY:86.443
; 2024-08-27 at 06:05:04 CDT
;Start of user gcode

;End of user gcode
G28 X Y
M280 P0 S90 T250
M0 Ready black and click
G0 X-72.000 Y-94.701 F3000.0
M280 P0 S25 T150
G1 X-71.000 Y-94.701 F3000.0
G1 X-70.000 Y-94.701 F3000.0
G1 X-69.000 Y-94.701 F3000.0
G1 X-68.000 Y-94.701 F3000.0
G1 X-67.000 Y-94.701 F3000.0
G1 X-66.000 Y-94.701 F3000.0
G1 X-65.000 Y-94.701 F3000.0
G1 X-64.000 Y-94.701 F3000.0
G1 X-63.000 Y-94.701 F3000.0
G1 X-62.000 Y-94.701 F3000.0
G1 X-61.000 Y-94.701 F3000.0
G1 X-60.000 Y-94.701 F3000.0
G1 X-59.000 Y-94.701 F3000.0
G1 X-58.000 Y-94.701 F3000.0
M280 P0 S90 T250
G0 X-57.000 Y-94.701 F3000.0
M280 P0 S25 T150
G1 X-56.000 Y-94.701 F3000.0
M280 P0 S90 T250
G0 X-54.000 Y-94.701 F3000.0
M280 P0 S25 T150
G1 X-53.000 Y-94.701 F3000.0
G1 X-52.000 Y-94.701 F3000.0
G1 X-51.000 Y-94.701 F3000.0
G1 X-50.000 Y-94.701 F3000.0
G1 X-49.000 Y-94.701 F3000.0
G1 X-48.000 Y-94.701 F3000.0
G1 X-47.000 Y-94.701 F3000.0
G1 X-46.000 Y-94.701 F3000.0
G1 X-45.000 Y-94.701 F3000.0
G1 X-44.000 Y-94.701 F3000.0
G1 X-43.000 Y-94.701 F3000.0
G1 X-42.000 Y-94.701 F3000.0
G1 X-41.000 Y-94.701 F3000.0
G1 X-40.000 Y-94.701 F3000.0
G1 X-39.000 Y-94.701 F3000.0
G1 X-38.000 Y-94.701 F3000.0
G1 X-37.000 Y-94.701 F3000.0
G1 X-36.000 Y-94.701 F3000.0
G1 X-35.000 Y-94.701 F3000.0
G1 X-34.000 Y-94.701 F3000.0
G1 X-33.000 Y-94.701 F3000.0
G1 X-32.000 Y-94.701 F3000.0
G1 X-31.000 Y-94.701 F3000.0
G1 X-30.000 Y-94.701 F3000.0
G1 X-29.000 Y-94.701 F3000.0
G1 X-28.000 Y-94.701 F3000.0
G1 X-27.000 Y-94.701 F3000.0
G1 X-26.000 Y-94.701 F3000.0
G1 X-25.000 Y-94.701 F3000.0
G1 X-24.000 Y-94.701 F3000.0
G1 X-23.000 Y-94.701 F3000.0
G1 X-22.000 Y-94.701 F3000.0
G1 X-21.000 Y-94.701 F3000.0
G1 X-20.000 Y-94.701 F3000.0
G1 X-19.000 Y-94.701 F3000.0
G1 X-18.000 Y-94.701 F3000.0
G1 X-17.000 Y-94.701 F3000.0
G1 X-16.000 Y-94.701 F3000.0
G1 X-15.000 Y-94.701 F3000.0
G1 X-14.000 Y-94.701 F3000.0
G1 X-13.000 Y-94.701 F3000.0
G1 X-12.000 Y-94.701 F3000.0
G1 X-11.000 Y-94.701 F3000.0
G1 X-10.000 Y-94.701 F3000.0
G1 X-9.000 Y-94.701 F3000.0
G1 X-8.000 Y-94.701 F3000.0
G1 X-7.000 Y-94.701 F3000.0
G1 X-6.000 Y-94.701 F3000.0
G1 X-5.000 Y-94.701 F3000.0
G1 X-4.000 Y-94.701 F3000.0
G1 X-3.000 Y-94.701 F3000.0
G1 X-2.000 Y-94.701 F3000.0
G1 X-1.000 Y-94.701 F3000.0
M280 P0 S90 T250
G0 X67.000 Y-94.701 F3000.0
M280 P0 S25 T150
G1 X68.000 Y-94.701 F3000.0
G1 X69.000 Y-94.701 F3000.0
M280 P0 S90 T250
G0 X69.000 Y-93.701 F3000.0
M280 P0 S25 T150
G1 X68.000 Y-93.701 F3000.0
M280 P0 S90 T250
G0 X0.000 Y-93.701 F3000.0
M280 P0 S25 T150
G1 X-1.000 Y-93.701 F3000.0
G1 X-2.000 Y-93.701 F3000.0
G1 X-3.000 Y-93.701 F3000.0
G1 X-4.000 Y-93.701 F3000.0
G1 X-5.000 Y-93.701 F3000.0
G1 X-6.000 Y-93.701 F3000.0
G1 X-7.000 Y-93.701 F3000.0
G1 X-8.000 Y-93.701 F3000.0
G1 X-9.000 Y-93.701 F3000.0
G1 X-10.000 Y-93.701 F3000.0
G1 X-11.000 Y-93.701 F3000.0
G1 X-12.000 Y-93.701 F3000.0
G1 X-13.000 Y-93.701 F3000.0
G1 X-14.000 Y-93.701 F3000.0
G1 X-15.000 Y-93.701 F3000.0
G1 X-16.000 Y-93.701 F3000.0
G1 X-17.000 Y-93.701 F3000.0
G1 X-18.000 Y-93.701 F3000.0
G1 X-19.000 Y-93.701 F3000.0
G1 X-20.000 Y-93.701 F3000.0
G1 X-21.000 Y-93.701 F3000.0
G1 X-22.000 Y-93.701 F3000.0
G1 X-23.000 Y-93.701 F3000.0
G1 X-24.000 Y-93.701 F3000.0
G1 X-25.000 Y-93.701 F3000.0
G1 X-26.000 Y-93.701 F3000.0
G1 X-27.000 Y-93.701 F3000.0
G1 X-28.000 Y-93.701 F3000.0
G1 X-29.000 Y-93.701 F3000.0
G1 X-30.000 Y-93.701 F3000.0
G1 X-31.000 Y-93.701 F3000.0
G1 X-32.000 Y-93.701 F3000.0
G1 X-33.000 Y-93.701 F3000.0
G1 X-34.000 Y-93.701 F3000.0
G1 X-35.000 Y-93.701 F3000.0
G1 X-36.000 Y-93.701 F3000.0
G1 X-37.000 Y-93.701 F3000.0
G1 X-38.000 Y-93.701 F3000.0
G1 X-39.000 Y-93.701 F3000.0
G1 X-40.000 Y-93.701 F3000.0
G1 X-41.000 Y-93.701 F3000.0
G1 X-42.000 Y-93.701 F3000.0
G1 X-43.000 Y-93.701 F3000.0
G1 X-44.000 Y-93.701 F3000.0
G1 X-45.000 Y-93.701 F3000.0
G1 X-46.000 Y-93.701 F3000.0
G1 X-47.000 Y-93.701 F3000.0
G1 X-48.000 Y-93.701 F3000.0
G1 X-49.000 Y-93.701 F3000.0
G1 X-50.000 Y-93.701 F3000.0
G1 X-51.000 Y-93.701 F3000.0
G1 X-52.000 Y-93.701 F3000.0
G1 X-53.000 Y-93.701 F3000.0
G1 X-54.000 Y-93.701 F3000.0
M280 P0 S90 T250
G0 X-55.000 Y-93.701 F3000.0
M280 P0 S25 T150
G1 X-56.000 Y-93.701 F3000.0
G1 X-57.000 Y-93.701 F3000.0
G1 X-58.000 Y-93.701 F3000.0
G1 X-59.000 Y-93.701 F3000.0
G1 X-60.000 Y-93.701 F3000.0
G1 X-61.000 Y-93.701 F3000.0
G1 X-62.000 Y-93.701 F3000.0
G1 X-63.000 Y-93.701 F3000.0
G1 X-64.000 Y-93.701 F3000.0
G1 X-65.000 Y-93.701 F3000.0
G1 X-66.000 Y-93.701 F3000.0
G1 X-67.000 Y-93.701 F3000.0
G1 X-68.000 Y-93.701 F3000.0
G1 X-69.000 Y-93.701 F3000.0
G1 X-70.000 Y-93.701 F3000.0
G1 X-71.000 Y-93.701 F3000.0
M280 P0 S90 T250
G0 X-72.000 Y-92.701 F3000.0
M280 P0 S25 T150
G1 X-71.000 Y-92.701 F3000.0
G1 X-70.000 Y-92.701 F3000.0
G1 X-69.000 Y-92.701 F3000.0
G1 X-68.000 Y-92.701 F3000.0
G1 X-67.000 Y-92.701 F3000.0
G1 X-66.000 Y-92.701 F3000.0
G1 X-65.000 Y-92.701 F3000.0
G1 X-64.000 Y-92.701 F3000.0
G1 X-63.000 Y-92.701 F3000.0
G1 X-62.000 Y-92.701 F3000.0
G1 X-61.000 Y-92.701 F3000.0
G1 X-60.000 Y-92.701 F3000.0
G1 X-59.000 Y-92.701 F3000.0
G1 X-58.000 Y-92.701 F3000.0
G1 X-57.000 Y-92.701 F3000.0
G1 X-56.000 Y-92.701 F3000.0
G1 X-55.000 Y-92.701 F3000.0
G1 X-54.000 Y-92.701 F3000.0
G1 X-53.000 Y-92.701 F3000.0
G1 X-52.000 Y-92.701 F3000.0
G1 X-51.000 Y-92.701 F3000.0
G1 X-50.000 Y-92.701 F3000.0
G1 X-49.000 Y-92.701 F3000.0
G1 X-48.000 Y-92.701 F3000.0
G1 X-47.000 Y-92.701 F3000.0
G1 X-46.000 Y-92.701 F3000.0
G1 X-45.000 Y-92.701 F3000.0
G1 X-44.000 Y-92.701 F3000.0
G1 X-43.000 Y-92.701 F3000.0
G1 X-42.000 Y-92.701 F3000.0
G1 X-41.000 Y-92.701 F3000.0
G1 X-40.000 Y-92.701 F3000.0
G1 X-39.000 Y-92.701 F3000.0
G1 X-38.000 Y-92.701 F3000.0
G1 X-37.000 Y-92.701 F3000.0
G1 X-36.000 Y-92.701 F3000.0
G1 X-35.000 Y-92.701 F3000.0
G1 X-34.000 Y-92.701 F3000.0
G1 X-33.000 Y-92.701 F3000.0
G1 X-32.000 Y-92.701 F3000.0
G1 X-31.000 Y-92.701 F3000.0
G1 X-30.000 Y-92.701 F3000.0
G1 X-29.000 Y-92.701 F3000.0
G1 X-28.000 Y-92.701 F3000.0
G1 X-27.000 Y-92.701 F3000.0
G1 X-26.000 Y-92.701 F3000.0
G1 X-25.000 Y-92.701 F3000.0
G1 X-24.000 Y-92.701 F3000.0
G1 X-23.000 Y-92.701 F3000.0
G1 X-22.000 Y-92.701 F3000.0
G1 X-21.000 Y-92.701 F3000.0
G1 X-20.000 Y-92.701 F3000.0
G1 X-19.000 Y-92.701 F3000.0
G1 X-18.000 Y-92.701 F3000.0
G1 X-17.000 Y-92.701 F3000.0
G1 X-16.000 Y-92.701 F3000.0
G1 X-15.000 Y-92.701 F3000.0
G1 X-14.000 Y-92.701 F3000.0
G1 X-13.000 Y-92.701 F3000.0
G1 X-12.000 Y-92.701 F3000.0
G1 X-11.000 Y-92.701 F3000.0
G1 X-10.000 Y-92.701 F3000.0
G1 X-9.000 Y-92.701 F3000.0
G1 X-8.000 Y-92.701 F3000.0
G1 X-7.000 Y-92.701 F3000.0
G1 X-6.000 Y-92.701 F3000.0
G1 X-5.000 Y-92.701 F3000.0
G1 X-4.000 Y-92.701 F3000.0
G1 X-3.000 Y-92.701 F3000.0
G1 X-2.000 Y-92.701 F3000.0
G1 X-1.000 Y-92.701 F3000.0
M280 P0 S90 T250
G0 X2.000 Y-91.701 F3000.0
M280 P0 S25 T150
G1 X1.000 Y-91.701 F3000.0
G1 X0.000 Y-91.701 F3000.0
G1 X-1.000 Y-91.701 F3000.0
G1 X-2.000 Y-91.701 F3000.0
G1 X-3.000 Y-91.701 F3000.0
G1 X-4.000 Y-91.701 F3000.0
G1 X-5.000 Y-91.701 F3000.0
G1 X-6.000 Y-91.701 F3000.0
G1 X-7.000 Y-91.701 F3000.0
G1 X-8.000 Y-91.701 F3000.0
G1 X-9.000 Y-91.701 F3000.0
G1 X-10.000 Y-91.701 F3000.0
G1 X-11.000 Y-91.701 F3000.0
G1 X-12.000 Y-91.701 F3000.0
G1 X-13.000 Y-91.701 F3000.0
G1 X-14.000 Y-91.701 F3000.0
G1 X-15.000 Y-91.701 F3000.0
G1 X-16.000 Y-91.701 F3000.0
G1 X-17.000 Y-91.701 F3000.0
G1 X-18.000 Y-91.701 F3000.0
G1 X-19.000 Y-91.701 F3000.0
G1 X-20.000 Y-91.701 F3000.0
G1 X-21.000 Y-91.701 F3000.0
G1 X-22.000 Y-91.701 F3000.0
G1 X-23.000 Y-91.701 F3000.0
G1 X-24.000 Y-91.701 F3000.0
G1 X-25.000 Y-91.701 F3000.0
G1 X-26.000 Y-91.701 F3000.0
G1 X-27.000 Y-91.701 F3000.0
G1 X-28.000 Y-91.701 F3000.0
G1 X-29.000 Y-91.701 F3000.0
G1 X-30.000 Y-91.701 F3000.0
G1 X-31.000 Y-91.701 F3000.0
G1 X-32.000 Y-91.701 F3000.0
G1 X-33.000 Y-91.701 F3000.0
G1 X-34.000 Y-91.701 F3000.0
G1 X-35.000 Y-91.701 F3000.0
G1 X-36.000 Y-91.701 F3000.0
G1 X-37.000 Y-91.701 F3000.0
G1 X-38.000 Y-91.701 F3000.0
G1 X-39.000 Y-91.701 F3000.0
G1 X-40.000 Y-91.701 F3000.0
G1 X-41.000 Y-91.701 F3000.0
G1 X-42.000 Y-91.701 F3000.0
G1 X-43.000 Y-91.701 F3000.0
G1 X-44.000 Y-91.701 F3000.0
G1 X-45.000 Y-91.701 F3000.0
G1 X-46.000 Y-91.701 F3000.0
G1 X-47.000 Y-91.701 F3000.0
G1 X-48.000 Y-91.701 F3000.0
G1 X-49.000 Y-91.701 F3000.0
G1 X-50.000 Y-91.701 F3000.0
G1 X-51.000 Y-91.701 F3000.0
G1 X-52.000 Y-91.701 F3000.0
G1 X-53.000 Y-91.701 F3000.0
G1 X-54.000 Y-91.701 F3000.0
G1 X-55.000 Y-91.701 F3000.0
G1 X-56.000 Y-91.701 F3000.0
G1 X-57.000 Y-91.701 F3000.0
G1 X-58.000 Y-91.701 F3000.0
G1 X-59.000 Y-91.701 F3000.0
G1 X-60.000 Y-91.701 F3000.0
G1 X-61.000 Y-91.701 F3000.0
G1 X-62.000 Y-91.701 F3000.0
G1 X-63.000 Y-91.701 F3000.0
G1 X-64.000 Y-91.701 F3000.0
G1 X-65.000 Y-91.701 F3000.0
G1 X-66.000 Y-91.701 F3000.0
G1 X-67.000 Y-91.701 F3000.0
G1 X-68.000 Y-91.701 F3000.0
G1 X-69.000 Y-91.701 F3000.0
G1 X-70.000 Y-91.701 F3000.0
G1 X-71.000 Y-91.701 F3000.0
G1 X-72.000 Y-91.701 F3000.0
M280 P0 S90 T250
G0 X-73.000 Y-90.701 F3000.0
M280 P0 S25 T150
G1 X-72.000 Y-90.701 F3000.0
G1 X-71.000 Y-90.701 F3000.0
G1 X-70.000 Y-90.701 F3000.0
G1 X-69.000 Y-90.701 F3000.0
G1 X-68.000 Y-90.701 F3000.0
G1 X-67.000 Y-90.701 F3000.0
G1 X-66.000 Y-90.701 F3000.0
G1 X-65.000 Y-90.701 F3000.0
G1 X-64.000 Y-90.701 F3000.0
G1 X-63.000 Y-90.701 F3000.0
G1 X-62.000 Y-90.701 F3000.0
G1 X-61.000 Y-90.701 F3000.0
G1 X-60.000 Y-90.701 F3000.0
G1 X-59.000 Y-90.701 F3000.0
G1 X-58.000 Y-90.701 F3000.0
G1 X-57.000 Y-90.701 F3000.0
G1 X-56.000 Y-90.701 F3000.0
G1 X-55.000 Y-90.701 F3000.0
G1 X-54.000 Y-90.701 F3000.0
G1 X-53.000 Y-90.701 F3000.0
G1 X-52.000 Y-90.701 F3000.0
G1 X-51.000 Y-90.701 F3000.0
G1 X-50.000 Y-90.701 F3000.0
G1 X-49.000 Y-90.701 F3000.0
G1 X-48.000 Y-90.701 F3000.0
G1 X-47.000 Y-90.701 F3000.0
G1 X-46.000 Y-90.701 F3000.0
G1 X-45.000 Y-90.701 F3000.0
G1 X-44.000 Y-90.701 F3000.0
G1 X-43.000 Y-90.701 F3000.0
G1 X-42.000 Y-90.701 F3000.0
G1 X-41.000 Y-90.701 F3000.0
G1 X-40.000 Y-90.701 F3000.0
G1 X-39.000 Y-90.701 F3000.0
G1 X-38.000 Y-90.701 F3000.0
G1 X-37.000 Y-90.701 F3000.0
G1 X-36.000 Y-90.701 F3000.0
G1 X-35.000 Y-90.701 F3000.0
G1 X-34.000 Y-90.701 F3000.0
G1 X-33.000 Y-90.701 F3000.0
G1 X-32.000 Y-90.701 F3000.0
G1 X-31.000 Y-90.701 F3000.0
G1 X-30.000 Y-90.701 F3000.0
G1 X-29.000 Y-90.701 F3000.0
G1 X-28.000 Y-90.701 F3000.0
G1 X-27.000 Y-90.701 F3000.0
G1 X-26.000 Y-90.701 F3000.0
G1 X-25.000 Y-90.701 F3000.0
G1 X-24.000 Y-90.701 F3000.0
G1 X-23.000 Y-90.701 F3000.0
G1 X-22.000 Y-90.701 F3000.0
G1 X-21.000 Y-90.701 F3000.0
G1 X-20.000 Y-90.701 F3000.0
G1 X-19.000 Y-90.701 F3000.0
G1 X-18.000 Y-90.701 F3000.0
G1 X-17.000 Y-90.701 F3000.0
G1 X-16.000 Y-90.701 F3000.0
G1 X-15.000 Y-90.701 F3000.0
G1 X-14.000 Y-90.701 F3000.0
G1 X-13.000 Y-90.701 F3000.0
G1 X-12.000 Y-90.701 F3000.0
M280 P0 S90 T250
G0 X-10.000 Y-90.701 F3000.0
M280 P0 S25 T150
G1 X-9.000 Y-90.701 F3000.0
G1 X-8.000 Y-90.701 F3000.0
G1 X-7.000 Y-90.701 F3000.0
G1 X-6.000 Y-90.701 F3000.0
G1 X-5.000 Y-90.701 F3000.0
G1 X-4.000 Y-90.701 F3000.0
G1 X-3.000 Y-90.701 F3000.0
G1 X-2.000 Y-90.701 F3000.0
G1 X-1.000 Y-90.701 F3000.0
G1 X0.000 Y-90.701 F3000.0
G1 X1.000 Y-90.701 F3000.0
G1 X2.000 Y-90.701 F3000.0
M280 P0 S90 T250
G0 X63.000 Y-89.701 F3000.0
M280 P0 S25 T150
G1 X62.000 Y-89.701 F3000.0
M280 P0 S90 T250
G0 X4.000 Y-89.701 F3000.0
M280 P0 S25 T150
G1 X3.000 Y-89.701 F3000.0
G1 X2.000 Y-89.701 F3000.0
G1 X1.000 Y-89.701 F3000.0
G1 X0.000 Y-89.701 F3000.0
G1 X-1.000 Y-89.701 F3000.0
G1 X-2.000 Y-89.701 F3000.0
G1 X-3.000 Y-89.701 F3000.0
G1 X-4.000 Y-89.701 F3000.0
M280 P0 S90 T250
G0 X-6.000 Y-89.701 F3000.0
M280 P0 S25 T150
G1 X-7.000 Y-89.701 F3000.0
G1 X-8.000 Y-89.701 F3000.0
M280 P0 S90 T250
G0 X-12.000 Y-89.701 F3000.0
M280 P0 S25 T150
G1 X-13.000 Y-89.701 F3000.0
G1 X-14.000 Y-89.701 F3000.0
G1 X-15.000 Y-89.701 F3000.0
G1 X-16.000 Y-89.701 F3000.0
G1 X-17.000 Y-89.701 F3000.0
G1 X-18.000 Y-89.701 F3000.0
G1 X-19.000 Y-89.701 F3000.0
G1 X-20.000 Y-89.701 F3000.0
G1 X-21.000 Y-89.701 F3000.0
G1 X-22.000 Y-89.701 F3000.0
G1 X-23.000 Y-89.701 F3000.0
G1 X-24.000 Y-89.701 F3000.0
G1 X-25.000 Y-89.701 F3000.0
G1 X-26.000 Y-89.701 F3000.0
G1 X-27.000 Y-89.701 F3000.0
G1 X-28.000 Y-89.701 F3000.0
G1 X-29.000 Y-89.701 F3000.0
G1 X-30.000 Y-89.701 F3000.0
G1 X-31.000 Y-89.701 F3000.0
G1 X-32.000 Y-89.701 F3000.0
G1 X-33.000 Y-89.701 F3000.0
G1 X-34.000 Y-89.701 F3000.0
G1 X-35.000 Y-89.701 F3000.0
G1 X-36.000 Y-89.701 F3000.0
G1 X-37.000 Y-89.701 F3000.0
G1 X-38.000 Y-89.701 F3000.0
G1 X-39.000 Y-89.701 F3000.0
G1 X-40.000 Y-89.701 F3000.0
G1 X-41.000 Y-89.701 F3000.0
G1 X-42.000 Y-89.701 F3000.0
G1 X-43.000 Y-89.701 F3000.0
G1 X-44.000 Y-89.701 F3000.0
G1 X-45.000 Y-89.701 F3000.0
G1 X-46.000 Y-89.701 F3000.0
G1 X-47.000 Y-89.701 F3000.0
G1 X-48.000 Y-89.701 F3000.0
G1 X-49.000 Y-89.701 F3000.0
G1 X-50.000 Y-89.701 F3000.0
G1 X-51.000 Y-89.701 F3000.0
G1 X-52.000 Y-89.701 F3000.0
G1 X-53.000 Y-89.701 F3000.0
G1 X-54.000 Y-89.701 F3000.0
G1 X-55.000 Y-89.701 F3000.0
G1 X-56.000 Y-89.701 F3000.0
G1 X-57.000 Y-89.701 F3000.0
G1 X-58.000 Y-89.701 F3000.0
G1 X-59.000 Y-89.701 F3000.0
G1 X-60.000 Y-89.701 F3000.0
G1 X-61.000 Y-89.701 F3000.0
G1 X-62.000 Y-89.701 F3000.0
G1 X-63.000 Y-89.701 F3000.0
G1 X-64.000 Y-89.701 F3000.0
G1 X-65.000 Y-89.701 F3000.0
G1 X-66.000 Y-89.701 F3000.0
G1 X-67.000 Y-89.701 F3000.0
G1 X-68.000 Y-89.701 F3000.0
G1 X-69.000 Y-89.701 F3000.0
G1 X-70.000 Y-89.701 F3000.0
G1 X-71.000 Y-89.701 F3000.0
G1 X-72.000 Y-89.701 F3000.0
G1 X-73.000 Y-89.701 F3000.0
M280 P0 S90 T250
G0 X-74.000 Y-88.701 F3000.0
M280 P0 S25 T150
G1 X-73.000 Y-88.701 F3000.0
G1 X-72.000 Y-88.701 F3000.0
G1 X-71.000 Y-88.701 F3000.0
G1 X-70.000 Y-88.701 F3000.0
G1 X-69.000 Y-88.701 F3000.0
G1 X-68.000 Y-88.701 F3000.0
G1 X-67.000 Y-88.701 F3000.0
G1 X-66.000 Y-88.701 F3000.0
G1 X-65.000 Y-88.701 F3000.0
G1 X-64.000 Y-88.701 F3000.0
G1 X-63.000 Y-88.701 F3000.0
G1 X-62.000 Y-88.701 F3000.0
G1 X-61.000 Y-88.701 F3000.0
G1 X-60.000 Y-88.701 F3000.0
G1 X-59.000 Y-88.701 F3000.0
G1 X-58.000 Y-88.701 F3000.0
G1 X-57.000 Y-88.701 F3000.0
G1 X-56.000 Y-88.701 F3000.0
G1 X-55.000 Y-88.701 F3000.0
G1 X-54.000 Y-88.701 F3000.0
G1 X-53.000 Y-88.701 F3000.0
G1 X-52.000 Y-88.701 F3000.0
G1 X-51.000 Y-88.701 F3000.0
G1 X-50.000 Y-88.701 F3000.0
G1 X-49.000 Y-88.701 F3000.0
G1 X-48.000 Y-88.701 F3000.0
G1 X-47.000 Y-88.701 F3000.0
G1 X-46.000 Y-88.701 F3000.0
G1 X-45.000 Y-88.701 F3000.0
G1 X-44.000 Y-88.701 F3000.0
G1 X-43.000 Y-88.701 F3000.0
G1 X-42.000 Y-88.701 F3000.0
G1 X-41.000 Y-88.701 F3000.0
G1 X-40.000 Y-88.701 F3000.0
G1 X-39.000 Y-88.701 F3000.0
G1 X-38.000 Y-88.701 F3000.0
G1 X-37.000 Y-88.701 F3000.0
G1 X-36.000 Y-88.701 F3000.0
G1 X-35.000 Y-88.701 F3000.0
G1 X-34.000 Y-88.701 F3000.0
G1 X-33.000 Y-88.701 F3000.0
G1 X-32.000 Y-88.701 F3000.0
G1 X-31.000 Y-88.701 F3000.0
G1 X-30.000 Y-88.701 F3000.0
G1 X-29.000 Y-88.701 F3000.0
G1 X-28.000 Y-88.701 F3000.0
G1 X-27.000 Y-88.701 F3000.0
G1 X-26.000 Y-88.701 F3000.0
G1 X-25.000 Y-88.701 F3000.0
G1 X-24.000 Y-88.701 F3000.0
G1 X-23.000 Y-88.701 F3000.0
G1 X-22.000 Y-88.701 F3000.0
G1 X-21.000 Y-88.701 F3000.0
G1 X-20.000 Y-88.701 F3000.0
G1 X-19.000 Y-88.701 F3000.0
G1 X-18.000 Y-88.701 F3000.0
M280 P0 S90 T250
G0 X-4.000 Y-88.701 F3000.0
M280 P0 S25 T150
G1 X-3.000 Y-88.701 F3000.0
G1 X-2.000 Y-88.701 F3000.0
G1 X-1.000 Y-88.701 F3000.0
G1 X0.000 Y-88.701 F3000.0
G1 X1.000 Y-88.701 F3000.0
G1 X2.000 Y-88.701 F3000.0
G1 X3.000 Y-88.701 F3000.0
M280 P0 S90 T250
G0 X60.000 Y-88.701 F3000.0
M280 P0 S25 T150
G1 X61.000 Y-88.701 F3000.0
M280 P0 S90 T250
G0 X61.000 Y-87.701 F3000.0
M280 P0 S25 T150
G1 X60.000 Y-87.701 F3000.0
M280 P0 S90 T250
G0 X6.000 Y-87.701 F3000.0
M280 P0 S25 T150
G1 X5.000 Y-87.701 F3000.0
G1 X4.000 Y-87.701 F3000.0
G1 X3.000 Y-87.701 F3000.0
G1 X2.000 Y-87.701 F3000.0
G1 X1.000 Y-87.701 F3000.0
G1 X0.000 Y-87.701 F3000.0
G1 X-1.000 Y-87.701 F3000.0
G1 X-2.000 Y-87.701 F3000.0
