;Generated with Makelangelo 7.52.1
;FLAVOR:Marlin-polargraph
;MINX:-102.600
;MINY:-132.525
;MAXX:102.600
;MAXY:117.772
; 2024-05-27 at 05:38:45 CDT
;Start of user gcode

;End of user gcode
G28 X Y
M280 P0 S90 T250
M0 Ready black and click
G0 X-11.400 Y-128.199 F3000.0
M280 P0 S25 T150
G1 X-12.400 Y-128.199 F3000.0
G1 X-13.400 Y-128.199 F3000.0
M280 P0 S90 T250
G0 X-12.600 Y-127.199 F3000.0
M280 P0 S25 T150
G1 X-11.600 Y-127.199 F3000.0
G1 X-10.600 Y-127.199 F3000.0
M280 P0 S90 T250
G0 X-6.600 Y-127.199 F3000.0
M280 P0 S25 T150
G1 X-5.600 Y-127.199 F3000.0
M280 P0 S90 T250
G0 X-3.400 Y-126.199 F3000.0
M280 P0 S25 T150
G1 X-4.400 Y-126.199 F3000.0
G1 X-5.400 Y-126.199 F3000.0
M280 P0 S90 T250
G0 X-36.600 Y-125.199 F3000.0
M280 P0 S25 T150
G1 X-35.600 Y-125.199 F3000.0
M280 P0 S90 T250
G0 X-4.600 Y-125.199 F3000.0
M280 P0 S25 T150
G1 X-3.600 Y-125.199 F3000.0
G1 X-2.600 Y-125.199 F3000.0
M280 P0 S90 T250
G0 X-2.400 Y-124.199 F3000.0
M280 P0 S25 T150
G1 X-3.400 Y-124.199 F3000.0
G1 X-4.400 Y-124.199 F3000.0
G1 X-5.400 Y-124.199 F3000.0
M280 P0 S90 T250
G0 X-27.400 Y-124.199 F3000.0
M280 P0 S25 T150
G1 X-28.400 Y-124.199 F3000.0
G1 X-29.400 Y-124.199 F3000.0
M280 P0 S90 T250
G0 X-30.400 Y-124.199 F3000.0
M280 P0 S25 T150
G1 X-31.400 Y-124.199 F3000.0
G1 X-32.400 Y-124.199 F3000.0
M280 P0 S90 T250
G0 X-35.400 Y-124.199 F3000.0
M280 P0 S25 T150
G1 X-36.400 Y-124.199 F3000.0
M280 P0 S90 T250
G0 X-36.600 Y-123.199 F3000.0
M280 P0 S25 T150
G1 X-35.600 Y-123.199 F3000.0
G1 X-34.600 Y-123.199 F3000.0
G1 X-33.600 Y-123.199 F3000.0
G1 X-32.600 Y-123.199 F3000.0
G1 X-31.600 Y-123.199 F3000.0
G1 X-30.600 Y-123.199 F3000.0
G1 X-29.600 Y-123.199 F3000.0
G1 X-28.600 Y-123.199 F3000.0
G1 X-27.600 Y-123.199 F3000.0
G1 X-26.600 Y-123.199 F3000.0
M280 P0 S90 T250
G0 X-4.600 Y-123.199 F3000.0
M280 P0 S25 T150
G1 X-3.600 Y-123.199 F3000.0
G1 X-2.600 Y-123.199 F3000.0
G1 X-1.600 Y-123.199 F3000.0
G1 X-0.600 Y-123.199 F3000.0
G1 X0.400 Y-123.199 F3000.0
M280 P0 S90 T250
G0 X4.600 Y-122.199 F3000.0
M280 P0 S25 T150
G1 X3.600 Y-122.199 F3000.0
M280 P0 S90 T250
G0 X1.600 Y-122.199 F3000.0
M280 P0 S25 T150
G1 X0.600 Y-122.199 F3000.0
G1 X-0.400 Y-122.199 F3000.0
G1 X-1.400 Y-122.199 F3000.0
G1 X-2.400 Y-122.199 F3000.0
M280 P0 S90 T250
G0 X-26.400 Y-122.199 F3000.0
M280 P0 S25 T150
G1 X-27.400 Y-122.199 F3000.0
G1 X-28.400 Y-122.199 F3000.0
G1 X-29.400 Y-122.199 F3000.0
G1 X-30.400 Y-122.199 F3000.0
G1 X-31.400 Y-122.199 F3000.0
G1 X-32.400 Y-122.199 F3000.0
G1 X-33.400 Y-122.199 F3000.0
G1 X-34.400 Y-122.199 F3000.0
G1 X-35.400 Y-122.199 F3000.0
G1 X-36.400 Y-122.199 F3000.0
G1 X-37.400 Y-122.199 F3000.0
M280 P0 S90 T250
G0 X-38.600 Y-121.199 F3000.0
M280 P0 S25 T150
G1 X-37.600 Y-121.199 F3000.0
G1 X-36.600 Y-121.199 F3000.0
G1 X-35.600 Y-121.199 F3000.0
G1 X-34.600 Y-121.199 F3000.0
G1 X-33.600 Y-121.199 F3000.0
G1 X-32.600 Y-121.199 F3000.0
G1 X-31.600 Y-121.199 F3000.0
G1 X-30.600 Y-121.199 F3000.0
G1 X-29.600 Y-121.199 F3000.0
G1 X-28.600 Y-121.199 F3000.0
G1 X-27.600 Y-121.199 F3000.0
G1 X-26.600 Y-121.199 F3000.0
M280 P0 S90 T250
G0 X-1.600 Y-121.199 F3000.0
M280 P0 S25 T150
G1 X-0.600 Y-121.199 F3000.0
G1 X0.400 Y-121.199 F3000.0
G1 X1.400 Y-121.199 F3000.0
G1 X2.400 Y-121.199 F3000.0
M280 P0 S90 T250
G0 X-14.400 Y-120.199 F3000.0
M280 P0 S25 T150
G1 X-15.400 Y-120.199 F3000.0
M280 P0 S90 T250
G0 X-16.400 Y-120.199 F3000.0
M280 P0 S25 T150
G1 X-17.400 Y-120.199 F3000.0
G1 X-18.400 Y-120.199 F3000.0
M280 P0 S90 T250
G0 X-30.400 Y-120.199 F3000.0
M280 P0 S25 T150
G1 X-31.400 Y-120.199 F3000.0
G1 X-32.400 Y-120.199 F3000.0
G1 X-33.400 Y-120.199 F3000.0
G1 X-34.400 Y-120.199 F3000.0
G1 X-35.400 Y-120.199 F3000.0
G1 X-36.400 Y-120.199 F3000.0
G1 X-37.400 Y-120.199 F3000.0
G1 X-38.400 Y-120.199 F3000.0
G1 X-39.400 Y-120.199 F3000.0
G1 X-40.400 Y-120.199 F3000.0
G1 X-41.400 Y-120.199 F3000.0
M280 P0 S90 T250
G0 X-42.600 Y-119.199 F3000.0
M280 P0 S25 T150
G1 X-41.600 Y-119.199 F3000.0
G1 X-40.600 Y-119.199 F3000.0
G1 X-39.600 Y-119.199 F3000.0
G1 X-38.600 Y-119.199 F3000.0
G1 X-37.600 Y-119.199 F3000.0
G1 X-36.600 Y-119.199 F3000.0
G1 X-35.600 Y-119.199 F3000.0
G1 X-34.600 Y-119.199 F3000.0
G1 X-33.600 Y-119.199 F3000.0
G1 X-32.600 Y-119.199 F3000.0
G1 X-31.600 Y-119.199 F3000.0
G1 X-30.600 Y-119.199 F3000.0
M280 P0 S90 T250
G0 X-18.600 Y-119.199 F3000.0
M280 P0 S25 T150
G1 X-17.600 Y-119.199 F3000.0
M280 P0 S90 T250
G0 X-16.600 Y-119.199 F3000.0
M280 P0 S25 T150
G1 X-15.600 Y-119.199 F3000.0
M280 P0 S90 T250
G0 X-6.600 Y-119.199 F3000.0
M280 P0 S25 T150
G1 X-5.600 Y-119.199 F3000.0
M280 P0 S90 T250
G0 X13.600 Y-118.199 F3000.0
M280 P0 S25 T150
G1 X12.600 Y-118.199 F3000.0
M280 P0 S90 T250
G0 X-5.400 Y-118.199 F3000.0
M280 P0 S25 T150
G1 X-6.400 Y-118.199 F3000.0
G1 X-7.400 Y-118.199 F3000.0
G1 X-8.400 Y-118.199 F3000.0
M280 P0 S90 T250
G0 X-31.400 Y-118.199 F3000.0
M280 P0 S25 T150
G1 X-32.400 Y-118.199 F3000.0
G1 X-33.400 Y-118.199 F3000.0
G1 X-34.400 Y-118.199 F3000.0
G1 X-35.400 Y-118.199 F3000.0
G1 X-36.400 Y-118.199 F3000.0
G1 X-37.400 Y-118.199 F3000.0
G1 X-38.400 Y-118.199 F3000.0
G1 X-39.400 Y-118.199 F3000.0
G1 X-40.400 Y-118.199 F3000.0
G1 X-41.400 Y-118.199 F3000.0
G1 X-42.400 Y-118.199 F3000.0
G1 X-43.400 Y-118.199 F3000.0
G1 X-44.400 Y-118.199 F3000.0
M280 P0 S90 T250
G0 X-43.600 Y-117.199 F3000.0
M280 P0 S25 T150
G1 X-42.600 Y-117.199 F3000.0
G1 X-41.600 Y-117.199 F3000.0
G1 X-40.600 Y-117.199 F3000.0
G1 X-39.600 Y-117.199 F3000.0
G1 X-38.600 Y-117.199 F3000.0
G1 X-37.600 Y-117.199 F3000.0
G1 X-36.600 Y-117.199 F3000.0
G1 X-35.600 Y-117.199 F3000.0
G1 X-34.600 Y-117.199 F3000.0
G1 X-33.600 Y-117.199 F3000.0
G1 X-32.600 Y-117.199 F3000.0
G1 X-31.600 Y-117.199 F3000.0
M280 P0 S90 T250
G0 X-10.600 Y-117.199 F3000.0
M280 P0 S25 T150
G1 X-9.600 Y-117.199 F3000.0
G1 X-8.600 Y-117.199 F3000.0
G1 X-7.600 Y-117.199 F3000.0
G1 X-6.600 Y-117.199 F3000.0
G1 X-5.600 Y-117.199 F3000.0
G1 X-4.600 Y-117.199 F3000.0
G1 X-3.600 Y-117.199 F3000.0
G1 X-2.600 Y-117.199 F3000.0
G1 X-1.600 Y-117.199 F3000.0
M280 P0 S90 T250
G0 X12.400 Y-117.199 F3000.0
M280 P0 S25 T150
G1 X13.400 Y-117.199 F3000.0
G1 X14.400 Y-117.199 F3000.0
G1 X15.400 Y-117.199 F3000.0
M280 P0 S90 T250
G0 X16.600 Y-116.199 F3000.0
M280 P0 S25 T150
G1 X15.600 Y-116.199 F3000.0
G1 X14.600 Y-116.199 F3000.0
G1 X13.600 Y-116.199 F3000.0
M280 P0 S90 T250
G0 X-5.400 Y-116.199 F3000.0
M280 P0 S25 T150
G1 X-6.400 Y-116.199 F3000.0
G1 X-7.400 Y-116.199 F3000.0
G1 X-8.400 Y-116.199 F3000.0
G1 X-9.400 Y-116.199 F3000.0
G1 X-10.400 Y-116.199 F3000.0
M280 P0 S90 T250
G0 X-31.400 Y-116.199 F3000.0
M280 P0 S25 T150
G1 X-32.400 Y-116.199 F3000.0
G1 X-33.400 Y-116.199 F3000.0
G1 X-34.400 Y-116.199 F3000.0
G1 X-35.400 Y-116.199 F3000.0
G1 X-36.400 Y-116.199 F3000.0
M280 P0 S90 T250
G0 X-41.400 Y-116.199 F3000.0
M280 P0 S25 T150
G1 X-42.400 Y-116.199 F3000.0
G1 X-43.400 Y-116.199 F3000.0
G1 X-44.400 Y-116.199 F3000.0
M280 P0 S90 T250
G0 X-44.600 Y-115.199 F3000.0
M280 P0 S25 T150
G1 X-43.600 Y-115.199 F3000.0
M280 P0 S90 T250
G0 X-36.600 Y-115.199 F3000.0
M280 P0 S25 T150
G1 X-35.600 Y-115.199 F3000.0
G1 X-34.600 Y-115.199 F3000.0
G1 X-33.600 Y-115.199 F3000.0
G1 X-32.600 Y-115.199 F3000.0
G1 X-31.600 Y-115.199 F3000.0
M280 P0 S90 T250
G0 X-12.600 Y-115.199 F3000.0
M280 P0 S25 T150
G1 X-11.600 Y-115.199 F3000.0
G1 X-10.600 Y-115.199 F3000.0
G1 X-9.600 Y-115.199 F3000.0
G1 X-8.600 Y-115.199 F3000.0
M280 P0 S90 T250
G0 X-7.600 Y-115.199 F3000.0
M280 P0 S25 T150
G1 X-6.600 Y-115.199 F3000.0
G1 X-5.600 Y-115.199 F3000.0
M280 P0 S90 T250
G0 X15.400 Y-115.199 F3000.0
M280 P0 S25 T150
G1 X16.400 Y-115.199 F3000.0
G1 X17.400 Y-115.199 F3000.0
G1 X18.400 Y-115.199 F3000.0
M280 P0 S90 T250
G0 X17.600 Y-114.199 F3000.0
M280 P0 S25 T150
G1 X16.600 Y-114.199 F3000.0
G1 X15.600 Y-114.199 F3000.0
G1 X14.600 Y-114.199 F3000.0
M280 P0 S90 T250
G0 X11.600 Y-114.199 F3000.0
M280 P0 S25 T150
G1 X10.600 Y-114.199 F3000.0
G1 X9.600 Y-114.199 F3000.0
M280 P0 S90 T250
G0 X-6.400 Y-114.199 F3000.0
M280 P0 S25 T150
G1 X-7.400 Y-114.199 F3000.0
G1 X-8.400 Y-114.199 F3000.0
G1 X-9.400 Y-114.199 F3000.0
G1 X-10.400 Y-114.199 F3000.0
G1 X-11.400 Y-114.199 F3000.0
M280 P0 S90 T250
G0 X-12.400 Y-114.199 F3000.0
M280 P0 S25 T150
G1 X-13.400 Y-114.199 F3000.0
M280 P0 S90 T250
G0 X-33.400 Y-114.199 F3000.0
M280 P0 S25 T150
G1 X-34.400 Y-114.199 F3000.0
G1 X-35.400 Y-114.199 F3000.0
G1 X-36.400 Y-114.199 F3000.0
G1 X-37.400 Y-114.199 F3000.0
G1 X-38.400 Y-114.199 F3000.0
G1 X-39.400 Y-114.199 F3000.0
G1 X-40.400 Y-114.199 F3000.0
G1 X-41.400 Y-114.199 F3000.0
M280 P0 S90 T250
G0 X-43.600 Y-113.199 F3000.0
M280 P0 S25 T150
G1 X-42.600 Y-113.199 F3000.0
G1 X-41.600 Y-113.199 F3000.0
G1 X-40.600 Y-113.199 F3000.0
G1 X-39.600 Y-113.199 F3000.0
G1 X-38.600 Y-113.199 F3000.0
G1 X-37.600 Y-113.199 F3000.0
G1 X-36.600 Y-113.199 F3000.0
G1 X-35.600 Y-113.199 F3000.0
G1 X-34.600 Y-113.199 F3000.0
G1 X-33.600 Y-113.199 F3000.0
M280 P0 S90 T250
G0 X-7.600 Y-113.199 F3000.0
M280 P0 S25 T150
G1 X-6.600 Y-113.199 F3000.0
M280 P0 S90 T250
G0 X10.400 Y-113.199 F3000.0
M280 P0 S25 T150
G1 X11.400 Y-113.199 F3000.0
M280 P0 S90 T250
G0 X14.400 Y-113.199 F3000.0
M280 P0 S25 T150
G1 X15.400 Y-113.199 F3000.0
G1 X16.400 Y-113.199 F3000.0
G1 X17.400 Y-113.199 F3000.0
G1 X18.400 Y-113.199 F3000.0
M280 P0 S90 T250
G0 X22.600 Y-112.199 F3000.0
M280 P0 S25 T150
G1 X21.600 Y-112.199 F3000.0
G1 X20.600 Y-112.199 F3000.0
G1 X19.600 Y-112.199 F3000.0
M280 P0 S90 T250
G0 X18.600 Y-112.199 F3000.0
M280 P0 S25 T150
G1 X17.600 Y-112.199 F3000.0
G1 X16.600 Y-112.199 F3000.0
G1 X15.600 Y-112.199 F3000.0
G1 X14.600 Y-112.199 F3000.0
G1 X13.600 Y-112.199 F3000.0
G1 X12.600 Y-112.199 F3000.0
G1 X11.600 Y-112.199 F3000.0
G1 X10.600 Y-112.199 F3000.0
G1 X9.600 Y-112.199 F3000.0
M280 P0 S90 T250
G0 X-34.400 Y-112.199 F3000.0
M280 P0 S25 T150
G1 X-35.400 Y-112.199 F3000.0
M280 P0 S90 T250
G0 X-36.400 Y-112.199 F3000.0
M280 P0 S25 T150
G1 X-37.400 Y-112.199 F3000.0
G1 X-38.400 Y-112.199 F3000.0
G1 X-39.400 Y-112.199 F3000.0
G1 X-40.400 Y-112.199 F3000.0
G1 X-41.400 Y-112.199 F3000.0
G1 X-42.400 Y-112.199 F3000.0
G1 X-43.400 Y-112.199 F3000.0
G1 X-44.400 Y-112.199 F3000.0
G1 X-45.400 Y-112.199 F3000.0
G1 X-46.400 Y-112.199 F3000.0
M280 P0 S90 T250
G0 X-47.600 Y-111.199 F3000.0
M280 P0 S25 T150
G1 X-46.600 Y-111.199 F3000.0
G1 X-45.600 Y-111.199 F3000.0
G1 X-44.600 Y-111.199 F3000.0
G1 X-43.600 Y-111.199 F3000.0
G1 X-42.600 Y-111.199 F3000.0
G1 X-41.600 Y-111.199 F3000.0
G1 X-40.600 Y-111.199 F3000.0
G1 X-39.600 Y-111.199 F3000.0
G1 X-38.600 Y-111.199 F3000.0
G1 X-37.600 Y-111.199 F3000.0
G1 X-36.600 Y-111.199 F3000.0
M280 P0 S90 T250
G0 X-15.600 Y-111.199 F3000.0
M280 P0 S25 T150
G1 X-14.600 Y-111.199 F3000.0
M280 P0 S90 T250
G0 X10.400 Y-111.199 F3000.0
M280 P0 S25 T150
G1 X11.400 Y-111.199 F3000.0
M280 P0 S90 T250
G0 X13.400 Y-111.199 F3000.0
M280 P0 S25 T150
G1 X14.400 Y-111.199 F3000.0
G1 X15.400 Y-111.199 F3000.0
G1 X16.400 Y-111.199 F3000.0
G1 X17.400 Y-111.199 F3000.0
G1 X18.400 Y-111.199 F3000.0
G1 X19.400 Y-111.199 F3000.0
M280 P0 S90 T250
G0 X20.400 Y-111.199 F3000.0
M280 P0 S25 T150
G1 X21.400 Y-111.199 F3000.0
G1 X22.400 Y-111.199 F3000.0
G1 X23.400 Y-111.199 F3000.0
G1 X24.400 Y-111.199 F3000.0
G1 X25.400 Y-111.199 F3000.0
M280 P0 S90 T250
G0 X26.600 Y-110.199 F3000.0
M280 P0 S25 T150
G1 X25.600 Y-110.199 F3000.0
G1 X24.600 Y-110.199 F3000.0
G1 X23.600 Y-110.199 F3000.0
M280 P0 S90 T250
G0 X20.600 Y-110.199 F3000.0
M280 P0 S25 T150
G1 X19.600 Y-110.199 F3000.0
M280 P0 S90 T250
G0 X18.600 Y-110.199 F3000.0
M280 P0 S25 T150
G1 X17.600 Y-110.199 F3000.0
G1 X16.600 Y-110.199 F3000.0
M280 P0 S90 T250
G0 X15.600 Y-110.199 F3000.0
M280 P0 S25 T150
G1 X14.600 Y-110.199 F3000.0
M280 P0 S90 T250
G0 X-6.400 Y-110.199 F3000.0
M280 P0 S25 T150
G1 X-7.400 Y-110.199 F3000.0
G1 X-8.400 Y-110.199 F3000.0
G1 X-9.400 Y-110.199 F3000.0
G1 X-10.400 Y-110.199 F3000.0
M280 P0 S90 T250
G0 X-38.400 Y-110.199 F3000.0
M280 P0 S25 T150
G1 X-39.400 Y-110.199 F3000.0
G1 X-40.400 Y-110.199 F3000.0
M280 P0 S90 T250
G0 X-41.400 Y-110.199 F3000.0
M280 P0 S25 T150
G1 X-42.400 Y-110.199 F3000.0
G1 X-43.400 Y-110.199 F3000.0
G1 X-44.400 Y-110.199 F3000.0
G1 X-45.400 Y-110.199 F3000.0
G1 X-46.400 Y-110.199 F3000.0
G1 X-47.400 Y-110.199 F3000.0
G1 X-48.400 Y-110.199 F3000.0
M280 P0 S90 T250
G0 X-49.400 Y-110.199 F3000.0
M280 P0 S25 T150
G1 X-50.400 Y-110.199 F3000.0
M280 P0 S90 T250
G0 X-50.600 Y-109.199 F3000.0
M280 P0 S25 T150
G1 X-49.600 Y-109.199 F3000.0
G1 X-48.600 Y-109.199 F3000.0
G1 X-47.600 Y-109.199 F3000.0
M280 P0 S90 T250
G0 X-46.600 Y-109.199 F3000.0
M280 P0 S25 T150
G1 X-45.600 Y-109.199 F3000.0
M280 P0 S90 T250
G0 X-44.600 Y-109.199 F3000.0
M280 P0 S25 T150
G1 X-43.600 Y-109.199 F3000.0
G1 X-42.600 Y-109.199 F3000.0
G1 X-41.600 Y-109.199 F3000.0
M280 P0 S90 T250
G0 X-40.600 Y-109.199 F3000.0
M280 P0 S25 T150
G1 X-39.600 Y-109.199 F3000.0
M280 P0 S90 T250
G0 X-9.600 Y-109.199 F3000.0
M280 P0 S25 T150
G1 X-8.600 Y-109.199 F3000.0
G1 X-7.600 Y-109.199 F3000.0
M280 P0 S90 T250
G0 X19.400 Y-109.199 F3000.0
M280 P0 S25 T150
G1 X20.400 Y-109.199 F3000.0
M280 P0 S90 T250
G0 X26.400 Y-109.199 F3000.0
M280 P0 S25 T150
G1 X27.400 Y-109.199 F3000.0
G1 X28.400 Y-109.199 F3000.0
G1 X29.400 Y-109.199 F3000.0
M280 P0 S90 T250
G0 X32.600 Y-108.199 F3000.0
M280 P0 S25 T150
G1 X31.600 Y-108.199 F3000.0
G1 X30.600 Y-108.199 F3000.0
G1 X29.600 Y-108.199 F3000.0
G1 X28.600 Y-108.199 F3000.0
G1 X27.600 Y-108.199 F3000.0
G1 X26.600 Y-108.199 F3000.0
G1 X25.600 Y-108.199 F3000.0
M280 P0 S90 T250
G0 X-8.400 Y-108.199 F3000.0
M280 P0 S25 T150
G1 X-9.400 Y-108.199 F3000.0
G1 X-10.400 Y-108.199 F3000.0
M280 P0 S90 T250
G0 X-40.400 Y-108.199 F3000.0
M280 P0 S25 T150
G1 X-41.400 Y-108.199 F3000.0
G1 X-42.400 Y-108.199 F3000.0
G1 X-43.400 Y-108.199 F3000.0
G1 X-44.400 Y-108.199 F3000.0
G1 X-45.400 Y-108.199 F3000.0
G1 X-46.400 Y-108.199 F3000.0
G1 X-47.400 Y-108.199 F3000.0
M280 P0 S90 T250
G0 X-49.400 Y-108.199 F3000.0
M280 P0 S25 T150
G1 X-50.400 Y-108.199 F3000.0
M280 P0 S90 T250
G0 X-47.600 Y-107.199 F3000.0
M280 P0 S25 T150
G1 X-46.600 Y-107.199 F3000.0
G1 X-45.600 Y-107.199 F3000.0
G1 X-44.600 Y-107.199 F3000.0
G1 X-43.600 Y-107.199 F3000.0
G1 X-42.600 Y-107.199 F3000.0
G1 X-41.600 Y-107.199 F3000.0
G1 X-40.600 Y-107.199 F3000.0
M280 P0 S90 T250
G0 X26.400 Y-107.199 F3000.0
M280 P0 S25 T150
G1 X27.400 Y-107.199 F3000.0
G1 X28.400 Y-107.199 F3000.0
G1 X29.400 Y-107.199 F3000.0
G1 X30.400 Y-107.199 F3000.0
G1 X31.400 Y-107.199 F3000.0
G1 X32.400 Y-107.199 F3000.0
G1 X33.400 Y-107.199 F3000.0
G1 X34.400 Y-107.199 F3000.0
M280 P0 S90 T250
G0 X33.600 Y-106.199 F3000.0
M280 P0 S25 T150
G1 X32.600 Y-106.199 F3000.0
G1 X31.600 Y-106.199 F3000.0
G1 X30.600 Y-106.199 F3000.0
G1 X29.600 Y-106.199 F3000.0
G1 X28.600 Y-106.199 F3000.0
G1 X27.600 Y-106.199 F3000.0
G1 X26.600 Y-106.199 F3000.0
G1 X25.600 Y-106.199 F3000.0
G1 X24.600 Y-106.199 F3000.0
M280 P0 S90 T250
G0 X-42.400 Y-106.199 F3000.0
M280 P0 S25 T150
G1 X-43.400 Y-106.199 F3000.0
G1 X-44.400 Y-106.199 F3000.0
G1 X-45.400 Y-106.199 F3000.0
G1 X-46.400 Y-106.199 F3000.0
G1 X-47.400 Y-106.199 F3000.0
G1 X-48.400 Y-106.199 F3000.0
G1 X-49.400 Y-106.199 F3000.0
M280 P0 S90 T250
G0 X-51.600 Y-105.199 F3000.0
M280 P0 S25 T150
G1 X-50.600 Y-105.199 F3000.0
M280 P0 S90 T250
G0 X-48.600 Y-105.199 F3000.0
M280 P0 S25 T150
G1 X-47.600 Y-105.199 F3000.0
G1 X-46.600 Y-105.199 F3000.0
G1 X-45.600 Y-105.199 F3000.0
G1 X-44.600 Y-105.199 F3000.0
G1 X-43.600 Y-105.199 F3000.0
M280 P0 S90 T250
G0 X25.400 Y-105.199 F3000.0
M280 P0 S25 T150
G1 X26.400 Y-105.199 F3000.0
G1 X27.400 Y-105.199 F3000.0
G1 X28.400 Y-105.199 F3000.0
G1 X29.400 Y-105.199 F3000.0
M280 P0 S90 T250
G0 X31.400 Y-105.199 F3000.0
M280 P0 S25 T150
G1 X32.400 Y-105.199 F3000.0
M280 P0 S90 T250
G0 X26.600 Y-104.199 F3000.0
M280 P0 S25 T150
G1 X25.600 Y-104.199 F3000.0
M280 P0 S90 T250
G0 X-45.400 Y-104.199 F3000.0
M280 P0 S25 T150
G1 X-46.400 Y-104.199 F3000.0
G1 X-47.400 Y-104.199 F3000.0
G1 X-48.400 Y-104.199 F3000.0
G1 X-49.400 Y-104.199 F3000.0
G1 X-50.400 Y-104.199 F3000.0
