%
(Header)
(Generated by gcodetools from Inkscape.)
(Using default header. To add your own header create file "header" in the output dir.)
M3
(Header end.)
G21 (All units in mm)

(Start cutting path id: path8644)
(Change tool to Default tool)

G00 Z5.000000
G00 X209.727000 Y-163.295000

G01 Z-0.125000 F100.0(Penetrate)
G01 X210.161000 Y-162.860000 Z-0.125000 F400.000000
G01 X210.652000 Y-162.545000 Z-0.125000
G01 X211.143000 Y-162.439000 Z-0.125000
G01 X211.424000 Y-162.545000 Z-0.125000
G01 X211.284000 Y-162.860000 Z-0.125000
G01 X210.148000 Y-163.996000 Z-0.125000
G01 X209.832000 Y-164.487000 Z-0.125000
G01 X209.727000 Y-164.979000 Z-0.125000
G01 X209.832000 Y-165.259000 Z-0.125000
G01 X210.148000 Y-165.119000 Z-0.125000
G01 X212.406000 Y-162.860000 Z-0.125000
G01 X212.897000 Y-162.545000 Z-0.125000
G01 X213.388000 Y-162.439000 Z-0.125000
G01 X213.669000 Y-162.545000 Z-0.125000
G01 X213.529000 Y-162.860000 Z-0.125000
G01 X210.148000 Y-166.241000 Z-0.125000
G01 X209.832000 Y-166.733000 Z-0.125000
G01 X209.727000 Y-167.224000 Z-0.125000
G01 X209.832000 Y-167.504000 Z-0.125000
G01 X210.148000 Y-167.364000 Z-0.125000
G01 X214.651000 Y-162.860000 Z-0.125000
G01 X215.142000 Y-162.545000 Z-0.125000
G01 X215.634000 Y-162.439000 Z-0.125000
G01 X215.914000 Y-162.545000 Z-0.125000
G01 X215.774000 Y-162.860000 Z-0.125000
G01 X210.148000 Y-168.486000 Z-0.125000
G01 X209.832000 Y-168.978000 Z-0.125000
G01 X209.727000 Y-169.469000 Z-0.125000
G01 X209.832000 Y-169.749000 Z-0.125000
G01 X210.148000 Y-169.609000 Z-0.125000
G01 X216.896000 Y-162.860000 Z-0.125000
G01 X217.387000 Y-162.545000 Z-0.125000
G01 X217.879000 Y-162.439000 Z-0.125000
G01 X218.159000 Y-162.545000 Z-0.125000
G01 X218.019000 Y-162.860000 Z-0.125000
G01 X210.148000 Y-170.732000 Z-0.125000
G01 X209.832000 Y-171.223000 Z-0.125000
G01 X209.727000 Y-171.714000 Z-0.125000
G01 X209.832000 Y-171.994000 Z-0.125000
G01 X210.148000 Y-171.854000 Z-0.125000
G01 X219.141000 Y-162.860000 Z-0.125000
G01 X219.633000 Y-162.545000 Z-0.125000
G01 X220.124000 Y-162.439000 Z-0.125000
G01 X220.404000 Y-162.545000 Z-0.125000
G01 X220.264000 Y-162.860000 Z-0.125000
G01 X211.181000 Y-171.944000 Z-0.125000
G01 X211.040000 Y-172.259000 Z-0.125000
G01 X211.321000 Y-172.365000 Z-0.125000
G01 X211.812000 Y-172.259000 Z-0.125000
G01 X212.303000 Y-171.944000 Z-0.125000
G01 X221.386000 Y-162.860000 Z-0.125000
G01 X221.878000 Y-162.545000 Z-0.125000
G01 X222.369000 Y-162.439000 Z-0.125000
G01 X222.649000 Y-162.545000 Z-0.125000
G01 X222.509000 Y-162.860000 Z-0.125000
G01 X213.426000 Y-171.944000 Z-0.125000
G01 X213.285000 Y-172.259000 Z-0.125000
G01 X213.566000 Y-172.365000 Z-0.125000
G01 X214.057000 Y-172.259000 Z-0.125000
G01 X214.548000 Y-171.944000 Z-0.125000
G01 X223.632000 Y-162.860000 Z-0.125000
G01 X224.123000 Y-162.545000 Z-0.125000
G01 X224.614000 Y-162.439000 Z-0.125000
G01 X224.894000 Y-162.545000 Z-0.125000
G01 X224.754000 Y-162.860000 Z-0.125000
G01 X215.671000 Y-171.944000 Z-0.125000
G01 X215.530000 Y-172.259000 Z-0.125000
G01 X215.811000 Y-172.365000 Z-0.125000
G01 X216.302000 Y-172.259000 Z-0.125000
G01 X216.793000 Y-171.944000 Z-0.125000
G01 X225.877000 Y-162.860000 Z-0.125000
G01 X226.368000 Y-162.545000 Z-0.125000
G01 X226.859000 Y-162.439000 Z-0.125000
G01 X227.139000 Y-162.545000 Z-0.125000
G01 X226.999000 Y-162.860000 Z-0.125000
G01 X217.916000 Y-171.944000 Z-0.125000
G01 X217.775000 Y-172.259000 Z-0.125000
G01 X218.056000 Y-172.365000 Z-0.125000
G01 X218.547000 Y-172.259000 Z-0.125000
G01 X219.038000 Y-171.944000 Z-0.125000
G01 X228.122000 Y-162.860000 Z-0.125000
G01 X228.613000 Y-162.545000 Z-0.125000
G01 X229.104000 Y-162.439000 Z-0.125000
G01 X229.385000 Y-162.545000 Z-0.125000
G01 X229.244000 Y-162.860000 Z-0.125000
G01 X220.161000 Y-171.944000 Z-0.125000
G01 X220.021000 Y-172.259000 Z-0.125000
G01 X220.301000 Y-172.365000 Z-0.125000
G01 X220.792000 Y-172.259000 Z-0.125000
G01 X221.283000 Y-171.944000 Z-0.125000
G01 X230.367000 Y-162.860000 Z-0.125000
G01 X230.858000 Y-162.545000 Z-0.125000
G01 X231.349000 Y-162.439000 Z-0.125000
G01 X231.630000 Y-162.545000 Z-0.125000
G01 X231.489000 Y-162.860000 Z-0.125000
G01 X222.406000 Y-171.944000 Z-0.125000
G01 X222.266000 Y-172.259000 Z-0.125000
G01 X222.546000 Y-172.365000 Z-0.125000
G01 X223.037000 Y-172.259000 Z-0.125000
G01 X223.528000 Y-171.944000 Z-0.125000
G01 X232.612000 Y-162.860000 Z-0.125000
G01 X233.103000 Y-162.545000 Z-0.125000
G01 X233.594000 Y-162.439000 Z-0.125000
G01 X233.875000 Y-162.545000 Z-0.125000
G01 X233.734000 Y-162.860000 Z-0.125000
G01 X224.651000 Y-171.944000 Z-0.125000
G01 X224.511000 Y-172.259000 Z-0.125000
G01 X224.791000 Y-172.365000 Z-0.125000
G01 X225.282000 Y-172.259000 Z-0.125000
G01 X225.774000 Y-171.944000 Z-0.125000
G01 X234.857000 Y-162.860000 Z-0.125000
G01 X235.348000 Y-162.545000 Z-0.125000
G01 X235.839000 Y-162.439000 Z-0.125000
G01 X236.120000 Y-162.545000 Z-0.125000
G01 X235.979000 Y-162.860000 Z-0.125000
G01 X226.896000 Y-171.944000 Z-0.125000
G01 X226.756000 Y-172.259000 Z-0.125000
G01 X227.036000 Y-172.365000 Z-0.125000
G01 X227.527000 Y-172.259000 Z-0.125000
G01 X228.019000 Y-171.944000 Z-0.125000
G01 X237.102000 Y-162.860000 Z-0.125000
G01 X237.593000 Y-162.545000 Z-0.125000
G01 X238.084000 Y-162.439000 Z-0.125000
G01 X238.365000 Y-162.545000 Z-0.125000
G01 X238.224000 Y-162.860000 Z-0.125000
G01 X229.141000 Y-171.944000 Z-0.125000
G01 X229.001000 Y-172.259000 Z-0.125000
G01 X229.281000 Y-172.365000 Z-0.125000
G01 X229.773000 Y-172.259000 Z-0.125000
G01 X230.264000 Y-171.944000 Z-0.125000
G01 X239.347000 Y-162.860000 Z-0.125000
G01 X239.838000 Y-162.545000 Z-0.125000
G01 X240.329000 Y-162.439000 Z-0.125000
G01 X240.610000 Y-162.545000 Z-0.125000
G01 X240.470000 Y-162.860000 Z-0.125000
G01 X231.386000 Y-171.944000 Z-0.125000
G01 X231.246000 Y-172.259000 Z-0.125000
G01 X231.526000 Y-172.365000 Z-0.125000
G01 X232.018000 Y-172.259000 Z-0.125000
G01 X232.509000 Y-171.944000 Z-0.125000
G01 X241.592000 Y-162.860000 Z-0.125000
G01 X242.083000 Y-162.545000 Z-0.125000
G01 X242.574000 Y-162.439000 Z-0.125000
G01 X242.855000 Y-162.545000 Z-0.125000
G01 X242.715000 Y-162.860000 Z-0.125000
G01 X232.605000 Y-172.970000 Z-0.125000
G01 X232.289000 Y-173.461000 Z-0.125000
G01 X232.184000 Y-173.953000 Z-0.125000
G01 X232.289000 Y-174.233000 Z-0.125000
G01 X232.605000 Y-174.093000 Z-0.125000
G01 X243.837000 Y-162.860000 Z-0.125000
G01 X244.328000 Y-162.545000 Z-0.125000
G01 X244.819000 Y-162.439000 Z-0.125000
G01 X245.100000 Y-162.545000 Z-0.125000
G01 X244.960000 Y-162.860000 Z-0.125000
G01 X232.605000 Y-175.215000 Z-0.125000
G01 X232.289000 Y-175.707000 Z-0.125000
G01 X232.184000 Y-176.198000 Z-0.125000
G01 X232.289000 Y-176.478000 Z-0.125000
G01 X232.605000 Y-176.338000 Z-0.125000
G01 X246.082000 Y-162.860000 Z-0.125000
G01 X246.573000 Y-162.545000 Z-0.125000
G01 X247.064000 Y-162.439000 Z-0.125000
G01 X247.345000 Y-162.545000 Z-0.125000
G01 X247.205000 Y-162.860000 Z-0.125000
G01 X232.605000 Y-177.460000 Z-0.125000
G01 X232.289000 Y-177.952000 Z-0.125000
G01 X232.184000 Y-178.443000 Z-0.125000
G01 X232.289000 Y-178.723000 Z-0.125000
G01 X232.605000 Y-178.583000 Z-0.125000
G01 X248.327000 Y-162.860000 Z-0.125000
G01 X248.818000 Y-162.545000 Z-0.125000
G01 X249.309000 Y-162.439000 Z-0.125000
G01 X249.590000 Y-162.545000 Z-0.125000
G01 X249.450000 Y-162.860000 Z-0.125000
G01 X232.605000 Y-179.706000 Z-0.125000
G01 X232.289000 Y-180.197000 Z-0.125000
G01 X232.184000 Y-180.688000 Z-0.125000
G01 X232.289000 Y-180.968000 Z-0.125000
G01 X232.605000 Y-180.828000 Z-0.125000
G01 X250.572000 Y-162.860000 Z-0.125000
G01 X251.063000 Y-162.545000 Z-0.125000
G01 X251.555000 Y-162.439000 Z-0.125000
G01 X251.835000 Y-162.545000 Z-0.125000
G01 X251.695000 Y-162.860000 Z-0.125000
G01 X232.605000 Y-181.951000 Z-0.125000
G01 X232.289000 Y-182.442000 Z-0.125000
G01 X232.184000 Y-182.933000 Z-0.125000
G01 X232.289000 Y-183.213000 Z-0.125000
G01 X232.605000 Y-183.073000 Z-0.125000
G01 X241.688000 Y-173.990000 Z-0.125000
G01 X242.004000 Y-173.849000 Z-0.125000
G01 X242.109000 Y-174.130000 Z-0.125000
G01 X242.004000 Y-174.621000 Z-0.125000
G01 X241.688000 Y-175.112000 Z-0.125000
G01 X232.605000 Y-184.196000 Z-0.125000
G01 X232.289000 Y-184.687000 Z-0.125000
G01 X232.184000 Y-185.178000 Z-0.125000
G01 X232.289000 Y-185.459000 Z-0.125000
G01 X232.605000 Y-185.318000 Z-0.125000
G01 X241.688000 Y-176.235000 Z-0.125000
G01 X242.004000 Y-176.094000 Z-0.125000
G01 X242.109000 Y-176.375000 Z-0.125000
G01 X242.004000 Y-176.866000 Z-0.125000
G01 X241.688000 Y-177.357000 Z-0.125000
G01 X232.605000 Y-186.441000 Z-0.125000
G01 X232.289000 Y-186.932000 Z-0.125000
G01 X232.184000 Y-187.423000 Z-0.125000
G01 X232.289000 Y-187.704000 Z-0.125000
G01 X232.605000 Y-187.563000 Z-0.125000
G01 X241.688000 Y-178.480000 Z-0.125000
G01 X242.004000 Y-178.340000 Z-0.125000
G01 X242.109000 Y-178.620000 Z-0.125000
G01 X242.004000 Y-179.111000 Z-0.125000
G01 X241.688000 Y-179.602000 Z-0.125000
G01 X232.605000 Y-188.686000 Z-0.125000
G01 X232.289000 Y-189.177000 Z-0.125000
G01 X232.184000 Y-189.668000 Z-0.125000
G01 X232.289000 Y-189.949000 Z-0.125000
G01 X232.605000 Y-189.808000 Z-0.125000
G01 X241.688000 Y-180.725000 Z-0.125000
G01 X242.004000 Y-180.585000 Z-0.125000
G01 X242.109000 Y-180.865000 Z-0.125000
G01 X242.004000 Y-181.356000 Z-0.125000
G01 X241.688000 Y-181.847000 Z-0.125000
G01 X232.605000 Y-190.931000 Z-0.125000
G01 X232.289000 Y-191.422000 Z-0.125000
G01 X232.184000 Y-191.913000 Z-0.125000
G01 X232.289000 Y-192.194000 Z-0.125000
G01 X232.605000 Y-192.053000 Z-0.125000
G01 X241.688000 Y-182.970000 Z-0.125000
G01 X242.004000 Y-182.830000 Z-0.125000
G01 X242.109000 Y-183.110000 Z-0.125000
G01 X242.004000 Y-183.601000 Z-0.125000
G01 X241.688000 Y-184.093000 Z-0.125000
G01 X232.605000 Y-193.176000 Z-0.125000
G01 X232.289000 Y-193.667000 Z-0.125000
G01 X232.184000 Y-194.158000 Z-0.125000
G01 X232.289000 Y-194.439000 Z-0.125000
G01 X232.605000 Y-194.298000 Z-0.125000
G01 X241.688000 Y-185.215000 Z-0.125000
G01 X242.004000 Y-185.075000 Z-0.125000
G01 X242.109000 Y-185.355000 Z-0.125000
G01 X242.004000 Y-185.846000 Z-0.125000
G01 X241.688000 Y-186.338000 Z-0.125000
G01 X232.605000 Y-195.421000 Z-0.125000
G01 X232.289000 Y-195.912000 Z-0.125000
G01 X232.184000 Y-196.403000 Z-0.125000
G01 X232.289000 Y-196.684000 Z-0.125000
G01 X232.605000 Y-196.544000 Z-0.125000
G01 X241.688000 Y-187.460000 Z-0.125000
G01 X242.004000 Y-187.320000 Z-0.125000
G01 X242.109000 Y-187.600000 Z-0.125000
G01 X242.004000 Y-188.092000 Z-0.125000
G01 X241.688000 Y-188.583000 Z-0.125000
G01 X232.605000 Y-197.666000 Z-0.125000
G01 X232.289000 Y-198.157000 Z-0.125000
G01 X232.184000 Y-198.648000 Z-0.125000
G01 X232.289000 Y-198.929000 Z-0.125000
G01 X232.605000 Y-198.789000 Z-0.125000
G01 X241.688000 Y-189.705000 Z-0.125000
G01 X242.004000 Y-189.565000 Z-0.125000
G01 X242.109000 Y-189.846000 Z-0.125000
G01 X242.004000 Y-190.337000 Z-0.125000
G01 X241.688000 Y-190.828000 Z-0.125000
G01 X232.605000 Y-199.911000 Z-0.125000
G01 X232.289000 Y-200.402000 Z-0.125000
G01 X232.184000 Y-200.893000 Z-0.125000
G01 X232.289000 Y-201.174000 Z-0.125000
G01 X232.605000 Y-201.034000 Z-0.125000
G01 X241.688000 Y-191.950000 Z-0.125000
G01 X242.004000 Y-191.810000 Z-0.125000
G01 X242.109000 Y-192.091000 Z-0.125000
G01 X242.004000 Y-192.582000 Z-0.125000
G01 X241.688000 Y-193.073000 Z-0.125000
G01 X232.605000 Y-202.156000 Z-0.125000
G01 X232.289000 Y-202.647000 Z-0.125000
G01 X232.184000 Y-203.138000 Z-0.125000
G01 X232.289000 Y-203.419000 Z-0.125000
G01 X232.605000 Y-203.279000 Z-0.125000
G01 X241.688000 Y-194.195000 Z-0.125000
G01 X242.004000 Y-194.055000 Z-0.125000
G01 X242.109000 Y-194.336000 Z-0.125000
G01 X242.004000 Y-194.827000 Z-0.125000
G01 X241.688000 Y-195.318000 Z-0.125000
G01 X232.605000 Y-204.401000 Z-0.125000
G01 X232.289000 Y-204.892000 Z-0.125000
G01 X232.184000 Y-205.383000 Z-0.125000
G01 X232.289000 Y-205.664000 Z-0.125000
G01 X232.605000 Y-205.524000 Z-0.125000
G01 X241.688000 Y-196.440000 Z-0.125000
G01 X242.004000 Y-196.300000 Z-0.125000
G01 X242.109000 Y-196.581000 Z-0.125000
G01 X242.004000 Y-197.072000 Z-0.125000
G01 X241.688000 Y-197.563000 Z-0.125000
G01 X232.605000 Y-206.646000 Z-0.125000
G01 X232.289000 Y-207.137000 Z-0.125000
G01 X232.184000 Y-207.629000 Z-0.125000
G01 X232.289000 Y-207.909000 Z-0.125000
G01 X232.605000 Y-207.769000 Z-0.125000
G01 X241.688000 Y-198.685000 Z-0.125000
G01 X242.004000 Y-198.545000 Z-0.125000
G01 X242.109000 Y-198.826000 Z-0.125000
G01 X242.004000 Y-199.317000 Z-0.125000
G01 X241.688000 Y-199.808000 Z-0.125000
G01 X232.605000 Y-208.891000 Z-0.125000
G01 X232.289000 Y-209.382000 Z-0.125000
G01 X232.184000 Y-209.874000 Z-0.125000
G01 X232.289000 Y-210.154000 Z-0.125000
G01 X232.605000 Y-210.014000 Z-0.125000
G01 X241.688000 Y-200.931000 Z-0.125000
G01 X242.004000 Y-200.790000 Z-0.125000
G01 X242.109000 Y-201.071000 Z-0.125000
G01 X242.004000 Y-201.562000 Z-0.125000
G01 X241.688000 Y-202.053000 Z-0.125000
G01 X232.605000 Y-211.136000 Z-0.125000
G01 X232.289000 Y-211.628000 Z-0.125000
G01 X232.184000 Y-212.119000 Z-0.125000
G01 X232.289000 Y-212.399000 Z-0.125000
G01 X232.605000 Y-212.259000 Z-0.125000
G01 X241.688000 Y-203.176000 Z-0.125000
G01 X242.004000 Y-203.035000 Z-0.125000
G01 X242.109000 Y-203.316000 Z-0.125000
G01 X242.004000 Y-203.807000 Z-0.125000
G01 X241.688000 Y-204.298000 Z-0.125000
G01 X232.605000 Y-213.381000 Z-0.125000
G01 X232.289000 Y-213.873000 Z-0.125000
G01 X232.184000 Y-214.364000 Z-0.125000
G01 X232.289000 Y-214.644000 Z-0.125000
G01 X232.605000 Y-214.504000 Z-0.125000
G01 X241.688000 Y-205.421000 Z-0.125000
G01 X242.004000 Y-205.280000 Z-0.125000
G01 X242.109000 Y-205.561000 Z-0.125000
G01 X242.004000 Y-206.052000 Z-0.125000
G01 X241.688000 Y-206.543000 Z-0.125000
G01 X232.605000 Y-215.627000 Z-0.125000
G01 X232.289000 Y-216.118000 Z-0.125000
G01 X232.184000 Y-216.609000 Z-0.125000
G01 X232.289000 Y-216.889000 Z-0.125000
G01 X232.605000 Y-216.749000 Z-0.125000
G01 X241.688000 Y-207.666000 Z-0.125000
G01 X242.004000 Y-207.525000 Z-0.125000
G01 X242.109000 Y-207.806000 Z-0.125000
G01 X242.004000 Y-208.297000 Z-0.125000
G01 X241.688000 Y-208.788000 Z-0.125000
G01 X232.605000 Y-217.872000 Z-0.125000
G01 X232.451000 Y-218.200000 Z-0.125000
G01 X232.703000 Y-218.334000 Z-0.125000
G01 X233.166000 Y-218.258000 Z-0.125000
G01 X233.644000 Y-217.955000 Z-0.125000
G01 X241.688000 Y-209.911000 Z-0.125000
G01 X242.004000 Y-209.770000 Z-0.125000
G01 X242.109000 Y-210.051000 Z-0.125000
G01 X242.004000 Y-210.542000 Z-0.125000
G01 X241.688000 Y-211.033000 Z-0.125000
G01 X234.766000 Y-217.955000 Z-0.125000
G01 X234.626000 Y-218.271000 Z-0.125000
G01 X234.907000 Y-218.376000 Z-0.125000
G01 X235.398000 Y-218.271000 Z-0.125000
G01 X235.889000 Y-217.955000 Z-0.125000
G01 X241.688000 Y-212.156000 Z-0.125000
G01 X242.004000 Y-212.016000 Z-0.125000
G01 X242.109000 Y-212.296000 Z-0.125000
G01 X242.004000 Y-212.787000 Z-0.125000
G01 X241.688000 Y-213.278000 Z-0.125000
G01 X237.011000 Y-217.955000 Z-0.125000
G01 X236.871000 Y-218.271000 Z-0.125000
G01 X237.152000 Y-218.376000 Z-0.125000
G01 X237.643000 Y-218.271000 Z-0.125000
G01 X238.134000 Y-217.955000 Z-0.125000
G01 X241.688000 Y-214.401000 Z-0.125000
G01 X242.004000 Y-214.261000 Z-0.125000
G01 X242.109000 Y-214.541000 Z-0.125000
G01 X242.004000 Y-215.032000 Z-0.125000
G01 X241.688000 Y-215.523000 Z-0.125000
G01 X239.257000 Y-217.955000 Z-0.125000
G01 X239.116000 Y-218.271000 Z-0.125000
G01 X239.397000 Y-218.376000 Z-0.125000
G01 X239.888000 Y-218.271000 Z-0.125000
G01 X240.379000 Y-217.955000 Z-0.125000
G01 X241.688000 Y-216.646000 Z-0.125000
G01 X242.004000 Y-216.506000 Z-0.125000
G01 X242.109000 Y-216.786000 Z-0.125000
G01 X242.004000 Y-217.277000 Z-0.125000
G01 X241.688000 Y-217.768000 Z-0.125000
G01 X241.081000 Y-218.376000 Z-0.125000
G00 Z5.000000

(End cutting path id: path8644)


(Start cutting path id: path8644)
(Change tool to Default tool)

G00 Z5.000000
G00 X207.964000 Y-215.975000

G01 Z-0.125000 F100.0(Penetrate)
G01 X211.679000 Y-212.261000 Z-0.125000 F400.000000
G00 Z5.000000

(End cutting path id: path8644)


(Start cutting path id: path8644)
(Change tool to Default tool)

G00 Z5.000000
G00 X209.594000 Y-172.497000

G01 Z-0.125000 F100.0(Penetrate)
G01 X232.051000 Y-172.497000 Z-0.125000 F400.000000
G01 X232.051000 Y-218.508000 Z-0.125000
G01 X242.241000 Y-218.508000 Z-0.125000
G01 X242.241000 Y-172.497000 Z-0.125000
G01 X264.737000 Y-172.497000 Z-0.125000
G01 X264.737000 Y-162.307000 Z-0.125000
G01 X209.594000 Y-162.307000 Z-0.125000
G01 X209.594000 Y-172.497000 Z-0.125000
G00 Z5.000000

(End cutting path id: path8644)


(Start cutting path id: path8644)
(Change tool to Default tool)

G00 Z5.000000
G00 X243.313000 Y-172.365000

G01 Z-0.125000 F100.0(Penetrate)
G01 X252.817000 Y-162.860000 Z-0.125000 F400.000000
G01 X253.309000 Y-162.545000 Z-0.125000
G01 X253.800000 Y-162.439000 Z-0.125000
G01 X254.080000 Y-162.545000 Z-0.125000
G01 X253.940000 Y-162.860000 Z-0.125000
G01 X244.857000 Y-171.944000 Z-0.125000
G01 X244.716000 Y-172.259000 Z-0.125000
G01 X244.997000 Y-172.365000 Z-0.125000
G01 X245.488000 Y-172.259000 Z-0.125000
G01 X245.979000 Y-171.944000 Z-0.125000
G01 X255.062000 Y-162.860000 Z-0.125000
G01 X255.554000 Y-162.545000 Z-0.125000
G01 X256.045000 Y-162.439000 Z-0.125000
G01 X256.325000 Y-162.545000 Z-0.125000
G01 X256.185000 Y-162.860000 Z-0.125000
G01 X247.102000 Y-171.944000 Z-0.125000
G01 X246.961000 Y-172.259000 Z-0.125000
G01 X247.242000 Y-172.365000 Z-0.125000
G01 X247.733000 Y-172.259000 Z-0.125000
G01 X248.224000 Y-171.944000 Z-0.125000
G01 X257.308000 Y-162.860000 Z-0.125000
G01 X257.799000 Y-162.545000 Z-0.125000
G01 X258.290000 Y-162.439000 Z-0.125000
G01 X258.570000 Y-162.545000 Z-0.125000
G01 X258.430000 Y-162.860000 Z-0.125000
G01 X249.347000 Y-171.944000 Z-0.125000
G01 X249.206000 Y-172.259000 Z-0.125000
G01 X249.487000 Y-172.365000 Z-0.125000
G01 X249.978000 Y-172.259000 Z-0.125000
G01 X250.469000 Y-171.944000 Z-0.125000
G01 X259.553000 Y-162.860000 Z-0.125000
G01 X260.044000 Y-162.545000 Z-0.125000
G01 X260.535000 Y-162.439000 Z-0.125000
G01 X260.815000 Y-162.545000 Z-0.125000
G01 X260.675000 Y-162.860000 Z-0.125000
G01 X251.592000 Y-171.944000 Z-0.125000
G01 X251.451000 Y-172.259000 Z-0.125000
G01 X251.732000 Y-172.365000 Z-0.125000
G01 X252.223000 Y-172.259000 Z-0.125000
G01 X252.714000 Y-171.944000 Z-0.125000
G01 X261.798000 Y-162.860000 Z-0.125000
G01 X262.289000 Y-162.545000 Z-0.125000
G01 X262.780000 Y-162.439000 Z-0.125000
G01 X263.061000 Y-162.545000 Z-0.125000
G01 X262.920000 Y-162.860000 Z-0.125000
G01 X253.837000 Y-171.944000 Z-0.125000
G01 X253.696000 Y-172.259000 Z-0.125000
G01 X253.977000 Y-172.365000 Z-0.125000
G01 X254.468000 Y-172.259000 Z-0.125000
G01 X254.959000 Y-171.944000 Z-0.125000
G01 X264.043000 Y-162.860000 Z-0.125000
G01 X264.381000 Y-162.698000 Z-0.125000
G01 X264.534000 Y-162.930000 Z-0.125000
G01 X264.478000 Y-163.372000 Z-0.125000
G01 X264.184000 Y-163.842000 Z-0.125000
G01 X256.082000 Y-171.944000 Z-0.125000
G01 X255.942000 Y-172.259000 Z-0.125000
G01 X256.222000 Y-172.365000 Z-0.125000
G01 X256.713000 Y-172.259000 Z-0.125000
G01 X257.204000 Y-171.944000 Z-0.125000
G01 X264.184000 Y-164.964000 Z-0.125000
G01 X264.500000 Y-164.824000 Z-0.125000
G01 X264.605000 Y-165.104000 Z-0.125000
G01 X264.500000 Y-165.595000 Z-0.125000
G01 X264.184000 Y-166.087000 Z-0.125000
G01 X258.327000 Y-171.944000 Z-0.125000
G01 X258.187000 Y-172.259000 Z-0.125000
G01 X258.467000 Y-172.365000 Z-0.125000
G01 X258.958000 Y-172.259000 Z-0.125000
G01 X259.449000 Y-171.944000 Z-0.125000
G01 X264.184000 Y-167.209000 Z-0.125000
G01 X264.500000 Y-167.069000 Z-0.125000
G01 X264.605000 Y-167.349000 Z-0.125000
G01 X264.500000 Y-167.841000 Z-0.125000
G01 X264.184000 Y-168.332000 Z-0.125000
G01 X260.572000 Y-171.944000 Z-0.125000
G01 X260.432000 Y-172.259000 Z-0.125000
G01 X260.712000 Y-172.365000 Z-0.125000
G01 X261.203000 Y-172.259000 Z-0.125000
G01 X261.695000 Y-171.944000 Z-0.125000
G01 X264.184000 Y-169.454000 Z-0.125000
G01 X264.500000 Y-169.314000 Z-0.125000
G01 X264.605000 Y-169.594000 Z-0.125000
G01 X264.500000 Y-170.086000 Z-0.125000
G01 X264.184000 Y-170.577000 Z-0.125000
G01 X262.817000 Y-171.944000 Z-0.125000
G01 X262.677000 Y-172.259000 Z-0.125000
G01 X262.957000 Y-172.365000 Z-0.125000
G01 X263.448000 Y-172.259000 Z-0.125000
G01 X263.940000 Y-171.944000 Z-0.125000
G01 X264.605000 Y-171.278000 Z-0.125000
G00 Z5.000000

(End cutting path id: path8644)


(Start cutting path id: path8644)
(Change tool to Default tool)

G00 Z5.000000
G00 X177.149000 Y-189.542000

G01 Z-0.125000 F100.0(Penetrate)
G01 X167.587000 Y-199.103000 Z-0.125000 F400.000000
G01 X167.272000 Y-199.594000 Z-0.125000
G01 X167.166000 Y-200.085000 Z-0.125000
G01 X167.272000 Y-200.366000 Z-0.125000
G01 X167.587000 Y-200.225000 Z-0.125000
G01 X176.671000 Y-191.142000 Z-0.125000
G01 X176.986000 Y-191.002000 Z-0.125000
G01 X177.092000 Y-191.282000 Z-0.125000
G01 X176.986000 Y-191.774000 Z-0.125000
G01 X176.671000 Y-192.265000 Z-0.125000
G01 X167.587000 Y-201.348000 Z-0.125000
G01 X167.272000 Y-201.839000 Z-0.125000
G01 X167.166000 Y-202.330000 Z-0.125000
G01 X167.272000 Y-202.611000 Z-0.125000
G01 X167.587000 Y-202.471000 Z-0.125000
G01 X176.671000 Y-193.387000 Z-0.125000
G01 X176.986000 Y-193.247000 Z-0.125000
G01 X177.092000 Y-193.527000 Z-0.125000
G01 X176.986000 Y-194.019000 Z-0.125000
G01 X176.671000 Y-194.510000 Z-0.125000
G01 X167.587000 Y-203.593000 Z-0.125000
G01 X167.275000 Y-204.081000 Z-0.125000
G01 X167.178000 Y-204.564000 Z-0.125000
G01 X167.291000 Y-204.836000 Z-0.125000
G01 X167.611000 Y-204.692000 Z-0.125000
G01 X176.671000 Y-195.632000 Z-0.125000
G01 X176.986000 Y-195.492000 Z-0.125000
G01 X177.092000 Y-195.773000 Z-0.125000
G01 X176.986000 Y-196.264000 Z-0.125000
G01 X176.671000 Y-196.755000 Z-0.125000
G01 X167.689000 Y-205.737000 Z-0.125000
G01 X167.395000 Y-206.206000 Z-0.125000
G01 X167.337000 Y-206.650000 Z-0.125000
G01 X167.489000 Y-206.884000 Z-0.125000
G01 X167.826000 Y-206.722000 Z-0.125000
G01 X176.671000 Y-197.877000 Z-0.125000
G01 X176.986000 Y-197.737000 Z-0.125000
G01 X177.092000 Y-198.018000 Z-0.125000
G01 X176.986000 Y-198.509000 Z-0.125000
G01 X176.671000 Y-199.000000 Z-0.125000
G01 X168.019000 Y-207.651000 Z-0.125000
G01 X167.742000 Y-208.104000 Z-0.125000
G01 X167.720000 Y-208.512000 Z-0.125000
G01 X167.909000 Y-208.709000 Z-0.125000
G01 X168.263000 Y-208.530000 Z-0.125000
G01 X176.671000 Y-200.122000 Z-0.125000
G01 X176.986000 Y-199.982000 Z-0.125000
G01 X177.092000 Y-200.263000 Z-0.125000
G01 X176.986000 Y-200.754000 Z-0.125000
G01 X176.671000 Y-201.245000 Z-0.125000
G01 X168.557000 Y-209.359000 Z-0.125000
G01 X168.293000 Y-209.798000 Z-0.125000
G01 X168.302000 Y-210.175000 Z-0.125000
G01 X168.521000 Y-210.342000 Z-0.125000
G01 X168.888000 Y-210.150000 Z-0.125000
G01 X176.671000 Y-202.367000 Z-0.125000
G01 X176.986000 Y-202.227000 Z-0.125000
G01 X177.092000 Y-202.508000 Z-0.125000
G01 X176.986000 Y-202.999000 Z-0.125000
G01 X176.671000 Y-203.490000 Z-0.125000
G01 X169.256000 Y-210.905000 Z-0.125000
G01 X169.004000 Y-211.332000 Z-0.125000
G01 X169.039000 Y-211.683000 Z-0.125000
G01 X169.284000 Y-211.824000 Z-0.125000
G01 X169.664000 Y-211.619000 Z-0.125000
G01 X176.671000 Y-204.612000 Z-0.125000
G01 X176.999000 Y-204.459000 Z-0.125000
G01 X177.133000 Y-204.711000 Z-0.125000
G01 X177.057000 Y-205.174000 Z-0.125000
G01 X176.754000 Y-205.652000 Z-0.125000
G01 X170.111000 Y-212.295000 Z-0.125000
G01 X169.872000 Y-212.710000 Z-0.125000
G01 X169.934000 Y-213.033000 Z-0.125000
G01 X170.207000 Y-213.146000 Z-0.125000
G01 X170.599000 Y-212.930000 Z-0.125000
G01 X176.976000 Y-206.552000 Z-0.125000
G01 X177.351000 Y-206.353000 Z-0.125000
G01 X177.584000 Y-206.505000 Z-0.125000
G01 X177.608000 Y-206.868000 Z-0.125000
G01 X177.350000 Y-207.300000 Z-0.125000
G01 X171.122000 Y-213.529000 Z-0.125000
G01 X170.894000 Y-213.932000 Z-0.125000
G01 X170.981000 Y-214.231000 Z-0.125000
G01 X171.279000 Y-214.319000 Z-0.125000
G01 X171.683000 Y-214.091000 Z-0.125000
G01 X177.865000 Y-207.908000 Z-0.125000
G01 X178.284000 Y-207.664000 Z-0.125000
G01 X178.617000 Y-207.718000 Z-0.125000
G01 X178.739000 Y-207.981000 Z-0.125000
G01 X178.527000 Y-208.369000 Z-0.125000
G01 X172.279000 Y-214.617000 Z-0.125000
G01 X172.063000 Y-215.008000 Z-0.125000
G01 X172.177000 Y-215.281000 Z-0.125000
G01 X172.501000 Y-215.342000 Z-0.125000
G01 X172.916000 Y-215.102000 Z-0.125000
G01 X179.336000 Y-208.682000 Z-0.125000
G01 X179.806000 Y-208.388000 Z-0.125000
G01 X180.250000 Y-208.329000 Z-0.125000
G01 X180.484000 Y-208.481000 Z-0.125000
G01 X180.323000 Y-208.818000 Z-0.125000
G01 X173.588000 Y-215.553000 Z-0.125000
G01 X173.382000 Y-215.934000 Z-0.125000
G01 X173.519000 Y-216.183000 Z-0.125000
G01 X173.867000 Y-216.221000 Z-0.125000
G01 X174.292000 Y-215.971000 Z-0.125000
G01 X181.392000 Y-208.872000 Z-0.125000
G01 X181.883000 Y-208.556000 Z-0.125000
G01 X182.374000 Y-208.451000 Z-0.125000
G01 X182.655000 Y-208.556000 Z-0.125000
G01 X182.514000 Y-208.872000 Z-0.125000
G01 X175.030000 Y-216.356000 Z-0.125000
G01 X174.835000 Y-216.726000 Z-0.125000
G01 X174.995000 Y-216.952000 Z-0.125000
G01 X175.365000 Y-216.968000 Z-0.125000
G01 X175.802000 Y-216.707000 Z-0.125000
G01 X183.637000 Y-208.872000 Z-0.125000
G01 X184.128000 Y-208.556000 Z-0.125000
G01 X184.619000 Y-208.451000 Z-0.125000
G01 X184.900000 Y-208.556000 Z-0.125000
G01 X184.760000 Y-208.872000 Z-0.125000
G01 X176.604000 Y-217.027000 Z-0.125000
G01 X176.420000 Y-217.387000 Z-0.125000
G01 X176.603000 Y-217.589000 Z-0.125000
G01 X176.997000 Y-217.581000 Z-0.125000
G01 X177.444000 Y-217.310000 Z-0.125000
G01 X185.882000 Y-208.872000 Z-0.125000
G01 X186.373000 Y-208.556000 Z-0.125000
G01 X186.864000 Y-208.451000 Z-0.125000
G01 X187.145000 Y-208.556000 Z-0.125000
G01 X187.005000 Y-208.872000 Z-0.125000
G01 X178.325000 Y-217.552000 Z-0.125000
G01 X178.155000 Y-217.896000 Z-0.125000
G01 X178.371000 Y-218.066000 Z-0.125000
G01 X178.798000 Y-218.025000 Z-0.125000
G01 X179.260000 Y-217.739000 Z-0.125000
G01 X188.127000 Y-208.872000 Z-0.125000
G01 X188.618000 Y-208.556000 Z-0.125000
G01 X189.109000 Y-208.451000 Z-0.125000
G01 X189.390000 Y-208.556000 Z-0.125000
G01 X189.250000 Y-208.872000 Z-0.125000
G01 X180.248000 Y-217.873000 Z-0.125000
G01 X180.096000 Y-218.200000 Z-0.125000
G01 X180.352000 Y-218.331000 Z-0.125000
G01 X180.818000 Y-218.250000 Z-0.125000
G01 X181.298000 Y-217.946000 Z-0.125000
G01 X190.372000 Y-208.872000 Z-0.125000
G01 X190.863000 Y-208.556000 Z-0.125000
G01 X191.354000 Y-208.451000 Z-0.125000
G01 X191.635000 Y-208.556000 Z-0.125000
G01 X191.495000 Y-208.872000 Z-0.125000
G01 X182.411000 Y-217.955000 Z-0.125000
G01 X182.271000 Y-218.271000 Z-0.125000
G01 X182.552000 Y-218.376000 Z-0.125000
G01 X183.043000 Y-218.271000 Z-0.125000
G01 X183.534000 Y-217.955000 Z-0.125000
G01 X192.617000 Y-208.872000 Z-0.125000
G01 X193.108000 Y-208.556000 Z-0.125000
G01 X193.599000 Y-208.451000 Z-0.125000
G01 X193.880000 Y-208.556000 Z-0.125000
G01 X193.740000 Y-208.872000 Z-0.125000
G01 X184.656000 Y-217.955000 Z-0.125000
G01 X184.516000 Y-218.271000 Z-0.125000
G01 X184.797000 Y-218.376000 Z-0.125000
G01 X185.288000 Y-218.271000 Z-0.125000
G01 X185.779000 Y-217.955000 Z-0.125000
G01 X194.862000 Y-208.872000 Z-0.125000
G01 X195.353000 Y-208.556000 Z-0.125000
G01 X195.845000 Y-208.451000 Z-0.125000
G01 X196.125000 Y-208.556000 Z-0.125000
G01 X195.985000 Y-208.872000 Z-0.125000
G01 X186.901000 Y-217.955000 Z-0.125000
G01 X186.761000 Y-218.271000 Z-0.125000
G01 X187.042000 Y-218.376000 Z-0.125000
G01 X187.533000 Y-218.271000 Z-0.125000
G01 X188.024000 Y-217.955000 Z-0.125000
G01 X197.107000 Y-208.872000 Z-0.125000
G01 X197.598000 Y-208.556000 Z-0.125000
G01 X198.090000 Y-208.451000 Z-0.125000
G01 X198.370000 Y-208.556000 Z-0.125000
G01 X198.230000 Y-208.872000 Z-0.125000
G01 X189.147000 Y-217.955000 Z-0.125000
G01 X189.006000 Y-218.271000 Z-0.125000
G01 X189.287000 Y-218.376000 Z-0.125000
G01 X189.778000 Y-218.271000 Z-0.125000
G01 X190.269000 Y-217.955000 Z-0.125000
G01 X199.383000 Y-208.841000 Z-0.125000
G01 X199.893000 Y-208.507000 Z-0.125000
G01 X200.424000 Y-208.362000 Z-0.125000
G01 X200.744000 Y-208.427000 Z-0.125000
G01 X200.622000 Y-208.724000 Z-0.125000
G01 X191.392000 Y-217.955000 Z-0.125000
G01 X191.251000 Y-218.271000 Z-0.125000
G01 X191.532000 Y-218.376000 Z-0.125000
G01 X192.023000 Y-218.271000 Z-0.125000
G01 X192.514000 Y-217.955000 Z-0.125000
G01 X213.433000 Y-197.036000 Z-0.125000
G01 X213.748000 Y-196.896000 Z-0.125000
G01 X213.854000 Y-197.177000 Z-0.125000
G01 X213.748000 Y-197.668000 Z-0.125000
G01 X213.433000 Y-198.159000 Z-0.125000
G01 X193.637000 Y-217.955000 Z-0.125000
G01 X193.496000 Y-218.271000 Z-0.125000
G01 X193.777000 Y-218.376000 Z-0.125000
G01 X194.268000 Y-218.271000 Z-0.125000
G01 X194.759000 Y-217.955000 Z-0.125000
G01 X213.433000 Y-199.281000 Z-0.125000
G01 X213.748000 Y-199.141000 Z-0.125000
G01 X213.854000 Y-199.422000 Z-0.125000
G01 X213.748000 Y-199.913000 Z-0.125000
G01 X213.433000 Y-200.404000 Z-0.125000
G01 X195.882000 Y-217.955000 Z-0.125000
G01 X195.741000 Y-218.271000 Z-0.125000
G01 X196.022000 Y-218.376000 Z-0.125000
G01 X196.513000 Y-218.271000 Z-0.125000
G01 X197.004000 Y-217.955000 Z-0.125000
G01 X213.433000 Y-201.527000 Z-0.125000
G01 X213.748000 Y-201.386000 Z-0.125000
G01 X213.854000 Y-201.667000 Z-0.125000
G01 X213.748000 Y-202.158000 Z-0.125000
G01 X213.433000 Y-202.649000 Z-0.125000
G01 X198.127000 Y-217.955000 Z-0.125000
G01 X197.986000 Y-218.271000 Z-0.125000
G01 X198.267000 Y-218.376000 Z-0.125000
G01 X198.758000 Y-218.271000 Z-0.125000
G01 X199.249000 Y-217.955000 Z-0.125000
G01 X213.433000 Y-203.772000 Z-0.125000
G01 X213.748000 Y-203.632000 Z-0.125000
G01 X213.852000 Y-203.913000 Z-0.125000
G01 X213.746000 Y-204.406000 Z-0.125000
G01 X213.430000 Y-204.897000 Z-0.125000
G01 X200.377000 Y-217.950000 Z-0.125000
G01 X200.249000 Y-218.253000 Z-0.125000
G01 X200.557000 Y-218.331000 Z-0.125000
G01 X201.075000 Y-218.199000 Z-0.125000
G01 X201.579000 Y-217.871000 Z-0.125000
G01 X213.383000 Y-206.067000 Z-0.125000
G01 X213.677000 Y-205.948000 Z-0.125000
G01 X213.735000 Y-206.275000 Z-0.125000
G01 X213.583000 Y-206.813000 Z-0.125000
G01 X213.246000 Y-207.326000 Z-0.125000
G01 X202.903000 Y-217.668000 Z-0.125000
G01 X202.819000 Y-217.929000 Z-0.125000
G01 X203.221000 Y-217.912000 Z-0.125000
G01 X203.835000 Y-217.684000 Z-0.125000
G01 X204.381000 Y-217.313000 Z-0.125000
G01 X212.977000 Y-208.717000 Z-0.125000
G01 X213.218000 Y-208.652000 Z-0.125000
G01 X213.158000 Y-209.098000 Z-0.125000
G01 X212.888000 Y-209.754000 Z-0.125000
G01 X212.497000 Y-210.320000 Z-0.125000
G01 X205.634000 Y-217.183000 Z-0.125000
G00 Z5.000000

(End cutting path id: path8644)


(Start cutting path id: path8644)
(Change tool to Default tool)

G00 Z5.000000
G00 X177.224000 Y-190.486000

G01 Z-0.125000 F100.0(Penetrate)
G01 X177.290000 Y-189.496000 Z-0.125000 F400.000000
G01 X177.489000 Y-188.644000 Z-0.125000
G01 X177.819000 Y-187.929000 Z-0.125000
G01 X178.282000 Y-187.351000 Z-0.125000
G01 X178.870000 Y-186.905000 Z-0.125000
G01 X179.576000 Y-186.586000 Z-0.125000
G01 X181.339000 Y-186.332000 Z-0.125000
G01 X199.642000 Y-186.332000 Z-0.125000
G01 X201.435000 Y-186.596000 Z-0.125000
G01 X202.148000 Y-186.927000 Z-0.125000
G01 X202.738000 Y-187.390000 Z-0.125000
G01 X203.201000 Y-187.961000 Z-0.125000
G01 X203.532000 Y-188.654000 Z-0.125000
G01 X203.796000 Y-190.408000 Z-0.125000
G01 X203.796000 Y-204.203000 Z-0.125000
G01 X203.532000 Y-205.967000 Z-0.125000
G01 X203.201000 Y-206.672000 Z-0.125000
G01 X202.738000 Y-207.260000 Z-0.125000
G01 X202.148000 Y-207.723000 Z-0.125000
G01 X201.435000 Y-208.054000 Z-0.125000
G01 X199.642000 Y-208.318000 Z-0.125000
G01 X181.339000 Y-208.318000 Z-0.125000
G01 X179.527000 Y-208.054000 Z-0.125000
G01 X178.819000 Y-207.723000 Z-0.125000
G01 X178.243000 Y-207.260000 Z-0.125000
G01 X177.797000 Y-206.672000 Z-0.125000
G01 X177.479000 Y-205.967000 Z-0.125000
G01 X177.224000 Y-204.203000 Z-0.125000
G01 X177.224000 Y-190.486000 Z-0.125000
G00 Z5.000000

(End cutting path id: path8644)


(Start cutting path id: path8644)
(Change tool to Default tool)

G00 Z5.000000
G00 X169.182000 Y-182.915000

G01 Z-0.125000 F100.0(Penetrate)
G01 X173.835000 Y-178.262000 Z-0.125000 F400.000000
G01 X175.207000 Y-177.452000 Z-0.125000
G01 X175.755000 Y-177.290000 Z-0.125000
G01 X175.838000 Y-177.333000 Z-0.125000
G01 X175.736000 Y-177.484000 Z-0.125000
G01 X168.582000 Y-184.638000 Z-0.125000
G01 X168.194000 Y-185.201000 Z-0.125000
G01 X167.930000 Y-185.852000 Z-0.125000
G01 X167.876000 Y-186.291000 Z-0.125000
G01 X168.119000 Y-186.223000 Z-0.125000
G01 X177.292000 Y-177.050000 Z-0.125000
G01 X177.818000 Y-176.700000 Z-0.125000
G01 X178.386000 Y-176.518000 Z-0.125000
G01 X178.743000 Y-176.547000 Z-0.125000
G01 X178.638000 Y-176.828000 Z-0.125000
G01 X167.792000 Y-187.673000 Z-0.125000
G01 X167.451000 Y-188.189000 Z-0.125000
G01 X167.291000 Y-188.735000 Z-0.125000
G01 X167.342000 Y-189.071000 Z-0.125000
G01 X167.632000 Y-188.955000 Z-0.125000
G01 X179.877000 Y-176.710000 Z-0.125000
G01 X180.371000 Y-176.392000 Z-0.125000
G01 X180.867000 Y-176.282000 Z-0.125000
G01 X181.153000 Y-176.382000 Z-0.125000
G01 X181.015000 Y-176.695000 Z-0.125000
G01 X167.588000 Y-190.123000 Z-0.125000
G01 X167.272000 Y-190.614000 Z-0.125000
G01 X167.167000 Y-191.105000 Z-0.125000
G01 X167.272000 Y-191.385000 Z-0.125000
G01 X167.588000 Y-191.245000 Z-0.125000
G01 X182.138000 Y-176.695000 Z-0.125000
G01 X182.629000 Y-176.379000 Z-0.125000
G01 X183.120000 Y-176.274000 Z-0.125000
G01 X183.401000 Y-176.379000 Z-0.125000
G01 X183.260000 Y-176.695000 Z-0.125000
G01 X167.588000 Y-192.368000 Z-0.125000
G01 X167.272000 Y-192.859000 Z-0.125000
G01 X167.167000 Y-193.350000 Z-0.125000
G01 X167.272000 Y-193.631000 Z-0.125000
G01 X167.588000 Y-193.490000 Z-0.125000
G01 X184.383000 Y-176.695000 Z-0.125000
G01 X184.874000 Y-176.379000 Z-0.125000
G01 X185.365000 Y-176.274000 Z-0.125000
G01 X185.646000 Y-176.379000 Z-0.125000
G01 X185.505000 Y-176.695000 Z-0.125000
G01 X167.588000 Y-194.613000 Z-0.125000
G01 X167.272000 Y-195.104000 Z-0.125000
G01 X167.167000 Y-195.595000 Z-0.125000
G01 X167.272000 Y-195.876000 Z-0.125000
G01 X167.588000 Y-195.735000 Z-0.125000
G01 X186.628000 Y-176.695000 Z-0.125000
G01 X187.119000 Y-176.379000 Z-0.125000
G01 X187.610000 Y-176.274000 Z-0.125000
G01 X187.891000 Y-176.379000 Z-0.125000
G01 X187.750000 Y-176.695000 Z-0.125000
G01 X167.588000 Y-196.858000 Z-0.125000
G01 X167.272000 Y-197.349000 Z-0.125000
G01 X167.167000 Y-197.840000 Z-0.125000
G01 X167.272000 Y-198.121000 Z-0.125000
G01 X167.588000 Y-197.980000 Z-0.125000
G01 X188.873000 Y-176.695000 Z-0.125000
G01 X189.364000 Y-176.379000 Z-0.125000
G01 X189.855000 Y-176.274000 Z-0.125000
G01 X190.136000 Y-176.379000 Z-0.125000
G01 X189.995000 Y-176.695000 Z-0.125000
G01 X180.856000 Y-185.834000 Z-0.125000
G01 X180.725000 Y-186.141000 Z-0.125000
G01 X181.025000 Y-186.227000 Z-0.125000
G01 X181.535000 Y-186.103000 Z-0.125000
G01 X182.035000 Y-185.778000 Z-0.125000
G01 X191.118000 Y-176.695000 Z-0.125000
G01 X191.609000 Y-176.379000 Z-0.125000
G01 X192.100000 Y-176.274000 Z-0.125000
G01 X192.381000 Y-176.379000 Z-0.125000
G01 X192.241000 Y-176.695000 Z-0.125000
G01 X183.157000 Y-185.778000 Z-0.125000
G01 X183.017000 Y-186.094000 Z-0.125000
G01 X183.297000 Y-186.199000 Z-0.125000
G01 X183.789000 Y-186.094000 Z-0.125000
G01 X184.280000 Y-185.778000 Z-0.125000
G01 X193.363000 Y-176.695000 Z-0.125000
G01 X193.854000 Y-176.379000 Z-0.125000
G01 X194.345000 Y-176.274000 Z-0.125000
G01 X194.626000 Y-176.379000 Z-0.125000
G01 X194.486000 Y-176.695000 Z-0.125000
G01 X185.402000 Y-185.778000 Z-0.125000
G01 X185.262000 Y-186.094000 Z-0.125000
G01 X185.543000 Y-186.199000 Z-0.125000
G01 X186.034000 Y-186.094000 Z-0.125000
G01 X186.525000 Y-185.778000 Z-0.125000
G01 X195.608000 Y-176.695000 Z-0.125000
G01 X196.099000 Y-176.379000 Z-0.125000
G01 X196.590000 Y-176.274000 Z-0.125000
G01 X196.871000 Y-176.379000 Z-0.125000
G01 X196.731000 Y-176.695000 Z-0.125000
G01 X187.647000 Y-185.778000 Z-0.125000
G01 X187.507000 Y-186.094000 Z-0.125000
G01 X187.788000 Y-186.199000 Z-0.125000
G01 X188.279000 Y-186.094000 Z-0.125000
G01 X188.770000 Y-185.778000 Z-0.125000
G01 X197.853000 Y-176.695000 Z-0.125000
G01 X198.344000 Y-176.379000 Z-0.125000
G01 X198.835000 Y-176.274000 Z-0.125000
G01 X199.116000 Y-176.379000 Z-0.125000
G01 X198.976000 Y-176.695000 Z-0.125000
G01 X189.892000 Y-185.778000 Z-0.125000
G01 X189.752000 Y-186.094000 Z-0.125000
G01 X190.033000 Y-186.199000 Z-0.125000
G01 X190.524000 Y-186.094000 Z-0.125000
G01 X191.015000 Y-185.778000 Z-0.125000
G01 X200.071000 Y-176.722000 Z-0.125000
G01 X200.547000 Y-176.422000 Z-0.125000
G01 X201.003000 Y-176.351000 Z-0.125000
G01 X201.249000 Y-176.491000 Z-0.125000
G01 X201.093000 Y-176.823000 Z-0.125000
G01 X192.137000 Y-185.778000 Z-0.125000
G01 X191.997000 Y-186.094000 Z-0.125000
G01 X192.278000 Y-186.199000 Z-0.125000
G01 X192.769000 Y-186.094000 Z-0.125000
G01 X193.260000 Y-185.778000 Z-0.125000
G01 X202.058000 Y-176.980000 Z-0.125000
G01 X202.517000 Y-176.697000 Z-0.125000
G01 X202.937000 Y-176.663000 Z-0.125000
G01 X203.146000 Y-176.839000 Z-0.125000
G01 X202.974000 Y-177.187000 Z-0.125000
G01 X194.383000 Y-185.778000 Z-0.125000
G01 X194.242000 Y-186.094000 Z-0.125000
G01 X194.523000 Y-186.199000 Z-0.125000
G01 X195.014000 Y-186.094000 Z-0.125000
G01 X195.505000 Y-185.778000 Z-0.125000
G01 X203.858000 Y-177.425000 Z-0.125000
G01 X204.305000 Y-177.154000 Z-0.125000
G01 X204.700000 Y-177.145000 Z-0.125000
G01 X204.884000 Y-177.347000 Z-0.125000
G01 X204.700000 Y-177.706000 Z-0.125000
G01 X196.628000 Y-185.778000 Z-0.125000
G01 X196.487000 Y-186.094000 Z-0.125000
G01 X196.768000 Y-186.199000 Z-0.125000
G01 X197.259000 Y-186.094000 Z-0.125000
G01 X197.750000 Y-185.778000 Z-0.125000
G01 X205.497000 Y-178.032000 Z-0.125000
G01 X205.931000 Y-177.773000 Z-0.125000
G01 X206.296000 Y-177.794000 Z-0.125000
G01 X206.451000 Y-178.025000 Z-0.125000
G01 X206.253000 Y-178.398000 Z-0.125000
G01 X198.873000 Y-185.778000 Z-0.125000
G01 X198.732000 Y-186.094000 Z-0.125000
G01 X199.013000 Y-186.199000 Z-0.125000
G01 X199.504000 Y-186.094000 Z-0.125000
G01 X199.995000 Y-185.778000 Z-0.125000
G01 X206.969000 Y-178.805000 Z-0.125000
G01 X207.391000 Y-178.558000 Z-0.125000
G01 X207.730000 Y-178.605000 Z-0.125000
G01 X207.858000 Y-178.863000 Z-0.125000
G01 X207.648000 Y-179.248000 Z-0.125000
G01 X201.049000 Y-185.847000 Z-0.125000
G01 X200.874000 Y-186.198000 Z-0.125000
G01 X201.077000 Y-186.380000 Z-0.125000
G01 X201.491000 Y-186.352000 Z-0.125000
G01 X201.947000 Y-186.072000 Z-0.125000
G01 X208.297000 Y-179.721000 Z-0.125000
G01 X208.710000 Y-179.484000 Z-0.125000
G01 X209.028000 Y-179.552000 Z-0.125000
G01 X209.136000 Y-179.830000 Z-0.125000
G01 X208.917000 Y-180.225000 Z-0.125000
G01 X202.705000 Y-186.437000 Z-0.125000
G01 X202.485000 Y-186.832000 Z-0.125000
G01 X202.591000 Y-187.111000 Z-0.125000
G01 X202.908000 Y-187.180000 Z-0.125000
G01 X203.320000 Y-186.944000 Z-0.125000
G01 X209.498000 Y-180.766000 Z-0.125000
G01 X209.898000 Y-180.541000 Z-0.125000
G01 X210.191000 Y-180.634000 Z-0.125000
G01 X210.272000 Y-180.939000 Z-0.125000
G01 X210.042000 Y-181.345000 Z-0.125000
G01 X203.802000 Y-187.584000 Z-0.125000
G01 X203.538000 Y-188.023000 Z-0.125000
G01 X203.549000 Y-188.399000 Z-0.125000
G01 X203.769000 Y-188.564000 Z-0.125000
G01 X204.137000 Y-188.372000 Z-0.125000
G01 X210.551000 Y-181.958000 Z-0.125000
G01 X210.941000 Y-181.743000 Z-0.125000
G01 X211.210000 Y-181.860000 Z-0.125000
G01 X211.269000 Y-182.187000 Z-0.125000
G01 X211.028000 Y-182.604000 Z-0.125000
G01 X204.317000 Y-189.315000 Z-0.125000
G01 X204.006000 Y-189.801000 Z-0.125000
G01 X203.912000 Y-190.280000 Z-0.125000
G01 X204.029000 Y-190.550000 Z-0.125000
G01 X204.349000 Y-190.404000 Z-0.125000
G01 X211.473000 Y-183.281000 Z-0.125000
G01 X211.853000 Y-183.076000 Z-0.125000
G01 X212.101000 Y-183.214000 Z-0.125000
G01 X212.138000 Y-183.563000 Z-0.125000
G01 X211.887000 Y-183.990000 Z-0.125000
G01 X204.349000 Y-191.527000 Z-0.125000
G01 X204.034000 Y-192.018000 Z-0.125000
G01 X203.929000 Y-192.509000 Z-0.125000
G01 X204.034000 Y-192.790000 Z-0.125000
G01 X204.349000 Y-192.649000 Z-0.125000
G01 X212.264000 Y-184.734000 Z-0.125000
G01 X212.631000 Y-184.543000 Z-0.125000
G01 X212.849000 Y-184.711000 Z-0.125000
G01 X212.856000 Y-185.090000 Z-0.125000
G01 X212.592000 Y-185.529000 Z-0.125000
G01 X204.349000 Y-193.772000 Z-0.125000
G01 X204.034000 Y-194.263000 Z-0.125000
G01 X203.929000 Y-194.754000 Z-0.125000
G01 X204.034000 Y-195.035000 Z-0.125000
G01 X204.349000 Y-194.894000 Z-0.125000
G01 X212.868000 Y-186.376000 Z-0.125000
G01 X213.218000 Y-186.201000 Z-0.125000
G01 X213.400000 Y-186.405000 Z-0.125000
G01 X213.372000 Y-186.819000 Z-0.125000
G01 X213.091000 Y-187.275000 Z-0.125000
G01 X204.349000 Y-196.017000 Z-0.125000
G01 X204.034000 Y-196.508000 Z-0.125000
G01 X203.929000 Y-196.999000 Z-0.125000
G01 X204.034000 Y-197.280000 Z-0.125000
G01 X204.349000 Y-197.140000 Z-0.125000
G01 X213.257000 Y-188.232000 Z-0.125000
G01 X213.590000 Y-188.074000 Z-0.125000
G01 X213.734000 Y-188.316000 Z-0.125000
G01 X213.668000 Y-188.769000 Z-0.125000
G01 X213.369000 Y-189.242000 Z-0.125000
G01 X204.349000 Y-198.262000 Z-0.125000
G01 X204.034000 Y-198.753000 Z-0.125000
G01 X203.929000 Y-199.244000 Z-0.125000
G01 X204.034000 Y-199.525000 Z-0.125000
G01 X204.349000 Y-199.385000 Z-0.125000
G01 X213.426000 Y-190.308000 Z-0.125000
G01 X213.743000 Y-190.167000 Z-0.125000
G01 X213.850000 Y-190.445000 Z-0.125000
G01 X213.748000 Y-190.934000 Z-0.125000
G01 X213.433000 Y-191.424000 Z-0.125000
G01 X204.350000 Y-200.507000 Z-0.125000
G01 X204.034000 Y-200.998000 Z-0.125000
G01 X203.929000 Y-201.489000 Z-0.125000
G01 X204.034000 Y-201.770000 Z-0.125000
G01 X204.350000 Y-201.630000 Z-0.125000
G01 X213.433000 Y-192.546000 Z-0.125000
G01 X213.749000 Y-192.406000 Z-0.125000
G01 X213.854000 Y-192.687000 Z-0.125000
G01 X213.749000 Y-193.178000 Z-0.125000
G01 X213.433000 Y-193.669000 Z-0.125000
G01 X204.350000 Y-202.752000 Z-0.125000
G01 X204.034000 Y-203.244000 Z-0.125000
G01 X203.928000 Y-203.735000 Z-0.125000
G01 X204.032000 Y-204.016000 Z-0.125000
G01 X204.348000 Y-203.876000 Z-0.125000
G01 X213.433000 Y-194.791000 Z-0.125000
G01 X213.748000 Y-194.651000 Z-0.125000
G01 X213.854000 Y-194.932000 Z-0.125000
G01 X213.748000 Y-195.423000 Z-0.125000
G01 X213.433000 Y-195.914000 Z-0.125000
G01 X203.787000 Y-205.560000 Z-0.125000
G00 Z5.000000

(End cutting path id: path8644)


(Start cutting path id: path8644)
(Change tool to Default tool)

G00 Z5.000000
G00 X167.034000 Y-204.203000

G01 Z-0.125000 F100.0(Penetrate)
G01 X167.201000 Y-206.702000 Z-0.125000 F400.000000
G01 X167.700000 Y-208.945000 Z-0.125000
G01 X168.474000 Y-210.905000 Z-0.125000
G01 X169.464000 Y-212.629000 Z-0.125000
G01 X170.650000 Y-214.089000 Z-0.125000
G01 X172.012000 Y-215.334000 Z-0.125000
G01 X173.501000 Y-216.333000 Z-0.125000
G01 X175.068000 Y-217.136000 Z-0.125000
G01 X176.656000 Y-217.754000 Z-0.125000
G01 X178.282000 Y-218.195000 Z-0.125000
G01 X181.339000 Y-218.508000 Z-0.125000
G01 X199.720000 Y-218.508000 Z-0.125000
G01 X201.934000 Y-218.322000 Z-0.125000
G01 X204.345000 Y-217.763000 Z-0.125000
G01 X206.765000 Y-216.784000 Z-0.125000
G01 X209.009000 Y-215.334000 Z-0.125000
G01 X210.958000 Y-213.364000 Z-0.125000
G01 X212.575000 Y-210.905000 Z-0.125000
G01 X213.192000 Y-209.457000 Z-0.125000
G01 X213.633000 Y-207.858000 Z-0.125000
G01 X213.898000 Y-206.106000 Z-0.125000
G01 X213.986000 Y-204.203000 Z-0.125000
G01 X213.986000 Y-190.408000 Z-0.125000
G01 X213.898000 Y-188.524000 Z-0.125000
G01 X213.633000 Y-186.792000 Z-0.125000
G01 X213.192000 Y-185.212000 Z-0.125000
G01 X212.575000 Y-183.784000 Z-0.125000
G01 X210.958000 Y-181.305000 Z-0.125000
G01 X210.025000 Y-180.264000 Z-0.125000
G01 X209.009000 Y-179.356000 Z-0.125000
G01 X206.765000 Y-177.876000 Z-0.125000
G01 X204.345000 Y-176.886000 Z-0.125000
G01 X201.934000 Y-176.328000 Z-0.125000
G01 X199.720000 Y-176.142000 Z-0.125000
G01 X181.339000 Y-176.142000 Z-0.125000
G01 X179.453000 Y-176.230000 Z-0.125000
G01 X177.714000 Y-176.495000 Z-0.125000
G01 X176.122000 Y-176.935000 Z-0.125000
G01 X174.677000 Y-177.553000 Z-0.125000
G01 X172.198000 Y-179.150000 Z-0.125000
G01 X171.157000 Y-180.088000 Z-0.125000
G01 X170.248000 Y-181.119000 Z-0.125000
G01 X168.798000 Y-183.333000 Z-0.125000
G01 X167.818000 Y-185.744000 Z-0.125000
G01 X167.230000 Y-188.164000 Z-0.125000
G01 X167.034000 Y-190.408000 Z-0.125000
G01 X167.034000 Y-204.203000 Z-0.125000
G00 Z5.000000

(End cutting path id: path8644)


(Start cutting path id: path8644)
(Change tool to Default tool)

G00 Z5.000000
G00 X164.019000 Y-204.203000

G01 Z-0.125000 F100.0(Penetrate)
G01 X163.931000 Y-205.692000 Z-0.125000 F400.000000
G01 X163.666000 Y-207.260000 Z-0.125000
G01 X163.255000 Y-208.867000 Z-0.125000
G01 X162.647000 Y-210.474000 Z-0.125000
G01 X161.834000 Y-212.012000 Z-0.125000
G01 X160.805000 Y-213.492000 Z-0.125000
G01 X159.580000 Y-214.863000 Z-0.125000
G01 X158.101000 Y-216.078000 Z-0.125000
G01 X156.406000 Y-217.068000 Z-0.125000
G01 X154.456000 Y-217.842000 Z-0.125000
G01 X152.242000 Y-218.342000 Z-0.125000
G01 X149.753000 Y-218.508000 Z-0.125000
G01 X131.372000 Y-218.508000 Z-0.125000
G01 X128.315000 Y-218.195000 Z-0.125000
G01 X126.708000 Y-217.754000 Z-0.125000
G01 X125.101000 Y-217.136000 Z-0.125000
G01 X123.563000 Y-216.333000 Z-0.125000
G01 X122.084000 Y-215.334000 Z-0.125000
G01 X120.712000 Y-214.089000 Z-0.125000
G01 X119.497000 Y-212.629000 Z-0.125000
G01 X118.507000 Y-210.905000 Z-0.125000
G01 X117.733000 Y-208.945000 Z-0.125000
G01 X117.234000 Y-206.702000 Z-0.125000
G01 X117.067000 Y-204.203000 Z-0.125000
G01 X117.067000 Y-158.231000 Z-0.125000
G01 X127.257000 Y-158.231000 Z-0.125000
G01 X127.257000 Y-204.203000 Z-0.125000
G01 X127.330000 Y-205.097000 Z-0.125000
G01 X127.551000 Y-205.898000 Z-0.125000
G01 X127.918000 Y-206.606000 Z-0.125000
G01 X128.433000 Y-207.221000 Z-0.125000
G01 X129.057000 Y-207.701000 Z-0.125000
G01 X129.755000 Y-208.044000 Z-0.125000
G01 X131.372000 Y-208.318000 Z-0.125000
G01 X149.753000 Y-208.318000 Z-0.125000
G01 X150.659000 Y-208.247000 Z-0.125000
G01 X151.458000 Y-208.034000 Z-0.125000
G01 X152.149000 Y-207.679000 Z-0.125000
G01 X152.732000 Y-207.182000 Z-0.125000
G01 X153.212000 Y-206.569000 Z-0.125000
G01 X153.555000 Y-205.869000 Z-0.125000
G01 X153.829000 Y-204.203000 Z-0.125000
G01 X153.829000 Y-190.408000 Z-0.125000
G01 X153.758000 Y-189.501000 Z-0.125000
G01 X153.545000 Y-188.703000 Z-0.125000
G01 X153.190000 Y-188.012000 Z-0.125000
G01 X152.692000 Y-187.429000 Z-0.125000
G01 X152.083000 Y-186.949000 Z-0.125000
G01 X151.389000 Y-186.606000 Z-0.125000
G01 X149.753000 Y-186.332000 Z-0.125000
G01 X131.372000 Y-186.332000 Z-0.125000
G01 X131.372000 Y-176.142000 Z-0.125000
G01 X149.753000 Y-176.142000 Z-0.125000
G01 X151.242000 Y-176.230000 Z-0.125000
G01 X152.810000 Y-176.494000 Z-0.125000
G01 X154.407000 Y-176.906000 Z-0.125000
G01 X155.985000 Y-177.513000 Z-0.125000
G01 X157.552000 Y-178.327000 Z-0.125000
G01 X159.042000 Y-179.355000 Z-0.125000
G01 X160.403000 Y-180.580000 Z-0.125000
G01 X161.589000 Y-182.060000 Z-0.125000
G01 X162.579000 Y-183.755000 Z-0.125000
G01 X163.353000 Y-185.705000 Z-0.125000
G01 X163.852000 Y-187.919000 Z-0.125000
G01 X164.019000 Y-190.408000 Z-0.125000
G01 X164.019000 Y-204.203000 Z-0.125000
G00 Z5.000000

(End cutting path id: path8644)


(Start cutting path id: path8644)
(Change tool to Default tool)

G00 Z5.000000
G00 X132.287000 Y-176.274000

G01 Z-0.125000 F100.0(Penetrate)
G01 X131.896000 Y-176.666000 Z-0.125000 F400.000000
G01 X131.602000 Y-177.135000 Z-0.125000
G01 X131.504000 Y-177.619000 Z-0.125000
G01 X131.602000 Y-177.907000 Z-0.125000
G01 X131.896000 Y-177.788000 Z-0.125000
G01 X132.989000 Y-176.695000 Z-0.125000
G01 X133.480000 Y-176.379000 Z-0.125000
G01 X133.971000 Y-176.274000 Z-0.125000
G01 X134.252000 Y-176.379000 Z-0.125000
G01 X134.112000 Y-176.695000 Z-0.125000
G01 X131.925000 Y-178.881000 Z-0.125000
G01 X131.609000 Y-179.373000 Z-0.125000
G01 X131.504000 Y-179.864000 Z-0.125000
G01 X131.609000 Y-180.144000 Z-0.125000
G01 X131.925000 Y-180.004000 Z-0.125000
G01 X135.234000 Y-176.695000 Z-0.125000
G01 X135.725000 Y-176.379000 Z-0.125000
G01 X136.216000 Y-176.274000 Z-0.125000
G01 X136.497000 Y-176.379000 Z-0.125000
G01 X136.357000 Y-176.695000 Z-0.125000
G01 X131.925000 Y-181.127000 Z-0.125000
G01 X131.609000 Y-181.618000 Z-0.125000
G01 X131.504000 Y-182.109000 Z-0.125000
G01 X131.609000 Y-182.389000 Z-0.125000
G01 X131.925000 Y-182.249000 Z-0.125000
G01 X137.479000 Y-176.695000 Z-0.125000
G01 X137.970000 Y-176.379000 Z-0.125000
G01 X138.461000 Y-176.274000 Z-0.125000
G01 X138.742000 Y-176.379000 Z-0.125000
G01 X138.602000 Y-176.695000 Z-0.125000
G01 X131.925000 Y-183.372000 Z-0.125000
G01 X131.609000 Y-183.863000 Z-0.125000
G01 X131.504000 Y-184.354000 Z-0.125000
G01 X131.609000 Y-184.634000 Z-0.125000
G01 X131.925000 Y-184.494000 Z-0.125000
G01 X139.724000 Y-176.695000 Z-0.125000
G01 X140.215000 Y-176.379000 Z-0.125000
G01 X140.706000 Y-176.274000 Z-0.125000
G01 X140.987000 Y-176.379000 Z-0.125000
G01 X140.847000 Y-176.695000 Z-0.125000
G01 X131.925000 Y-185.617000 Z-0.125000
G01 X131.760000 Y-185.958000 Z-0.125000
G01 X131.985000 Y-186.118000 Z-0.125000
G01 X132.420000 Y-186.069000 Z-0.125000
G01 X132.886000 Y-185.778000 Z-0.125000
G01 X141.969000 Y-176.695000 Z-0.125000
G01 X142.460000 Y-176.379000 Z-0.125000
G01 X142.952000 Y-176.274000 Z-0.125000
G01 X143.232000 Y-176.379000 Z-0.125000
G01 X143.092000 Y-176.695000 Z-0.125000
G01 X134.008000 Y-185.778000 Z-0.125000
G01 X133.868000 Y-186.094000 Z-0.125000
G01 X134.149000 Y-186.199000 Z-0.125000
G01 X134.640000 Y-186.094000 Z-0.125000
G01 X135.131000 Y-185.778000 Z-0.125000
G01 X144.214000 Y-176.695000 Z-0.125000
G01 X144.705000 Y-176.379000 Z-0.125000
G01 X145.197000 Y-176.274000 Z-0.125000
G01 X145.477000 Y-176.379000 Z-0.125000
G01 X145.337000 Y-176.695000 Z-0.125000
G01 X136.254000 Y-185.778000 Z-0.125000
G01 X136.113000 Y-186.094000 Z-0.125000
G01 X136.394000 Y-186.199000 Z-0.125000
G01 X136.885000 Y-186.094000 Z-0.125000
G01 X137.376000 Y-185.778000 Z-0.125000
G01 X146.459000 Y-176.695000 Z-0.125000
G01 X146.951000 Y-176.379000 Z-0.125000
G01 X147.442000 Y-176.274000 Z-0.125000
G01 X147.722000 Y-176.379000 Z-0.125000
G01 X147.582000 Y-176.695000 Z-0.125000
G01 X138.499000 Y-185.778000 Z-0.125000
G01 X138.358000 Y-186.094000 Z-0.125000
G01 X138.639000 Y-186.199000 Z-0.125000
G01 X139.130000 Y-186.094000 Z-0.125000
G01 X139.621000 Y-185.778000 Z-0.125000
G01 X148.705000 Y-176.695000 Z-0.125000
G01 X149.194000 Y-176.381000 Z-0.125000
G01 X149.681000 Y-176.280000 Z-0.125000
G01 X149.958000 Y-176.389000 Z-0.125000
G01 X149.816000 Y-176.706000 Z-0.125000
G01 X140.744000 Y-185.778000 Z-0.125000
G01 X140.603000 Y-186.094000 Z-0.125000
G01 X140.884000 Y-186.199000 Z-0.125000
G01 X141.375000 Y-186.094000 Z-0.125000
G01 X141.866000 Y-185.778000 Z-0.125000
G01 X150.856000 Y-176.789000 Z-0.125000
G01 X151.324000 Y-176.496000 Z-0.125000
G01 X151.763000 Y-176.442000 Z-0.125000
G01 X151.993000 Y-176.599000 Z-0.125000
G01 X151.829000 Y-176.938000 Z-0.125000
G01 X142.989000 Y-185.778000 Z-0.125000
G01 X142.848000 Y-186.094000 Z-0.125000
G01 X143.129000 Y-186.199000 Z-0.125000
G01 X143.620000 Y-186.094000 Z-0.125000
G01 X144.111000 Y-185.778000 Z-0.125000
G01 X152.761000 Y-177.129000 Z-0.125000
G01 X153.215000 Y-176.850000 Z-0.125000
G01 X153.626000 Y-176.825000 Z-0.125000
G01 X153.826000 Y-177.010000 Z-0.125000
G01 X153.650000 Y-177.363000 Z-0.125000
G01 X145.234000 Y-185.778000 Z-0.125000
G01 X145.093000 Y-186.094000 Z-0.125000
G01 X145.374000 Y-186.199000 Z-0.125000
G01 X145.865000 Y-186.094000 Z-0.125000
G01 X146.356000 Y-185.778000 Z-0.125000
G01 X154.493000 Y-177.642000 Z-0.125000
G01 X154.934000 Y-177.377000 Z-0.125000
G01 X155.315000 Y-177.381000 Z-0.125000
G01 X155.485000 Y-177.597000 Z-0.125000
G01 X155.295000 Y-177.962000 Z-0.125000
G01 X147.479000 Y-185.778000 Z-0.125000
G01 X147.339000 Y-186.094000 Z-0.125000
G01 X147.619000 Y-186.199000 Z-0.125000
G01 X148.110000 Y-186.094000 Z-0.125000
G01 X148.601000 Y-185.778000 Z-0.125000
G01 X156.064000 Y-178.316000 Z-0.125000
G01 X156.494000 Y-178.061000 Z-0.125000
G01 X156.851000 Y-178.090000 Z-0.125000
G01 X156.998000 Y-178.329000 Z-0.125000
G01 X156.796000 Y-178.706000 Z-0.125000
G01 X149.724000 Y-185.778000 Z-0.125000
G01 X149.578000 Y-186.100000 Z-0.125000
G01 X149.846000 Y-186.218000 Z-0.125000
G01 X150.325000 Y-186.125000 Z-0.125000
G01 X150.810000 Y-185.815000 Z-0.125000
G01 X157.493000 Y-179.132000 Z-0.125000
G01 X157.912000 Y-178.888000 Z-0.125000
G01 X158.246000 Y-178.941000 Z-0.125000
G01 X158.368000 Y-179.204000 Z-0.125000
G01 X158.156000 Y-179.591000 Z-0.125000
G01 X151.730000 Y-186.017000 Z-0.125000
G01 X151.534000 Y-186.388000 Z-0.125000
G01 X151.693000 Y-186.615000 Z-0.125000
G01 X152.063000 Y-186.632000 Z-0.125000
G01 X152.499000 Y-186.371000 Z-0.125000
G01 X158.790000 Y-180.080000 Z-0.125000
G01 X159.200000 Y-179.845000 Z-0.125000
G01 X159.512000 Y-179.920000 Z-0.125000
G01 X159.613000 Y-180.204000 Z-0.125000
G01 X159.391000 Y-180.602000 Z-0.125000
G01 X153.140000 Y-186.853000 Z-0.125000
G01 X152.907000 Y-187.261000 Z-0.125000
G01 X152.984000 Y-187.570000 Z-0.125000
G01 X153.271000 Y-187.669000 Z-0.125000
G01 X153.669000 Y-187.446000 Z-0.125000
G01 X159.951000 Y-181.164000 Z-0.125000
G01 X160.348000 Y-180.942000 Z-0.125000
G01 X160.632000 Y-181.044000 Z-0.125000
G01 X160.706000 Y-181.356000 Z-0.125000
G01 X160.472000 Y-181.766000 Z-0.125000
G01 X154.064000 Y-188.174000 Z-0.125000
G01 X153.786000 Y-188.627000 Z-0.125000
G01 X153.765000 Y-189.034000 Z-0.125000
G01 X153.954000 Y-189.230000 Z-0.125000
G01 X154.308000 Y-189.052000 Z-0.125000
G01 X160.953000 Y-182.407000 Z-0.125000
G01 X161.339000 Y-182.196000 Z-0.125000
G01 X161.599000 Y-182.323000 Z-0.125000
G01 X161.648000 Y-182.659000 Z-0.125000
G01 X161.402000 Y-183.080000 Z-0.125000
G01 X154.382000 Y-190.101000 Z-0.125000
G01 X154.066000 Y-190.592000 Z-0.125000
G01 X153.961000 Y-191.083000 Z-0.125000
G01 X154.066000 Y-191.363000 Z-0.125000
G01 X154.382000 Y-191.223000 Z-0.125000
G01 X161.814000 Y-183.791000 Z-0.125000
G01 X162.187000 Y-183.593000 Z-0.125000
G01 X162.419000 Y-183.747000 Z-0.125000
G01 X162.440000 Y-184.112000 Z-0.125000
G01 X162.182000 Y-184.546000 Z-0.125000
G01 X154.382000 Y-192.346000 Z-0.125000
G01 X154.066000 Y-192.837000 Z-0.125000
G01 X153.961000 Y-193.328000 Z-0.125000
G01 X154.066000 Y-193.609000 Z-0.125000
G01 X154.382000 Y-193.468000 Z-0.125000
G01 X162.512000 Y-185.338000 Z-0.125000
G01 X162.874000 Y-185.152000 Z-0.125000
G01 X163.080000 Y-185.331000 Z-0.125000
G01 X163.076000 Y-185.722000 Z-0.125000
G01 X162.806000 Y-186.167000 Z-0.125000
G01 X154.382000 Y-194.591000 Z-0.125000
G01 X154.066000 Y-195.082000 Z-0.125000
G01 X153.961000 Y-195.573000 Z-0.125000
G01 X154.066000 Y-195.854000 Z-0.125000
G01 X154.382000 Y-195.713000 Z-0.125000
G01 X163.049000 Y-187.046000 Z-0.125000
G01 X163.394000 Y-186.876000 Z-0.125000
G01 X163.565000 Y-187.092000 Z-0.125000
G01 X163.525000 Y-187.518000 Z-0.125000
G01 X163.239000 Y-187.979000 Z-0.125000
G01 X154.382000 Y-196.836000 Z-0.125000
G01 X154.066000 Y-197.327000 Z-0.125000
G01 X153.961000 Y-197.818000 Z-0.125000
G01 X154.066000 Y-198.099000 Z-0.125000
G01 X154.382000 Y-197.958000 Z-0.125000
G01 X163.374000 Y-188.966000 Z-0.125000
G01 X163.701000 Y-188.814000 Z-0.125000
G01 X163.831000 Y-189.070000 Z-0.125000
G01 X163.751000 Y-189.536000 Z-0.125000
G01 X163.447000 Y-190.016000 Z-0.125000
G01 X154.382000 Y-199.081000 Z-0.125000
G01 X154.066000 Y-199.572000 Z-0.125000
G01 X153.961000 Y-200.063000 Z-0.125000
G01 X154.066000 Y-200.344000 Z-0.125000
G01 X154.382000 Y-200.203000 Z-0.125000
G01 X163.465000 Y-191.120000 Z-0.125000
G01 X163.781000 Y-190.980000 Z-0.125000
G01 X163.886000 Y-191.260000 Z-0.125000
G01 X163.781000 Y-191.751000 Z-0.125000
G01 X163.465000 Y-192.243000 Z-0.125000
G01 X154.382000 Y-201.326000 Z-0.125000
G01 X154.066000 Y-201.817000 Z-0.125000
G01 X153.961000 Y-202.308000 Z-0.125000
G01 X154.066000 Y-202.589000 Z-0.125000
G01 X154.382000 Y-202.448000 Z-0.125000
G01 X163.465000 Y-193.365000 Z-0.125000
G01 X163.781000 Y-193.225000 Z-0.125000
G01 X163.886000 Y-193.505000 Z-0.125000
G01 X163.781000 Y-193.997000 Z-0.125000
G01 X163.465000 Y-194.488000 Z-0.125000
G01 X154.382000 Y-203.571000 Z-0.125000
G01 X154.050000 Y-204.078000 Z-0.125000
G01 X153.910000 Y-204.604000 Z-0.125000
G01 X153.980000 Y-204.920000 Z-0.125000
G01 X154.280000 Y-204.796000 Z-0.125000
G01 X163.465000 Y-195.610000 Z-0.125000
G01 X163.781000 Y-195.470000 Z-0.125000
G01 X163.886000 Y-195.750000 Z-0.125000
G01 X163.781000 Y-196.242000 Z-0.125000
G01 X163.465000 Y-196.733000 Z-0.125000
G01 X142.243000 Y-217.955000 Z-0.125000
G01 X142.103000 Y-218.271000 Z-0.125000
G01 X142.383000 Y-218.376000 Z-0.125000
G01 X142.875000 Y-218.271000 Z-0.125000
G01 X143.366000 Y-217.955000 Z-0.125000
G01 X163.465000 Y-197.855000 Z-0.125000
G01 X163.781000 Y-197.715000 Z-0.125000
G01 X163.886000 Y-197.996000 Z-0.125000
G01 X163.781000 Y-198.487000 Z-0.125000
G01 X163.465000 Y-198.978000 Z-0.125000
G01 X144.488000 Y-217.955000 Z-0.125000
G01 X144.348000 Y-218.271000 Z-0.125000
G01 X144.628000 Y-218.376000 Z-0.125000
G01 X145.120000 Y-218.271000 Z-0.125000
G01 X145.611000 Y-217.955000 Z-0.125000
G01 X163.465000 Y-200.100000 Z-0.125000
G01 X163.781000 Y-199.960000 Z-0.125000
G01 X163.886000 Y-200.241000 Z-0.125000
G01 X163.781000 Y-200.732000 Z-0.125000
G01 X163.465000 Y-201.223000 Z-0.125000
G01 X146.733000 Y-217.955000 Z-0.125000
G01 X146.593000 Y-218.271000 Z-0.125000
G01 X146.874000 Y-218.376000 Z-0.125000
G01 X147.365000 Y-218.271000 Z-0.125000
G01 X147.856000 Y-217.955000 Z-0.125000
G01 X163.465000 Y-202.345000 Z-0.125000
G01 X163.781000 Y-202.205000 Z-0.125000
G01 X163.886000 Y-202.486000 Z-0.125000
G01 X163.781000 Y-202.977000 Z-0.125000
G01 X163.465000 Y-203.468000 Z-0.125000
G01 X148.978000 Y-217.955000 Z-0.125000
G01 X148.838000 Y-218.271000 Z-0.125000
G01 X149.119000 Y-218.376000 Z-0.125000
G01 X149.610000 Y-218.271000 Z-0.125000
G01 X150.101000 Y-217.955000 Z-0.125000
G01 X163.465000 Y-204.590000 Z-0.125000
G01 X163.773000 Y-204.458000 Z-0.125000
G01 X163.860000 Y-204.757000 Z-0.125000
G01 X163.737000 Y-205.266000 Z-0.125000
G01 X163.413000 Y-205.765000 Z-0.125000
G01 X151.255000 Y-217.923000 Z-0.125000
G01 X151.133000 Y-218.221000 Z-0.125000
G01 X151.453000 Y-218.286000 Z-0.125000
G01 X151.984000 Y-218.142000 Z-0.125000
G01 X152.493000 Y-217.808000 Z-0.125000
G01 X163.232000 Y-207.069000 Z-0.125000
G01 X163.499000 Y-206.977000 Z-0.125000
G01 X163.499000 Y-207.363000 Z-0.125000
G01 X163.288000 Y-207.960000 Z-0.125000
G01 X162.924000 Y-208.499000 Z-0.125000
G01 X153.857000 Y-217.567000 Z-0.125000
G01 X153.789000 Y-217.809000 Z-0.125000
G01 X154.231000 Y-217.754000 Z-0.125000
G01 X154.883000 Y-217.488000 Z-0.125000
G01 X155.447000 Y-217.099000 Z-0.125000
G01 X162.400000 Y-210.146000 Z-0.125000
G01 X162.547000 Y-210.048000 Z-0.125000
G01 X162.580000 Y-210.142000 Z-0.125000
G01 X162.386000 Y-210.721000 Z-0.125000
G01 X161.530000 Y-212.138000 Z-0.125000
G01 X156.936000 Y-216.732000 Z-0.125000
G00 Z5.000000

(End cutting path id: path8644)


(Start cutting path id: path8644)
(Change tool to Default tool)

G00 Z5.000000
G00 X108.618000 Y-215.975000

G01 Z-0.125000 F100.0(Penetrate)
G01 X112.333000 Y-212.260000 Z-0.125000 F400.000000
G00 Z5.000000

(End cutting path id: path8644)


(Start cutting path id: path8644)
(Change tool to Default tool)

G00 Z5.000000
G00 X77.877600 Y-190.486000

G01 Z-0.125000 F100.0(Penetrate)
G01 X77.943800 Y-189.496000 Z-0.125000 F400.000000
G01 X78.142200 Y-188.644000 Z-0.125000
G01 X78.472900 Y-187.929000 Z-0.125000
G01 X78.935800 Y-187.351000 Z-0.125000
G01 X79.523700 Y-186.905000 Z-0.125000
G01 X80.229100 Y-186.586000 Z-0.125000
G01 X81.992800 Y-186.332000 Z-0.125000
G01 X100.295000 Y-186.332000 Z-0.125000
G01 X102.088000 Y-186.596000 Z-0.125000
G01 X102.801000 Y-186.927000 Z-0.125000
G01 X103.391000 Y-187.390000 Z-0.125000
G01 X103.854000 Y-187.960000 Z-0.125000
G01 X104.185000 Y-188.654000 Z-0.125000
G01 X104.450000 Y-190.408000 Z-0.125000
G01 X104.450000 Y-204.203000 Z-0.125000
G01 X104.185000 Y-205.967000 Z-0.125000
G01 X103.854000 Y-206.672000 Z-0.125000
G01 X103.391000 Y-207.260000 Z-0.125000
G01 X102.801000 Y-207.723000 Z-0.125000
G01 X102.088000 Y-208.054000 Z-0.125000
G01 X100.295000 Y-208.318000 Z-0.125000
G01 X81.992700 Y-208.318000 Z-0.125000
G01 X80.180100 Y-208.054000 Z-0.125000
G01 X79.472200 Y-207.723000 Z-0.125000
G01 X78.896500 Y-207.260000 Z-0.125000
G01 X78.450700 Y-206.672000 Z-0.125000
G01 X78.132300 Y-205.967000 Z-0.125000
G01 X77.877500 Y-204.203000 Z-0.125000
G01 X77.877600 Y-190.486000 Z-0.125000
G00 Z5.000000

(End cutting path id: path8644)


(Start cutting path id: path8644)
(Change tool to Default tool)

G00 Z5.000000
G00 X77.801900 Y-189.542000

G01 Z-0.125000 F100.0(Penetrate)
G01 X68.240600 Y-199.103000 Z-0.125000 F400.000000
G01 X67.924900 Y-199.594000 Z-0.125000
G01 X67.819700 Y-200.085000 Z-0.125000
G01 X67.924900 Y-200.366000 Z-0.125000
G01 X68.240600 Y-200.225000 Z-0.125000
G01 X77.324000 Y-191.142000 Z-0.125000
G01 X77.639700 Y-191.002000 Z-0.125000
G01 X77.745000 Y-191.282000 Z-0.125000
G01 X77.639700 Y-191.774000 Z-0.125000
G01 X77.324000 Y-192.265000 Z-0.125000
G01 X68.240600 Y-201.348000 Z-0.125000
G01 X67.924900 Y-201.839000 Z-0.125000
G01 X67.819700 Y-202.330000 Z-0.125000
G01 X67.924900 Y-202.611000 Z-0.125000
G01 X68.240600 Y-202.471000 Z-0.125000
G01 X77.324000 Y-193.387000 Z-0.125000
G01 X77.639700 Y-193.247000 Z-0.125000
G01 X77.745000 Y-193.527000 Z-0.125000
G01 X77.639700 Y-194.019000 Z-0.125000
G01 X77.324000 Y-194.510000 Z-0.125000
G01 X68.240600 Y-203.593000 Z-0.125000
G01 X67.928600 Y-204.080000 Z-0.125000
G01 X67.831400 Y-204.564000 Z-0.125000
G01 X67.944700 Y-204.836000 Z-0.125000
G01 X68.264100 Y-204.692000 Z-0.125000
G01 X77.324000 Y-195.632000 Z-0.125000
G01 X77.639700 Y-195.492000 Z-0.125000
G01 X77.745000 Y-195.773000 Z-0.125000
G01 X77.639700 Y-196.264000 Z-0.125000
G01 X77.324000 Y-196.755000 Z-0.125000
G01 X68.342200 Y-205.737000 Z-0.125000
G01 X68.047900 Y-206.206000 Z-0.125000
G01 X67.989900 Y-206.650000 Z-0.125000
G01 X68.142400 Y-206.884000 Z-0.125000
G01 X68.479600 Y-206.722000 Z-0.125000
G01 X77.324000 Y-197.877000 Z-0.125000
G01 X77.639700 Y-197.737000 Z-0.125000
G01 X77.745000 Y-198.018000 Z-0.125000
G01 X77.639700 Y-198.509000 Z-0.125000
G01 X77.324000 Y-199.000000 Z-0.125000
G01 X68.672400 Y-207.651000 Z-0.125000
G01 X68.394800 Y-208.104000 Z-0.125000
G01 X68.373400 Y-208.512000 Z-0.125000
G01 X68.562400 Y-208.709000 Z-0.125000
G01 X68.916200 Y-208.530000 Z-0.125000
G01 X77.324000 Y-200.122000 Z-0.125000
G01 X77.639700 Y-199.982000 Z-0.125000
G01 X77.745000 Y-200.263000 Z-0.125000
G01 X77.639700 Y-200.754000 Z-0.125000
G01 X77.324000 Y-201.245000 Z-0.125000
G01 X69.210300 Y-209.359000 Z-0.125000
G01 X68.946300 Y-209.798000 Z-0.125000
G01 X68.954900 Y-210.175000 Z-0.125000
G01 X69.174000 Y-210.342000 Z-0.125000
G01 X69.541500 Y-210.150000 Z-0.125000
G01 X77.324000 Y-202.367000 Z-0.125000
G01 X77.639700 Y-202.227000 Z-0.125000
G01 X77.745000 Y-202.508000 Z-0.125000
G01 X77.639700 Y-202.999000 Z-0.125000
G01 X77.324000 Y-203.490000 Z-0.125000
G01 X69.909100 Y-210.905000 Z-0.125000
G01 X69.657100 Y-211.332000 Z-0.125000
G01 X69.692100 Y-211.683000 Z-0.125000
G01 X69.937600 Y-211.824000 Z-0.125000
G01 X70.317000 Y-211.619000 Z-0.125000
G01 X77.324000 Y-204.612000 Z-0.125000
G01 X77.652800 Y-204.459000 Z-0.125000
G01 X77.786600 Y-204.711000 Z-0.125000
G01 X77.710100 Y-205.174000 Z-0.125000
G01 X77.407400 Y-205.652000 Z-0.125000
G01 X70.764400 Y-212.295000 Z-0.125000
G01 X70.524900 Y-212.710000 Z-0.125000
G01 X70.587200 Y-213.033000 Z-0.125000
G01 X70.860000 Y-213.146000 Z-0.125000
G01 X71.251900 Y-212.930000 Z-0.125000
G01 X77.629700 Y-206.552000 Z-0.125000
G01 X78.003800 Y-206.353000 Z-0.125000
G01 X78.237600 Y-206.505000 Z-0.125000
G01 X78.261000 Y-206.868000 Z-0.125000
G01 X78.003700 Y-207.300000 Z-0.125000
G01 X71.775600 Y-213.529000 Z-0.125000
G01 X71.547400 Y-213.932000 Z-0.125000
G01 X71.634800 Y-214.231000 Z-0.125000
G01 X71.932700 Y-214.319000 Z-0.125000
G01 X72.335900 Y-214.091000 Z-0.125000
G01 X78.518700 Y-207.908000 Z-0.125000
G01 X78.937700 Y-207.664000 Z-0.125000
G01 X79.270300 Y-207.718000 Z-0.125000
G01 X79.392300 Y-207.981000 Z-0.125000
G01 X79.179900 Y-208.369000 Z-0.125000
G01 X72.932200 Y-214.617000 Z-0.125000
G01 X72.716100 Y-215.008000 Z-0.125000
G01 X72.829900 Y-215.281000 Z-0.125000
G01 X73.154200 Y-215.342000 Z-0.125000
G01 X73.569500 Y-215.102000 Z-0.125000
G01 X79.989600 Y-208.682000 Z-0.125000
G01 X80.459500 Y-208.388000 Z-0.125000
G01 X80.903700 Y-208.329000 Z-0.125000
G01 X81.137600 Y-208.481000 Z-0.125000
G01 X80.975900 Y-208.818000 Z-0.125000
G01 X74.241500 Y-215.553000 Z-0.125000
G01 X74.035800 Y-215.934000 Z-0.125000
G01 X74.172600 Y-216.183000 Z-0.125000
G01 X74.519900 Y-216.221000 Z-0.125000
G01 X74.945700 Y-215.971000 Z-0.125000
G01 X82.045200 Y-208.871000 Z-0.125000
G01 X82.536400 Y-208.556000 Z-0.125000
G01 X83.027500 Y-208.451000 Z-0.125000
G01 X83.308100 Y-208.556000 Z-0.125000
G01 X83.167800 Y-208.871000 Z-0.125000
G01 X75.683400 Y-216.356000 Z-0.125000
G01 X75.488300 Y-216.726000 Z-0.125000
G01 X75.648200 Y-216.952000 Z-0.125000
G01 X76.018600 Y-216.968000 Z-0.125000
G01 X76.454900 Y-216.707000 Z-0.125000
G01 X84.290300 Y-208.871000 Z-0.125000
G01 X84.781400 Y-208.556000 Z-0.125000
G01 X85.272500 Y-208.451000 Z-0.125000
G01 X85.553200 Y-208.556000 Z-0.125000
G01 X85.412800 Y-208.871000 Z-0.125000
G01 X77.257500 Y-217.027000 Z-0.125000
G01 X77.073000 Y-217.387000 Z-0.125000
G01 X77.256400 Y-217.589000 Z-0.125000
G01 X77.650300 Y-217.581000 Z-0.125000
G01 X78.097300 Y-217.310000 Z-0.125000
G01 X86.535400 Y-208.871000 Z-0.125000
G01 X87.026500 Y-208.556000 Z-0.125000
G01 X87.517600 Y-208.451000 Z-0.125000
G01 X87.798200 Y-208.556000 Z-0.125000
G01 X87.657900 Y-208.871000 Z-0.125000
G01 X78.977900 Y-217.552000 Z-0.125000
G01 X78.808300 Y-217.896000 Z-0.125000
G01 X79.024700 Y-218.066000 Z-0.125000
G01 X79.451500 Y-218.025000 Z-0.125000
G01 X79.913400 Y-217.739000 Z-0.125000
G01 X88.780400 Y-208.871000 Z-0.125000
G01 X89.271500 Y-208.556000 Z-0.125000
G01 X89.762700 Y-208.451000 Z-0.125000
G01 X90.043300 Y-208.556000 Z-0.125000
G01 X89.903000 Y-208.871000 Z-0.125000
G01 X80.901400 Y-217.873000 Z-0.125000
G01 X80.749700 Y-218.200000 Z-0.125000
G01 X81.005300 Y-218.330000 Z-0.125000
G01 X81.471300 Y-218.250000 Z-0.125000
G01 X81.951000 Y-217.946000 Z-0.125000
G01 X91.025500 Y-208.872000 Z-0.125000
G01 X91.516600 Y-208.556000 Z-0.125000
G01 X92.007700 Y-208.451000 Z-0.125000
G01 X92.288400 Y-208.556000 Z-0.125000
G01 X92.148000 Y-208.872000 Z-0.125000
G01 X83.064600 Y-217.955000 Z-0.125000
G01 X82.924300 Y-218.271000 Z-0.125000
G01 X83.205000 Y-218.376000 Z-0.125000
G01 X83.696100 Y-218.271000 Z-0.125000
G01 X84.187200 Y-217.955000 Z-0.125000
G01 X93.270600 Y-208.872000 Z-0.125000
G01 X93.761700 Y-208.556000 Z-0.125000
G01 X94.252800 Y-208.451000 Z-0.125000
G01 X94.533400 Y-208.556000 Z-0.125000
G01 X94.393100 Y-208.872000 Z-0.125000
G01 X85.309700 Y-217.955000 Z-0.125000
G01 X85.169400 Y-218.271000 Z-0.125000
G01 X85.450000 Y-218.376000 Z-0.125000
G01 X85.941100 Y-218.271000 Z-0.125000
G01 X86.432200 Y-217.955000 Z-0.125000
G01 X95.515600 Y-208.872000 Z-0.125000
G01 X96.006700 Y-208.556000 Z-0.125000
G01 X96.497800 Y-208.451000 Z-0.125000
G01 X96.778500 Y-208.556000 Z-0.125000
G01 X96.638200 Y-208.872000 Z-0.125000
G01 X87.554800 Y-217.955000 Z-0.125000
G01 X87.414500 Y-218.271000 Z-0.125000
G01 X87.695100 Y-218.376000 Z-0.125000
G01 X88.186200 Y-218.271000 Z-0.125000
G01 X88.677300 Y-217.955000 Z-0.125000
G01 X97.760700 Y-208.872000 Z-0.125000
G01 X98.251800 Y-208.556000 Z-0.125000
G01 X98.742900 Y-208.451000 Z-0.125000
G01 X99.023500 Y-208.556000 Z-0.125000
G01 X98.883200 Y-208.872000 Z-0.125000
G01 X89.799800 Y-217.955000 Z-0.125000
G01 X89.659500 Y-218.271000 Z-0.125000
G01 X89.940200 Y-218.376000 Z-0.125000
G01 X90.431300 Y-218.271000 Z-0.125000
G01 X90.922400 Y-217.955000 Z-0.125000
G01 X100.037000 Y-208.841000 Z-0.125000
G01 X100.546000 Y-208.507000 Z-0.125000
G01 X101.077000 Y-208.362000 Z-0.125000
G01 X101.398000 Y-208.427000 Z-0.125000
G01 X101.275000 Y-208.724000 Z-0.125000
G01 X92.044900 Y-217.955000 Z-0.125000
G01 X91.904600 Y-218.271000 Z-0.125000
G01 X92.185200 Y-218.376000 Z-0.125000
G01 X92.676300 Y-218.271000 Z-0.125000
G01 X93.167400 Y-217.955000 Z-0.125000
G01 X114.086000 Y-197.036000 Z-0.125000
G01 X114.402000 Y-196.896000 Z-0.125000
G01 X114.507000 Y-197.177000 Z-0.125000
G01 X114.402000 Y-197.668000 Z-0.125000
G01 X114.086000 Y-198.159000 Z-0.125000
G01 X94.290000 Y-217.955000 Z-0.125000
G01 X94.149700 Y-218.271000 Z-0.125000
G01 X94.430300 Y-218.376000 Z-0.125000
G01 X94.921400 Y-218.271000 Z-0.125000
G01 X95.412500 Y-217.955000 Z-0.125000
G01 X114.086000 Y-199.281000 Z-0.125000
G01 X114.402000 Y-199.141000 Z-0.125000
G01 X114.507000 Y-199.422000 Z-0.125000
G01 X114.402000 Y-199.913000 Z-0.125000
G01 X114.086000 Y-200.404000 Z-0.125000
G01 X96.535300 Y-217.955000 Z-0.125000
G01 X96.395000 Y-218.271000 Z-0.125000
G01 X96.675600 Y-218.376000 Z-0.125000
G01 X97.166700 Y-218.271000 Z-0.125000
G01 X97.657800 Y-217.955000 Z-0.125000
G01 X114.086000 Y-201.526000 Z-0.125000
G01 X114.402000 Y-201.386000 Z-0.125000
G01 X114.507000 Y-201.667000 Z-0.125000
G01 X114.402000 Y-202.158000 Z-0.125000
G01 X114.086000 Y-202.649000 Z-0.125000
G01 X98.780400 Y-217.955000 Z-0.125000
G01 X98.640100 Y-218.271000 Z-0.125000
G01 X98.920700 Y-218.376000 Z-0.125000
G01 X99.411800 Y-218.271000 Z-0.125000
G01 X99.902900 Y-217.955000 Z-0.125000
G01 X114.086000 Y-203.772000 Z-0.125000
G01 X114.401000 Y-203.632000 Z-0.125000
G01 X114.506000 Y-203.913000 Z-0.125000
G01 X114.399000 Y-204.406000 Z-0.125000
G01 X114.083000 Y-204.897000 Z-0.125000
G01 X101.031000 Y-217.950000 Z-0.125000
G01 X100.903000 Y-218.253000 Z-0.125000
G01 X101.210000 Y-218.331000 Z-0.125000
G01 X101.729000 Y-218.199000 Z-0.125000
G01 X102.232000 Y-217.871000 Z-0.125000
G01 X114.036000 Y-206.066000 Z-0.125000
G01 X114.331000 Y-205.947000 Z-0.125000
G01 X114.389000 Y-206.275000 Z-0.125000
G01 X114.237000 Y-206.813000 Z-0.125000
G01 X113.900000 Y-207.326000 Z-0.125000
G01 X103.557000 Y-217.668000 Z-0.125000
G01 X103.472000 Y-217.929000 Z-0.125000
G01 X103.875000 Y-217.912000 Z-0.125000
G01 X104.488000 Y-217.684000 Z-0.125000
G01 X105.035000 Y-217.313000 Z-0.125000
G01 X113.631000 Y-208.717000 Z-0.125000
G01 X113.872000 Y-208.652000 Z-0.125000
G01 X113.812000 Y-209.098000 Z-0.125000
G01 X113.541000 Y-209.754000 Z-0.125000
G01 X113.150000 Y-210.320000 Z-0.125000
G01 X106.288000 Y-217.183000 Z-0.125000
G00 Z5.000000

(End cutting path id: path8644)


(Start cutting path id: path8644)
(Change tool to Default tool)

G00 Z5.000000
G00 X67.687800 Y-204.203000

G01 Z-0.125000 F100.0(Penetrate)
G01 X67.854300 Y-206.702000 Z-0.125000 F400.000000
G01 X68.354000 Y-208.945000 Z-0.125000
G01 X69.128100 Y-210.905000 Z-0.125000
G01 X70.117700 Y-212.629000 Z-0.125000
G01 X71.303200 Y-214.089000 Z-0.125000
G01 X72.665100 Y-215.334000 Z-0.125000
G01 X74.154400 Y-216.333000 Z-0.125000
G01 X75.722100 Y-217.136000 Z-0.125000
G01 X77.309300 Y-217.754000 Z-0.125000
G01 X78.935800 Y-218.195000 Z-0.125000
G01 X81.992800 Y-218.508000 Z-0.125000
G01 X100.374000 Y-218.508000 Z-0.125000
G01 X102.588000 Y-218.322000 Z-0.125000
G01 X104.998000 Y-217.763000 Z-0.125000
G01 X107.418000 Y-216.784000 Z-0.125000
G01 X109.662000 Y-215.334000 Z-0.125000
G01 X111.612000 Y-213.364000 Z-0.125000
G01 X113.229000 Y-210.905000 Z-0.125000
G01 X113.846000 Y-209.457000 Z-0.125000
G01 X114.287000 Y-207.858000 Z-0.125000
G01 X114.551000 Y-206.106000 Z-0.125000
G01 X114.640000 Y-204.203000 Z-0.125000
G01 X114.640000 Y-190.408000 Z-0.125000
G01 X114.551000 Y-188.524000 Z-0.125000
G01 X114.287000 Y-186.792000 Z-0.125000
G01 X113.846000 Y-185.212000 Z-0.125000
G01 X113.229000 Y-183.784000 Z-0.125000
G01 X111.612000 Y-181.305000 Z-0.125000
G01 X110.679000 Y-180.264000 Z-0.125000
G01 X109.662000 Y-179.355000 Z-0.125000
G01 X107.418000 Y-177.876000 Z-0.125000
G01 X104.998000 Y-176.886000 Z-0.125000
G01 X102.588000 Y-176.328000 Z-0.125000
G01 X100.374000 Y-176.142000 Z-0.125000
G01 X81.992700 Y-176.142000 Z-0.125000
G01 X80.106600 Y-176.230000 Z-0.125000
G01 X78.367400 Y-176.494000 Z-0.125000
G01 X76.775300 Y-176.935000 Z-0.125000
G01 X75.330100 Y-177.553000 Z-0.125000
G01 X72.851200 Y-179.150000 Z-0.125000
G01 X71.810200 Y-180.088000 Z-0.125000
G01 X70.901400 Y-181.119000 Z-0.125000
G01 X69.451300 Y-183.333000 Z-0.125000
G01 X68.471500 Y-185.744000 Z-0.125000
G01 X67.883600 Y-188.164000 Z-0.125000
G01 X67.687700 Y-190.408000 Z-0.125000
G01 X67.687800 Y-204.203000 Z-0.125000
G00 Z5.000000

(End cutting path id: path8644)


(Start cutting path id: path8644)
(Change tool to Default tool)

G00 Z5.000000
G00 X69.835500 Y-182.915000

G01 Z-0.125000 F100.0(Penetrate)
G01 X74.488500 Y-178.262000 Z-0.125000 F400.000000
G01 X75.859900 Y-177.452000 Z-0.125000
G01 X76.408000 Y-177.290000 Z-0.125000
G01 X76.491800 Y-177.333000 Z-0.125000
G01 X76.389300 Y-177.484000 Z-0.125000
G01 X69.235400 Y-184.638000 Z-0.125000
G01 X68.847400 Y-185.201000 Z-0.125000
G01 X68.583100 Y-185.852000 Z-0.125000
G01 X68.529300 Y-186.291000 Z-0.125000
G01 X68.772800 Y-186.223000 Z-0.125000
G01 X77.945500 Y-177.050000 Z-0.125000
G01 X78.471400 Y-176.700000 Z-0.125000
G01 X79.039100 Y-176.518000 Z-0.125000
G01 X79.396300 Y-176.547000 Z-0.125000
G01 X79.290800 Y-176.828000 Z-0.125000
G01 X68.445400 Y-187.673000 Z-0.125000
G01 X68.104700 Y-188.189000 Z-0.125000
G01 X67.944600 Y-188.735000 Z-0.125000
G01 X67.994900 Y-189.071000 Z-0.125000
G01 X68.285700 Y-188.955000 Z-0.125000
G01 X80.530700 Y-176.710000 Z-0.125000
G01 X81.024200 Y-176.392000 Z-0.125000
G01 X81.520600 Y-176.282000 Z-0.125000
G01 X81.806500 Y-176.382000 Z-0.125000
G01 X81.668500 Y-176.695000 Z-0.125000
G01 X68.240900 Y-190.123000 Z-0.125000
G01 X67.925200 Y-190.614000 Z-0.125000
G01 X67.820000 Y-191.105000 Z-0.125000
G01 X67.925200 Y-191.385000 Z-0.125000
G01 X68.240900 Y-191.245000 Z-0.125000
G01 X82.791100 Y-176.695000 Z-0.125000
G01 X83.282200 Y-176.379000 Z-0.125000
G01 X83.773300 Y-176.274000 Z-0.125000
G01 X84.053900 Y-176.379000 Z-0.125000
G01 X83.913600 Y-176.695000 Z-0.125000
G01 X68.240900 Y-192.368000 Z-0.125000
G01 X67.925200 Y-192.859000 Z-0.125000
G01 X67.820000 Y-193.350000 Z-0.125000
G01 X67.925200 Y-193.631000 Z-0.125000
G01 X68.240900 Y-193.490000 Z-0.125000
G01 X85.036100 Y-176.695000 Z-0.125000
G01 X85.527300 Y-176.379000 Z-0.125000
G01 X86.018400 Y-176.274000 Z-0.125000
G01 X86.299000 Y-176.379000 Z-0.125000
G01 X86.158700 Y-176.695000 Z-0.125000
G01 X68.240900 Y-194.613000 Z-0.125000
G01 X67.925200 Y-195.104000 Z-0.125000
G01 X67.820000 Y-195.595000 Z-0.125000
G01 X67.925200 Y-195.876000 Z-0.125000
G01 X68.240900 Y-195.735000 Z-0.125000
G01 X87.281200 Y-176.695000 Z-0.125000
G01 X87.772300 Y-176.379000 Z-0.125000
G01 X88.263400 Y-176.274000 Z-0.125000
G01 X88.544100 Y-176.379000 Z-0.125000
G01 X88.403700 Y-176.695000 Z-0.125000
G01 X68.240900 Y-196.858000 Z-0.125000
G01 X67.925200 Y-197.349000 Z-0.125000
G01 X67.820000 Y-197.840000 Z-0.125000
G01 X67.925200 Y-198.121000 Z-0.125000
G01 X68.240900 Y-197.980000 Z-0.125000
G01 X89.526300 Y-176.695000 Z-0.125000
G01 X90.017400 Y-176.379000 Z-0.125000
G01 X90.508500 Y-176.274000 Z-0.125000
G01 X90.789100 Y-176.379000 Z-0.125000
G01 X90.648800 Y-176.695000 Z-0.125000
G01 X81.509600 Y-185.834000 Z-0.125000
G01 X81.378000 Y-186.141000 Z-0.125000
G01 X81.677800 Y-186.227000 Z-0.125000
G01 X82.188100 Y-186.103000 Z-0.125000
G01 X82.688000 Y-185.778000 Z-0.125000
G01 X91.771300 Y-176.695000 Z-0.125000
G01 X92.262400 Y-176.379000 Z-0.125000
G01 X92.753600 Y-176.274000 Z-0.125000
G01 X93.034200 Y-176.379000 Z-0.125000
G01 X92.893900 Y-176.695000 Z-0.125000
G01 X83.810500 Y-185.778000 Z-0.125000
G01 X83.670200 Y-186.094000 Z-0.125000
G01 X83.950800 Y-186.199000 Z-0.125000
G01 X84.441900 Y-186.094000 Z-0.125000
G01 X84.933000 Y-185.778000 Z-0.125000
G01 X94.016400 Y-176.695000 Z-0.125000
G01 X94.507500 Y-176.379000 Z-0.125000
G01 X94.998600 Y-176.274000 Z-0.125000
G01 X95.279300 Y-176.379000 Z-0.125000
G01 X95.138900 Y-176.695000 Z-0.125000
G01 X86.055600 Y-185.778000 Z-0.125000
G01 X85.915200 Y-186.094000 Z-0.125000
G01 X86.195900 Y-186.199000 Z-0.125000
G01 X86.687000 Y-186.094000 Z-0.125000
G01 X87.178100 Y-185.778000 Z-0.125000
G01 X96.261500 Y-176.695000 Z-0.125000
G01 X96.752600 Y-176.379000 Z-0.125000
G01 X97.243700 Y-176.274000 Z-0.125000
G01 X97.524300 Y-176.379000 Z-0.125000
G01 X97.384000 Y-176.695000 Z-0.125000
G01 X88.300600 Y-185.778000 Z-0.125000
G01 X88.160300 Y-186.094000 Z-0.125000
G01 X88.440900 Y-186.199000 Z-0.125000
G01 X88.932000 Y-186.094000 Z-0.125000
G01 X89.423200 Y-185.778000 Z-0.125000
G01 X98.506500 Y-176.695000 Z-0.125000
G01 X98.997600 Y-176.379000 Z-0.125000
G01 X99.488700 Y-176.274000 Z-0.125000
G01 X99.769400 Y-176.379000 Z-0.125000
G01 X99.629100 Y-176.695000 Z-0.125000
G01 X90.545700 Y-185.778000 Z-0.125000
G01 X90.405400 Y-186.094000 Z-0.125000
G01 X90.686000 Y-186.199000 Z-0.125000
G01 X91.177100 Y-186.094000 Z-0.125000
G01 X91.668200 Y-185.778000 Z-0.125000
G01 X100.725000 Y-176.722000 Z-0.125000
G01 X101.200000 Y-176.422000 Z-0.125000
G01 X101.657000 Y-176.351000 Z-0.125000
G01 X101.903000 Y-176.491000 Z-0.125000
G01 X101.747000 Y-176.823000 Z-0.125000
G01 X92.790800 Y-185.778000 Z-0.125000
G01 X92.650400 Y-186.094000 Z-0.125000
G01 X92.931100 Y-186.199000 Z-0.125000
G01 X93.422200 Y-186.094000 Z-0.125000
G01 X93.913300 Y-185.778000 Z-0.125000
G01 X102.711000 Y-176.980000 Z-0.125000
G01 X103.170000 Y-176.697000 Z-0.125000
G01 X103.590000 Y-176.663000 Z-0.125000
G01 X103.800000 Y-176.839000 Z-0.125000
G01 X103.627000 Y-177.187000 Z-0.125000
G01 X95.035800 Y-185.778000 Z-0.125000
G01 X94.895500 Y-186.094000 Z-0.125000
G01 X95.176100 Y-186.199000 Z-0.125000
G01 X95.667200 Y-186.094000 Z-0.125000
G01 X96.158300 Y-185.778000 Z-0.125000
G01 X104.511000 Y-177.425000 Z-0.125000
G01 X104.959000 Y-177.154000 Z-0.125000
G01 X105.353000 Y-177.145000 Z-0.125000
G01 X105.537000 Y-177.347000 Z-0.125000
G01 X105.353000 Y-177.706000 Z-0.125000
G01 X97.280900 Y-185.778000 Z-0.125000
G01 X97.140600 Y-186.094000 Z-0.125000
G01 X97.421200 Y-186.199000 Z-0.125000
G01 X97.912300 Y-186.094000 Z-0.125000
G01 X98.403400 Y-185.778000 Z-0.125000
G01 X106.150000 Y-178.032000 Z-0.125000
G01 X106.584000 Y-177.773000 Z-0.125000
G01 X106.949000 Y-177.794000 Z-0.125000
G01 X107.104000 Y-178.025000 Z-0.125000
G01 X106.906000 Y-178.398000 Z-0.125000
G01 X99.525900 Y-185.778000 Z-0.125000
G01 X99.385600 Y-186.094000 Z-0.125000
G01 X99.666300 Y-186.199000 Z-0.125000
G01 X100.157000 Y-186.094000 Z-0.125000
G01 X100.648000 Y-185.778000 Z-0.125000
G01 X107.622000 Y-178.805000 Z-0.125000
G01 X108.044000 Y-178.558000 Z-0.125000
G01 X108.383000 Y-178.605000 Z-0.125000
G01 X108.511000 Y-178.863000 Z-0.125000
G01 X108.302000 Y-179.248000 Z-0.125000
G01 X101.702000 Y-185.847000 Z-0.125000
G01 X101.527000 Y-186.198000 Z-0.125000
G01 X101.730000 Y-186.380000 Z-0.125000
G01 X102.144000 Y-186.352000 Z-0.125000
G01 X102.600000 Y-186.072000 Z-0.125000
G01 X108.951000 Y-179.721000 Z-0.125000
G01 X109.363000 Y-179.484000 Z-0.125000
G01 X109.681000 Y-179.552000 Z-0.125000
G01 X109.789000 Y-179.830000 Z-0.125000
G01 X109.570000 Y-180.225000 Z-0.125000
G01 X103.358000 Y-186.437000 Z-0.125000
G01 X103.138000 Y-186.832000 Z-0.125000
G01 X103.245000 Y-187.111000 Z-0.125000
G01 X103.561000 Y-187.180000 Z-0.125000
G01 X103.973000 Y-186.944000 Z-0.125000
G01 X110.151000 Y-180.766000 Z-0.125000
G01 X110.552000 Y-180.541000 Z-0.125000
G01 X110.844000 Y-180.634000 Z-0.125000
G01 X110.926000 Y-180.939000 Z-0.125000
G01 X110.695000 Y-181.345000 Z-0.125000
G01 X104.455000 Y-187.584000 Z-0.125000
G01 X104.192000 Y-188.023000 Z-0.125000
G01 X104.202000 Y-188.399000 Z-0.125000
G01 X104.422000 Y-188.564000 Z-0.125000
G01 X104.791000 Y-188.372000 Z-0.125000
G01 X111.204000 Y-181.958000 Z-0.125000
G01 X111.595000 Y-181.743000 Z-0.125000
G01 X111.864000 Y-181.860000 Z-0.125000
G01 X111.922000 Y-182.187000 Z-0.125000
G01 X111.681000 Y-182.603000 Z-0.125000
G01 X104.970000 Y-189.315000 Z-0.125000
G01 X104.659000 Y-189.801000 Z-0.125000
G01 X104.565000 Y-190.280000 Z-0.125000
G01 X104.682000 Y-190.550000 Z-0.125000
G01 X105.003000 Y-190.404000 Z-0.125000
G01 X112.126000 Y-183.281000 Z-0.125000
G01 X112.507000 Y-183.076000 Z-0.125000
G01 X112.754000 Y-183.214000 Z-0.125000
G01 X112.791000 Y-183.563000 Z-0.125000
G01 X112.540000 Y-183.990000 Z-0.125000
G01 X105.003000 Y-191.527000 Z-0.125000
G01 X104.687000 Y-192.018000 Z-0.125000
G01 X104.582000 Y-192.509000 Z-0.125000
G01 X104.687000 Y-192.790000 Z-0.125000
G01 X105.003000 Y-192.649000 Z-0.125000
G01 X112.918000 Y-184.734000 Z-0.125000
G01 X113.285000 Y-184.543000 Z-0.125000
G01 X113.502000 Y-184.711000 Z-0.125000
G01 X113.510000 Y-185.090000 Z-0.125000
G01 X113.245000 Y-185.529000 Z-0.125000
G01 X105.003000 Y-193.772000 Z-0.125000
G01 X104.687000 Y-194.263000 Z-0.125000
G01 X104.582000 Y-194.754000 Z-0.125000
G01 X104.687000 Y-195.035000 Z-0.125000
G01 X105.003000 Y-194.894000 Z-0.125000
G01 X113.521000 Y-186.376000 Z-0.125000
G01 X113.872000 Y-186.201000 Z-0.125000
G01 X114.054000 Y-186.405000 Z-0.125000
G01 X114.025000 Y-186.819000 Z-0.125000
G01 X113.744000 Y-187.275000 Z-0.125000
G01 X105.003000 Y-196.017000 Z-0.125000
G01 X104.687000 Y-196.508000 Z-0.125000
G01 X104.582000 Y-196.999000 Z-0.125000
G01 X104.687000 Y-197.280000 Z-0.125000
G01 X105.003000 Y-197.140000 Z-0.125000
G01 X113.910000 Y-188.232000 Z-0.125000
G01 X114.244000 Y-188.074000 Z-0.125000
G01 X114.387000 Y-188.316000 Z-0.125000
G01 X114.321000 Y-188.769000 Z-0.125000
G01 X114.023000 Y-189.242000 Z-0.125000
G01 X105.003000 Y-198.262000 Z-0.125000
G01 X104.687000 Y-198.753000 Z-0.125000
G01 X104.582000 Y-199.244000 Z-0.125000
G01 X104.687000 Y-199.525000 Z-0.125000
G01 X105.003000 Y-199.385000 Z-0.125000
G01 X114.079000 Y-190.308000 Z-0.125000
G01 X114.396000 Y-190.167000 Z-0.125000
G01 X114.504000 Y-190.445000 Z-0.125000
G01 X114.401000 Y-190.934000 Z-0.125000
G01 X114.086000 Y-191.424000 Z-0.125000
G01 X105.003000 Y-200.507000 Z-0.125000
G01 X104.687000 Y-200.998000 Z-0.125000
G01 X104.582000 Y-201.489000 Z-0.125000
G01 X104.687000 Y-201.770000 Z-0.125000
G01 X105.003000 Y-201.630000 Z-0.125000
G01 X114.086000 Y-192.546000 Z-0.125000
G01 X114.402000 Y-192.406000 Z-0.125000
G01 X114.507000 Y-192.687000 Z-0.125000
G01 X114.402000 Y-193.178000 Z-0.125000
G01 X114.086000 Y-193.669000 Z-0.125000
G01 X105.003000 Y-202.752000 Z-0.125000
G01 X104.687000 Y-203.244000 Z-0.125000
G01 X104.581000 Y-203.735000 Z-0.125000
G01 X104.686000 Y-204.016000 Z-0.125000
G01 X105.001000 Y-203.876000 Z-0.125000
G01 X114.086000 Y-194.791000 Z-0.125000
G01 X114.402000 Y-194.651000 Z-0.125000
G01 X114.507000 Y-194.932000 Z-0.125000
G01 X114.402000 Y-195.423000 Z-0.125000
G01 X114.086000 Y-195.914000 Z-0.125000
G01 X104.440000 Y-205.560000 Z-0.125000
G00 Z5.000000

(End cutting path id: path8644)


(Start cutting path id: path8644)
(Change tool to Default tool)

G00 Z5.000000
G00 X117.199000 Y-158.809000

G01 Z-0.125000 F100.0(Penetrate)
G01 X117.422000 Y-158.586000 Z-0.125000 F400.000000
G01 X117.764000 Y-158.419000 Z-0.125000
G01 X118.206000 Y-158.363000 Z-0.125000
G01 X118.536000 Y-158.419000 Z-0.125000
G01 X118.544000 Y-158.586000 Z-0.125000
G01 X117.620000 Y-159.511000 Z-0.125000
G01 X117.304000 Y-160.002000 Z-0.125000
G01 X117.199000 Y-160.493000 Z-0.125000
G01 X117.304000 Y-160.773000 Z-0.125000
G01 X117.620000 Y-160.633000 Z-0.125000
G01 X119.469000 Y-158.784000 Z-0.125000
G01 X119.960000 Y-158.469000 Z-0.125000
G01 X120.451000 Y-158.363000 Z-0.125000
G01 X120.732000 Y-158.469000 Z-0.125000
G01 X120.591000 Y-158.784000 Z-0.125000
G01 X117.620000 Y-161.756000 Z-0.125000
G01 X117.304000 Y-162.247000 Z-0.125000
G01 X117.199000 Y-162.738000 Z-0.125000
G01 X117.304000 Y-163.018000 Z-0.125000
G01 X117.620000 Y-162.878000 Z-0.125000
G01 X121.714000 Y-158.784000 Z-0.125000
G01 X122.205000 Y-158.469000 Z-0.125000
G01 X122.696000 Y-158.363000 Z-0.125000
G01 X122.977000 Y-158.469000 Z-0.125000
G01 X122.836000 Y-158.784000 Z-0.125000
G01 X117.620000 Y-164.001000 Z-0.125000
G01 X117.304000 Y-164.492000 Z-0.125000
G01 X117.199000 Y-164.983000 Z-0.125000
G01 X117.304000 Y-165.264000 Z-0.125000
G01 X117.620000 Y-165.123000 Z-0.125000
G01 X123.959000 Y-158.784000 Z-0.125000
G01 X124.450000 Y-158.469000 Z-0.125000
G01 X124.941000 Y-158.363000 Z-0.125000
G01 X125.222000 Y-158.469000 Z-0.125000
G01 X125.081000 Y-158.784000 Z-0.125000
G01 X117.620000 Y-166.246000 Z-0.125000
G01 X117.304000 Y-166.737000 Z-0.125000
G01 X117.199000 Y-167.228000 Z-0.125000
G01 X117.304000 Y-167.509000 Z-0.125000
G01 X117.620000 Y-167.368000 Z-0.125000
G01 X126.204000 Y-158.784000 Z-0.125000
G01 X126.598000 Y-158.566000 Z-0.125000
G01 X126.875000 Y-158.675000 Z-0.125000
G01 X126.941000 Y-158.994000 Z-0.125000
G01 X126.704000 Y-159.407000 Z-0.125000
G01 X117.620000 Y-168.491000 Z-0.125000
G01 X117.304000 Y-168.982000 Z-0.125000
G01 X117.199000 Y-169.473000 Z-0.125000
G01 X117.304000 Y-169.754000 Z-0.125000
G01 X117.620000 Y-169.613000 Z-0.125000
G01 X126.704000 Y-160.530000 Z-0.125000
G01 X127.019000 Y-160.390000 Z-0.125000
G01 X127.124000 Y-160.670000 Z-0.125000
G01 X127.019000 Y-161.161000 Z-0.125000
G01 X126.704000 Y-161.653000 Z-0.125000
G01 X117.620000 Y-170.736000 Z-0.125000
G01 X117.304000 Y-171.227000 Z-0.125000
G01 X117.199000 Y-171.718000 Z-0.125000
G01 X117.304000 Y-171.999000 Z-0.125000
G01 X117.620000 Y-171.858000 Z-0.125000
G01 X126.704000 Y-162.775000 Z-0.125000
G01 X127.019000 Y-162.635000 Z-0.125000
G01 X127.124000 Y-162.915000 Z-0.125000
G01 X127.019000 Y-163.406000 Z-0.125000
G01 X126.704000 Y-163.898000 Z-0.125000
G01 X117.620000 Y-172.981000 Z-0.125000
G01 X117.304000 Y-173.472000 Z-0.125000
G01 X117.199000 Y-173.963000 Z-0.125000
G01 X117.304000 Y-174.244000 Z-0.125000
G01 X117.620000 Y-174.103000 Z-0.125000
G01 X126.704000 Y-165.020000 Z-0.125000
G01 X127.019000 Y-164.880000 Z-0.125000
G01 X127.124000 Y-165.160000 Z-0.125000
G01 X127.019000 Y-165.652000 Z-0.125000
G01 X126.704000 Y-166.143000 Z-0.125000
G01 X117.620000 Y-175.226000 Z-0.125000
G01 X117.304000 Y-175.717000 Z-0.125000
G01 X117.199000 Y-176.208000 Z-0.125000
G01 X117.304000 Y-176.489000 Z-0.125000
G01 X117.620000 Y-176.349000 Z-0.125000
G01 X126.704000 Y-167.265000 Z-0.125000
G01 X127.019000 Y-167.125000 Z-0.125000
G01 X127.124000 Y-167.405000 Z-0.125000
G01 X127.019000 Y-167.897000 Z-0.125000
G01 X126.704000 Y-168.388000 Z-0.125000
G01 X117.620000 Y-177.471000 Z-0.125000
G01 X117.304000 Y-177.962000 Z-0.125000
G01 X117.199000 Y-178.453000 Z-0.125000
G01 X117.304000 Y-178.734000 Z-0.125000
G01 X117.620000 Y-178.594000 Z-0.125000
G01 X126.704000 Y-169.510000 Z-0.125000
G01 X127.019000 Y-169.370000 Z-0.125000
G01 X127.124000 Y-169.651000 Z-0.125000
G01 X127.019000 Y-170.142000 Z-0.125000
G01 X126.704000 Y-170.633000 Z-0.125000
G01 X117.620000 Y-179.716000 Z-0.125000
G01 X117.304000 Y-180.207000 Z-0.125000
G01 X117.199000 Y-180.698000 Z-0.125000
G01 X117.304000 Y-180.979000 Z-0.125000
G01 X117.620000 Y-180.839000 Z-0.125000
G01 X126.704000 Y-171.755000 Z-0.125000
G01 X127.019000 Y-171.615000 Z-0.125000
G01 X127.124000 Y-171.896000 Z-0.125000
G01 X127.019000 Y-172.387000 Z-0.125000
G01 X126.704000 Y-172.878000 Z-0.125000
G01 X117.620000 Y-181.961000 Z-0.125000
G01 X117.304000 Y-182.452000 Z-0.125000
G01 X117.199000 Y-182.943000 Z-0.125000
G01 X117.304000 Y-183.224000 Z-0.125000
G01 X117.620000 Y-183.084000 Z-0.125000
G01 X126.704000 Y-174.000000 Z-0.125000
G01 X127.019000 Y-173.860000 Z-0.125000
G01 X127.124000 Y-174.141000 Z-0.125000
G01 X127.019000 Y-174.632000 Z-0.125000
G01 X126.704000 Y-175.123000 Z-0.125000
G01 X117.620000 Y-184.206000 Z-0.125000
G01 X117.304000 Y-184.697000 Z-0.125000
G01 X117.199000 Y-185.188000 Z-0.125000
G01 X117.304000 Y-185.469000 Z-0.125000
G01 X117.620000 Y-185.329000 Z-0.125000
G01 X126.704000 Y-176.245000 Z-0.125000
G01 X127.019000 Y-176.105000 Z-0.125000
G01 X127.124000 Y-176.386000 Z-0.125000
G01 X127.019000 Y-176.877000 Z-0.125000
G01 X126.704000 Y-177.368000 Z-0.125000
G01 X117.620000 Y-186.451000 Z-0.125000
G01 X117.304000 Y-186.942000 Z-0.125000
G01 X117.199000 Y-187.434000 Z-0.125000
G01 X117.304000 Y-187.714000 Z-0.125000
G01 X117.620000 Y-187.574000 Z-0.125000
G01 X126.704000 Y-178.490000 Z-0.125000
G01 X127.019000 Y-178.350000 Z-0.125000
G01 X127.124000 Y-178.631000 Z-0.125000
G01 X127.019000 Y-179.122000 Z-0.125000
G01 X126.704000 Y-179.613000 Z-0.125000
G01 X117.620000 Y-188.696000 Z-0.125000
G01 X117.304000 Y-189.188000 Z-0.125000
G01 X117.199000 Y-189.679000 Z-0.125000
G01 X117.304000 Y-189.959000 Z-0.125000
G01 X117.620000 Y-189.819000 Z-0.125000
G01 X126.704000 Y-180.736000 Z-0.125000
G01 X127.019000 Y-180.595000 Z-0.125000
G01 X127.124000 Y-180.876000 Z-0.125000
G01 X127.019000 Y-181.367000 Z-0.125000
G01 X126.704000 Y-181.858000 Z-0.125000
G01 X117.620000 Y-190.941000 Z-0.125000
G01 X117.304000 Y-191.433000 Z-0.125000
G01 X117.199000 Y-191.924000 Z-0.125000
G01 X117.304000 Y-192.204000 Z-0.125000
G01 X117.620000 Y-192.064000 Z-0.125000
G01 X126.704000 Y-182.981000 Z-0.125000
G01 X127.019000 Y-182.840000 Z-0.125000
G01 X127.124000 Y-183.121000 Z-0.125000
G01 X127.019000 Y-183.612000 Z-0.125000
G01 X126.704000 Y-184.103000 Z-0.125000
G01 X117.620000 Y-193.187000 Z-0.125000
G01 X117.304000 Y-193.678000 Z-0.125000
G01 X117.199000 Y-194.169000 Z-0.125000
G01 X117.304000 Y-194.449000 Z-0.125000
G01 X117.620000 Y-194.309000 Z-0.125000
G01 X126.704000 Y-185.226000 Z-0.125000
G01 X127.019000 Y-185.085000 Z-0.125000
G01 X127.124000 Y-185.366000 Z-0.125000
G01 X127.019000 Y-185.857000 Z-0.125000
G01 X126.704000 Y-186.348000 Z-0.125000
G01 X117.620000 Y-195.432000 Z-0.125000
G01 X117.304000 Y-195.923000 Z-0.125000
G01 X117.199000 Y-196.414000 Z-0.125000
G01 X117.304000 Y-196.694000 Z-0.125000
G01 X117.620000 Y-196.554000 Z-0.125000
G01 X126.704000 Y-187.471000 Z-0.125000
G01 X127.019000 Y-187.330000 Z-0.125000
G01 X127.124000 Y-187.611000 Z-0.125000
G01 X127.019000 Y-188.102000 Z-0.125000
G01 X126.704000 Y-188.593000 Z-0.125000
G01 X117.620000 Y-197.677000 Z-0.125000
G01 X117.304000 Y-198.168000 Z-0.125000
G01 X117.199000 Y-198.659000 Z-0.125000
G01 X117.304000 Y-198.940000 Z-0.125000
G01 X117.620000 Y-198.799000 Z-0.125000
G01 X126.704000 Y-189.716000 Z-0.125000
G01 X127.019000 Y-189.575000 Z-0.125000
G01 X127.124000 Y-189.856000 Z-0.125000
G01 X127.019000 Y-190.347000 Z-0.125000
G01 X126.704000 Y-190.838000 Z-0.125000
G01 X117.620000 Y-199.922000 Z-0.125000
G01 X117.304000 Y-200.413000 Z-0.125000
G01 X117.199000 Y-200.904000 Z-0.125000
G01 X117.304000 Y-201.185000 Z-0.125000
G01 X117.620000 Y-201.044000 Z-0.125000
G01 X126.704000 Y-191.961000 Z-0.125000
G01 X127.019000 Y-191.821000 Z-0.125000
G01 X127.124000 Y-192.101000 Z-0.125000
G01 X127.019000 Y-192.592000 Z-0.125000
G01 X126.704000 Y-193.083000 Z-0.125000
G01 X117.620000 Y-202.167000 Z-0.125000
G01 X117.304000 Y-202.658000 Z-0.125000
G01 X117.199000 Y-203.149000 Z-0.125000
G01 X117.304000 Y-203.430000 Z-0.125000
G01 X117.620000 Y-203.289000 Z-0.125000
G01 X126.704000 Y-194.206000 Z-0.125000
G01 X127.019000 Y-194.066000 Z-0.125000
G01 X127.124000 Y-194.346000 Z-0.125000
G01 X127.019000 Y-194.837000 Z-0.125000
G01 X126.704000 Y-195.328000 Z-0.125000
G01 X117.629000 Y-204.403000 Z-0.125000
G01 X117.324000 Y-204.883000 Z-0.125000
G01 X117.242000 Y-205.352000 Z-0.125000
G01 X117.370000 Y-205.610000 Z-0.125000
G01 X117.696000 Y-205.459000 Z-0.125000
G01 X126.703000 Y-196.451000 Z-0.125000
G01 X127.019000 Y-196.311000 Z-0.125000
G01 X127.124000 Y-196.591000 Z-0.125000
G01 X127.019000 Y-197.082000 Z-0.125000
G01 X126.703000 Y-197.574000 Z-0.125000
G01 X117.817000 Y-206.460000 Z-0.125000
G01 X117.529000 Y-206.924000 Z-0.125000
G01 X117.484000 Y-207.355000 Z-0.125000
G01 X117.649000 Y-207.575000 Z-0.125000
G01 X117.992000 Y-207.407000 Z-0.125000
G01 X126.703000 Y-198.696000 Z-0.125000
G01 X127.019000 Y-198.556000 Z-0.125000
G01 X127.124000 Y-198.836000 Z-0.125000
G01 X127.019000 Y-199.327000 Z-0.125000
G01 X126.703000 Y-199.819000 Z-0.125000
G01 X118.226000 Y-208.297000 Z-0.125000
G01 X117.954000 Y-208.744000 Z-0.125000
G01 X117.945000 Y-209.138000 Z-0.125000
G01 X118.147000 Y-209.322000 Z-0.125000
G01 X118.507000 Y-209.138000 Z-0.125000
G01 X126.703000 Y-200.941000 Z-0.125000
G01 X127.019000 Y-200.801000 Z-0.125000
G01 X127.124000 Y-201.081000 Z-0.125000
G01 X127.019000 Y-201.573000 Z-0.125000
G01 X126.703000 Y-202.064000 Z-0.125000
G01 X118.826000 Y-209.941000 Z-0.125000
G01 X118.566000 Y-210.376000 Z-0.125000
G01 X118.585000 Y-210.743000 Z-0.125000
G01 X118.814000 Y-210.900000 Z-0.125000
G01 X119.186000 Y-210.704000 Z-0.125000
G01 X126.703000 Y-203.186000 Z-0.125000
G01 X127.019000 Y-203.046000 Z-0.125000
G01 X127.124000 Y-203.327000 Z-0.125000
G01 X127.019000 Y-203.818000 Z-0.125000
G01 X126.703000 Y-204.309000 Z-0.125000
G01 X119.583000 Y-211.430000 Z-0.125000
G01 X119.335000 Y-211.853000 Z-0.125000
G01 X119.378000 Y-212.195000 Z-0.125000
G01 X119.632000 Y-212.327000 Z-0.125000
G01 X120.016000 Y-212.119000 Z-0.125000
G01 X126.752000 Y-205.382000 Z-0.125000
G01 X127.103000 Y-205.207000 Z-0.125000
G01 X127.285000 Y-205.411000 Z-0.125000
G01 X127.256000 Y-205.825000 Z-0.125000
G01 X126.976000 Y-206.282000 Z-0.125000
G01 X120.504000 Y-212.753000 Z-0.125000
G01 X120.270000 Y-213.163000 Z-0.125000
G01 X120.343000 Y-213.475000 Z-0.125000
G01 X120.627000 Y-213.577000 Z-0.125000
G01 X121.024000 Y-213.356000 Z-0.125000
G01 X127.346000 Y-207.034000 Z-0.125000
G01 X127.739000 Y-206.816000 Z-0.125000
G01 X128.015000 Y-206.926000 Z-0.125000
G01 X128.081000 Y-207.246000 Z-0.125000
G01 X127.843000 Y-207.659000 Z-0.125000
G01 X121.576000 Y-213.926000 Z-0.125000
G01 X121.352000 Y-214.326000 Z-0.125000
G01 X121.449000 Y-214.615000 Z-0.125000
G01 X121.756000 Y-214.693000 Z-0.125000
G01 X122.164000 Y-214.461000 Z-0.125000
G01 X128.460000 Y-208.165000 Z-0.125000
G01 X128.891000 Y-207.909000 Z-0.125000
G01 X129.249000 Y-207.937000 Z-0.125000
G01 X129.396000 Y-208.176000 Z-0.125000
G01 X129.196000 Y-208.552000 Z-0.125000
G01 X122.789000 Y-214.958000 Z-0.125000
G01 X122.577000 Y-215.346000 Z-0.125000
G01 X122.699000 Y-215.610000 Z-0.125000
G01 X123.032000 Y-215.663000 Z-0.125000
G01 X123.451000 Y-215.419000 Z-0.125000
G01 X130.071000 Y-208.799000 Z-0.125000
G01 X130.551000 Y-208.495000 Z-0.125000
G01 X131.017000 Y-208.414000 Z-0.125000
G01 X131.273000 Y-208.544000 Z-0.125000
G01 X131.121000 Y-208.871000 Z-0.125000
G01 X124.142000 Y-215.851000 Z-0.125000
G01 X123.939000 Y-216.229000 Z-0.125000
G01 X124.082000 Y-216.471000 Z-0.125000
G01 X124.436000 Y-216.503000 Z-0.125000
G01 X124.865000 Y-216.250000 Z-0.125000
G01 X132.244000 Y-208.871000 Z-0.125000
G01 X132.735000 Y-208.556000 Z-0.125000
G01 X133.226000 Y-208.451000 Z-0.125000
G01 X133.506000 Y-208.556000 Z-0.125000
G01 X133.366000 Y-208.871000 Z-0.125000
G01 X125.616000 Y-216.622000 Z-0.125000
G01 X125.425000 Y-216.988000 Z-0.125000
G01 X125.595000 Y-217.203000 Z-0.125000
G01 X125.976000 Y-217.208000 Z-0.125000
G01 X126.417000 Y-216.943000 Z-0.125000
G01 X134.489000 Y-208.871000 Z-0.125000
G01 X134.980000 Y-208.556000 Z-0.125000
G01 X135.471000 Y-208.451000 Z-0.125000
G01 X135.751000 Y-208.556000 Z-0.125000
G01 X135.611000 Y-208.871000 Z-0.125000
G01 X127.250000 Y-217.232000 Z-0.125000
G01 X127.070000 Y-217.588000 Z-0.125000
G01 X127.263000 Y-217.781000 Z-0.125000
G01 X127.667000 Y-217.763000 Z-0.125000
G01 X128.118000 Y-217.487000 Z-0.125000
G01 X136.734000 Y-208.871000 Z-0.125000
G01 X137.225000 Y-208.556000 Z-0.125000
G01 X137.716000 Y-208.451000 Z-0.125000
G01 X137.996000 Y-208.556000 Z-0.125000
G01 X137.856000 Y-208.871000 Z-0.125000
G01 X129.034000 Y-217.694000 Z-0.125000
G01 X128.870000 Y-218.033000 Z-0.125000
G01 X129.098000 Y-218.191000 Z-0.125000
G01 X129.537000 Y-218.138000 Z-0.125000
G01 X130.004000 Y-217.846000 Z-0.125000
G01 X138.979000 Y-208.871000 Z-0.125000
G01 X139.470000 Y-208.556000 Z-0.125000
G01 X139.961000 Y-208.451000 Z-0.125000
G01 X140.242000 Y-208.556000 Z-0.125000
G01 X140.101000 Y-208.871000 Z-0.125000
G01 X131.039000 Y-217.934000 Z-0.125000
G01 X130.895000 Y-218.253000 Z-0.125000
G01 X131.169000 Y-218.365000 Z-0.125000
G01 X131.653000 Y-218.267000 Z-0.125000
G01 X132.140000 Y-217.955000 Z-0.125000
G01 X141.224000 Y-208.871000 Z-0.125000
G01 X141.715000 Y-208.556000 Z-0.125000
G01 X142.206000 Y-208.451000 Z-0.125000
G01 X142.487000 Y-208.556000 Z-0.125000
G01 X142.346000 Y-208.871000 Z-0.125000
G01 X133.263000 Y-217.955000 Z-0.125000
G01 X133.123000 Y-218.271000 Z-0.125000
G01 X133.403000 Y-218.376000 Z-0.125000
G01 X133.894000 Y-218.271000 Z-0.125000
G01 X134.385000 Y-217.955000 Z-0.125000
G01 X143.469000 Y-208.871000 Z-0.125000
G01 X143.960000 Y-208.556000 Z-0.125000
G01 X144.451000 Y-208.451000 Z-0.125000
G01 X144.732000 Y-208.556000 Z-0.125000
G01 X144.591000 Y-208.871000 Z-0.125000
G01 X135.508000 Y-217.955000 Z-0.125000
G01 X135.368000 Y-218.271000 Z-0.125000
G01 X135.648000 Y-218.376000 Z-0.125000
G01 X136.139000 Y-218.271000 Z-0.125000
G01 X136.630000 Y-217.955000 Z-0.125000
G01 X145.714000 Y-208.871000 Z-0.125000
G01 X146.205000 Y-208.556000 Z-0.125000
G01 X146.696000 Y-208.451000 Z-0.125000
G01 X146.977000 Y-208.556000 Z-0.125000
G01 X146.836000 Y-208.871000 Z-0.125000
G01 X137.753000 Y-217.955000 Z-0.125000
G01 X137.613000 Y-218.271000 Z-0.125000
G01 X137.893000 Y-218.376000 Z-0.125000
G01 X138.384000 Y-218.271000 Z-0.125000
G01 X138.876000 Y-217.955000 Z-0.125000
G01 X147.959000 Y-208.871000 Z-0.125000
G01 X148.450000 Y-208.556000 Z-0.125000
G01 X148.941000 Y-208.451000 Z-0.125000
G01 X149.222000 Y-208.556000 Z-0.125000
G01 X149.081000 Y-208.871000 Z-0.125000
G01 X139.998000 Y-217.955000 Z-0.125000
G01 X139.858000 Y-218.271000 Z-0.125000
G01 X140.138000 Y-218.376000 Z-0.125000
G01 X140.630000 Y-218.271000 Z-0.125000
G01 X141.121000 Y-217.955000 Z-0.125000
G01 X150.702000 Y-208.374000 Z-0.125000
G00 Z5.000000

(End cutting path id: path8644)


(Start cutting path id: path8644)
(Change tool to Default tool)

G00 Z5.000000
G00 X139.605000 Y-290.594000

G01 Z-0.125000 F100.0(Penetrate)
G01 X140.730000 Y-289.469000 Z-0.125000 F400.000000
G01 X141.221000 Y-289.153000 Z-0.125000
G01 X141.712000 Y-289.048000 Z-0.125000
G01 X141.993000 Y-289.153000 Z-0.125000
G01 X141.852000 Y-289.469000 Z-0.125000
G01 X139.272000 Y-292.049000 Z-0.125000
G01 X138.474000 Y-293.409000 Z-0.125000
G01 X138.320000 Y-293.948000 Z-0.125000
G01 X138.366000 Y-294.029000 Z-0.125000
G01 X138.518000 Y-293.926000 Z-0.125000
G01 X142.975000 Y-289.469000 Z-0.125000
G01 X143.466000 Y-289.153000 Z-0.125000
G01 X143.957000 Y-289.048000 Z-0.125000
G01 X144.238000 Y-289.153000 Z-0.125000
G01 X144.097000 Y-289.469000 Z-0.125000
G01 X137.764000 Y-295.803000 Z-0.125000
G01 X136.966000 Y-297.162000 Z-0.125000
G01 X136.812000 Y-297.702000 Z-0.125000
G01 X136.858000 Y-297.783000 Z-0.125000
G01 X137.010000 Y-297.679000 Z-0.125000
G01 X145.220000 Y-289.469000 Z-0.125000
G01 X145.555000 Y-289.309000 Z-0.125000
G01 X145.704000 Y-289.546000 Z-0.125000
G01 X145.643000 Y-289.993000 Z-0.125000
G01 X145.347000 Y-290.464000 Z-0.125000
G01 X135.835000 Y-299.977000 Z-0.125000
G00 Z5.000000

(End cutting path id: path8644)


(Start cutting path id: path8644)
(Change tool to Default tool)

G00 Z5.000000
G00 X135.144000 Y-301.340000

G01 Z-0.125000 F100.0(Penetrate)
G01 X140.137000 Y-288.916000 Z-0.125000 F400.000000
G01 X146.434000 Y-288.916000 Z-0.125000
G01 X137.981000 Y-307.240000 Z-0.125000
G01 X137.981000 Y-319.721000 Z-0.125000
G01 X132.081000 Y-319.721000 Z-0.125000
G01 X132.081000 Y-307.240000 Z-0.125000
G01 X123.684000 Y-288.859000 Z-0.125000
