%
(Header)
(Generated by gcodetools from Inkscape.)
(Using default header. To add your own header create file "header" in the output dir.)
M3
(Header end.)
G21 (All units in mm)

(Start cutting path id: rect8692)
(Change tool to Default tool)

G00 Z5.000000
G00 X-340.179513 Y167.796794

G01 Z-0.125000 F100.0(Penetrate)
G01 X-76.439832 Y167.796794 Z-0.125000 F400.000000
G01 X-76.439832 Y-94.569661 Z-0.125000
G01 X-340.179513 Y-94.569661 Z-0.125000
G01 X-340.179513 Y167.796794 Z-0.125000
G00 Z5.000000

(End cutting path id: rect8692)


(Start cutting path id: rect8691)
(Change tool to Default tool)

G00 Z5.000000
G00 X-340.046538 Y167.664511

G01 Z-0.125000 F100.0(Penetrate)
G01 X-76.572755 Y167.664511 Z-0.125000 F400.000000
G01 X-76.572755 Y-94.437420 Z-0.125000
G01 X-340.046538 Y-94.437420 Z-0.125000
G01 X-340.046538 Y167.664511 Z-0.125000
G00 Z5.000000

(End cutting path id: rect8691)


(Start cutting path id: rect8690)
(Change tool to Default tool)

G00 Z5.000000
G00 X-339.921072 Y167.539696

G01 Z-0.125000 F100.0(Penetrate)
G01 X-76.698257 Y167.539696 Z-0.125000 F400.000000
G01 X-76.698257 Y-94.312563 Z-0.125000
G01 X-339.921072 Y-94.312563 Z-0.125000
G01 X-339.921072 Y167.539696 Z-0.125000
G00 Z5.000000

(End cutting path id: rect8690)


(Start cutting path id: rect8689)
(Change tool to Default tool)

G00 Z5.000000
G00 X-339.788360 Y167.407665

G01 Z-0.125000 F100.0(Penetrate)
G01 X-76.830921 Y167.407665 Z-0.125000 F400.000000
G01 X-76.830921 Y-94.180605 Z-0.125000
G01 X-339.788360 Y-94.180605 Z-0.125000
G01 X-339.788360 Y167.407665 Z-0.125000
G00 Z5.000000

(End cutting path id: rect8689)


(Start cutting path id: rect8688)
(Change tool to Default tool)

G00 Z5.000000
G00 X-339.656727 Y167.276735

G01 Z-0.125000 F100.0(Penetrate)
G01 X-76.962595 Y167.276735 Z-0.125000 F400.000000
G01 X-76.962595 Y-94.049602 Z-0.125000
G01 X-339.656727 Y-94.049602 Z-0.125000
G01 X-339.656727 Y167.276735 Z-0.125000
G00 Z5.000000

(End cutting path id: rect8688)


(Start cutting path id: rect8687)
(Change tool to Default tool)

G00 Z5.000000
G00 X-339.524288 Y167.144987

G01 Z-0.125000 F100.0(Penetrate)
G01 X-77.095000 Y167.144987 Z-0.125000 F400.000000
G01 X-77.095000 Y-93.917886 Z-0.125000
G01 X-339.524288 Y-93.917886 Z-0.125000
G01 X-339.524288 Y167.144987 Z-0.125000
G00 Z5.000000

(End cutting path id: rect8687)


(Start cutting path id: rect8686)
(Change tool to Default tool)

G00 Z5.000000
G00 X-339.399304 Y167.020655

G01 Z-0.125000 F100.0(Penetrate)
G01 X-77.219993 Y167.020655 Z-0.125000 F400.000000
G01 X-77.219993 Y-93.793522 Z-0.125000
G01 X-339.399304 Y-93.793522 Z-0.125000
G01 X-339.399304 Y167.020655 Z-0.125000
G00 Z5.000000

(End cutting path id: rect8686)


(Start cutting path id: rect8685)
(Change tool to Default tool)

G00 Z5.000000
G00 X-339.267106 Y166.889159

G01 Z-0.125000 F100.0(Penetrate)
G01 X-77.352139 Y166.889159 Z-0.125000 F400.000000
G01 X-77.352139 Y-93.662068 Z-0.125000
G01 X-339.267106 Y-93.662068 Z-0.125000
G01 X-339.267106 Y166.889159 Z-0.125000
G00 Z5.000000

(End cutting path id: rect8685)


(Start cutting path id: path132)
(Change tool to Default tool)

G00 Z5.000000
G00 X-338.100544 Y166.540271

G01 Z-0.125000 F100.0(Penetrate)
G01 X-338.509981 Y166.131912 Z-0.125000 F400.000000
G01 X-338.815980 Y165.637356 Z-0.125000
G01 X-338.916185 Y165.120173 Z-0.125000
G01 X-338.812748 Y164.807708 Z-0.125000
G01 X-338.505671 Y164.926229 Z-0.125000
G01 X-337.340932 Y166.090968 Z-0.125000
G01 X-336.810820 Y166.432524 Z-0.125000
G01 X-336.280707 Y166.546736 Z-0.125000
G01 X-335.976862 Y166.434679 Z-0.125000
G01 X-336.127707 Y166.095278 Z-0.125000
G01 X-338.457185 Y163.765801 Z-0.125000
G01 X-338.796586 Y163.237843 Z-0.125000
G01 X-338.908642 Y162.709886 Z-0.125000
G01 X-338.793354 Y162.408196 Z-0.125000
G01 X-338.452875 Y162.560118 Z-0.125000
G01 X-334.913405 Y166.099588 Z-0.125000
G01 X-334.383293 Y166.440067 Z-0.125000
G01 X-333.853181 Y166.555355 Z-0.125000
G01 X-333.549336 Y166.443299 Z-0.125000
G01 X-333.700181 Y166.103898 Z-0.125000
G01 X-338.448565 Y161.355513 Z-0.125000
G01 X-338.787966 Y160.826478 Z-0.125000
G01 X-338.900023 Y160.298521 Z-0.125000
G01 X-338.785811 Y159.997909 Z-0.125000
G01 X-338.444255 Y160.149831 Z-0.125000
G01 X-332.485879 Y166.108208 Z-0.125000
G01 X-331.956844 Y166.448686 Z-0.125000
G01 X-331.425654 Y166.562897 Z-0.125000
G01 X-331.121809 Y166.451919 Z-0.125000
G01 X-331.272654 Y166.112517 Z-0.125000
G01 X-338.439945 Y158.944149 Z-0.125000
G01 X-338.779347 Y158.416191 Z-0.125000
G01 X-338.891403 Y157.888234 Z-0.125000
G01 X-338.777192 Y157.587621 Z-0.125000
G01 X-338.435636 Y157.738466 Z-0.125000
G01 X-330.058352 Y166.115750 Z-0.125000
G01 X-329.529317 Y166.457306 Z-0.125000
G01 X-328.998127 Y166.571517 Z-0.125000
G01 X-328.694282 Y166.459461 Z-0.125000
G01 X-328.845127 Y166.120060 Z-0.125000
G01 X-338.432403 Y156.533861 Z-0.125000
G01 X-338.771804 Y156.004826 Z-0.125000
G01 X-338.883861 Y155.476869 Z-0.125000
G01 X-338.768572 Y155.176257 Z-0.125000
G01 X-338.428093 Y155.328179 Z-0.125000
G01 X-327.631903 Y166.124370 Z-0.125000
G01 X-327.101790 Y166.464848 Z-0.125000
G01 X-326.571678 Y166.580137 Z-0.125000
G01 X-326.267833 Y166.468081 Z-0.125000
G01 X-326.417601 Y166.128679 Z-0.125000
G01 X-338.423783 Y154.122497 Z-0.125000
G01 X-338.763185 Y153.594539 Z-0.125000
G01 X-338.875241 Y153.066582 Z-0.125000
G01 X-338.759952 Y152.765969 Z-0.125000
G01 X-338.419474 Y152.917892 Z-0.125000
G01 X-325.204376 Y166.132989 Z-0.125000
G01 X-324.674264 Y166.473468 Z-0.125000
G01 X-324.144151 Y166.588757 Z-0.125000
G01 X-323.840306 Y166.476700 Z-0.125000
G01 X-323.991151 Y166.137299 Z-0.125000
G01 X-338.415164 Y151.712209 Z-0.125000
G01 X-338.754565 Y151.184252 Z-0.125000
G01 X-338.866621 Y150.656294 Z-0.125000
G01 X-338.752410 Y150.354605 Z-0.125000
G01 X-338.410854 Y150.506527 Z-0.125000
G01 X-322.776849 Y166.140532 Z-0.125000
G01 X-322.246737 Y166.482088 Z-0.125000
G01 X-321.716625 Y166.596299 Z-0.125000
G01 X-321.412780 Y166.484243 Z-0.125000
G01 X-321.563625 Y166.144841 Z-0.125000
G01 X-338.407622 Y149.301922 Z-0.125000
G01 X-338.747023 Y148.772887 Z-0.125000
G01 X-338.859079 Y148.244930 Z-0.125000
G01 X-338.743790 Y147.944317 Z-0.125000
G01 X-338.403312 Y148.096240 Z-0.125000
G01 X-320.349323 Y166.149151 Z-0.125000
G01 X-319.820288 Y166.489630 Z-0.125000
G01 X-319.289098 Y166.604919 Z-0.125000
G01 X-318.985253 Y166.492862 Z-0.125000
G01 X-319.136098 Y166.153461 Z-0.125000
G01 X-338.399002 Y146.890557 Z-0.125000
G01 X-338.738403 Y146.362600 Z-0.125000
G01 X-338.850459 Y145.834642 Z-0.125000
G01 X-338.735171 Y145.532953 Z-0.125000
G01 X-338.394692 Y145.684875 Z-0.125000
G01 X-317.921796 Y166.157771 Z-0.125000
G01 X-317.392761 Y166.498250 Z-0.125000
G01 X-316.861571 Y166.613538 Z-0.125000
G01 X-316.558804 Y166.501482 Z-0.125000
G01 X-316.708571 Y166.162081 Z-0.125000
G01 X-338.390382 Y144.480270 Z-0.125000
G01 X-338.729783 Y143.951235 Z-0.125000
G01 X-338.841840 Y143.423278 Z-0.125000
G01 X-338.727628 Y143.122665 Z-0.125000
G01 X-338.386072 Y143.274588 Z-0.125000
G01 X-315.495347 Y166.166391 Z-0.125000
G01 X-314.965234 Y166.506869 Z-0.125000
G01 X-314.435122 Y166.621081 Z-0.125000
G01 X-314.131277 Y166.509024 Z-0.125000
G01 X-314.281045 Y166.170701 Z-0.125000
G01 X-338.382840 Y142.068905 Z-0.125000
G01 X-338.722241 Y141.540948 Z-0.125000
G01 X-338.834297 Y141.012990 Z-0.125000
G01 X-338.719009 Y140.712378 Z-0.125000
G01 X-338.378530 Y140.864300 Z-0.125000
G01 X-313.067820 Y166.173933 Z-0.125000
G01 X-312.537708 Y166.515489 Z-0.125000
G01 X-312.007595 Y166.629700 Z-0.125000
G01 X-311.703750 Y166.517644 Z-0.125000
G01 X-311.854595 Y166.178243 Z-0.125000
G01 X-338.374220 Y139.658618 Z-0.125000
G01 X-338.713621 Y139.129583 Z-0.125000
G01 X-338.825678 Y138.602703 Z-0.125000
G01 X-338.710389 Y138.301013 Z-0.125000
G01 X-338.369910 Y138.452936 Z-0.125000
G01 X-310.640293 Y166.182553 Z-0.125000
G01 X-310.110181 Y166.523031 Z-0.125000
G01 X-309.580069 Y166.638320 Z-0.125000
G01 X-309.276224 Y166.526264 Z-0.125000
G01 X-309.427069 Y166.186862 Z-0.125000
G01 X-338.365600 Y137.248331 Z-0.125000
G01 X-338.705002 Y136.719296 Z-0.125000
G01 X-338.817058 Y136.191338 Z-0.125000
G01 X-338.702847 Y135.890726 Z-0.125000
G01 X-338.361291 Y136.042648 Z-0.125000
G01 X-308.212767 Y166.191172 Z-0.125000
G01 X-307.708513 Y166.506869 Z-0.125000
G01 X-307.232274 Y166.566130 Z-0.125000
G01 X-306.983380 Y166.400200 Z-0.125000
G01 X-307.159007 Y166.034940 Z-0.125000
G01 X-338.358058 Y134.836966 Z-0.125000
G01 X-338.516445 Y134.488945 Z-0.125000
G01 X-338.230917 Y134.358572 Z-0.125000
G01 X-337.718044 Y134.455544 Z-0.125000
G01 X-337.196552 Y134.788480 Z-0.125000
G01 X-307.154697 Y164.830335 Z-0.125000
G01 X-306.814218 Y164.981180 Z-0.125000
G01 X-306.698930 Y164.680568 Z-0.125000
G01 X-306.810986 Y164.152610 Z-0.125000
G01 X-307.150387 Y163.624653 Z-0.125000
G01 X-335.982250 Y134.792790 Z-0.125000
G01 X-336.133095 Y134.453389 Z-0.125000
G01 X-335.829250 Y134.341333 Z-0.125000
G01 X-335.299138 Y134.455544 Z-0.125000
G01 X-334.769025 Y134.797100 Z-0.125000
G01 X-307.147155 Y162.418970 Z-0.125000
G01 X-306.805599 Y162.570893 Z-0.125000
G01 X-306.691387 Y162.270280 Z-0.125000
G01 X-306.803444 Y161.742323 Z-0.125000
G01 X-307.142845 Y161.213288 Z-0.125000
G01 X-333.554723 Y134.800332 Z-0.125000
G01 X-333.705568 Y134.460931 Z-0.125000
G01 X-333.401723 Y134.348875 Z-0.125000
G01 X-332.871611 Y134.464163 Z-0.125000
G01 X-332.341498 Y134.804642 Z-0.125000
G01 X-307.138535 Y160.008683 Z-0.125000
G01 X-306.798056 Y160.160606 Z-0.125000
G01 X-306.682768 Y159.858916 Z-0.125000
G01 X-306.794824 Y159.330958 Z-0.125000
G01 X-307.134225 Y158.803001 Z-0.125000
G01 X-331.128274 Y134.808952 Z-0.125000
G01 X-331.278041 Y134.469551 Z-0.125000
G01 X-330.975274 Y134.357495 Z-0.125000
G01 X-330.444084 Y134.472783 Z-0.125000
G01 X-329.913972 Y134.813262 Z-0.125000
G01 X-307.129915 Y157.597318 Z-0.125000
G01 X-306.789437 Y157.749241 Z-0.125000
G01 X-306.674148 Y157.448628 Z-0.125000
G01 X-306.786204 Y156.920671 Z-0.125000
G01 X-307.125605 Y156.391636 Z-0.125000
G01 X-328.700747 Y134.817572 Z-0.125000
G01 X-328.851592 Y134.478171 Z-0.125000
G01 X-328.547747 Y134.366114 Z-0.125000
G01 X-328.016557 Y134.480325 Z-0.125000
G01 X-327.487523 Y134.821882 Z-0.125000
G01 X-307.122373 Y155.187031 Z-0.125000
G01 X-306.780817 Y155.338954 Z-0.125000
G01 X-306.666606 Y155.037264 Z-0.125000
G01 X-306.778662 Y154.510384 Z-0.125000
G01 X-307.118063 Y153.981349 Z-0.125000
G01 X-326.273220 Y134.826191 Z-0.125000
G01 X-326.424065 Y134.485713 Z-0.125000
G01 X-326.120221 Y134.373657 Z-0.125000
G01 X-325.590108 Y134.488945 Z-0.125000
G01 X-325.059996 Y134.830501 Z-0.125000
G01 X-307.113753 Y152.776744 Z-0.125000
G01 X-306.773275 Y152.927589 Z-0.125000
G01 X-306.657986 Y152.626976 Z-0.125000
G01 X-306.770042 Y152.099019 Z-0.125000
G01 X-307.109443 Y151.571062 Z-0.125000
G01 X-323.845694 Y134.833734 Z-0.125000
G01 X-323.996539 Y134.494332 Z-0.125000
G01 X-323.692694 Y134.382276 Z-0.125000
G01 X-323.162582 Y134.497565 Z-0.125000
G01 X-322.632469 Y134.838044 Z-0.125000
G01 X-307.105134 Y150.365379 Z-0.125000
G01 X-306.764655 Y150.517302 Z-0.125000
G01 X-306.649366 Y150.216689 Z-0.125000
G01 X-306.761422 Y149.688732 Z-0.125000
G01 X-307.100824 Y149.159697 Z-0.125000
G01 X-321.419245 Y134.842353 Z-0.125000
G01 X-321.569012 Y134.502952 Z-0.125000
G01 X-321.265167 Y134.390896 Z-0.125000
G01 X-320.735055 Y134.505107 Z-0.125000
G01 X-320.204942 Y134.846663 Z-0.125000
G01 X-307.097591 Y147.955092 Z-0.125000
G01 X-306.756035 Y148.107014 Z-0.125000
G01 X-306.641824 Y147.805324 Z-0.125000
G01 X-306.753880 Y147.277367 Z-0.125000
G01 X-307.093281 Y146.749410 Z-0.125000
G01 X-318.991718 Y134.850973 Z-0.125000
G01 X-319.141485 Y134.511572 Z-0.125000
G01 X-318.838718 Y134.399516 Z-0.125000
G01 X-318.307528 Y134.513727 Z-0.125000
G01 X-317.778493 Y134.855283 Z-0.125000
G01 X-307.088972 Y145.543727 Z-0.125000
G01 X-306.748493 Y145.695650 Z-0.125000
G01 X-306.633204 Y145.395037 Z-0.125000
G01 X-306.745261 Y144.867080 Z-0.125000
G01 X-307.084662 Y144.338045 Z-0.125000
G01 X-316.564191 Y134.858515 Z-0.125000
G01 X-316.715036 Y134.519114 Z-0.125000
G01 X-316.411191 Y134.407058 Z-0.125000
G01 X-315.880001 Y134.522347 Z-0.125000
G01 X-315.350967 Y134.862825 Z-0.125000
G01 X-307.080352 Y143.133440 Z-0.125000
G01 X-306.739873 Y143.285362 Z-0.125000
G01 X-306.624585 Y142.983672 Z-0.125000
G01 X-306.736641 Y142.456792 Z-0.125000
G01 X-307.076042 Y141.927758 Z-0.125000
G01 X-314.136664 Y134.867135 Z-0.125000
G01 X-314.287509 Y134.527734 Z-0.125000
G01 X-313.983665 Y134.415678 Z-0.125000
G01 X-313.453552 Y134.530966 Z-0.125000
G01 X-312.923440 Y134.871445 Z-0.125000
G01 X-307.072810 Y140.722075 Z-0.125000
G01 X-306.731253 Y140.873998 Z-0.125000
G01 X-306.617042 Y140.573385 Z-0.125000
G01 X-306.729099 Y140.045428 Z-0.125000
G01 X-307.068500 Y139.517470 Z-0.125000
G01 X-311.709138 Y134.875755 Z-0.125000
G01 X-311.859983 Y134.536354 Z-0.125000
G01 X-311.556138 Y134.424297 Z-0.125000
G01 X-311.026026 Y134.538509 Z-0.125000
G01 X-310.495913 Y134.880065 Z-0.125000
G01 X-307.064190 Y138.311788 Z-0.125000
G01 X-306.723711 Y138.463710 Z-0.125000
G01 X-306.608423 Y138.163098 Z-0.125000
G01 X-306.720479 Y137.635140 Z-0.125000
G01 X-307.059880 Y137.106106 Z-0.125000
G01 X-309.282689 Y134.883297 Z-0.125000
G01 X-309.432456 Y134.543896 Z-0.125000
G01 X-309.128611 Y134.431840 Z-0.125000
G01 X-308.598499 Y134.547128 Z-0.125000
G01 X-308.068386 Y134.887607 Z-0.125000
G01 X-306.957521 Y135.999550 Z-0.125000
G01 X-306.690310 Y136.077127 Z-0.125000
G01 X-306.599803 Y135.751733 Z-0.125000
G01 X-306.687077 Y135.248557 Z-0.125000
G01 X-306.953211 Y134.793868 Z-0.125000
G01 X-307.308774 Y134.438304 Z-0.125000
G00 Z5.000000

(End cutting path id: path132)


(Start cutting path id: path133)
(Change tool to Default tool)

G00 Z5.000000
G00 X-337.887206 Y101.430191

G01 Z-0.125000 F100.0(Penetrate)
G01 X-338.295565 Y101.021832 Z-0.125000 F400.000000
G01 X-338.601565 Y100.527276 Z-0.125000
G01 X-338.702847 Y100.010093 Z-0.125000
G01 X-338.599410 Y99.697628 Z-0.125000
G01 X-338.291255 Y99.816149 Z-0.125000
G01 X-337.126517 Y100.980888 Z-0.125000
G01 X-336.597482 Y101.321367 Z-0.125000
G01 X-336.066292 Y101.436655 Z-0.125000
G01 X-335.762447 Y101.324599 Z-0.125000
G01 X-335.913292 Y100.985198 Z-0.125000
G01 X-338.242770 Y98.655720 Z-0.125000
G01 X-338.582171 Y98.127763 Z-0.125000
G01 X-338.694227 Y97.599806 Z-0.125000
G01 X-338.580016 Y97.298116 Z-0.125000
G01 X-338.238460 Y97.450038 Z-0.125000
G01 X-334.698990 Y100.989508 Z-0.125000
G01 X-334.169955 Y101.329986 Z-0.125000
G01 X-333.638765 Y101.445275 Z-0.125000
G01 X-333.335998 Y101.333219 Z-0.125000
G01 X-333.485765 Y100.993818 Z-0.125000
G01 X-338.235227 Y96.245433 Z-0.125000
G01 X-338.574628 Y95.716398 Z-0.125000
G01 X-338.686685 Y95.188441 Z-0.125000
G01 X-338.571396 Y94.887828 Z-0.125000
G01 X-338.230917 Y95.039751 Z-0.125000
G01 X-332.272541 Y100.998128 Z-0.125000
G01 X-331.742428 Y101.338606 Z-0.125000
G01 X-331.212316 Y101.452817 Z-0.125000
G01 X-330.908471 Y101.341839 Z-0.125000
G01 X-331.058239 Y101.002437 Z-0.125000
G01 X-338.226608 Y93.834069 Z-0.125000
G01 X-338.566009 Y93.306111 Z-0.125000
G01 X-338.678065 Y92.778154 Z-0.125000
G01 X-338.562776 Y92.477541 Z-0.125000
G01 X-338.222298 Y92.628386 Z-0.125000
G01 X-329.845014 Y101.005670 Z-0.125000
G01 X-329.314902 Y101.347226 Z-0.125000
G01 X-328.784789 Y101.461437 Z-0.125000
G01 X-328.480944 Y101.349381 Z-0.125000
G01 X-328.631789 Y101.009980 Z-0.125000
G01 X-338.217988 Y91.423781 Z-0.125000
G01 X-338.557389 Y90.894746 Z-0.125000
G01 X-338.669445 Y90.366789 Z-0.125000
G01 X-338.555234 Y90.066176 Z-0.125000
G01 X-338.213678 Y90.218099 Z-0.125000
G01 X-327.417487 Y101.014289 Z-0.125000
G01 X-326.887375 Y101.354768 Z-0.125000
G01 X-326.357263 Y101.470057 Z-0.125000
G01 X-326.053418 Y101.358001 Z-0.125000
G01 X-326.204263 Y101.018599 Z-0.125000
G01 X-338.210446 Y89.012417 Z-0.125000
G01 X-338.549847 Y88.484459 Z-0.125000
G01 X-338.661903 Y87.956502 Z-0.125000
G01 X-338.546614 Y87.655889 Z-0.125000
G01 X-338.206136 Y87.807812 Z-0.125000
G01 X-324.989961 Y101.022909 Z-0.125000
G01 X-324.460926 Y101.363388 Z-0.125000
G01 X-323.929736 Y101.478677 Z-0.125000
G01 X-323.625891 Y101.366620 Z-0.125000
G01 X-323.776736 Y101.027219 Z-0.125000
G01 X-338.201826 Y86.602129 Z-0.125000
G01 X-338.541227 Y86.073094 Z-0.125000
G01 X-338.653283 Y85.546214 Z-0.125000
G01 X-338.537995 Y85.244524 Z-0.125000
G01 X-338.197516 Y85.396447 Z-0.125000
G01 X-322.563511 Y101.030451 Z-0.125000
G01 X-322.033399 Y101.372008 Z-0.125000
G01 X-321.503287 Y101.486219 Z-0.125000
G01 X-321.199442 Y101.374163 Z-0.125000
G01 X-321.349209 Y101.034761 Z-0.125000
G01 X-338.193206 Y84.191842 Z-0.125000
G01 X-338.532607 Y83.662807 Z-0.125000
G01 X-338.644664 Y83.134850 Z-0.125000
G01 X-338.530452 Y82.834237 Z-0.125000
G01 X-338.188896 Y82.986160 Z-0.125000
G01 X-320.135985 Y101.039071 Z-0.125000
G01 X-319.605872 Y101.379550 Z-0.125000
G01 X-319.075760 Y101.494838 Z-0.125000
G01 X-318.771915 Y101.382782 Z-0.125000
G01 X-318.921683 Y101.043381 Z-0.125000
G01 X-338.184586 Y81.780477 Z-0.125000
G01 X-338.525065 Y81.252520 Z-0.125000
G01 X-338.637121 Y80.724562 Z-0.125000
G01 X-338.521833 Y80.422872 Z-0.125000
G01 X-338.180277 Y80.574795 Z-0.125000
G01 X-317.708458 Y101.047691 Z-0.125000
G01 X-317.178346 Y101.388170 Z-0.125000
G01 X-316.648233 Y101.503458 Z-0.125000
G01 X-316.344388 Y101.391402 Z-0.125000
G01 X-316.495233 Y101.052001 Z-0.125000
G01 X-338.177044 Y79.370190 Z-0.125000
G01 X-338.516445 Y78.841155 Z-0.125000
G01 X-338.628502 Y78.313198 Z-0.125000
G01 X-338.513213 Y78.012585 Z-0.125000
G01 X-338.172734 Y78.164508 Z-0.125000
G01 X-315.280931 Y101.055233 Z-0.125000
G01 X-314.750819 Y101.396789 Z-0.125000
G01 X-314.220707 Y101.511000 Z-0.125000
G01 X-313.916862 Y101.398944 Z-0.125000
G01 X-314.067707 Y101.059543 Z-0.125000
G01 X-338.168424 Y76.958825 Z-0.125000
G01 X-338.507826 Y76.430868 Z-0.125000
G01 X-338.619882 Y75.902910 Z-0.125000
G01 X-338.505671 Y75.602298 Z-0.125000
G01 X-338.164115 Y75.754220 Z-0.125000
G01 X-312.853405 Y101.063853 Z-0.125000
G01 X-312.324370 Y101.404331 Z-0.125000
G01 X-311.793180 Y101.519620 Z-0.125000
G01 X-311.489335 Y101.407564 Z-0.125000
G01 X-311.640180 Y101.068163 Z-0.125000
G01 X-338.159805 Y74.548538 Z-0.125000
G01 X-338.500283 Y74.019503 Z-0.125000
G01 X-338.611262 Y73.492623 Z-0.125000
G01 X-338.497051 Y73.190933 Z-0.125000
G01 X-338.155495 Y73.342856 Z-0.125000
G01 X-310.426955 Y101.072473 Z-0.125000
G01 X-309.896843 Y101.412951 Z-0.125000
G01 X-309.366731 Y101.528240 Z-0.125000
G01 X-309.062886 Y101.416184 Z-0.125000
G01 X-309.212653 Y101.076782 Z-0.125000
G01 X-338.152263 Y72.138251 Z-0.125000
G01 X-338.491664 Y71.609216 Z-0.125000
G01 X-338.603720 Y71.081258 Z-0.125000
G01 X-338.488431 Y70.780646 Z-0.125000
G01 X-338.147953 Y70.932568 Z-0.125000
G01 X-307.999429 Y101.081092 Z-0.125000
G01 X-307.494098 Y101.396789 Z-0.125000
G01 X-307.018936 Y101.456050 Z-0.125000
G01 X-306.770042 Y101.290120 Z-0.125000
G01 X-306.945669 Y100.924860 Z-0.125000
G01 X-338.143643 Y69.726886 Z-0.125000
G01 X-338.302030 Y69.378865 Z-0.125000
G01 X-338.016502 Y69.248492 Z-0.125000
G01 X-337.503629 Y69.345464 Z-0.125000
G01 X-336.982136 Y69.678400 Z-0.125000
G01 X-306.941359 Y99.720255 Z-0.125000
G01 X-306.600880 Y99.871100 Z-0.125000
G01 X-306.485592 Y99.570488 Z-0.125000
G01 X-306.597648 Y99.042530 Z-0.125000
G01 X-306.937049 Y98.514573 Z-0.125000
G01 X-335.768912 Y69.682710 Z-0.125000
G01 X-335.919757 Y69.343309 Z-0.125000
G01 X-335.615912 Y69.231252 Z-0.125000
G01 X-335.084722 Y69.345464 Z-0.125000
G01 X-334.554610 Y69.687020 Z-0.125000
G01 X-306.932739 Y97.308890 Z-0.125000
G01 X-306.592261 Y97.460813 Z-0.125000
G01 X-306.476972 Y97.160200 Z-0.125000
G01 X-306.589028 Y96.632243 Z-0.125000
G01 X-306.928429 Y96.103208 Z-0.125000
G01 X-333.341385 Y69.690252 Z-0.125000
G01 X-333.492230 Y69.350851 Z-0.125000
G01 X-333.188385 Y69.238795 Z-0.125000
G01 X-332.657195 Y69.354083 Z-0.125000
G01 X-332.128161 Y69.694562 Z-0.125000
G01 X-306.924120 Y94.898603 Z-0.125000
G01 X-306.583641 Y95.050526 Z-0.125000
G01 X-306.469430 Y94.748836 Z-0.125000
G01 X-306.580408 Y94.220878 Z-0.125000
G01 X-306.919810 Y93.692921 Z-0.125000
G01 X-330.913858 Y69.698872 Z-0.125000
G01 X-331.064703 Y69.359471 Z-0.125000
G01 X-330.760859 Y69.247414 Z-0.125000
G01 X-330.230746 Y69.362703 Z-0.125000
G01 X-329.700634 Y69.703182 Z-0.125000
G01 X-306.916577 Y92.487238 Z-0.125000
G01 X-306.575021 Y92.639161 Z-0.125000
G01 X-306.460810 Y92.338548 Z-0.125000
G01 X-306.572866 Y91.810591 Z-0.125000
G01 X-306.912267 Y91.281556 Z-0.125000
G01 X-328.486332 Y69.707492 Z-0.125000
G01 X-328.637177 Y69.368090 Z-0.125000
G01 X-328.333332 Y69.256034 Z-0.125000
G01 X-327.803220 Y69.370245 Z-0.125000
G01 X-327.273107 Y69.711801 Z-0.125000
G01 X-306.907958 Y90.076951 Z-0.125000
G01 X-306.567479 Y90.228874 Z-0.125000
G01 X-306.452190 Y89.927184 Z-0.125000
G01 X-306.564247 Y89.400304 Z-0.125000
G01 X-306.903648 Y88.871269 Z-0.125000
G01 X-326.059883 Y69.716111 Z-0.125000
G01 X-326.209650 Y69.375633 Z-0.125000
G01 X-325.905805 Y69.263576 Z-0.125000
G01 X-325.375693 Y69.378865 Z-0.125000
G01 X-324.845580 Y69.720421 Z-0.125000
G01 X-306.899338 Y87.665586 Z-0.125000
G01 X-306.558859 Y87.817509 Z-0.125000
G01 X-306.444648 Y87.516896 Z-0.125000
G01 X-306.555627 Y86.988939 Z-0.125000
G01 X-306.895028 Y86.460981 Z-0.125000
G01 X-323.632356 Y69.723654 Z-0.125000
G01 X-323.783201 Y69.384252 Z-0.125000
G01 X-323.479356 Y69.272196 Z-0.125000
G01 X-322.948166 Y69.387485 Z-0.125000
G01 X-322.419131 Y69.727963 Z-0.125000
G01 X-306.891796 Y85.255299 Z-0.125000
G01 X-306.550240 Y85.407222 Z-0.125000
G01 X-306.436028 Y85.106609 Z-0.125000
G01 X-306.548085 Y84.578652 Z-0.125000
G01 X-306.887486 Y84.049617 Z-0.125000
G01 X-321.204829 Y69.732273 Z-0.125000
G01 X-321.355674 Y69.392872 Z-0.125000
G01 X-321.051829 Y69.280816 Z-0.125000
G01 X-320.520639 Y69.395027 Z-0.125000
G01 X-319.991605 Y69.736583 Z-0.125000
G01 X-306.883176 Y82.845012 Z-0.125000
G01 X-306.542697 Y82.996934 Z-0.125000
G01 X-306.427409 Y82.695244 Z-0.125000
G01 X-306.539465 Y82.167287 Z-0.125000
G01 X-306.878866 Y81.639329 Z-0.125000
G01 X-318.777302 Y69.740893 Z-0.125000
G01 X-318.928147 Y69.400414 Z-0.125000
G01 X-318.624303 Y69.289436 Z-0.125000
G01 X-318.094190 Y69.403647 Z-0.125000
G01 X-317.564078 Y69.745203 Z-0.125000
G01 X-306.874556 Y80.433647 Z-0.125000
G01 X-306.534078 Y80.585570 Z-0.125000
G01 X-306.419866 Y80.284957 Z-0.125000
G01 X-306.530845 Y79.757000 Z-0.125000
G01 X-306.870246 Y79.227965 Z-0.125000
G01 X-316.349776 Y69.748435 Z-0.125000
G01 X-316.500621 Y69.409034 Z-0.125000
G01 X-316.196776 Y69.296978 Z-0.125000
G01 X-315.666664 Y69.412266 Z-0.125000
G01 X-315.136551 Y69.752745 Z-0.125000
G01 X-306.867014 Y78.023360 Z-0.125000
G01 X-306.525458 Y78.175282 Z-0.125000
G01 X-306.411247 Y77.873592 Z-0.125000
G01 X-306.523303 Y77.345635 Z-0.125000
G01 X-306.862704 Y76.817677 Z-0.125000
G01 X-313.923327 Y69.757055 Z-0.125000
G01 X-314.073094 Y69.417654 Z-0.125000
G01 X-313.770327 Y69.305598 Z-0.125000
G01 X-313.239137 Y69.420886 Z-0.125000
G01 X-312.709024 Y69.761365 Z-0.125000
G01 X-306.858394 Y75.611995 Z-0.125000
G01 X-306.517916 Y75.763918 Z-0.125000
G01 X-306.402627 Y75.463305 Z-0.125000
G01 X-306.514683 Y74.935348 Z-0.125000
G01 X-306.854084 Y74.407390 Z-0.125000
G01 X-311.495800 Y69.765675 Z-0.125000
G01 X-311.646645 Y69.426273 Z-0.125000
G01 X-311.342800 Y69.314217 Z-0.125000
G01 X-310.811610 Y69.428428 Z-0.125000
G01 X-310.282575 Y69.769985 Z-0.125000
G01 X-306.849775 Y73.201708 Z-0.125000
G01 X-306.509296 Y73.353630 Z-0.125000
G01 X-306.395085 Y73.053018 Z-0.125000
G01 X-306.506063 Y72.525060 Z-0.125000
G01 X-306.845465 Y71.996025 Z-0.125000
G01 X-309.068273 Y69.773217 Z-0.125000
G01 X-309.219118 Y69.433816 Z-0.125000
G01 X-308.915273 Y69.321759 Z-0.125000
G01 X-308.385161 Y69.437048 Z-0.125000
G01 X-307.855049 Y69.777527 Z-0.125000
G01 X-306.744183 Y70.889470 Z-0.125000
G01 X-306.476972 Y70.967047 Z-0.125000
G01 X-306.386465 Y70.641653 Z-0.125000
G01 X-306.473740 Y70.138477 Z-0.125000
G01 X-306.739873 Y69.683787 Z-0.125000
G01 X-307.094359 Y69.328224 Z-0.125000
G00 Z5.000000

(End cutting path id: path133)


(Start cutting path id: path134)
(Change tool to Default tool)

G00 Z5.000000
G00 X-337.672791 Y36.320111

G01 Z-0.125000 F100.0(Penetrate)
G01 X-338.082227 Y35.911752 Z-0.125000 F400.000000
G01 X-338.388227 Y35.417196 Z-0.125000
G01 X-338.488431 Y34.900013 Z-0.125000
G01 X-338.384995 Y34.587548 Z-0.125000
G01 X-338.077917 Y34.706069 Z-0.125000
G01 X-336.913179 Y35.870808 Z-0.125000
G01 X-336.383066 Y36.211287 Z-0.125000
G01 X-335.852954 Y36.326575 Z-0.125000
G01 X-335.549109 Y36.214519 Z-0.125000
G01 X-335.699954 Y35.875118 Z-0.125000
G01 X-338.029432 Y33.545640 Z-0.125000
G01 X-338.368833 Y33.017683 Z-0.125000
G01 X-338.480889 Y32.489726 Z-0.125000
G01 X-338.365600 Y32.188036 Z-0.125000
G01 X-338.025122 Y32.339958 Z-0.125000
G01 X-334.485652 Y35.879428 Z-0.125000
G01 X-333.955540 Y36.219906 Z-0.125000
G01 X-333.425427 Y36.335195 Z-0.125000
G01 X-333.121582 Y36.223139 Z-0.125000
G01 X-333.272427 Y35.883738 Z-0.125000
G01 X-338.020812 Y31.135353 Z-0.125000
G01 X-338.360213 Y30.606318 Z-0.125000
G01 X-338.472269 Y30.078361 Z-0.125000
G01 X-338.356981 Y29.777748 Z-0.125000
G01 X-338.016502 Y29.929671 Z-0.125000
G01 X-332.058125 Y35.888047 Z-0.125000
G01 X-331.529090 Y36.228526 Z-0.125000
G01 X-330.997901 Y36.342737 Z-0.125000
G01 X-330.694056 Y36.231758 Z-0.125000
G01 X-330.844901 Y35.892357 Z-0.125000
G01 X-338.012192 Y28.723988 Z-0.125000
G01 X-338.351593 Y28.196031 Z-0.125000
G01 X-338.463650 Y27.668074 Z-0.125000
G01 X-338.349438 Y27.366384 Z-0.125000
G01 X-338.007882 Y27.518306 Z-0.125000
G01 X-329.630599 Y35.895590 Z-0.125000
G01 X-329.101564 Y36.237146 Z-0.125000
G01 X-328.570374 Y36.351357 Z-0.125000
G01 X-328.266529 Y36.239301 Z-0.125000
G01 X-328.417374 Y35.899900 Z-0.125000
G01 X-338.004650 Y26.313701 Z-0.125000
G01 X-338.344051 Y25.784666 Z-0.125000
G01 X-338.456107 Y25.256709 Z-0.125000
G01 X-338.340819 Y24.956096 Z-0.125000
G01 X-338.000340 Y25.108019 Z-0.125000
G01 X-327.204149 Y35.904209 Z-0.125000
G01 X-326.674037 Y36.244688 Z-0.125000
G01 X-326.143925 Y36.359977 Z-0.125000
G01 X-325.840080 Y36.247920 Z-0.125000
G01 X-325.989847 Y35.908519 Z-0.125000
G01 X-337.996030 Y23.902336 Z-0.125000
G01 X-338.335431 Y23.374379 Z-0.125000
G01 X-338.447488 Y22.846422 Z-0.125000
G01 X-338.332199 Y22.545809 Z-0.125000
G01 X-337.991720 Y22.697732 Z-0.125000
G01 X-324.776623 Y35.912829 Z-0.125000
G01 X-324.246510 Y36.253308 Z-0.125000
G01 X-323.716398 Y36.368596 Z-0.125000
G01 X-323.412553 Y36.256540 Z-0.125000
G01 X-323.563398 Y35.917139 Z-0.125000
G01 X-337.987411 Y21.492049 Z-0.125000
G01 X-338.326812 Y20.963014 Z-0.125000
G01 X-338.438868 Y20.436134 Z-0.125000
G01 X-338.324657 Y20.134444 Z-0.125000
G01 X-337.983101 Y20.286367 Z-0.125000
G01 X-322.349096 Y35.920371 Z-0.125000
G01 X-321.818984 Y36.261927 Z-0.125000
G01 X-321.288871 Y36.376139 Z-0.125000
G01 X-320.985026 Y36.264082 Z-0.125000
G01 X-321.135871 Y35.924681 Z-0.125000
G01 X-337.979868 Y19.081762 Z-0.125000
G01 X-338.319269 Y18.552727 Z-0.125000
G01 X-338.431326 Y18.024770 Z-0.125000
G01 X-338.316037 Y17.724157 Z-0.125000
G01 X-337.975558 Y17.876080 Z-0.125000
G01 X-319.921569 Y35.928991 Z-0.125000
G01 X-319.392535 Y36.269470 Z-0.125000
G01 X-318.861345 Y36.384758 Z-0.125000
G01 X-318.557500 Y36.272702 Z-0.125000
G01 X-318.708345 Y35.933301 Z-0.125000
G01 X-337.971249 Y16.670397 Z-0.125000
G01 X-338.310650 Y16.142440 Z-0.125000
G01 X-338.422706 Y15.614482 Z-0.125000
G01 X-338.307417 Y15.312792 Z-0.125000
G01 X-337.966939 Y15.464715 Z-0.125000
G01 X-317.495120 Y35.937611 Z-0.125000
G01 X-316.965008 Y36.278089 Z-0.125000
G01 X-316.433818 Y36.393378 Z-0.125000
G01 X-316.131051 Y36.281322 Z-0.125000
G01 X-316.280818 Y35.941921 Z-0.125000
G01 X-337.962629 Y14.260110 Z-0.125000
G01 X-338.302030 Y13.731075 Z-0.125000
G01 X-338.414086 Y13.203118 Z-0.125000
G01 X-338.299875 Y12.902505 Z-0.125000
G01 X-337.958319 Y13.054428 Z-0.125000
G01 X-315.067593 Y35.945153 Z-0.125000
G01 X-314.537481 Y36.286709 Z-0.125000
G01 X-314.007369 Y36.400920 Z-0.125000
G01 X-313.703524 Y36.288864 Z-0.125000
G01 X-313.854369 Y35.949463 Z-0.125000
G01 X-337.955087 Y11.848745 Z-0.125000
G01 X-338.294488 Y11.320788 Z-0.125000
G01 X-338.406544 Y10.792830 Z-0.125000
G01 X-338.291255 Y10.492218 Z-0.125000
G01 X-337.950777 Y10.643063 Z-0.125000
G01 X-312.640067 Y35.953773 Z-0.125000
G01 X-312.109954 Y36.294251 Z-0.125000
G01 X-311.579842 Y36.409540 Z-0.125000
G01 X-311.275997 Y36.297484 Z-0.125000
G01 X-311.426842 Y35.958083 Z-0.125000
G01 X-337.946467 Y9.438458 Z-0.125000
G01 X-338.285868 Y8.909423 Z-0.125000
G01 X-338.397924 Y8.382543 Z-0.125000
G01 X-338.282636 Y8.080853 Z-0.125000
G01 X-337.942157 Y8.232776 Z-0.125000
G01 X-310.212540 Y35.962392 Z-0.125000
G01 X-309.682428 Y36.302871 Z-0.125000
G01 X-309.152315 Y36.418160 Z-0.125000
G01 X-308.848470 Y36.306104 Z-0.125000
G01 X-308.999315 Y35.966702 Z-0.125000
G01 X-337.937847 Y7.028171 Z-0.125000
G01 X-338.277248 Y6.499136 Z-0.125000
G01 X-338.389305 Y5.971178 Z-0.125000
G01 X-338.275093 Y5.670566 Z-0.125000
G01 X-337.933537 Y5.822488 Z-0.125000
G01 X-307.785013 Y35.971012 Z-0.125000
G01 X-307.280760 Y36.286709 Z-0.125000
G01 X-306.804521 Y36.345970 Z-0.125000
G01 X-306.555627 Y36.180040 Z-0.125000
G01 X-306.731253 Y35.814780 Z-0.125000
G01 X-337.930305 Y4.616806 Z-0.125000
G01 X-338.088692 Y4.268785 Z-0.125000
G01 X-337.803164 Y4.138412 Z-0.125000
G01 X-337.290291 Y4.235384 Z-0.125000
G01 X-336.768799 Y4.568320 Z-0.125000
G01 X-306.726944 Y34.610175 Z-0.125000
G01 X-306.386465 Y34.761020 Z-0.125000
G01 X-306.272254 Y34.460407 Z-0.125000
G01 X-306.383233 Y33.932450 Z-0.125000
G01 X-306.722634 Y33.404493 Z-0.125000
G01 X-335.554496 Y4.572630 Z-0.125000
G01 X-335.705341 Y4.233229 Z-0.125000
G01 X-335.401497 Y4.121172 Z-0.125000
G01 X-334.871384 Y4.235384 Z-0.125000
G01 X-334.341272 Y4.576940 Z-0.125000
G01 X-306.719401 Y32.198810 Z-0.125000
G01 X-306.377845 Y32.350733 Z-0.125000
G01 X-306.263634 Y32.050120 Z-0.125000
G01 X-306.375690 Y31.522163 Z-0.125000
G01 X-306.715092 Y30.993128 Z-0.125000
G01 X-333.128047 Y4.580172 Z-0.125000
G01 X-333.277815 Y4.240771 Z-0.125000
G01 X-332.973970 Y4.128715 Z-0.125000
G01 X-332.443858 Y4.244003 Z-0.125000
G01 X-331.913745 Y4.584482 Z-0.125000
G01 X-306.710782 Y29.788523 Z-0.125000
G01 X-306.370303 Y29.940445 Z-0.125000
G01 X-306.255014 Y29.638755 Z-0.125000
G01 X-306.367071 Y29.110798 Z-0.125000
G01 X-306.706472 Y28.582841 Z-0.125000
G01 X-330.700521 Y4.588792 Z-0.125000
G01 X-330.850288 Y4.249391 Z-0.125000
G01 X-330.547521 Y4.137334 Z-0.125000
G01 X-330.016331 Y4.252623 Z-0.125000
G01 X-329.487296 Y4.593102 Z-0.125000
G01 X-306.702162 Y27.377158 Z-0.125000
G01 X-306.361683 Y27.529081 Z-0.125000
G01 X-306.247472 Y27.228468 Z-0.125000
G01 X-306.358451 Y26.700511 Z-0.125000
G01 X-306.697852 Y26.171476 Z-0.125000
G01 X-328.272994 Y4.597412 Z-0.125000
G01 X-328.423839 Y4.258010 Z-0.125000
G01 X-328.119994 Y4.145954 Z-0.125000
G01 X-327.588804 Y4.260165 Z-0.125000
G01 X-327.059769 Y4.601721 Z-0.125000
G01 X-306.694620 Y24.966871 Z-0.125000
G01 X-306.353064 Y25.118793 Z-0.125000
G01 X-306.238852 Y24.817103 Z-0.125000
G01 X-306.350909 Y24.290224 Z-0.125000
G01 X-306.690310 Y23.761189 Z-0.125000
G01 X-325.845467 Y4.606031 Z-0.125000
G01 X-325.996312 Y4.265553 Z-0.125000
G01 X-325.692467 Y4.153496 Z-0.125000
G01 X-325.162355 Y4.268785 Z-0.125000
G01 X-324.632243 Y4.610341 Z-0.125000
G01 X-306.686000 Y22.555506 Z-0.125000
G01 X-306.345521 Y22.707429 Z-0.125000
G01 X-306.230233 Y22.406816 Z-0.125000
G01 X-306.342289 Y21.878859 Z-0.125000
G01 X-306.681690 Y21.350901 Z-0.125000
G01 X-323.417941 Y4.613574 Z-0.125000
G01 X-323.568785 Y4.274172 Z-0.125000
G01 X-323.264941 Y4.162116 Z-0.125000
G01 X-322.734828 Y4.277405 Z-0.125000
G01 X-322.204716 Y4.617883 Z-0.125000
G01 X-306.677380 Y20.145219 Z-0.125000
G01 X-306.336902 Y20.297141 Z-0.125000
G01 X-306.221613 Y19.996529 Z-0.125000
G01 X-306.333669 Y19.468572 Z-0.125000
G01 X-306.673070 Y18.939537 Z-0.125000
G01 X-320.991491 Y4.622193 Z-0.125000
G01 X-321.141259 Y4.282792 Z-0.125000
G01 X-320.837414 Y4.170736 Z-0.125000
G01 X-320.307302 Y4.284947 Z-0.125000
G01 X-319.777189 Y4.626503 Z-0.125000
G01 X-306.669838 Y17.734932 Z-0.125000
G01 X-306.328282 Y17.886854 Z-0.125000
G01 X-306.214071 Y17.585164 Z-0.125000
G01 X-306.326127 Y17.057207 Z-0.125000
G01 X-306.665528 Y16.529249 Z-0.125000
G01 X-318.563965 Y4.630813 Z-0.125000
G01 X-318.714810 Y4.290334 Z-0.125000
G01 X-318.410965 Y4.179355 Z-0.125000
G01 X-317.879775 Y4.293567 Z-0.125000
G01 X-317.350740 Y4.635123 Z-0.125000
G01 X-306.661218 Y15.323567 Z-0.125000
G01 X-306.320740 Y15.475489 Z-0.125000
G01 X-306.205451 Y15.174877 Z-0.125000
G01 X-306.317507 Y14.646920 Z-0.125000
G01 X-306.656908 Y14.117885 Z-0.125000
G01 X-316.136438 Y4.638355 Z-0.125000
G01 X-316.287283 Y4.298954 Z-0.125000
G01 X-315.983438 Y4.186898 Z-0.125000
G01 X-315.452248 Y4.302186 Z-0.125000
G01 X-314.923213 Y4.642665 Z-0.125000
G01 X-306.652599 Y12.913280 Z-0.125000
G01 X-306.312120 Y13.065202 Z-0.125000
G01 X-306.196831 Y12.763512 Z-0.125000
G01 X-306.308888 Y12.235555 Z-0.125000
G01 X-306.648289 Y11.707597 Z-0.125000
G01 X-313.708911 Y4.646975 Z-0.125000
G01 X-313.859756 Y4.307574 Z-0.125000
G01 X-313.555911 Y4.195517 Z-0.125000
G01 X-313.025799 Y4.310806 Z-0.125000
G01 X-312.495687 Y4.651285 Z-0.125000
G01 X-306.645056 Y10.501915 Z-0.125000
G01 X-306.303500 Y10.653837 Z-0.125000
G01 X-306.189289 Y10.353225 Z-0.125000
G01 X-306.301345 Y9.825268 Z-0.125000
G01 X-306.640746 Y9.297310 Z-0.125000
G01 X-311.281385 Y4.655595 Z-0.125000
G01 X-311.432229 Y4.316193 Z-0.125000
G01 X-311.128385 Y4.204137 Z-0.125000
G01 X-310.598272 Y4.318348 Z-0.125000
G01 X-310.068160 Y4.659904 Z-0.125000
G01 X-306.636437 Y8.091628 Z-0.125000
G01 X-306.295958 Y8.243550 Z-0.125000
G01 X-306.180669 Y7.941860 Z-0.125000
G01 X-306.292726 Y7.414980 Z-0.125000
G01 X-306.632127 Y6.885945 Z-0.125000
G01 X-308.854935 Y4.663137 Z-0.125000
G01 X-309.004703 Y4.323736 Z-0.125000
G01 X-308.700858 Y4.211679 Z-0.125000
G01 X-308.170746 Y4.326968 Z-0.125000
G01 X-307.640633 Y4.667447 Z-0.125000
G01 X-306.529768 Y5.779390 Z-0.125000
G01 X-306.262557 Y5.856967 Z-0.125000
G01 X-306.172050 Y5.531573 Z-0.125000
G01 X-306.259324 Y5.028397 Z-0.125000
G01 X-306.525458 Y4.573707 Z-0.125000
G01 X-306.881021 Y4.218144 Z-0.125000
G00 Z5.000000

(End cutting path id: path134)


(Start cutting path id: path135)
(Change tool to Default tool)

G00 Z5.000000
G00 X-337.459453 Y-28.789970

G01 Z-0.125000 F100.0(Penetrate)
G01 X-337.867812 Y-29.198328 Z-0.125000 F400.000000
G01 X-338.173812 Y-29.692884 Z-0.125000
G01 X-338.275093 Y-30.210067 Z-0.125000
G01 X-338.171657 Y-30.522532 Z-0.125000
G01 X-337.863502 Y-30.404011 Z-0.125000
G01 X-336.698763 Y-29.239272 Z-0.125000
G01 X-336.169729 Y-28.898793 Z-0.125000
G01 X-335.638539 Y-28.783505 Z-0.125000
G01 X-335.334694 Y-28.895561 Z-0.125000
G01 X-335.485539 Y-29.234962 Z-0.125000
G01 X-337.815016 Y-31.564440 Z-0.125000
G01 X-338.154417 Y-32.092397 Z-0.125000
G01 X-338.266474 Y-32.620355 Z-0.125000
G01 X-338.152263 Y-32.922044 Z-0.125000
G01 X-337.810706 Y-32.770122 Z-0.125000
G01 X-334.271237 Y-29.230652 Z-0.125000
G01 X-333.742202 Y-28.890174 Z-0.125000
G01 X-333.211012 Y-28.774885 Z-0.125000
G01 X-332.908245 Y-28.886941 Z-0.125000
G01 X-333.058012 Y-29.226343 Z-0.125000
G01 X-337.807474 Y-33.974727 Z-0.125000
G01 X-338.146875 Y-34.503762 Z-0.125000
G01 X-338.258931 Y-35.031719 Z-0.125000
G01 X-338.143643 Y-35.332332 Z-0.125000
G01 X-337.803164 Y-35.180409 Z-0.125000
G01 X-331.844787 Y-29.222033 Z-0.125000
G01 X-331.314675 Y-28.881554 Z-0.125000
G01 X-330.784563 Y-28.767343 Z-0.125000
G01 X-330.480718 Y-28.878322 Z-0.125000
G01 X-330.630485 Y-29.217723 Z-0.125000
G01 X-337.798854 Y-36.386092 Z-0.125000
G01 X-338.138255 Y-36.914049 Z-0.125000
G01 X-338.250312 Y-37.442007 Z-0.125000
G01 X-338.135023 Y-37.743696 Z-0.125000
G01 X-337.794544 Y-37.591774 Z-0.125000
G01 X-329.417261 Y-29.214490 Z-0.125000
G01 X-328.887148 Y-28.872934 Z-0.125000
G01 X-328.357036 Y-28.758723 Z-0.125000
G01 X-328.053191 Y-28.870779 Z-0.125000
G01 X-328.204036 Y-29.210181 Z-0.125000
G01 X-337.790235 Y-38.796379 Z-0.125000
G01 X-338.129636 Y-39.325414 Z-0.125000
G01 X-338.241692 Y-39.853371 Z-0.125000
G01 X-338.127481 Y-40.153984 Z-0.125000
G01 X-337.785925 Y-40.002061 Z-0.125000
G01 X-326.989734 Y-29.205871 Z-0.125000
G01 X-326.459622 Y-28.865392 Z-0.125000
G01 X-325.929509 Y-28.750103 Z-0.125000
G01 X-325.625665 Y-28.862160 Z-0.125000
G01 X-325.776509 Y-29.201561 Z-0.125000
G01 X-337.781615 Y-41.207744 Z-0.125000
G01 X-338.122094 Y-41.735701 Z-0.125000
G01 X-338.234150 Y-42.263659 Z-0.125000
G01 X-338.118861 Y-42.564271 Z-0.125000
G01 X-337.777305 Y-42.412349 Z-0.125000
G01 X-324.562207 Y-29.197251 Z-0.125000
G01 X-324.033173 Y-28.856772 Z-0.125000
G01 X-323.501983 Y-28.741484 Z-0.125000
G01 X-323.198138 Y-28.853540 Z-0.125000
G01 X-323.348983 Y-29.192941 Z-0.125000
G01 X-337.774073 Y-43.618031 Z-0.125000
G01 X-338.113474 Y-44.147066 Z-0.125000
G01 X-338.225530 Y-44.673946 Z-0.125000
G01 X-338.110241 Y-44.975636 Z-0.125000
G01 X-337.769763 Y-44.823713 Z-0.125000
G01 X-322.135758 Y-29.189709 Z-0.125000
G01 X-321.605646 Y-28.848153 Z-0.125000
G01 X-321.075533 Y-28.733941 Z-0.125000
G01 X-320.771689 Y-28.845998 Z-0.125000
G01 X-320.921456 Y-29.185399 Z-0.125000
G01 X-337.765453 Y-46.028318 Z-0.125000
G01 X-338.104854 Y-46.557353 Z-0.125000
G01 X-338.216910 Y-47.085311 Z-0.125000
G01 X-338.102699 Y-47.385923 Z-0.125000
G01 X-337.761143 Y-47.234001 Z-0.125000
G01 X-319.708231 Y-29.181089 Z-0.125000
G01 X-319.178119 Y-28.840610 Z-0.125000
G01 X-318.648007 Y-28.725322 Z-0.125000
G01 X-318.344162 Y-28.837378 Z-0.125000
G01 X-318.495007 Y-29.176779 Z-0.125000
G01 X-337.756833 Y-48.439683 Z-0.125000
G01 X-338.097312 Y-48.967640 Z-0.125000
G01 X-338.209368 Y-49.495598 Z-0.125000
G01 X-338.094079 Y-49.797288 Z-0.125000
G01 X-337.752523 Y-49.645365 Z-0.125000
G01 X-317.280705 Y-29.172469 Z-0.125000
G01 X-316.750592 Y-28.831991 Z-0.125000
G01 X-316.220480 Y-28.716702 Z-0.125000
G01 X-315.916635 Y-28.828758 Z-0.125000
G01 X-316.067480 Y-29.168159 Z-0.125000
G01 X-337.749291 Y-50.849970 Z-0.125000
G01 X-338.088692 Y-51.379005 Z-0.125000
G01 X-338.200748 Y-51.906963 Z-0.125000
G01 X-338.085460 Y-52.207575 Z-0.125000
G01 X-337.744981 Y-52.055653 Z-0.125000
G01 X-314.853178 Y-29.164927 Z-0.125000
G01 X-314.324143 Y-28.823371 Z-0.125000
G01 X-313.792953 Y-28.709160 Z-0.125000
G01 X-313.489109 Y-28.821216 Z-0.125000
G01 X-313.639953 Y-29.160617 Z-0.125000
G01 X-337.740671 Y-53.261335 Z-0.125000
G01 X-338.080072 Y-53.789292 Z-0.125000
G01 X-338.192129 Y-54.317250 Z-0.125000
G01 X-338.077917 Y-54.617862 Z-0.125000
G01 X-337.736361 Y-54.467017 Z-0.125000
G01 X-312.425651 Y-29.156307 Z-0.125000
G01 X-311.896617 Y-28.815829 Z-0.125000
G01 X-311.365427 Y-28.700540 Z-0.125000
G01 X-311.061582 Y-28.812596 Z-0.125000
G01 X-311.212427 Y-29.151997 Z-0.125000
G01 X-337.732052 Y-55.671622 Z-0.125000
G01 X-338.072530 Y-56.200657 Z-0.125000
G01 X-338.184586 Y-56.727537 Z-0.125000
G01 X-338.069298 Y-57.029227 Z-0.125000
G01 X-337.727742 Y-56.877305 Z-0.125000
G01 X-309.999202 Y-29.147688 Z-0.125000
G01 X-309.469090 Y-28.807209 Z-0.125000
G01 X-308.938977 Y-28.691920 Z-0.125000
G01 X-308.635133 Y-28.803977 Z-0.125000
G01 X-308.784900 Y-29.143378 Z-0.125000
G01 X-337.724509 Y-58.081909 Z-0.125000
G01 X-338.063910 Y-58.610944 Z-0.125000
G01 X-338.175967 Y-59.138902 Z-0.125000
G01 X-338.060678 Y-59.439514 Z-0.125000
G01 X-337.720199 Y-59.287592 Z-0.125000
G01 X-307.571676 Y-29.139068 Z-0.125000
G01 X-307.066345 Y-28.823371 Z-0.125000
G01 X-306.591183 Y-28.764110 Z-0.125000
G01 X-306.342289 Y-28.930040 Z-0.125000
G01 X-306.517916 Y-29.295300 Z-0.125000
G01 X-337.715890 Y-60.493274 Z-0.125000
G01 X-337.874277 Y-60.841295 Z-0.125000
G01 X-337.588749 Y-60.971668 Z-0.125000
G01 X-337.075876 Y-60.874696 Z-0.125000
G01 X-336.554383 Y-60.541760 Z-0.125000
G01 X-306.513606 Y-30.499905 Z-0.125000
G01 X-306.173127 Y-30.349060 Z-0.125000
G01 X-306.057838 Y-30.649673 Z-0.125000
G01 X-306.169895 Y-31.177630 Z-0.125000
G01 X-306.509296 Y-31.705587 Z-0.125000
G01 X-335.341159 Y-60.537450 Z-0.125000
G01 X-335.492004 Y-60.876851 Z-0.125000
G01 X-335.188159 Y-60.988908 Z-0.125000
G01 X-334.656969 Y-60.874696 Z-0.125000
G01 X-334.127934 Y-60.533140 Z-0.125000
G01 X-306.504986 Y-32.911270 Z-0.125000
G01 X-306.164507 Y-32.759347 Z-0.125000
G01 X-306.049219 Y-33.059960 Z-0.125000
G01 X-306.161275 Y-33.587917 Z-0.125000
G01 X-306.500676 Y-34.116952 Z-0.125000
G01 X-332.913632 Y-60.529908 Z-0.125000
G01 X-333.064477 Y-60.869309 Z-0.125000
G01 X-332.760632 Y-60.981365 Z-0.125000
G01 X-332.230520 Y-60.866077 Z-0.125000
G01 X-331.700407 Y-60.525598 Z-0.125000
G01 X-306.497444 Y-35.321557 Z-0.125000
G01 X-306.155888 Y-35.169635 Z-0.125000
G01 X-306.041676 Y-35.471325 Z-0.125000
G01 X-306.153733 Y-35.999282 Z-0.125000
G01 X-306.493134 Y-36.527239 Z-0.125000
G01 X-330.486105 Y-60.521288 Z-0.125000
G01 X-330.636950 Y-60.860689 Z-0.125000
G01 X-330.333105 Y-60.972746 Z-0.125000
G01 X-329.802993 Y-60.857457 Z-0.125000
G01 X-329.272881 Y-60.516978 Z-0.125000
G01 X-306.488824 Y-37.732922 Z-0.125000
G01 X-306.148345 Y-37.580999 Z-0.125000
G01 X-306.033057 Y-37.881612 Z-0.125000
G01 X-306.145113 Y-38.409569 Z-0.125000
G01 X-306.484514 Y-38.938604 Z-0.125000
G01 X-328.058579 Y-60.512669 Z-0.125000
G01 X-328.209424 Y-60.852070 Z-0.125000
G01 X-327.905579 Y-60.964126 Z-0.125000
G01 X-327.375466 Y-60.849915 Z-0.125000
G01 X-326.845354 Y-60.508359 Z-0.125000
G01 X-306.480204 Y-40.143209 Z-0.125000
G01 X-306.139726 Y-39.991287 Z-0.125000
G01 X-306.024437 Y-40.292977 Z-0.125000
G01 X-306.136493 Y-40.819857 Z-0.125000
G01 X-306.475894 Y-41.348891 Z-0.125000
G01 X-325.632129 Y-60.504049 Z-0.125000
G01 X-325.781897 Y-60.844528 Z-0.125000
G01 X-325.479129 Y-60.956584 Z-0.125000
G01 X-324.947940 Y-60.841295 Z-0.125000
G01 X-324.417827 Y-60.499739 Z-0.125000
G01 X-306.472662 Y-42.554574 Z-0.125000
G01 X-306.131106 Y-42.402651 Z-0.125000
G01 X-306.016895 Y-42.703264 Z-0.125000
G01 X-306.128951 Y-43.231221 Z-0.125000
G01 X-306.468352 Y-43.759179 Z-0.125000
G01 X-323.204603 Y-60.496507 Z-0.125000
G01 X-323.355448 Y-60.835908 Z-0.125000
G01 X-323.051603 Y-60.947964 Z-0.125000
G01 X-322.520413 Y-60.832675 Z-0.125000
G01 X-321.991378 Y-60.492197 Z-0.125000
G01 X-306.464042 Y-44.964861 Z-0.125000
G01 X-306.123564 Y-44.812939 Z-0.125000
G01 X-306.008275 Y-45.113551 Z-0.125000
G01 X-306.120331 Y-45.641509 Z-0.125000
G01 X-306.459733 Y-46.170543 Z-0.125000
G01 X-320.777076 Y-60.487887 Z-0.125000
G01 X-320.927921 Y-60.827288 Z-0.125000
G01 X-320.624076 Y-60.939344 Z-0.125000
G01 X-320.093964 Y-60.825133 Z-0.125000
G01 X-319.563851 Y-60.483577 Z-0.125000
G01 X-306.455423 Y-47.375148 Z-0.125000
G01 X-306.114944 Y-47.223226 Z-0.125000
G01 X-305.999655 Y-47.524916 Z-0.125000
G01 X-306.111712 Y-48.052873 Z-0.125000
G01 X-306.451113 Y-48.580831 Z-0.125000
G01 X-318.349549 Y-60.479267 Z-0.125000
G01 X-318.500394 Y-60.819746 Z-0.125000
G01 X-318.196549 Y-60.930725 Z-0.125000
G01 X-317.666437 Y-60.816513 Z-0.125000
G01 X-317.136325 Y-60.474957 Z-0.125000
G01 X-306.446803 Y-49.786513 Z-0.125000
G01 X-306.106324 Y-49.634591 Z-0.125000
G01 X-305.992113 Y-49.935203 Z-0.125000
G01 X-306.103092 Y-50.463161 Z-0.125000
G01 X-306.442493 Y-50.992195 Z-0.125000
G01 X-315.923100 Y-60.471725 Z-0.125000
G01 X-316.072868 Y-60.811126 Z-0.125000
G01 X-315.769023 Y-60.923182 Z-0.125000
G01 X-315.238910 Y-60.807894 Z-0.125000
G01 X-314.708798 Y-60.467415 Z-0.125000
G01 X-306.439261 Y-52.196800 Z-0.125000
G01 X-306.097705 Y-52.044878 Z-0.125000
G01 X-305.983493 Y-52.346568 Z-0.125000
G01 X-306.095550 Y-52.874525 Z-0.125000
G01 X-306.434951 Y-53.402483 Z-0.125000
G01 X-313.495573 Y-60.463105 Z-0.125000
G01 X-313.645341 Y-60.802506 Z-0.125000
G01 X-313.342573 Y-60.914563 Z-0.125000
G01 X-312.811384 Y-60.799274 Z-0.125000
G01 X-312.281271 Y-60.458795 Z-0.125000
G01 X-306.430641 Y-54.608165 Z-0.125000
G01 X-306.090162 Y-54.456243 Z-0.125000
G01 X-305.974874 Y-54.756855 Z-0.125000
G01 X-306.086930 Y-55.284813 Z-0.125000
G01 X-306.426331 Y-55.812770 Z-0.125000
G01 X-311.068047 Y-60.454485 Z-0.125000
G01 X-311.218892 Y-60.793887 Z-0.125000
G01 X-310.915047 Y-60.905943 Z-0.125000
G01 X-310.383857 Y-60.791732 Z-0.125000
G01 X-309.854822 Y-60.450176 Z-0.125000
G01 X-306.422021 Y-57.018452 Z-0.125000
G01 X-306.081543 Y-56.866530 Z-0.125000
G01 X-305.967331 Y-57.168220 Z-0.125000
G01 X-306.078310 Y-57.695100 Z-0.125000
G01 X-306.417711 Y-58.224135 Z-0.125000
G01 X-308.640520 Y-60.446943 Z-0.125000
G01 X-308.791365 Y-60.786344 Z-0.125000
G01 X-308.487520 Y-60.898401 Z-0.125000
G01 X-307.957408 Y-60.783112 Z-0.125000
G01 X-307.427295 Y-60.442633 Z-0.125000
G01 X-306.316430 Y-59.330690 Z-0.125000
G01 X-306.049219 Y-59.253113 Z-0.125000
G01 X-305.958712 Y-59.578507 Z-0.125000
G01 X-306.045986 Y-60.081683 Z-0.125000
G01 X-306.312120 Y-60.536373 Z-0.125000
G01 X-306.666606 Y-60.891936 Z-0.125000
G00 Z5.000000

(End cutting path id: path135)


(Start cutting path id: path143)
(Change tool to Default tool)

G00 Z5.000000
G00 X-274.112104 Y-93.312832

G01 Z-0.125000 F100.0(Penetrate)
G01 X-273.703745 Y-92.903395 Z-0.125000 F400.000000
G01 X-273.397746 Y-92.408839 Z-0.125000
G01 X-273.296464 Y-91.892734 Z-0.125000
G01 X-273.399901 Y-91.580269 Z-0.125000
G01 X-273.708055 Y-91.698790 Z-0.125000
G01 X-274.872794 Y-92.863529 Z-0.125000
G01 X-275.401829 Y-93.204008 Z-0.125000
G01 X-275.933019 Y-93.319296 Z-0.125000
G01 X-276.236864 Y-93.207240 Z-0.125000
G01 X-276.086019 Y-92.867839 Z-0.125000
G01 X-273.756541 Y-90.538362 Z-0.125000
G01 X-273.417140 Y-90.009327 Z-0.125000
G01 X-273.305084 Y-89.481369 Z-0.125000
G01 X-273.419295 Y-89.180757 Z-0.125000
G01 X-273.760851 Y-89.332679 Z-0.125000
G01 X-277.300321 Y-92.871071 Z-0.125000
G01 X-277.829356 Y-93.212628 Z-0.125000
G01 X-278.360545 Y-93.326839 Z-0.125000
G01 X-278.664390 Y-93.214782 Z-0.125000
G01 X-278.513545 Y-92.875381 Z-0.125000
G01 X-273.765161 Y-88.126997 Z-0.125000
G01 X-273.424682 Y-87.599039 Z-0.125000
G01 X-273.313703 Y-87.071082 Z-0.125000
G01 X-273.427915 Y-86.769392 Z-0.125000
G01 X-273.769471 Y-86.921314 Z-0.125000
G01 X-279.726770 Y-92.879691 Z-0.125000
G01 X-280.256882 Y-93.220170 Z-0.125000
G01 X-280.786995 Y-93.335458 Z-0.125000
G01 X-281.090840 Y-93.223402 Z-0.125000
G01 X-280.941072 Y-92.884001 Z-0.125000
G01 X-273.772703 Y-85.716710 Z-0.125000
G01 X-273.433302 Y-85.187675 Z-0.125000
G01 X-273.321246 Y-84.659717 Z-0.125000
G01 X-273.436534 Y-84.359105 Z-0.125000
G01 X-273.777013 Y-84.511027 Z-0.125000
G01 X-282.154297 Y-92.888311 Z-0.125000
G01 X-282.684409 Y-93.228789 Z-0.125000
G01 X-283.214521 Y-93.344078 Z-0.125000
G01 X-283.518366 Y-93.232022 Z-0.125000
G01 X-283.367521 Y-92.892621 Z-0.125000
G01 X-273.781323 Y-83.305345 Z-0.125000
G01 X-273.441922 Y-82.777387 Z-0.125000
G01 X-273.329865 Y-82.249430 Z-0.125000
G01 X-273.444077 Y-81.948817 Z-0.125000
G01 X-273.785633 Y-82.099662 Z-0.125000
G01 X-284.581823 Y-92.895853 Z-0.125000
G01 X-285.111936 Y-93.237409 Z-0.125000
G01 X-285.642048 Y-93.351620 Z-0.125000
G01 X-285.945893 Y-93.239564 Z-0.125000
G01 X-285.795048 Y-92.900163 Z-0.125000
G01 X-273.789943 Y-80.895058 Z-0.125000
G01 X-273.450541 Y-80.366023 Z-0.125000
G01 X-273.338485 Y-79.839143 Z-0.125000
G01 X-273.452696 Y-79.537453 Z-0.125000
G01 X-273.794252 Y-79.689375 Z-0.125000
G01 X-287.009350 Y-92.904473 Z-0.125000
G01 X-287.538385 Y-93.244951 Z-0.125000
G01 X-288.069575 Y-93.360240 Z-0.125000
G01 X-288.373420 Y-93.248184 Z-0.125000
G01 X-288.222575 Y-92.908783 Z-0.125000
G01 X-273.797485 Y-78.484770 Z-0.125000
G01 X-273.458084 Y-77.955735 Z-0.125000
G01 X-273.346027 Y-77.427778 Z-0.125000
G01 X-273.461316 Y-77.127165 Z-0.125000
G01 X-273.801795 Y-77.279088 Z-0.125000
G01 X-289.436877 Y-92.913092 Z-0.125000
G01 X-289.965912 Y-93.253571 Z-0.125000
G01 X-290.497101 Y-93.368860 Z-0.125000
G01 X-290.800946 Y-93.256804 Z-0.125000
G01 X-290.650101 Y-92.917402 Z-0.125000
G01 X-273.806105 Y-76.073406 Z-0.125000
G01 X-273.466703 Y-75.545448 Z-0.125000
G01 X-273.354647 Y-75.017491 Z-0.125000
G01 X-273.469936 Y-74.715801 Z-0.125000
G01 X-273.810414 Y-74.867723 Z-0.125000
G01 X-291.863326 Y-92.921712 Z-0.125000
G01 X-292.393438 Y-93.262191 Z-0.125000
G01 X-292.923551 Y-93.376402 Z-0.125000
G01 X-293.227395 Y-93.265423 Z-0.125000
G01 X-293.077628 Y-92.926022 Z-0.125000
G01 X-273.814724 Y-73.663118 Z-0.125000
G01 X-273.475323 Y-73.134083 Z-0.125000
G01 X-273.363267 Y-72.606126 Z-0.125000
G01 X-273.477478 Y-72.305513 Z-0.125000
G01 X-273.819034 Y-72.457436 Z-0.125000
G01 X-294.290853 Y-92.929254 Z-0.125000
G01 X-294.820965 Y-93.270811 Z-0.125000
G01 X-295.351077 Y-93.385022 Z-0.125000
G01 X-295.654922 Y-93.272966 Z-0.125000
G01 X-295.504077 Y-92.933564 Z-0.125000
G01 X-273.822266 Y-71.251754 Z-0.125000
G01 X-273.482865 Y-70.723796 Z-0.125000
G01 X-273.370809 Y-70.195839 Z-0.125000
G01 X-273.486098 Y-69.895226 Z-0.125000
G01 X-273.826576 Y-70.046071 Z-0.125000
G01 X-296.718379 Y-92.937874 Z-0.125000
G01 X-297.248492 Y-93.278353 Z-0.125000
G01 X-297.778604 Y-93.393641 Z-0.125000
G01 X-298.082449 Y-93.281585 Z-0.125000
G01 X-297.931604 Y-92.942184 Z-0.125000
G01 X-273.830886 Y-68.841466 Z-0.125000
G01 X-273.491485 Y-68.312431 Z-0.125000
G01 X-273.379429 Y-67.784474 Z-0.125000
G01 X-273.494717 Y-67.483861 Z-0.125000
G01 X-273.835196 Y-67.635784 Z-0.125000
G01 X-299.145906 Y-92.946494 Z-0.125000
G01 X-299.674941 Y-93.286973 Z-0.125000
G01 X-300.206131 Y-93.402261 Z-0.125000
G01 X-300.509976 Y-93.290205 Z-0.125000
G01 X-300.359131 Y-92.950804 Z-0.125000
G01 X-273.839506 Y-66.430102 Z-0.125000
G01 X-273.500105 Y-65.902144 Z-0.125000
G01 X-273.388048 Y-65.374187 Z-0.125000
G01 X-273.502260 Y-65.073574 Z-0.125000
G01 X-273.843816 Y-65.225497 Z-0.125000
G01 X-301.572355 Y-92.954036 Z-0.125000
G01 X-302.102468 Y-93.295592 Z-0.125000
G01 X-302.633657 Y-93.409803 Z-0.125000
G01 X-302.936425 Y-93.297747 Z-0.125000
G01 X-302.786657 Y-92.958346 Z-0.125000
G01 X-273.847048 Y-64.019814 Z-0.125000
G01 X-273.507647 Y-63.490779 Z-0.125000
G01 X-273.395591 Y-62.963899 Z-0.125000
G01 X-273.510879 Y-62.662209 Z-0.125000
G01 X-273.851358 Y-62.814132 Z-0.125000
G01 X-303.999882 Y-92.962656 Z-0.125000
G01 X-304.505213 Y-93.278353 Z-0.125000
G01 X-304.980374 Y-93.338691 Z-0.125000
G01 X-305.229268 Y-93.171684 Z-0.125000
G01 X-305.054719 Y-92.807501 Z-0.125000
G01 X-273.855668 Y-61.608450 Z-0.125000
G01 X-273.697281 Y-61.261506 Z-0.125000
G01 X-273.982809 Y-61.131133 Z-0.125000
G01 X-274.495682 Y-61.228105 Z-0.125000
G01 X-275.017174 Y-61.561041 Z-0.125000
G01 X-305.057952 Y-91.601819 Z-0.125000
G01 X-305.399508 Y-91.753741 Z-0.125000
G01 X-305.513719 Y-91.453129 Z-0.125000
G01 X-305.401663 Y-90.925171 Z-0.125000
G01 X-305.062262 Y-90.396136 Z-0.125000
G01 X-276.230399 Y-61.564274 Z-0.125000
G01 X-276.080631 Y-61.224872 Z-0.125000
G01 X-276.383399 Y-61.112816 Z-0.125000
G01 X-276.914589 Y-61.228105 Z-0.125000
G01 X-277.444701 Y-61.568583 Z-0.125000
G01 X-305.066571 Y-89.191531 Z-0.125000
G01 X-305.407050 Y-89.342376 Z-0.125000
G01 X-305.522339 Y-89.041764 Z-0.125000
G01 X-305.410282 Y-88.513806 Z-0.125000
G01 X-305.070881 Y-87.985849 Z-0.125000
G01 X-278.657925 Y-61.572893 Z-0.125000
G01 X-278.507081 Y-61.233492 Z-0.125000
G01 X-278.810925 Y-61.121436 Z-0.125000
G01 X-279.342115 Y-61.235647 Z-0.125000
G01 X-279.871150 Y-61.577203 Z-0.125000
G01 X-305.075191 Y-86.780167 Z-0.125000
G01 X-305.415670 Y-86.932089 Z-0.125000
G01 X-305.529881 Y-86.631477 Z-0.125000
G01 X-305.418902 Y-86.103519 Z-0.125000
G01 X-305.079501 Y-85.574484 Z-0.125000
G01 X-281.085452 Y-61.581513 Z-0.125000
G01 X-280.934607 Y-61.241034 Z-0.125000
G01 X-281.238452 Y-61.130055 Z-0.125000
G01 X-281.768564 Y-61.244267 Z-0.125000
G01 X-282.298677 Y-61.585823 Z-0.125000
G01 X-305.082733 Y-84.369879 Z-0.125000
G01 X-305.424289 Y-84.521802 Z-0.125000
G01 X-305.538501 Y-84.220112 Z-0.125000
G01 X-305.426444 Y-83.692154 Z-0.125000
G01 X-305.087043 Y-83.164197 Z-0.125000
G01 X-283.512979 Y-61.589055 Z-0.125000
G01 X-283.362134 Y-61.249654 Z-0.125000
G01 X-283.665979 Y-61.137598 Z-0.125000
G01 X-284.196091 Y-61.252886 Z-0.125000
G01 X-284.726203 Y-61.593365 Z-0.125000
G01 X-305.091353 Y-81.958515 Z-0.125000
G01 X-305.431832 Y-82.110437 Z-0.125000
G01 X-305.547120 Y-81.809825 Z-0.125000
G01 X-305.435064 Y-81.281867 Z-0.125000
G01 X-305.095663 Y-80.753910 Z-0.125000
G01 X-285.939428 Y-61.597675 Z-0.125000
G01 X-285.789661 Y-61.258274 Z-0.125000
G01 X-286.093505 Y-61.146217 Z-0.125000
G01 X-286.623618 Y-61.261506 Z-0.125000
G01 X-287.153730 Y-61.601985 Z-0.125000
G01 X-305.099973 Y-79.548227 Z-0.125000
G01 X-305.440451 Y-79.700150 Z-0.125000
G01 X-305.554663 Y-79.398460 Z-0.125000
G01 X-305.443684 Y-78.871580 Z-0.125000
G01 X-305.104283 Y-78.342545 Z-0.125000
G01 X-288.366955 Y-61.606295 Z-0.125000
G01 X-288.216110 Y-61.266893 Z-0.125000
G01 X-288.519955 Y-61.154837 Z-0.125000
G01 X-289.051145 Y-61.269048 Z-0.125000
G01 X-289.580179 Y-61.610605 Z-0.125000
G01 X-305.107515 Y-77.137940 Z-0.125000
G01 X-305.449071 Y-77.288785 Z-0.125000
G01 X-305.563282 Y-76.988173 Z-0.125000
G01 X-305.451226 Y-76.460215 Z-0.125000
G01 X-305.111825 Y-75.932258 Z-0.125000
G01 X-290.794481 Y-61.613837 Z-0.125000
G01 X-290.643637 Y-61.274436 Z-0.125000
G01 X-290.947481 Y-61.162379 Z-0.125000
G01 X-291.478671 Y-61.277668 Z-0.125000
G01 X-292.007706 Y-61.618147 Z-0.125000
G01 X-305.116135 Y-74.726575 Z-0.125000
G01 X-305.456613 Y-74.878498 Z-0.125000
G01 X-305.571902 Y-74.577885 Z-0.125000
G01 X-305.459846 Y-74.049928 Z-0.125000
G01 X-305.120445 Y-73.520893 Z-0.125000
G01 X-293.222008 Y-61.622457 Z-0.125000
G01 X-293.071163 Y-61.283055 Z-0.125000
G01 X-293.375008 Y-61.170999 Z-0.125000
G01 X-293.905120 Y-61.286288 Z-0.125000
G01 X-294.435233 Y-61.626766 Z-0.125000
G01 X-305.124754 Y-72.316288 Z-0.125000
G01 X-305.465233 Y-72.468211 Z-0.125000
G01 X-305.580522 Y-72.166521 Z-0.125000
G01 X-305.468466 Y-71.638563 Z-0.125000
G01 X-305.129064 Y-71.110606 Z-0.125000
G01 X-295.649535 Y-61.631076 Z-0.125000
G01 X-295.498690 Y-61.291675 Z-0.125000
G01 X-295.802535 Y-61.179619 Z-0.125000
G01 X-296.332647 Y-61.293830 Z-0.125000
G01 X-296.862759 Y-61.635386 Z-0.125000
G01 X-305.132297 Y-69.904923 Z-0.125000
G01 X-305.473853 Y-70.056846 Z-0.125000
G01 X-305.588064 Y-69.756233 Z-0.125000
G01 X-305.476008 Y-69.228276 Z-0.125000
G01 X-305.136607 Y-68.699241 Z-0.125000
G01 X-298.075984 Y-61.639696 Z-0.125000
G01 X-297.926217 Y-61.299217 Z-0.125000
G01 X-298.230061 Y-61.187161 Z-0.125000
G01 X-298.760174 Y-61.302450 Z-0.125000
G01 X-299.290286 Y-61.644006 Z-0.125000
G01 X-305.140916 Y-67.494636 Z-0.125000
G01 X-305.481395 Y-67.646559 Z-0.125000
G01 X-305.596684 Y-67.344869 Z-0.125000
G01 X-305.484627 Y-66.817989 Z-0.125000
G01 X-305.145226 Y-66.288954 Z-0.125000
G01 X-300.503511 Y-61.647238 Z-0.125000
G01 X-300.352666 Y-61.307837 Z-0.125000
G01 X-300.656511 Y-61.195781 Z-0.125000
G01 X-301.187701 Y-61.311069 Z-0.125000
G01 X-301.716735 Y-61.651548 Z-0.125000
G01 X-305.149536 Y-65.083271 Z-0.125000
G01 X-305.490015 Y-65.235194 Z-0.125000
G01 X-305.605303 Y-64.934581 Z-0.125000
G01 X-305.493247 Y-64.406624 Z-0.125000
G01 X-305.153846 Y-63.878667 Z-0.125000
G01 X-302.931037 Y-61.655858 Z-0.125000
G01 X-302.780193 Y-61.316457 Z-0.125000
G01 X-303.084037 Y-61.204401 Z-0.125000
G01 X-303.615227 Y-61.318612 Z-0.125000
G01 X-304.144262 Y-61.660168 Z-0.125000
G01 X-305.256205 Y-62.771033 Z-0.125000
G01 X-305.522339 Y-62.849688 Z-0.125000
G01 X-305.612846 Y-62.524294 Z-0.125000
G01 X-305.525571 Y-62.021118 Z-0.125000
G01 X-305.260515 Y-61.565351 Z-0.125000
G01 X-304.904952 Y-61.210865 Z-0.125000
G00 Z5.000000

(End cutting path id: path143)


(Start cutting path id: path138)
(Change tool to Default tool)

G00 Z5.000000
G00 X-274.326520 Y-28.202752

G01 Z-0.125000 F100.0(Penetrate)
G01 X-273.917083 Y-27.793315 Z-0.125000 F400.000000
G01 X-273.611083 Y-27.298759 Z-0.125000
G01 X-273.510879 Y-26.782654 Z-0.125000
G01 X-273.614316 Y-26.470189 Z-0.125000
G01 X-273.921393 Y-26.588710 Z-0.125000
G01 X-275.086132 Y-27.753449 Z-0.125000
G01 X-275.616244 Y-28.093928 Z-0.125000
G01 X-276.146357 Y-28.208139 Z-0.125000
G01 X-276.450201 Y-28.097160 Z-0.125000
G01 X-276.300434 Y-27.757759 Z-0.125000
G01 X-273.969879 Y-25.428281 Z-0.125000
G01 X-273.630478 Y-24.899247 Z-0.125000
G01 X-273.518422 Y-24.371289 Z-0.125000
G01 X-273.633710 Y-24.070677 Z-0.125000
G01 X-273.974189 Y-24.222599 Z-0.125000
G01 X-277.513659 Y-27.760991 Z-0.125000
G01 X-278.043771 Y-28.102547 Z-0.125000
G01 X-278.573883 Y-28.216759 Z-0.125000
G01 X-278.877728 Y-28.104702 Z-0.125000
G01 X-278.726883 Y-27.765301 Z-0.125000
G01 X-273.978499 Y-23.016917 Z-0.125000
G01 X-273.639098 Y-22.488959 Z-0.125000
G01 X-273.527041 Y-21.961002 Z-0.125000
G01 X-273.642330 Y-21.659312 Z-0.125000
G01 X-273.982809 Y-21.811234 Z-0.125000
G01 X-279.941185 Y-27.769611 Z-0.125000
G01 X-280.471298 Y-28.110090 Z-0.125000
G01 X-281.001410 Y-28.225378 Z-0.125000
G01 X-281.305255 Y-28.113322 Z-0.125000
G01 X-281.154410 Y-27.773921 Z-0.125000
G01 X-273.987118 Y-20.606629 Z-0.125000
G01 X-273.647717 Y-20.077595 Z-0.125000
G01 X-273.535661 Y-19.549637 Z-0.125000
G01 X-273.649872 Y-19.249025 Z-0.125000
G01 X-273.991428 Y-19.400947 Z-0.125000
G01 X-282.368712 Y-27.778231 Z-0.125000
G01 X-282.897747 Y-28.118709 Z-0.125000
G01 X-283.428937 Y-28.233998 Z-0.125000
G01 X-283.732782 Y-28.121942 Z-0.125000
G01 X-283.581937 Y-27.782541 Z-0.125000
G01 X-273.994661 Y-18.195265 Z-0.125000
G01 X-273.655260 Y-17.667307 Z-0.125000
G01 X-273.543203 Y-17.139350 Z-0.125000
G01 X-273.658492 Y-16.838737 Z-0.125000
G01 X-273.998971 Y-16.989582 Z-0.125000
G01 X-284.795161 Y-27.785773 Z-0.125000
G01 X-285.325274 Y-28.127329 Z-0.125000
G01 X-285.856463 Y-28.241540 Z-0.125000
G01 X-286.159231 Y-28.129484 Z-0.125000
G01 X-286.009463 Y-27.790083 Z-0.125000
G01 X-274.003280 Y-15.784977 Z-0.125000
G01 X-273.663879 Y-15.255943 Z-0.125000
G01 X-273.551823 Y-14.729063 Z-0.125000
G01 X-273.667112 Y-14.427373 Z-0.125000
G01 X-274.007590 Y-14.579295 Z-0.125000
G01 X-287.222688 Y-27.794393 Z-0.125000
G01 X-287.752800 Y-28.134871 Z-0.125000
G01 X-288.282913 Y-28.250160 Z-0.125000
G01 X-288.586757 Y-28.138104 Z-0.125000
G01 X-288.436990 Y-27.798703 Z-0.125000
G01 X-274.011900 Y-13.373613 Z-0.125000
G01 X-273.672499 Y-12.845655 Z-0.125000
G01 X-273.560443 Y-12.317698 Z-0.125000
G01 X-273.674654 Y-12.017085 Z-0.125000
G01 X-274.016210 Y-12.169008 Z-0.125000
G01 X-289.650215 Y-27.803012 Z-0.125000
G01 X-290.180327 Y-28.143491 Z-0.125000
G01 X-290.710439 Y-28.258780 Z-0.125000
G01 X-291.014284 Y-28.146723 Z-0.125000
G01 X-290.863439 Y-27.807322 Z-0.125000
G01 X-274.019442 Y-10.963325 Z-0.125000
G01 X-273.680041 Y-10.435368 Z-0.125000
G01 X-273.567985 Y-9.907411 Z-0.125000
G01 X-273.683274 Y-9.605721 Z-0.125000
G01 X-274.023752 Y-9.757643 Z-0.125000
G01 X-292.077741 Y-27.811632 Z-0.125000
G01 X-292.607854 Y-28.152111 Z-0.125000
G01 X-293.137966 Y-28.266322 Z-0.125000
G01 X-293.441811 Y-28.155343 Z-0.125000
G01 X-293.290966 Y-27.815942 Z-0.125000
G01 X-274.028062 Y-8.553038 Z-0.125000
G01 X-273.688661 Y-8.024003 Z-0.125000
G01 X-273.576605 Y-7.496046 Z-0.125000
G01 X-273.691893 Y-7.195433 Z-0.125000
G01 X-274.032372 Y-7.347356 Z-0.125000
G01 X-294.505268 Y-27.819174 Z-0.125000
G01 X-295.034303 Y-28.160730 Z-0.125000
G01 X-295.565493 Y-28.274942 Z-0.125000
G01 X-295.869338 Y-28.162885 Z-0.125000
G01 X-295.718493 Y-27.823484 Z-0.125000
G01 X-274.036682 Y-6.141673 Z-0.125000
G01 X-273.697281 Y-5.613716 Z-0.125000
G01 X-273.585224 Y-5.085759 Z-0.125000
G01 X-273.699436 Y-4.784069 Z-0.125000
G01 X-274.040992 Y-4.935991 Z-0.125000
G01 X-296.931717 Y-27.827794 Z-0.125000
G01 X-297.461830 Y-28.168273 Z-0.125000
G01 X-297.991942 Y-28.283561 Z-0.125000
G01 X-298.295787 Y-28.171505 Z-0.125000
G01 X-298.146019 Y-27.832104 Z-0.125000
G01 X-274.044224 Y-3.731386 Z-0.125000
G01 X-273.704823 Y-3.202351 Z-0.125000
G01 X-273.592767 Y-2.674394 Z-0.125000
G01 X-273.708055 Y-2.373781 Z-0.125000
G01 X-274.048534 Y-2.525704 Z-0.125000
G01 X-299.359244 Y-27.836414 Z-0.125000
G01 X-299.889356 Y-28.176892 Z-0.125000
G01 X-300.419469 Y-28.291104 Z-0.125000
G01 X-300.723313 Y-28.180125 Z-0.125000
G01 X-300.572468 Y-27.840724 Z-0.125000
G01 X-274.052844 Y-1.320021 Z-0.125000
G01 X-273.713443 Y-0.792064 Z-0.125000
G01 X-273.601386 Y-0.264107 Z-0.125000
G01 X-273.716675 Y0.036506 Z-0.125000
G01 X-274.057154 Y-0.115417 Z-0.125000
G01 X-301.786771 Y-27.843956 Z-0.125000
G01 X-302.316883 Y-28.185512 Z-0.125000
G01 X-302.846995 Y-28.299723 Z-0.125000
G01 X-303.150840 Y-28.187667 Z-0.125000
G01 X-302.999995 Y-27.848266 Z-0.125000
G01 X-274.061464 Y1.090266 Z-0.125000
G01 X-273.722062 Y1.619301 Z-0.125000
G01 X-273.610006 Y2.146181 Z-0.125000
G01 X-273.724217 Y2.447871 Z-0.125000
G01 X-274.065773 Y2.295948 Z-0.125000
G01 X-304.214297 Y-27.852576 Z-0.125000
G01 X-304.718550 Y-28.168273 Z-0.125000
G01 X-305.194790 Y-28.228611 Z-0.125000
G01 X-305.443684 Y-28.061604 Z-0.125000
G01 X-305.268057 Y-27.697421 Z-0.125000
G01 X-274.070083 Y3.501631 Z-0.125000
G01 X-273.910619 Y3.848574 Z-0.125000
G01 X-274.196147 Y3.978947 Z-0.125000
G01 X-274.709019 Y3.881975 Z-0.125000
G01 X-275.230512 Y3.550116 Z-0.125000
G01 X-305.272367 Y-26.491739 Z-0.125000
G01 X-305.612846 Y-26.643661 Z-0.125000
G01 X-305.728134 Y-26.343049 Z-0.125000
G01 X-305.616078 Y-25.815091 Z-0.125000
G01 X-305.276677 Y-25.286056 Z-0.125000
G01 X-276.444814 Y3.545807 Z-0.125000
G01 X-276.293969 Y3.885208 Z-0.125000
G01 X-276.597814 Y3.997264 Z-0.125000
G01 X-277.127926 Y3.881975 Z-0.125000
G01 X-277.658039 Y3.541497 Z-0.125000
G01 X-305.279909 Y-24.081451 Z-0.125000
G01 X-305.621465 Y-24.232296 Z-0.125000
G01 X-305.735677 Y-23.931684 Z-0.125000
G01 X-305.623620 Y-23.403726 Z-0.125000
G01 X-305.284219 Y-22.875769 Z-0.125000
G01 X-278.872341 Y3.537187 Z-0.125000
G01 X-278.721496 Y3.876588 Z-0.125000
G01 X-279.025341 Y3.988644 Z-0.125000
G01 X-279.555453 Y3.874433 Z-0.125000
G01 X-280.085565 Y3.532877 Z-0.125000
G01 X-305.288529 Y-21.670087 Z-0.125000
G01 X-305.629008 Y-21.822009 Z-0.125000
G01 X-305.744296 Y-21.521397 Z-0.125000
G01 X-305.632240 Y-20.993439 Z-0.125000
G01 X-305.292839 Y-20.464404 Z-0.125000
G01 X-281.298790 Y3.528567 Z-0.125000
G01 X-281.149023 Y3.869046 Z-0.125000
G01 X-281.452867 Y3.980025 Z-0.125000
G01 X-281.982980 Y3.865813 Z-0.125000
G01 X-282.513092 Y3.524257 Z-0.125000
G01 X-305.297149 Y-19.259799 Z-0.125000
G01 X-305.637627 Y-19.411722 Z-0.125000
G01 X-305.752916 Y-19.110032 Z-0.125000
G01 X-305.640860 Y-18.582074 Z-0.125000
G01 X-305.301459 Y-18.054117 Z-0.125000
G01 X-283.726317 Y3.521025 Z-0.125000
G01 X-283.575472 Y3.860426 Z-0.125000
G01 X-283.879317 Y3.972482 Z-0.125000
G01 X-284.410506 Y3.857194 Z-0.125000
G01 X-284.939541 Y3.516715 Z-0.125000
G01 X-305.304691 Y-16.848435 Z-0.125000
G01 X-305.646247 Y-17.000357 Z-0.125000
G01 X-305.760458 Y-16.699745 Z-0.125000
G01 X-305.648402 Y-16.171787 Z-0.125000
G01 X-305.309001 Y-15.643830 Z-0.125000
G01 X-286.153843 Y3.512405 Z-0.125000
G01 X-286.002998 Y3.851806 Z-0.125000
G01 X-286.306843 Y3.963863 Z-0.125000
G01 X-286.836956 Y3.848574 Z-0.125000
G01 X-287.367068 Y3.508095 Z-0.125000
G01 X-305.313311 Y-14.438147 Z-0.125000
G01 X-305.653789 Y-14.590070 Z-0.125000
G01 X-305.769078 Y-14.288380 Z-0.125000
G01 X-305.657022 Y-13.761500 Z-0.125000
G01 X-305.317621 Y-13.232465 Z-0.125000
G01 X-288.581370 Y3.503785 Z-0.125000
G01 X-288.430525 Y3.843187 Z-0.125000
G01 X-288.734370 Y3.955243 Z-0.125000
G01 X-289.264482 Y3.841032 Z-0.125000
G01 X-289.794595 Y3.499476 Z-0.125000
G01 X-305.321930 Y-12.027860 Z-0.125000
G01 X-305.662409 Y-12.178705 Z-0.125000
G01 X-305.777698 Y-11.878093 Z-0.125000
G01 X-305.665641 Y-11.350135 Z-0.125000
G01 X-305.326240 Y-10.822178 Z-0.125000
G01 X-291.008897 Y3.496243 Z-0.125000
G01 X-290.858052 Y3.835644 Z-0.125000
G01 X-291.161897 Y3.947701 Z-0.125000
G01 X-291.692009 Y3.832412 Z-0.125000
G01 X-292.222121 Y3.491933 Z-0.125000
G01 X-305.329473 Y-9.616495 Z-0.125000
G01 X-305.671029 Y-9.768418 Z-0.125000
G01 X-305.785240 Y-9.467805 Z-0.125000
G01 X-305.673184 Y-8.939848 Z-0.125000
G01 X-305.333782 Y-8.410813 Z-0.125000
G01 X-293.435346 Y3.487623 Z-0.125000
G01 X-293.285579 Y3.827025 Z-0.125000
G01 X-293.588346 Y3.939081 Z-0.125000
G01 X-294.119536 Y3.823792 Z-0.125000
G01 X-294.649648 Y3.483314 Z-0.125000
G01 X-305.338092 Y-7.206208 Z-0.125000
G01 X-305.678571 Y-7.358130 Z-0.125000
G01 X-305.793860 Y-7.056441 Z-0.125000
G01 X-305.681803 Y-6.528483 Z-0.125000
G01 X-305.342402 Y-6.000526 Z-0.125000
G01 X-295.862873 Y3.479004 Z-0.125000
G01 X-295.712028 Y3.818405 Z-0.125000
G01 X-296.015873 Y3.930461 Z-0.125000
G01 X-296.547062 Y3.816250 Z-0.125000
G01 X-297.076097 Y3.474694 Z-0.125000
G01 X-305.346712 Y-4.794843 Z-0.125000
G01 X-305.687191 Y-4.946766 Z-0.125000
G01 X-305.802479 Y-4.646153 Z-0.125000
G01 X-305.690423 Y-4.118196 Z-0.125000
G01 X-305.351022 Y-3.589161 Z-0.125000
G01 X-298.290399 Y3.471462 Z-0.125000
G01 X-298.139554 Y3.810863 Z-0.125000
G01 X-298.443399 Y3.922919 Z-0.125000
G01 X-298.973512 Y3.807630 Z-0.125000
G01 X-299.503624 Y3.467152 Z-0.125000
G01 X-305.355332 Y-2.384556 Z-0.125000
G01 X-305.695810 Y-2.536478 Z-0.125000
G01 X-305.810022 Y-2.234789 Z-0.125000
G01 X-305.699043 Y-1.707909 Z-0.125000
G01 X-305.359642 Y-1.178874 Z-0.125000
G01 X-300.717926 Y3.462842 Z-0.125000
G01 X-300.567081 Y3.802243 Z-0.125000
G01 X-300.870926 Y3.914299 Z-0.125000
G01 X-301.401038 Y3.799011 Z-0.125000
G01 X-301.931151 Y3.458532 Z-0.125000
G01 X-305.362874 Y0.026809 Z-0.125000
G01 X-305.704430 Y-0.125114 Z-0.125000
G01 X-305.818641 Y0.175499 Z-0.125000
G01 X-305.706585 Y0.703456 Z-0.125000
G01 X-305.367184 Y1.231414 Z-0.125000
G01 X-303.145453 Y3.454222 Z-0.125000
G01 X-302.994608 Y3.793623 Z-0.125000
G01 X-303.298453 Y3.905680 Z-0.125000
G01 X-303.828565 Y3.791468 Z-0.125000
G01 X-304.358677 Y3.449912 Z-0.125000
G01 X-305.469543 Y2.339047 Z-0.125000
G01 X-305.736754 Y2.260392 Z-0.125000
G01 X-305.827261 Y2.585786 Z-0.125000
G01 X-305.739986 Y3.088962 Z-0.125000
G01 X-305.473853 Y3.544729 Z-0.125000
G01 X-305.118290 Y3.899215 Z-0.125000
G00 Z5.000000

(End cutting path id: path138)


(Start cutting path id: path136)
(Change tool to Default tool)

G00 Z5.000000
G00 X-274.539858 Y36.907328

G01 Z-0.125000 F100.0(Penetrate)
G01 X-274.131499 Y37.316765 Z-0.125000 F400.000000
G01 X-273.825499 Y37.811321 Z-0.125000
G01 X-273.724217 Y38.327426 Z-0.125000
G01 X-273.827654 Y38.639891 Z-0.125000
G01 X-274.135809 Y38.521370 Z-0.125000
G01 X-275.300547 Y37.356631 Z-0.125000
G01 X-275.829582 Y37.016152 Z-0.125000
G01 X-276.360772 Y36.901941 Z-0.125000
G01 X-276.664617 Y37.012920 Z-0.125000
G01 X-276.513772 Y37.352321 Z-0.125000
G01 X-274.184294 Y39.681799 Z-0.125000
G01 X-273.844893 Y40.210834 Z-0.125000
G01 X-273.732837 Y40.738791 Z-0.125000
G01 X-273.847048 Y41.039403 Z-0.125000
G01 X-274.188604 Y40.887481 Z-0.125000
G01 X-277.728074 Y37.349089 Z-0.125000
G01 X-278.257109 Y37.007533 Z-0.125000
G01 X-278.788299 Y36.893321 Z-0.125000
G01 X-279.092144 Y37.005378 Z-0.125000
G01 X-278.941299 Y37.344779 Z-0.125000
G01 X-274.192914 Y42.093163 Z-0.125000
G01 X-273.852435 Y42.621121 Z-0.125000
G01 X-273.741457 Y43.149078 Z-0.125000
G01 X-273.855668 Y43.450768 Z-0.125000
G01 X-274.197224 Y43.298846 Z-0.125000
G01 X-280.154523 Y37.340469 Z-0.125000
G01 X-280.684636 Y36.999990 Z-0.125000
G01 X-281.214748 Y36.884702 Z-0.125000
G01 X-281.518593 Y36.996758 Z-0.125000
G01 X-281.368825 Y37.336159 Z-0.125000
G01 X-274.200456 Y44.503451 Z-0.125000
G01 X-273.861055 Y45.032486 Z-0.125000
G01 X-273.748999 Y45.560443 Z-0.125000
G01 X-273.864288 Y45.861055 Z-0.125000
G01 X-274.204766 Y45.709133 Z-0.125000
G01 X-282.582050 Y37.331849 Z-0.125000
G01 X-283.112162 Y36.991371 Z-0.125000
G01 X-283.642275 Y36.876082 Z-0.125000
G01 X-283.946119 Y36.988138 Z-0.125000
G01 X-283.795274 Y37.327540 Z-0.125000
G01 X-274.209076 Y46.914815 Z-0.125000
G01 X-273.869675 Y47.442773 Z-0.125000
G01 X-273.757619 Y47.970730 Z-0.125000
G01 X-273.871830 Y48.271343 Z-0.125000
G01 X-274.213386 Y48.120498 Z-0.125000
G01 X-285.009577 Y37.324307 Z-0.125000
G01 X-285.539689 Y36.982751 Z-0.125000
G01 X-286.069801 Y36.868540 Z-0.125000
G01 X-286.373646 Y36.980596 Z-0.125000
G01 X-286.222801 Y37.319997 Z-0.125000
G01 X-274.217696 Y49.325103 Z-0.125000
G01 X-273.877217 Y49.854138 Z-0.125000
G01 X-273.766238 Y50.382095 Z-0.125000
G01 X-273.880450 Y50.682707 Z-0.125000
G01 X-274.222006 Y50.530785 Z-0.125000
G01 X-287.437103 Y37.315687 Z-0.125000
G01 X-287.966138 Y36.975209 Z-0.125000
G01 X-288.497328 Y36.859920 Z-0.125000
G01 X-288.801173 Y36.971976 Z-0.125000
G01 X-288.650328 Y37.311378 Z-0.125000
G01 X-274.225238 Y51.736467 Z-0.125000
G01 X-273.885837 Y52.264425 Z-0.125000
G01 X-273.773781 Y52.792382 Z-0.125000
G01 X-273.889069 Y53.092995 Z-0.125000
G01 X-274.229548 Y52.941072 Z-0.125000
G01 X-289.863552 Y37.307068 Z-0.125000
G01 X-290.393665 Y36.966589 Z-0.125000
G01 X-290.924855 Y36.851300 Z-0.125000
G01 X-291.228700 Y36.963357 Z-0.125000
G01 X-291.077855 Y37.302758 Z-0.125000
G01 X-274.233858 Y54.146755 Z-0.125000
G01 X-273.894457 Y54.675790 Z-0.125000
G01 X-273.782400 Y55.202669 Z-0.125000
G01 X-273.896611 Y55.504359 Z-0.125000
G01 X-274.238168 Y55.352437 Z-0.125000
G01 X-292.291079 Y37.298448 Z-0.125000
G01 X-292.821192 Y36.957969 Z-0.125000
G01 X-293.351304 Y36.843758 Z-0.125000
G01 X-293.655149 Y36.955814 Z-0.125000
G01 X-293.505381 Y37.294138 Z-0.125000
G01 X-274.242477 Y56.557042 Z-0.125000
G01 X-273.901999 Y57.086077 Z-0.125000
G01 X-273.791020 Y57.614034 Z-0.125000
G01 X-273.905231 Y57.914647 Z-0.125000
G01 X-274.246787 Y57.762724 Z-0.125000
G01 X-294.718606 Y37.290906 Z-0.125000
G01 X-295.248718 Y36.949350 Z-0.125000
G01 X-295.778831 Y36.835138 Z-0.125000
G01 X-296.082675 Y36.947195 Z-0.125000
G01 X-295.931830 Y37.286596 Z-0.125000
G01 X-274.250020 Y58.968407 Z-0.125000
G01 X-273.910619 Y59.496364 Z-0.125000
G01 X-273.798562 Y60.024321 Z-0.125000
G01 X-273.913851 Y60.326011 Z-0.125000
G01 X-274.254330 Y60.174089 Z-0.125000
G01 X-297.146133 Y37.282286 Z-0.125000
G01 X-297.676245 Y36.941807 Z-0.125000
G01 X-298.206357 Y36.826519 Z-0.125000
G01 X-298.510202 Y36.938575 Z-0.125000
G01 X-298.359357 Y37.277976 Z-0.125000
G01 X-274.258639 Y61.378694 Z-0.125000
G01 X-273.919238 Y61.907729 Z-0.125000
G01 X-273.807182 Y62.435686 Z-0.125000
G01 X-273.921393 Y62.736299 Z-0.125000
G01 X-274.262949 Y62.584376 Z-0.125000
G01 X-299.573659 Y37.273666 Z-0.125000
G01 X-300.102694 Y36.933188 Z-0.125000
G01 X-300.633884 Y36.818976 Z-0.125000
G01 X-300.937729 Y36.929955 Z-0.125000
G01 X-300.786884 Y37.269356 Z-0.125000
G01 X-274.267259 Y63.790059 Z-0.125000
G01 X-273.927858 Y64.318016 Z-0.125000
G01 X-273.815802 Y64.845973 Z-0.125000
G01 X-273.930013 Y65.146586 Z-0.125000
G01 X-274.271569 Y64.994664 Z-0.125000
G01 X-302.000108 Y37.266124 Z-0.125000
G01 X-302.530221 Y36.924568 Z-0.125000
G01 X-303.061411 Y36.810357 Z-0.125000
G01 X-303.364178 Y36.922413 Z-0.125000
G01 X-303.214411 Y37.261814 Z-0.125000
G01 X-274.274801 Y66.200346 Z-0.125000
G01 X-273.935400 Y66.729381 Z-0.125000
G01 X-273.823344 Y67.256261 Z-0.125000
G01 X-273.938633 Y67.557951 Z-0.125000
G01 X-274.279111 Y67.406028 Z-0.125000
G01 X-304.427635 Y37.257504 Z-0.125000
G01 X-304.932966 Y36.941807 Z-0.125000
G01 X-305.408128 Y36.881469 Z-0.125000
G01 X-305.657022 Y37.048476 Z-0.125000
G01 X-305.482473 Y37.412659 Z-0.125000
G01 X-274.283421 Y68.611711 Z-0.125000
G01 X-274.125034 Y68.958654 Z-0.125000
G01 X-274.410562 Y69.089027 Z-0.125000
G01 X-274.923435 Y68.992055 Z-0.125000
G01 X-275.444927 Y68.660196 Z-0.125000
G01 X-305.485705 Y38.618342 Z-0.125000
G01 X-305.827261 Y38.466419 Z-0.125000
G01 X-305.941472 Y38.768109 Z-0.125000
G01 X-305.829416 Y39.294989 Z-0.125000
G01 X-305.490015 Y39.824024 Z-0.125000
G01 X-276.658152 Y68.655887 Z-0.125000
G01 X-276.508385 Y68.995288 Z-0.125000
G01 X-276.811152 Y69.107344 Z-0.125000
G01 X-277.342342 Y68.992055 Z-0.125000
G01 X-277.872454 Y68.651577 Z-0.125000
G01 X-305.494325 Y41.028629 Z-0.125000
G01 X-305.834803 Y40.877784 Z-0.125000
G01 X-305.950092 Y41.178396 Z-0.125000
G01 X-305.838036 Y41.706354 Z-0.125000
G01 X-305.498635 Y42.234311 Z-0.125000
G01 X-279.085679 Y68.647267 Z-0.125000
G01 X-278.934834 Y68.986668 Z-0.125000
G01 X-279.238679 Y69.098724 Z-0.125000
G01 X-279.769868 Y68.984513 Z-0.125000
G01 X-280.298903 Y68.642957 Z-0.125000
G01 X-305.502944 Y43.439994 Z-0.125000
G01 X-305.843423 Y43.288071 Z-0.125000
G01 X-305.957634 Y43.588684 Z-0.125000
G01 X-305.846655 Y44.116641 Z-0.125000
G01 X-305.507254 Y44.645676 Z-0.125000
G01 X-281.513205 Y68.638647 Z-0.125000
G01 X-281.362360 Y68.979126 Z-0.125000
G01 X-281.666205 Y69.091182 Z-0.125000
G01 X-282.196318 Y68.975893 Z-0.125000
G01 X-282.726430 Y68.634337 Z-0.125000
G01 X-305.510487 Y45.850281 Z-0.125000
G01 X-305.852043 Y45.698358 Z-0.125000
G01 X-305.966254 Y46.000048 Z-0.125000
G01 X-305.854198 Y46.528006 Z-0.125000
G01 X-305.514796 Y47.055963 Z-0.125000
G01 X-283.940732 Y68.631105 Z-0.125000
G01 X-283.789887 Y68.970506 Z-0.125000
G01 X-284.093732 Y69.082562 Z-0.125000
G01 X-284.623844 Y68.967274 Z-0.125000
G01 X-285.153957 Y68.626795 Z-0.125000
G01 X-305.519106 Y48.261646 Z-0.125000
G01 X-305.859585 Y48.109723 Z-0.125000
G01 X-305.974874 Y48.410336 Z-0.125000
G01 X-305.862817 Y48.938293 Z-0.125000
G01 X-305.523416 Y49.467328 Z-0.125000
G01 X-286.367181 Y68.622485 Z-0.125000
G01 X-286.217414 Y68.961886 Z-0.125000
G01 X-286.521259 Y69.073943 Z-0.125000
G01 X-287.051371 Y68.959732 Z-0.125000
G01 X-287.581483 Y68.618175 Z-0.125000
G01 X-305.527726 Y50.671933 Z-0.125000
G01 X-305.868205 Y50.520010 Z-0.125000
G01 X-305.982416 Y50.821700 Z-0.125000
G01 X-305.871437 Y51.348580 Z-0.125000
G01 X-305.532036 Y51.877615 Z-0.125000
G01 X-288.794708 Y68.613866 Z-0.125000
G01 X-288.643863 Y68.953267 Z-0.125000
G01 X-288.947708 Y69.065323 Z-0.125000
G01 X-289.478898 Y68.951112 Z-0.125000
G01 X-290.007933 Y68.609556 Z-0.125000
G01 X-305.535268 Y53.083298 Z-0.125000
G01 X-305.876824 Y52.931375 Z-0.125000
G01 X-305.991036 Y53.231988 Z-0.125000
G01 X-305.878979 Y53.759945 Z-0.125000
G01 X-305.539578 Y54.287902 Z-0.125000
G01 X-291.222235 Y68.606323 Z-0.125000
G01 X-291.071390 Y68.945724 Z-0.125000
G01 X-291.375235 Y69.057781 Z-0.125000
G01 X-291.906424 Y68.942492 Z-0.125000
G01 X-292.435459 Y68.602013 Z-0.125000
G01 X-305.543888 Y55.493585 Z-0.125000
G01 X-305.884367 Y55.341662 Z-0.125000
G01 X-305.999655 Y55.642275 Z-0.125000
G01 X-305.887599 Y56.170232 Z-0.125000
G01 X-305.548198 Y56.699267 Z-0.125000
G01 X-293.649761 Y68.597704 Z-0.125000
G01 X-293.498916 Y68.937105 Z-0.125000
G01 X-293.802761 Y69.049161 Z-0.125000
G01 X-294.332874 Y68.933872 Z-0.125000
G01 X-294.862986 Y68.593394 Z-0.125000
G01 X-305.552508 Y57.903872 Z-0.125000
G01 X-305.892986 Y57.751950 Z-0.125000
G01 X-306.008275 Y58.053640 Z-0.125000
G01 X-305.896219 Y58.581597 Z-0.125000
G01 X-305.556818 Y59.109554 Z-0.125000
G01 X-296.077288 Y68.589084 Z-0.125000
G01 X-295.926443 Y68.928485 Z-0.125000
G01 X-296.230288 Y69.040541 Z-0.125000
G01 X-296.760400 Y68.926330 Z-0.125000
G01 X-297.290513 Y68.584774 Z-0.125000
G01 X-305.560050 Y60.315237 Z-0.125000
G01 X-305.901606 Y60.163314 Z-0.125000
G01 X-306.015817 Y60.463927 Z-0.125000
G01 X-305.903761 Y60.991884 Z-0.125000
G01 X-305.564360 Y61.520919 Z-0.125000
G01 X-298.503737 Y68.581542 Z-0.125000
G01 X-298.353970 Y68.920943 Z-0.125000
G01 X-298.657815 Y69.032999 Z-0.125000
G01 X-299.187927 Y68.917710 Z-0.125000
G01 X-299.718039 Y68.577232 Z-0.125000
G01 X-305.568670 Y62.725524 Z-0.125000
G01 X-305.909148 Y62.573602 Z-0.125000
G01 X-306.024437 Y62.875292 Z-0.125000
G01 X-305.912381 Y63.403249 Z-0.125000
G01 X-305.572980 Y63.931206 Z-0.125000
G01 X-300.931264 Y68.572922 Z-0.125000
G01 X-300.780419 Y68.912323 Z-0.125000
G01 X-301.084264 Y69.024379 Z-0.125000
G01 X-301.615454 Y68.909091 Z-0.125000
G01 X-302.144489 Y68.568612 Z-0.125000
G01 X-305.577289 Y65.136889 Z-0.125000
G01 X-305.917768 Y64.984966 Z-0.125000
G01 X-306.033057 Y65.285579 Z-0.125000
G01 X-305.921000 Y65.813536 Z-0.125000
G01 X-305.581599 Y66.341494 Z-0.125000
G01 X-303.358791 Y68.564302 Z-0.125000
G01 X-303.207946 Y68.903703 Z-0.125000
G01 X-303.511791 Y69.015760 Z-0.125000
G01 X-304.042980 Y68.901548 Z-0.125000
G01 X-304.572015 Y68.559992 Z-0.125000
G01 X-305.683958 Y67.449127 Z-0.125000
G01 X-305.950092 Y67.370472 Z-0.125000
G01 X-306.040599 Y67.695866 Z-0.125000
G01 X-305.953324 Y68.200119 Z-0.125000
G01 X-305.688268 Y68.654809 Z-0.125000
G01 X-305.332705 Y69.009295 Z-0.125000
G00 Z5.000000

(End cutting path id: path136)


(Start cutting path id: path137)
(Change tool to Default tool)

G00 Z5.000000
G00 X-274.754273 Y102.017409

G01 Z-0.125000 F100.0(Penetrate)
G01 X-274.344837 Y102.426845 Z-0.125000 F400.000000
G01 X-274.038837 Y102.921401 Z-0.125000
G01 X-273.938633 Y103.437506 Z-0.125000
G01 X-274.042069 Y103.749971 Z-0.125000
G01 X-274.349146 Y103.631450 Z-0.125000
G01 X-275.513885 Y102.466711 Z-0.125000
G01 X-276.043998 Y102.126232 Z-0.125000
G01 X-276.574110 Y102.012021 Z-0.125000
G01 X-276.877955 Y102.123000 Z-0.125000
G01 X-276.728187 Y102.462401 Z-0.125000
G01 X-274.397632 Y104.791879 Z-0.125000
G01 X-274.058231 Y105.320914 Z-0.125000
G01 X-273.946175 Y105.848871 Z-0.125000
G01 X-274.061464 Y106.149484 Z-0.125000
G01 X-274.401942 Y105.997561 Z-0.125000
G01 X-277.941412 Y102.459169 Z-0.125000
G01 X-278.471524 Y102.117613 Z-0.125000
G01 X-279.001637 Y102.003402 Z-0.125000
G01 X-279.305481 Y102.115458 Z-0.125000
G01 X-279.154636 Y102.454859 Z-0.125000
G01 X-274.406252 Y107.203243 Z-0.125000
G01 X-274.066851 Y107.731201 Z-0.125000
G01 X-273.954795 Y108.259158 Z-0.125000
G01 X-274.070083 Y108.560848 Z-0.125000
G01 X-274.410562 Y108.408926 Z-0.125000
G01 X-280.368939 Y102.450549 Z-0.125000
G01 X-280.899051 Y102.110071 Z-0.125000
G01 X-281.429163 Y101.994782 Z-0.125000
G01 X-281.733008 Y102.106838 Z-0.125000
G01 X-281.582163 Y102.446239 Z-0.125000
G01 X-274.414872 Y109.613531 Z-0.125000
G01 X-274.075471 Y110.142566 Z-0.125000
G01 X-273.963414 Y110.670523 Z-0.125000
G01 X-274.077625 Y110.971136 Z-0.125000
G01 X-274.419182 Y110.819213 Z-0.125000
G01 X-282.796465 Y102.441929 Z-0.125000
G01 X-283.325500 Y102.101451 Z-0.125000
G01 X-283.856690 Y101.986162 Z-0.125000
G01 X-284.160535 Y102.098218 Z-0.125000
G01 X-284.009690 Y102.437620 Z-0.125000
G01 X-274.422414 Y112.024895 Z-0.125000
G01 X-274.083013 Y112.552853 Z-0.125000
G01 X-273.970957 Y113.080810 Z-0.125000
G01 X-274.086245 Y113.381423 Z-0.125000
G01 X-274.426724 Y113.230578 Z-0.125000
G01 X-285.222914 Y102.434387 Z-0.125000
G01 X-285.753027 Y102.092831 Z-0.125000
G01 X-286.284217 Y101.978620 Z-0.125000
G01 X-286.586984 Y102.090676 Z-0.125000
G01 X-286.437217 Y102.430077 Z-0.125000
G01 X-274.431034 Y114.435183 Z-0.125000
G01 X-274.091632 Y114.964218 Z-0.125000
G01 X-273.979576 Y115.492175 Z-0.125000
G01 X-274.094865 Y115.792788 Z-0.125000
G01 X-274.435344 Y115.640865 Z-0.125000
G01 X-287.650441 Y102.425767 Z-0.125000
G01 X-288.180554 Y102.085289 Z-0.125000
G01 X-288.710666 Y101.970000 Z-0.125000
G01 X-289.014511 Y102.082056 Z-0.125000
G01 X-288.863666 Y102.421458 Z-0.125000
G01 X-274.439653 Y116.846547 Z-0.125000
G01 X-274.100252 Y117.374505 Z-0.125000
G01 X-273.988196 Y117.902462 Z-0.125000
G01 X-274.102407 Y118.203075 Z-0.125000
G01 X-274.443963 Y118.051152 Z-0.125000
G01 X-290.077968 Y102.417148 Z-0.125000
G01 X-290.608080 Y102.076669 Z-0.125000
G01 X-291.138193 Y101.961380 Z-0.125000
G01 X-291.442037 Y102.073437 Z-0.125000
G01 X-291.291192 Y102.412838 Z-0.125000
G01 X-274.447196 Y119.256835 Z-0.125000
G01 X-274.107794 Y119.784792 Z-0.125000
G01 X-273.995738 Y120.312750 Z-0.125000
G01 X-274.111027 Y120.614440 Z-0.125000
G01 X-274.451506 Y120.462517 Z-0.125000
G01 X-292.505495 Y102.408528 Z-0.125000
G01 X-293.034529 Y102.068049 Z-0.125000
G01 X-293.565719 Y101.953838 Z-0.125000
G01 X-293.869564 Y102.065894 Z-0.125000
G01 X-293.718719 Y102.404218 Z-0.125000
G01 X-274.455815 Y121.667122 Z-0.125000
G01 X-274.116414 Y122.196157 Z-0.125000
G01 X-274.004358 Y122.724114 Z-0.125000
G01 X-274.119647 Y123.024727 Z-0.125000
G01 X-274.460125 Y122.872804 Z-0.125000
G01 X-294.933021 Y102.400986 Z-0.125000
G01 X-295.462056 Y102.059430 Z-0.125000
G01 X-295.993246 Y101.945218 Z-0.125000
G01 X-296.297091 Y102.057275 Z-0.125000
G01 X-296.146246 Y102.396676 Z-0.125000
G01 X-274.464435 Y124.078487 Z-0.125000
G01 X-274.125034 Y124.606444 Z-0.125000
G01 X-274.012978 Y125.134402 Z-0.125000
G01 X-274.127189 Y125.436092 Z-0.125000
G01 X-274.468745 Y125.284169 Z-0.125000
G01 X-297.359470 Y102.392366 Z-0.125000
G01 X-297.889583 Y102.051887 Z-0.125000
G01 X-298.419695 Y101.936599 Z-0.125000
G01 X-298.723540 Y102.048655 Z-0.125000
G01 X-298.573773 Y102.388056 Z-0.125000
G01 X-274.471977 Y126.488774 Z-0.125000
G01 X-274.132576 Y127.017809 Z-0.125000
G01 X-274.020520 Y127.545766 Z-0.125000
G01 X-274.135809 Y127.846379 Z-0.125000
G01 X-274.476287 Y127.694456 Z-0.125000
G01 X-299.786997 Y102.383746 Z-0.125000
G01 X-300.317109 Y102.043268 Z-0.125000
G01 X-300.847222 Y101.929057 Z-0.125000
G01 X-301.151067 Y102.040035 Z-0.125000
G01 X-301.000222 Y102.379437 Z-0.125000
G01 X-274.480597 Y128.900139 Z-0.125000
G01 X-274.141196 Y129.428096 Z-0.125000
G01 X-274.029140 Y129.956054 Z-0.125000
G01 X-274.144428 Y130.256666 Z-0.125000
G01 X-274.484907 Y130.104744 Z-0.125000
G01 X-302.214524 Y102.376204 Z-0.125000
G01 X-302.744636 Y102.034648 Z-0.125000
G01 X-303.274749 Y101.920437 Z-0.125000
G01 X-303.578593 Y102.032493 Z-0.125000
G01 X-303.427748 Y102.371894 Z-0.125000
G01 X-274.489217 Y131.310426 Z-0.125000
G01 X-274.149816 Y131.839461 Z-0.125000
G01 X-274.037759 Y132.366341 Z-0.125000
G01 X-274.151970 Y132.668031 Z-0.125000
G01 X-274.493527 Y132.516108 Z-0.125000
G01 X-304.642051 Y102.367584 Z-0.125000
G01 X-305.146304 Y102.051887 Z-0.125000
G01 X-305.622543 Y101.991549 Z-0.125000
G01 X-305.871437 Y102.158556 Z-0.125000
G01 X-305.695810 Y102.522739 Z-0.125000
G01 X-274.497836 Y133.721791 Z-0.125000
G01 X-274.338372 Y134.068734 Z-0.125000
G01 X-274.623900 Y134.199107 Z-0.125000
G01 X-275.136773 Y134.102136 Z-0.125000
G01 X-275.658265 Y133.770277 Z-0.125000
G01 X-305.700120 Y103.728422 Z-0.125000
G01 X-306.040599 Y103.576499 Z-0.125000
G01 X-306.155888 Y103.877112 Z-0.125000
G01 X-306.043831 Y104.405069 Z-0.125000
G01 X-305.704430 Y104.934104 Z-0.125000
G01 X-276.872567 Y133.765967 Z-0.125000
G01 X-276.721722 Y134.105368 Z-0.125000
G01 X-277.025567 Y134.217424 Z-0.125000
G01 X-277.555680 Y134.102136 Z-0.125000
G01 X-278.085792 Y133.761657 Z-0.125000
G01 X-305.707663 Y106.138709 Z-0.125000
G01 X-306.049219 Y105.987864 Z-0.125000
G01 X-306.163430 Y106.288476 Z-0.125000
G01 X-306.051374 Y106.816434 Z-0.125000
G01 X-305.711972 Y107.344391 Z-0.125000
G01 X-279.300094 Y133.757347 Z-0.125000
G01 X-279.149249 Y134.096748 Z-0.125000
G01 X-279.453094 Y134.208804 Z-0.125000
G01 X-279.983206 Y134.094593 Z-0.125000
G01 X-280.513319 Y133.753037 Z-0.125000
G01 X-305.716282 Y108.550074 Z-0.125000
G01 X-306.056761 Y108.398151 Z-0.125000
G01 X-306.172050 Y108.698764 Z-0.125000
G01 X-306.059993 Y109.226721 Z-0.125000
G01 X-305.720592 Y109.755756 Z-0.125000
G01 X-281.726543 Y133.748727 Z-0.125000
G01 X-281.576776 Y134.089206 Z-0.125000
G01 X-281.880621 Y134.200185 Z-0.125000
G01 X-282.410733 Y134.085974 Z-0.125000
G01 X-282.940845 Y133.744417 Z-0.125000
G01 X-305.724902 Y110.960361 Z-0.125000
G01 X-306.065381 Y110.808438 Z-0.125000
G01 X-306.180669 Y111.110128 Z-0.125000
G01 X-306.068613 Y111.638086 Z-0.125000
G01 X-305.729212 Y112.166043 Z-0.125000
G01 X-284.154070 Y133.741185 Z-0.125000
G01 X-284.003225 Y134.080586 Z-0.125000
G01 X-284.307070 Y134.192643 Z-0.125000
G01 X-284.838260 Y134.077354 Z-0.125000
G01 X-285.367295 Y133.736875 Z-0.125000
G01 X-305.732444 Y113.371726 Z-0.125000
G01 X-306.074000 Y113.219803 Z-0.125000
G01 X-306.188212 Y113.520416 Z-0.125000
G01 X-306.076155 Y114.048373 Z-0.125000
G01 X-305.736754 Y114.577408 Z-0.125000
G01 X-286.581597 Y133.732565 Z-0.125000
G01 X-286.430752 Y134.071967 Z-0.125000
G01 X-286.734597 Y134.184023 Z-0.125000
G01 X-287.265786 Y134.068734 Z-0.125000
G01 X-287.794821 Y133.728255 Z-0.125000
G01 X-305.741064 Y115.782013 Z-0.125000
G01 X-306.081543 Y115.630090 Z-0.125000
G01 X-306.196831 Y115.931780 Z-0.125000
G01 X-306.084775 Y116.458660 Z-0.125000
G01 X-305.745374 Y116.987695 Z-0.125000
G01 X-289.009123 Y133.723946 Z-0.125000
G01 X-288.858278 Y134.063347 Z-0.125000
G01 X-289.162123 Y134.175403 Z-0.125000
G01 X-289.692236 Y134.061192 Z-0.125000
G01 X-290.222348 Y133.719636 Z-0.125000
G01 X-305.749684 Y118.192300 Z-0.125000
G01 X-306.090162 Y118.041455 Z-0.125000
G01 X-306.205451 Y118.342068 Z-0.125000
G01 X-306.093395 Y118.870025 Z-0.125000
G01 X-305.753994 Y119.397983 Z-0.125000
G01 X-291.436650 Y133.716403 Z-0.125000
G01 X-291.285805 Y134.055805 Z-0.125000
G01 X-291.589650 Y134.167861 Z-0.125000
G01 X-292.119762 Y134.052572 Z-0.125000
G01 X-292.649875 Y133.712094 Z-0.125000
G01 X-305.757226 Y120.603665 Z-0.125000
G01 X-306.098782 Y120.451742 Z-0.125000
G01 X-306.212993 Y120.752355 Z-0.125000
G01 X-306.100937 Y121.280312 Z-0.125000
G01 X-305.761536 Y121.809347 Z-0.125000
G01 X-293.863099 Y133.707784 Z-0.125000
G01 X-293.713332 Y134.047185 Z-0.125000
G01 X-294.017177 Y134.159241 Z-0.125000
G01 X-294.547289 Y134.043952 Z-0.125000
G01 X-295.077401 Y133.703474 Z-0.125000
G01 X-305.765846 Y123.013952 Z-0.125000
G01 X-306.107402 Y122.862030 Z-0.125000
G01 X-306.221613 Y123.163720 Z-0.125000
G01 X-306.109557 Y123.691677 Z-0.125000
G01 X-305.770155 Y124.219635 Z-0.125000
G01 X-296.290626 Y133.699164 Z-0.125000
G01 X-296.139781 Y134.038565 Z-0.125000
G01 X-296.443626 Y134.150621 Z-0.125000
G01 X-296.974816 Y134.036410 Z-0.125000
G01 X-297.503851 Y133.694854 Z-0.125000
G01 X-305.774465 Y125.425317 Z-0.125000
G01 X-306.114944 Y125.273394 Z-0.125000
G01 X-306.230233 Y125.574007 Z-0.125000
G01 X-306.118176 Y126.101964 Z-0.125000
G01 X-305.778775 Y126.630999 Z-0.125000
G01 X-298.718153 Y133.691622 Z-0.125000
G01 X-298.567308 Y134.031023 Z-0.125000
G01 X-298.871153 Y134.143079 Z-0.125000
G01 X-299.401265 Y134.027791 Z-0.125000
G01 X-299.931377 Y133.687312 Z-0.125000
G01 X-305.783085 Y127.835604 Z-0.125000
G01 X-306.123564 Y127.683682 Z-0.125000
G01 X-306.237775 Y127.985372 Z-0.125000
G01 X-306.126796 Y128.512252 Z-0.125000
G01 X-305.787395 Y129.041287 Z-0.125000
G01 X-301.145679 Y133.683002 Z-0.125000
G01 X-300.994834 Y134.022403 Z-0.125000
G01 X-301.298679 Y134.134459 Z-0.125000
G01 X-301.828792 Y134.019171 Z-0.125000
G01 X-302.358904 Y133.678692 Z-0.125000
G01 X-305.790627 Y130.246969 Z-0.125000
G01 X-306.132183 Y130.095046 Z-0.125000
G01 X-306.246395 Y130.395659 Z-0.125000
G01 X-306.134338 Y130.923616 Z-0.125000
G01 X-305.794937 Y131.451574 Z-0.125000
G01 X-303.573206 Y133.674382 Z-0.125000
G01 X-303.422361 Y134.013783 Z-0.125000
G01 X-303.726206 Y134.125840 Z-0.125000
G01 X-304.256318 Y134.011629 Z-0.125000
G01 X-304.786431 Y133.670072 Z-0.125000
G01 X-305.897296 Y132.559207 Z-0.125000
G01 X-306.164507 Y132.480552 Z-0.125000
G01 X-306.255014 Y132.805946 Z-0.125000
G01 X-306.167740 Y133.309122 Z-0.125000
G01 X-305.901606 Y133.764889 Z-0.125000
G01 X-305.546043 Y134.119375 Z-0.125000
G00 Z5.000000

(End cutting path id: path137)


(Start cutting path id: path152)
(Change tool to Default tool)

G00 Z5.000000
G00 X-272.907499 Y166.540271

G01 Z-0.125000 F100.0(Penetrate)
G01 X-273.315858 Y166.131912 Z-0.125000 F400.000000
G01 X-273.621858 Y165.637356 Z-0.125000
G01 X-273.723140 Y165.120173 Z-0.125000
G01 X-273.618626 Y164.807708 Z-0.125000
G01 X-273.311548 Y164.926229 Z-0.125000
G01 X-272.146810 Y166.090968 Z-0.125000
G01 X-271.616697 Y166.432524 Z-0.125000
G01 X-271.086585 Y166.546736 Z-0.125000
G01 X-270.782740 Y166.434679 Z-0.125000
G01 X-270.933585 Y166.095278 Z-0.125000
G01 X-273.263063 Y163.765801 Z-0.125000
G01 X-273.602464 Y163.237843 Z-0.125000
G01 X-273.714520 Y162.709886 Z-0.125000
G01 X-273.599231 Y162.408196 Z-0.125000
G01 X-273.258753 Y162.560118 Z-0.125000
G01 X-269.719283 Y166.099588 Z-0.125000
G01 X-269.190248 Y166.440067 Z-0.125000
G01 X-268.659058 Y166.555355 Z-0.125000
G01 X-268.355213 Y166.443299 Z-0.125000
G01 X-268.506058 Y166.103898 Z-0.125000
G01 X-273.254443 Y161.355513 Z-0.125000
G01 X-273.593844 Y160.826478 Z-0.125000
G01 X-273.705900 Y160.298521 Z-0.125000
G01 X-273.591689 Y159.997909 Z-0.125000
G01 X-273.250133 Y160.149831 Z-0.125000
G01 X-267.291756 Y166.108208 Z-0.125000
G01 X-266.762721 Y166.448686 Z-0.125000
G01 X-266.231532 Y166.562897 Z-0.125000
G01 X-265.927687 Y166.451919 Z-0.125000
G01 X-266.078532 Y166.112517 Z-0.125000
G01 X-273.246901 Y158.944149 Z-0.125000
G01 X-273.586302 Y158.416191 Z-0.125000
G01 X-273.698358 Y157.888234 Z-0.125000
G01 X-273.583069 Y157.587621 Z-0.125000
G01 X-273.242591 Y157.738466 Z-0.125000
G01 X-264.865307 Y166.115750 Z-0.125000
G01 X-264.335195 Y166.457306 Z-0.125000
G01 X-263.805082 Y166.571517 Z-0.125000
G01 X-263.501238 Y166.459461 Z-0.125000
G01 X-263.651005 Y166.120060 Z-0.125000
G01 X-273.238281 Y156.533861 Z-0.125000
G01 X-273.577682 Y156.004826 Z-0.125000
G01 X-273.689738 Y155.477946 Z-0.125000
G01 X-273.574450 Y155.176257 Z-0.125000
G01 X-273.233971 Y155.328179 Z-0.125000
G01 X-262.437780 Y166.124370 Z-0.125000
G01 X-261.907668 Y166.464848 Z-0.125000
G01 X-261.377556 Y166.580137 Z-0.125000
G01 X-261.073711 Y166.468081 Z-0.125000
G01 X-261.224556 Y166.128679 Z-0.125000
G01 X-273.229661 Y154.122497 Z-0.125000
G01 X-273.569062 Y153.594539 Z-0.125000
G01 X-273.681119 Y153.066582 Z-0.125000
G01 X-273.566907 Y152.765969 Z-0.125000
G01 X-273.225351 Y152.917892 Z-0.125000
G01 X-260.010254 Y166.132989 Z-0.125000
G01 X-259.480141 Y166.473468 Z-0.125000
G01 X-258.950029 Y166.588757 Z-0.125000
G01 X-258.646184 Y166.476700 Z-0.125000
G01 X-258.797029 Y166.137299 Z-0.125000
G01 X-273.222119 Y151.712209 Z-0.125000
G01 X-273.561520 Y151.184252 Z-0.125000
G01 X-273.673576 Y150.656294 Z-0.125000
G01 X-273.558288 Y150.354605 Z-0.125000
G01 X-273.217809 Y150.506527 Z-0.125000
G01 X-257.582727 Y166.140532 Z-0.125000
G01 X-257.053692 Y166.482088 Z-0.125000
G01 X-256.522502 Y166.596299 Z-0.125000
G01 X-256.218657 Y166.484243 Z-0.125000
G01 X-256.369502 Y166.144841 Z-0.125000
G01 X-273.213499 Y149.301922 Z-0.125000
G01 X-273.552900 Y148.772887 Z-0.125000
G01 X-273.664957 Y148.244930 Z-0.125000
G01 X-273.549668 Y147.944317 Z-0.125000
G01 X-273.209189 Y148.096240 Z-0.125000
G01 X-255.156278 Y166.149151 Z-0.125000
G01 X-254.626165 Y166.489630 Z-0.125000
G01 X-254.094976 Y166.604919 Z-0.125000
G01 X-253.792208 Y166.492862 Z-0.125000
G01 X-253.941976 Y166.153461 Z-0.125000
G01 X-273.204880 Y146.890557 Z-0.125000
G01 X-273.544281 Y146.362600 Z-0.125000
G01 X-273.656337 Y145.834642 Z-0.125000
G01 X-273.542126 Y145.532953 Z-0.125000
G01 X-273.200570 Y145.684875 Z-0.125000
G01 X-252.728751 Y166.157771 Z-0.125000
G01 X-252.198639 Y166.498250 Z-0.125000
G01 X-251.668526 Y166.613538 Z-0.125000
G01 X-251.364682 Y166.501482 Z-0.125000
G01 X-251.515527 Y166.162081 Z-0.125000
G01 X-273.197337 Y144.480270 Z-0.125000
G01 X-273.536738 Y143.951235 Z-0.125000
G01 X-273.648795 Y143.423278 Z-0.125000
G01 X-273.533506 Y143.122665 Z-0.125000
G01 X-273.193027 Y143.274588 Z-0.125000
G01 X-250.301224 Y166.166391 Z-0.125000
G01 X-249.771112 Y166.506869 Z-0.125000
G01 X-249.241000 Y166.621081 Z-0.125000
G01 X-248.937155 Y166.509024 Z-0.125000
G01 X-249.088000 Y166.170701 Z-0.125000
G01 X-273.188718 Y142.068905 Z-0.125000
G01 X-273.528119 Y141.540948 Z-0.125000
G01 X-273.640175 Y141.012990 Z-0.125000
G01 X-273.524886 Y140.712378 Z-0.125000
G01 X-273.184408 Y140.864300 Z-0.125000
G01 X-247.873698 Y166.173933 Z-0.125000
G01 X-247.343585 Y166.515489 Z-0.125000
G01 X-246.813473 Y166.629700 Z-0.125000
G01 X-246.509628 Y166.517644 Z-0.125000
G01 X-246.660473 Y166.178243 Z-0.125000
G01 X-273.180098 Y139.658618 Z-0.125000
G01 X-273.519499 Y139.129583 Z-0.125000
G01 X-273.631555 Y138.602703 Z-0.125000
G01 X-273.517344 Y138.301013 Z-0.125000
G01 X-273.175788 Y138.452936 Z-0.125000
G01 X-245.446171 Y166.182553 Z-0.125000
G01 X-244.917136 Y166.523031 Z-0.125000
G01 X-244.385946 Y166.638320 Z-0.125000
G01 X-244.082101 Y166.526264 Z-0.125000
G01 X-244.232946 Y166.186862 Z-0.125000
G01 X-273.172556 Y137.248331 Z-0.125000
G01 X-273.511957 Y136.719296 Z-0.125000
G01 X-273.624013 Y136.191338 Z-0.125000
G01 X-273.508724 Y135.890726 Z-0.125000
G01 X-273.168246 Y136.042648 Z-0.125000
G01 X-243.019722 Y166.191172 Z-0.125000
G01 X-242.514391 Y166.506869 Z-0.125000
G01 X-242.038152 Y166.566130 Z-0.125000
G01 X-241.789258 Y166.400200 Z-0.125000
G01 X-241.964884 Y166.034940 Z-0.125000
G01 X-273.163936 Y134.836966 Z-0.125000
G01 X-273.322323 Y134.488945 Z-0.125000
G01 X-273.036795 Y134.359649 Z-0.125000
G01 X-272.523922 Y134.455544 Z-0.125000
G01 X-272.002430 Y134.788480 Z-0.125000
G01 X-241.965962 Y164.826025 Z-0.125000
G01 X-241.624406 Y164.977948 Z-0.125000
G01 X-241.510195 Y164.677335 Z-0.125000
G01 X-241.622251 Y164.149378 Z-0.125000
G01 X-241.961652 Y163.620343 Z-0.125000
G01 X-270.793515 Y134.788480 Z-0.125000
G01 X-270.944360 Y134.449079 Z-0.125000
G01 X-270.640515 Y134.337023 Z-0.125000
G01 X-270.109325 Y134.452311 Z-0.125000
G01 X-269.579213 Y134.792790 Z-0.125000
G01 X-241.957342 Y162.415738 Z-0.125000
G01 X-241.616864 Y162.566583 Z-0.125000
G01 X-241.501575 Y162.265971 Z-0.125000
G01 X-241.613631 Y161.738013 Z-0.125000
G01 X-241.953032 Y161.210056 Z-0.125000
G01 X-268.365988 Y134.797100 Z-0.125000
G01 X-268.516833 Y134.457699 Z-0.125000
G01 X-268.212988 Y134.345642 Z-0.125000
G01 X-267.681798 Y134.459854 Z-0.125000
G01 X-267.152763 Y134.801410 Z-0.125000
G01 X-241.948722 Y160.004373 Z-0.125000
G01 X-241.608244 Y160.156296 Z-0.125000
G01 X-241.494033 Y159.855683 Z-0.125000
G01 X-241.605011 Y159.327726 Z-0.125000
G01 X-241.944413 Y158.798691 Z-0.125000
G01 X-265.938461 Y134.805720 Z-0.125000
G01 X-266.089306 Y134.465241 Z-0.125000
G01 X-265.785461 Y134.354262 Z-0.125000
G01 X-265.255349 Y134.468473 Z-0.125000
G01 X-264.725237 Y134.810029 Z-0.125000
G01 X-241.941180 Y157.594086 Z-0.125000
G01 X-241.599624 Y157.746008 Z-0.125000
G01 X-241.485413 Y157.444319 Z-0.125000
G01 X-241.597469 Y156.916361 Z-0.125000
G01 X-241.936870 Y156.388404 Z-0.125000
G01 X-263.510935 Y134.813262 Z-0.125000
G01 X-263.661780 Y134.473861 Z-0.125000
G01 X-263.357935 Y134.361804 Z-0.125000
G01 X-262.827822 Y134.477093 Z-0.125000
G01 X-262.297710 Y134.817572 Z-0.125000
G01 X-241.932561 Y155.182721 Z-0.125000
G01 X-241.592082 Y155.334644 Z-0.125000
G01 X-241.476793 Y155.034031 Z-0.125000
G01 X-241.588849 Y154.506074 Z-0.125000
G01 X-241.928251 Y153.977039 Z-0.125000
G01 X-261.084485 Y134.821882 Z-0.125000
G01 X-261.234253 Y134.482480 Z-0.125000
G01 X-260.930408 Y134.370424 Z-0.125000
G01 X-260.400296 Y134.485713 Z-0.125000
G01 X-259.870183 Y134.826191 Z-0.125000
G01 X-241.923941 Y152.772434 Z-0.125000
G01 X-241.583462 Y152.924356 Z-0.125000
G01 X-241.469251 Y152.622667 Z-0.125000
G01 X-241.580230 Y152.095787 Z-0.125000
G01 X-241.919631 Y151.566752 Z-0.125000
G01 X-258.656959 Y134.830501 Z-0.125000
G01 X-258.807804 Y134.491100 Z-0.125000
G01 X-258.503959 Y134.379044 Z-0.125000
G01 X-257.972769 Y134.493255 Z-0.125000
G01 X-257.443734 Y134.834811 Z-0.125000
G01 X-241.916399 Y150.362147 Z-0.125000
G01 X-241.574842 Y150.512992 Z-0.125000
G01 X-241.460631 Y150.212379 Z-0.125000
G01 X-241.572687 Y149.684422 Z-0.125000
G01 X-241.912089 Y149.156464 Z-0.125000
G01 X-256.229432 Y134.838044 Z-0.125000
G01 X-256.380277 Y134.498642 Z-0.125000
G01 X-256.076432 Y134.386586 Z-0.125000
G01 X-255.545242 Y134.501875 Z-0.125000
G01 X-255.016207 Y134.842353 Z-0.125000
G01 X-241.907779 Y147.950782 Z-0.125000
G01 X-241.567300 Y148.102704 Z-0.125000
G01 X-241.452012 Y147.802092 Z-0.125000
G01 X-241.564068 Y147.274135 Z-0.125000
G01 X-241.903469 Y146.745100 Z-0.125000
G01 X-253.801905 Y134.846663 Z-0.125000
G01 X-253.952750 Y134.507262 Z-0.125000
G01 X-253.648906 Y134.395206 Z-0.125000
G01 X-253.118793 Y134.510494 Z-0.125000
G01 X-252.588681 Y134.850973 Z-0.125000
G01 X-241.899159 Y145.540495 Z-0.125000
G01 X-241.558680 Y145.692417 Z-0.125000
G01 X-241.443392 Y145.390727 Z-0.125000
G01 X-241.555448 Y144.862770 Z-0.125000
G01 X-241.894849 Y144.334812 Z-0.125000
G01 X-251.374379 Y134.855283 Z-0.125000
G01 X-251.525224 Y134.515882 Z-0.125000
G01 X-251.221379 Y134.403826 Z-0.125000
G01 X-250.691266 Y134.518037 Z-0.125000
G01 X-250.161154 Y134.859593 Z-0.125000
G01 X-241.891617 Y143.129130 Z-0.125000
G01 X-241.550061 Y143.281052 Z-0.125000
G01 X-241.435850 Y142.980440 Z-0.125000
G01 X-241.547906 Y142.452483 Z-0.125000
G01 X-241.887307 Y141.923448 Z-0.125000
G01 X-248.947929 Y134.862825 Z-0.125000
G01 X-249.097697 Y134.523424 Z-0.125000
G01 X-248.793852 Y134.411368 Z-0.125000
G01 X-248.263740 Y134.526656 Z-0.125000
G01 X-247.733627 Y134.867135 Z-0.125000
G01 X-241.882997 Y140.718843 Z-0.125000
G01 X-241.542519 Y140.870765 Z-0.125000
G01 X-241.427230 Y140.569075 Z-0.125000
G01 X-241.539286 Y140.042195 Z-0.125000
G01 X-241.878687 Y139.513160 Z-0.125000
G01 X-246.520403 Y134.871445 Z-0.125000
G01 X-246.671248 Y134.532044 Z-0.125000
G01 X-246.367403 Y134.419987 Z-0.125000
G01 X-245.836213 Y134.535276 Z-0.125000
G01 X-245.307178 Y134.875755 Z-0.125000
G01 X-241.874377 Y138.307478 Z-0.125000
G01 X-241.533899 Y138.459400 Z-0.125000
G01 X-241.418610 Y138.158788 Z-0.125000
G01 X-241.530666 Y137.630831 Z-0.125000
G01 X-241.870068 Y137.102873 Z-0.125000
G01 X-244.092876 Y134.880065 Z-0.125000
G01 X-244.243721 Y134.540663 Z-0.125000
G01 X-243.939876 Y134.428607 Z-0.125000
G01 X-243.408686 Y134.542818 Z-0.125000
G01 X-242.879651 Y134.884375 Z-0.125000
G01 X-241.767709 Y135.995240 Z-0.125000
G01 X-241.501575 Y136.073895 Z-0.125000
G01 X-241.411068 Y135.748501 Z-0.125000
G01 X-241.498342 Y135.245325 Z-0.125000
G01 X-241.763399 Y134.789558 Z-0.125000
G01 X-242.118962 Y134.435072 Z-0.125000
G00 Z5.000000

(End cutting path id: path152)


(Start cutting path id: path147)
(Change tool to Default tool)

G00 Z5.000000
G00 X-272.693084 Y101.430191

G01 Z-0.125000 F100.0(Penetrate)
G01 X-273.102520 Y101.021832 Z-0.125000 F400.000000
G01 X-273.408520 Y100.527276 Z-0.125000
G01 X-273.508724 Y100.010093 Z-0.125000
G01 X-273.405288 Y99.697628 Z-0.125000
G01 X-273.098211 Y99.816149 Z-0.125000
G01 X-271.933472 Y100.980888 Z-0.125000
G01 X-271.403359 Y101.321367 Z-0.125000
G01 X-270.872170 Y101.436655 Z-0.125000
G01 X-270.569402 Y101.324599 Z-0.125000
G01 X-270.719170 Y100.985198 Z-0.125000
G01 X-273.048647 Y98.655720 Z-0.125000
G01 X-273.389126 Y98.127763 Z-0.125000
G01 X-273.501182 Y97.599806 Z-0.125000
G01 X-273.385893 Y97.298116 Z-0.125000
G01 X-273.044337 Y97.450038 Z-0.125000
G01 X-269.505945 Y100.989508 Z-0.125000
G01 X-268.975833 Y101.329986 Z-0.125000
G01 X-268.445720 Y101.445275 Z-0.125000
G01 X-268.141876 Y101.333219 Z-0.125000
G01 X-268.292721 Y100.993818 Z-0.125000
G01 X-273.041105 Y96.245433 Z-0.125000
G01 X-273.380506 Y95.716398 Z-0.125000
G01 X-273.492562 Y95.188441 Z-0.125000
G01 X-273.377274 Y94.887828 Z-0.125000
G01 X-273.036795 Y95.039751 Z-0.125000
G01 X-267.078418 Y100.998128 Z-0.125000
G01 X-266.548306 Y101.338606 Z-0.125000
G01 X-266.018194 Y101.452817 Z-0.125000
G01 X-265.714349 Y101.341839 Z-0.125000
G01 X-265.865194 Y101.002437 Z-0.125000
G01 X-273.032485 Y93.834069 Z-0.125000
G01 X-273.371886 Y93.306111 Z-0.125000
G01 X-273.483943 Y92.778154 Z-0.125000
G01 X-273.369732 Y92.477541 Z-0.125000
G01 X-273.028175 Y92.628386 Z-0.125000
G01 X-264.650892 Y101.005670 Z-0.125000
G01 X-264.120779 Y101.347226 Z-0.125000
G01 X-263.590667 Y101.461437 Z-0.125000
G01 X-263.286822 Y101.349381 Z-0.125000
G01 X-263.437667 Y101.009980 Z-0.125000
G01 X-273.023866 Y91.423781 Z-0.125000
G01 X-273.364344 Y90.894746 Z-0.125000
G01 X-273.475323 Y90.366789 Z-0.125000
G01 X-273.361112 Y90.066176 Z-0.125000
G01 X-273.019556 Y90.218099 Z-0.125000
G01 X-262.223365 Y101.014289 Z-0.125000
G01 X-261.694330 Y101.354768 Z-0.125000
G01 X-261.163140 Y101.470057 Z-0.125000
G01 X-260.859295 Y101.358001 Z-0.125000
G01 X-261.010140 Y101.018599 Z-0.125000
G01 X-273.016323 Y89.012417 Z-0.125000
