%
(Header)
(Generated by gcodetools from Inkscape.)
(Using default header. To add your own header create file "header" in the output dir.)
M3
(Header end.)
G21 (All units in mm)

(Start cutting path id: rect8692)
(Change tool to Default tool)

G00 Z5.000000
G00 X-350.590650 Y178.154140

G01 Z-0.125000 F100.0(Penetrate)
G01 X-76.442498 Y178.154140 Z-0.125000 F400.000000
G01 X-76.442498 Y-94.566600 Z-0.125000
G01 X-350.590650 Y-94.566600 Z-0.125000
G01 X-350.590650 Y178.154140 Z-0.125000
G00 Z5.000000

(End cutting path id: rect8692)


(Start cutting path id: rect8691)
(Change tool to Default tool)

G00 Z5.000000
G00 X-350.452440 Y178.016630

G01 Z-0.125000 F100.0(Penetrate)
G01 X-76.580666 Y178.016630 Z-0.125000 F400.000000
G01 X-76.580666 Y-94.429150 Z-0.125000
G01 X-350.452440 Y-94.429150 Z-0.125000
G01 X-350.452440 Y178.016630 Z-0.125000
G00 Z5.000000

(End cutting path id: rect8691)


(Start cutting path id: rect8690)
(Change tool to Default tool)

G00 Z5.000000
G00 X-350.322020 Y177.886890

G01 Z-0.125000 F100.0(Penetrate)
G01 X-76.711120 Y177.886890 Z-0.125000 F400.000000
G01 X-76.711120 Y-94.299360 Z-0.125000
G01 X-350.322020 Y-94.299360 Z-0.125000
G01 X-350.322020 Y177.886890 Z-0.125000
G00 Z5.000000

(End cutting path id: rect8690)


(Start cutting path id: rect8689)
(Change tool to Default tool)

G00 Z5.000000
G00 X-350.184070 Y177.749650

G01 Z-0.125000 F100.0(Penetrate)
G01 X-76.849020 Y177.749650 Z-0.125000 F400.000000
G01 X-76.849020 Y-94.162190 Z-0.125000
G01 X-350.184070 Y-94.162190 Z-0.125000
G01 X-350.184070 Y177.749650 Z-0.125000
G00 Z5.000000

(End cutting path id: rect8689)


(Start cutting path id: rect8688)
(Change tool to Default tool)

G00 Z5.000000
G00 X-350.047240 Y177.613560

G01 Z-0.125000 F100.0(Penetrate)
G01 X-76.985892 Y177.613560 Z-0.125000 F400.000000
G01 X-76.985892 Y-94.026020 Z-0.125000
G01 X-350.047240 Y-94.026020 Z-0.125000
G01 X-350.047240 Y177.613560 Z-0.125000
G00 Z5.000000

(End cutting path id: rect8688)


(Start cutting path id: rect8687)
(Change tool to Default tool)

G00 Z5.000000
G00 X-349.909580 Y177.476610

G01 Z-0.125000 F100.0(Penetrate)
G01 X-77.123521 Y177.476610 Z-0.125000 F400.000000
G01 X-77.123521 Y-93.889100 Z-0.125000
G01 X-349.909580 Y-93.889100 Z-0.125000
G01 X-349.909580 Y177.476610 Z-0.125000
G00 Z5.000000

(End cutting path id: rect8687)


(Start cutting path id: rect8686)
(Change tool to Default tool)

G00 Z5.000000
G00 X-349.779650 Y177.347370

G01 Z-0.125000 F100.0(Penetrate)
G01 X-77.253447 Y177.347370 Z-0.125000 F400.000000
G01 X-77.253447 Y-93.759830 Z-0.125000
G01 X-349.779650 Y-93.759830 Z-0.125000
G01 X-349.779650 Y177.347370 Z-0.125000
G00 Z5.000000

(End cutting path id: rect8686)


(Start cutting path id: rect8685)
(Change tool to Default tool)

G00 Z5.000000
G00 X-349.642250 Y177.210680

G01 Z-0.125000 F100.0(Penetrate)
G01 X-77.390809 Y177.210680 Z-0.125000 F400.000000
G01 X-77.390809 Y-93.623200 Z-0.125000
G01 X-349.642250 Y-93.623200 Z-0.125000
G01 X-349.642250 Y177.210680 Z-0.125000
G00 Z5.000000

(End cutting path id: rect8685)


(Start cutting path id: path132)
(Change tool to Default tool)

G00 Z5.000000
G00 X-316.572810 Y176.815780

G01 Z-0.125000 F100.0(Penetrate)
G01 X-316.147220 Y176.391300 Z-0.125000 F400.000000
G01 X-315.829140 Y175.877220 Z-0.125000
G01 X-315.724980 Y175.339630 Z-0.125000
G01 X-315.832510 Y175.014830 Z-0.125000
G01 X-316.151700 Y175.138030 Z-0.125000
G01 X-317.362400 Y176.348730 Z-0.125000
G01 X-317.913440 Y176.703770 Z-0.125000
G01 X-318.464470 Y176.822490 Z-0.125000
G01 X-318.780310 Y176.706010 Z-0.125000
G01 X-318.623510 Y176.353210 Z-0.125000
G01 X-316.202100 Y173.931800 Z-0.125000
G01 X-315.849300 Y173.383010 Z-0.125000
G01 X-315.732820 Y172.834220 Z-0.125000
G01 X-315.852660 Y172.520620 Z-0.125000
G01 X-316.206580 Y172.678540 Z-0.125000
G01 X-319.885740 Y176.357690 Z-0.125000
G01 X-320.436770 Y176.711610 Z-0.125000
G01 X-320.987810 Y176.831450 Z-0.125000
G01 X-321.303640 Y176.714970 Z-0.125000
G01 X-321.146850 Y176.362170 Z-0.125000
G01 X-316.211060 Y171.426400 Z-0.125000
G01 X-315.858260 Y170.876480 Z-0.125000
G01 X-315.741780 Y170.327680 Z-0.125000
G01 X-315.860500 Y170.015210 Z-0.125000
G01 X-316.215540 Y170.173120 Z-0.125000
G01 X-322.409070 Y176.366650 Z-0.125000
G01 X-322.958980 Y176.720570 Z-0.125000
G01 X-323.511130 Y176.839290 Z-0.125000
G01 X-323.826970 Y176.723930 Z-0.125000
G01 X-323.670170 Y176.371130 Z-0.125000
G01 X-316.220020 Y168.919860 Z-0.125000
G01 X-315.867220 Y168.371060 Z-0.125000
G01 X-315.750740 Y167.822270 Z-0.125000
G01 X-315.869460 Y167.509790 Z-0.125000
G01 X-316.224500 Y167.666600 Z-0.125000
G01 X-324.932400 Y176.374490 Z-0.125000
G01 X-325.482310 Y176.729530 Z-0.125000
G01 X-326.034470 Y176.848250 Z-0.125000
G01 X-326.350310 Y176.731780 Z-0.125000
G01 X-326.193500 Y176.378970 Z-0.125000
G01 X-316.227860 Y166.414450 Z-0.125000
G01 X-315.875060 Y165.864540 Z-0.125000
G01 X-315.758580 Y165.315740 Z-0.125000
G01 X-315.878420 Y165.003260 Z-0.125000
G01 X-316.232340 Y165.161180 Z-0.125000
G01 X-327.454610 Y176.383450 Z-0.125000
G01 X-328.005650 Y176.737370 Z-0.125000
G01 X-328.556680 Y176.857210 Z-0.125000
G01 X-328.872520 Y176.740740 Z-0.125000
G01 X-328.716840 Y176.387930 Z-0.125000
G01 X-316.236820 Y163.907910 Z-0.125000
G01 X-315.884020 Y163.359130 Z-0.125000
G01 X-315.767540 Y162.810330 Z-0.125000
G01 X-315.887380 Y162.497860 Z-0.125000
G01 X-316.241300 Y162.655770 Z-0.125000
G01 X-329.977950 Y176.392410 Z-0.125000
G01 X-330.528980 Y176.746330 Z-0.125000
G01 X-331.080010 Y176.866170 Z-0.125000
G01 X-331.395850 Y176.749700 Z-0.125000
G01 X-331.239050 Y176.396890 Z-0.125000
G01 X-316.245780 Y161.402510 Z-0.125000
G01 X-315.892980 Y160.853710 Z-0.125000
G01 X-315.776500 Y160.304920 Z-0.125000
G01 X-315.895220 Y159.991320 Z-0.125000
G01 X-316.250260 Y160.149230 Z-0.125000
G01 X-332.501270 Y176.400260 Z-0.125000
G01 X-333.052310 Y176.755290 Z-0.125000
G01 X-333.603340 Y176.874010 Z-0.125000
G01 X-333.919180 Y176.757530 Z-0.125000
G01 X-333.762380 Y176.404740 Z-0.125000
G01 X-316.253610 Y158.897090 Z-0.125000
G01 X-315.900820 Y158.347180 Z-0.125000
G01 X-315.784340 Y157.798380 Z-0.125000
G01 X-315.904180 Y157.485910 Z-0.125000
G01 X-316.258090 Y157.643820 Z-0.125000
G01 X-335.024610 Y176.409220 Z-0.125000
G01 X-335.574520 Y176.763140 Z-0.125000
G01 X-336.126680 Y176.882970 Z-0.125000
G01 X-336.442510 Y176.766500 Z-0.125000
G01 X-336.285720 Y176.413700 Z-0.125000
G01 X-316.262570 Y156.390560 Z-0.125000
G01 X-315.909780 Y155.841760 Z-0.125000
G01 X-315.793300 Y155.292980 Z-0.125000
G01 X-315.913140 Y154.979370 Z-0.125000
G01 X-316.267050 Y155.137300 Z-0.125000
G01 X-337.547940 Y176.418180 Z-0.125000
G01 X-338.097860 Y176.772090 Z-0.125000
G01 X-338.650010 Y176.891930 Z-0.125000
G01 X-338.964720 Y176.775460 Z-0.125000
G01 X-338.809050 Y176.422660 Z-0.125000
G01 X-316.271540 Y153.885150 Z-0.125000
G01 X-315.918740 Y153.335240 Z-0.125000
G01 X-315.802260 Y152.786440 Z-0.125000
G01 X-315.920990 Y152.473970 Z-0.125000
G01 X-316.276020 Y152.631880 Z-0.125000
G01 X-340.070150 Y176.427140 Z-0.125000
G01 X-340.621180 Y176.781050 Z-0.125000
G01 X-341.172220 Y176.899780 Z-0.125000
G01 X-341.488050 Y176.783290 Z-0.125000
G01 X-341.332370 Y176.431620 Z-0.125000
G01 X-316.279370 Y151.378620 Z-0.125000
G01 X-315.926580 Y150.829820 Z-0.125000
G01 X-315.810110 Y150.281030 Z-0.125000
G01 X-315.929950 Y149.968550 Z-0.125000
G01 X-316.283850 Y150.126470 Z-0.125000
G01 X-342.593490 Y176.434980 Z-0.125000
G01 X-343.144520 Y176.790010 Z-0.125000
G01 X-343.695560 Y176.908740 Z-0.125000
G01 X-344.011390 Y176.792250 Z-0.125000
G01 X-343.854600 Y176.439460 Z-0.125000
G01 X-316.288330 Y148.873210 Z-0.125000
G01 X-315.935540 Y148.323290 Z-0.125000
G01 X-315.819070 Y147.775610 Z-0.125000
G01 X-315.938910 Y147.462020 Z-0.125000
G01 X-316.292810 Y147.619930 Z-0.125000
G01 X-345.116820 Y176.443940 Z-0.125000
G01 X-345.667850 Y176.797860 Z-0.125000
G01 X-346.218880 Y176.917700 Z-0.125000
G01 X-346.534720 Y176.801210 Z-0.125000
G01 X-346.377920 Y176.448420 Z-0.125000
G01 X-316.297290 Y146.367790 Z-0.125000
G01 X-315.944500 Y145.817870 Z-0.125000
G01 X-315.828030 Y145.269090 Z-0.125000
G01 X-315.946740 Y144.956600 Z-0.125000
G01 X-316.301770 Y145.114520 Z-0.125000
G01 X-347.640150 Y176.452900 Z-0.125000
G01 X-348.164300 Y176.781050 Z-0.125000
G01 X-348.659340 Y176.842650 Z-0.125000
G01 X-348.918050 Y176.670170 Z-0.125000
G01 X-348.735500 Y176.290490 Z-0.125000
G01 X-316.305140 Y143.861250 Z-0.125000
G01 X-316.140500 Y143.499490 Z-0.125000
G01 X-316.437300 Y143.363980 Z-0.125000
G01 X-316.970410 Y143.464810 Z-0.125000
G01 X-317.512480 Y143.810890 Z-0.125000
G01 X-348.739980 Y175.038370 Z-0.125000
G01 X-349.093900 Y175.195170 Z-0.125000
G01 X-349.213730 Y174.882690 Z-0.125000
G01 X-349.097250 Y174.333900 Z-0.125000
G01 X-348.744460 Y173.785110 Z-0.125000
G01 X-318.774710 Y143.815370 Z-0.125000
G01 X-318.617910 Y143.462560 Z-0.125000
G01 X-318.933750 Y143.346090 Z-0.125000
G01 X-319.484780 Y143.464810 Z-0.125000
G01 X-320.035810 Y143.819850 Z-0.125000
G01 X-348.747820 Y172.531840 Z-0.125000
G01 X-349.102860 Y172.689760 Z-0.125000
G01 X-349.221570 Y172.377280 Z-0.125000
G01 X-349.105090 Y171.828490 Z-0.125000
G01 X-348.752300 Y171.278580 Z-0.125000
G01 X-321.298040 Y143.823200 Z-0.125000
G01 X-321.141240 Y143.470410 Z-0.125000
G01 X-321.457080 Y143.353930 Z-0.125000
G01 X-322.008120 Y143.473770 Z-0.125000
G01 X-322.559150 Y143.827680 Z-0.125000
G01 X-348.756780 Y170.026430 Z-0.125000
G01 X-349.110700 Y170.184350 Z-0.125000
G01 X-349.230530 Y169.870750 Z-0.125000
G01 X-349.114050 Y169.321960 Z-0.125000
G01 X-348.761260 Y168.773160 Z-0.125000
G01 X-323.820250 Y143.832160 Z-0.125000
G01 X-323.664580 Y143.479370 Z-0.125000
G01 X-323.979290 Y143.362890 Z-0.125000
G01 X-324.531440 Y143.482730 Z-0.125000
G01 X-325.082480 Y143.836640 Z-0.125000
G01 X-348.765740 Y167.519900 Z-0.125000
G01 X-349.119660 Y167.677820 Z-0.125000
G01 X-349.239500 Y167.365340 Z-0.125000
G01 X-349.123010 Y166.816550 Z-0.125000
G01 X-348.770220 Y166.266640 Z-0.125000
G01 X-326.343580 Y143.841120 Z-0.125000
G01 X-326.186790 Y143.488330 Z-0.125000
G01 X-326.502620 Y143.371850 Z-0.125000
G01 X-327.054770 Y143.490560 Z-0.125000
G01 X-327.604690 Y143.845600 Z-0.125000
G01 X-348.773580 Y165.014490 Z-0.125000
G01 X-349.128620 Y165.172400 Z-0.125000
G01 X-349.247330 Y164.858810 Z-0.125000
G01 X-349.130850 Y164.311130 Z-0.125000
G01 X-348.778060 Y163.761220 Z-0.125000
G01 X-328.866920 Y143.850080 Z-0.125000
G01 X-328.710120 Y143.496170 Z-0.125000
G01 X-329.025950 Y143.379680 Z-0.125000
G01 X-329.576990 Y143.499520 Z-0.125000
G01 X-330.128030 Y143.854560 Z-0.125000
G01 X-348.782540 Y162.509070 Z-0.125000
G01 X-349.136450 Y162.665880 Z-0.125000
G01 X-349.256290 Y162.353390 Z-0.125000
G01 X-349.139810 Y161.804610 Z-0.125000
G01 X-348.787020 Y161.255810 Z-0.125000
G01 X-331.390250 Y143.857920 Z-0.125000
G01 X-331.233450 Y143.505130 Z-0.125000
G01 X-331.549290 Y143.388640 Z-0.125000
G01 X-332.100320 Y143.508480 Z-0.125000
G01 X-332.651350 Y143.862400 Z-0.125000
G01 X-348.791500 Y160.002540 Z-0.125000
G01 X-349.145410 Y160.160460 Z-0.125000
G01 X-349.265250 Y159.847980 Z-0.125000
G01 X-349.148770 Y159.299190 Z-0.125000
G01 X-348.795980 Y158.749270 Z-0.125000
G01 X-333.912460 Y143.866880 Z-0.125000
G01 X-333.756780 Y143.514090 Z-0.125000
G01 X-334.072620 Y143.397600 Z-0.125000
G01 X-334.623650 Y143.516320 Z-0.125000
G01 X-335.174680 Y143.871360 Z-0.125000
G01 X-348.799330 Y157.497130 Z-0.125000
G01 X-349.154370 Y157.655050 Z-0.125000
G01 X-349.273090 Y157.341450 Z-0.125000
G01 X-349.156610 Y156.792660 Z-0.125000
G01 X-348.803810 Y156.243860 Z-0.125000
G01 X-336.435790 Y143.875840 Z-0.125000
G01 X-336.280110 Y143.523050 Z-0.125000
G01 X-336.594830 Y143.406560 Z-0.125000
G01 X-337.146990 Y143.525280 Z-0.125000
G01 X-337.696900 Y143.880320 Z-0.125000
G01 X-348.808290 Y154.990600 Z-0.125000
G01 X-349.162210 Y155.148510 Z-0.125000
G01 X-349.282050 Y154.836040 Z-0.125000
G01 X-349.165570 Y154.287240 Z-0.125000
G01 X-348.812770 Y153.737330 Z-0.125000
G01 X-338.959130 Y143.883680 Z-0.125000
G01 X-338.802330 Y143.530880 Z-0.125000
G01 X-339.118170 Y143.414400 Z-0.125000
G01 X-339.670320 Y143.534240 Z-0.125000
G01 X-340.220230 Y143.888160 Z-0.125000
G01 X-348.817250 Y152.485180 Z-0.125000
G01 X-349.171170 Y152.643100 Z-0.125000
G01 X-349.291010 Y152.329500 Z-0.125000
G01 X-349.174530 Y151.781830 Z-0.125000
G01 X-348.821730 Y151.231920 Z-0.125000
G01 X-341.482450 Y143.892640 Z-0.125000
G01 X-341.325660 Y143.539840 Z-0.125000
G01 X-341.641490 Y143.423360 Z-0.125000
G01 X-342.192530 Y143.543200 Z-0.125000
G01 X-342.743560 Y143.897120 Z-0.125000
G01 X-348.825090 Y149.978650 Z-0.125000
G01 X-349.180130 Y150.136570 Z-0.125000
G01 X-349.298850 Y149.824090 Z-0.125000
G01 X-349.182380 Y149.275300 Z-0.125000
G01 X-348.829570 Y148.726510 Z-0.125000
G01 X-344.005790 Y143.901600 Z-0.125000
G01 X-343.848990 Y143.548810 Z-0.125000
G01 X-344.164820 Y143.432320 Z-0.125000
G01 X-344.715870 Y143.551040 Z-0.125000
G01 X-345.266900 Y143.906080 Z-0.125000
G01 X-348.834050 Y147.473240 Z-0.125000
G01 X-349.187970 Y147.631160 Z-0.125000
G01 X-349.307810 Y147.318690 Z-0.125000
G01 X-349.191330 Y146.769890 Z-0.125000
G01 X-348.838530 Y146.219970 Z-0.125000
G01 X-346.528000 Y143.909440 Z-0.125000
G01 X-346.372330 Y143.556640 Z-0.125000
G01 X-346.688160 Y143.440170 Z-0.125000
G01 X-347.239190 Y143.560000 Z-0.125000
G01 X-347.790230 Y143.913920 Z-0.125000
G01 X-348.944930 Y145.069750 Z-0.125000
G01 X-349.222690 Y145.150450 Z-0.125000
G01 X-349.316790 Y144.812220 Z-0.125000
G01 X-349.225990 Y144.289180 Z-0.125000
G01 X-348.949350 Y143.816550 Z-0.125000
G01 X-348.579760 Y143.446960 Z-0.125000
G00 Z5.000000

(End cutting path id: path132)


(Start cutting path id: path133)
(Change tool to Default tool)

G00 Z5.000000
G00 X-316.090650 Y109.167940

G01 Z-0.125000 F100.0(Penetrate)
G01 X-315.666170 Y108.743460 Z-0.125000 F400.000000
G01 X-315.348090 Y108.229390 Z-0.125000
G01 X-315.242820 Y107.691790 Z-0.125000
G01 X-315.350330 Y107.366990 Z-0.125000
G01 X-315.670650 Y107.490190 Z-0.125000
G01 X-316.881360 Y108.700900 Z-0.125000
G01 X-317.431270 Y109.054810 Z-0.125000
G01 X-317.983420 Y109.174650 Z-0.125000
G01 X-318.299260 Y109.058170 Z-0.125000
G01 X-318.142460 Y108.705380 Z-0.125000
G01 X-315.721040 Y106.283960 Z-0.125000
G01 X-315.368250 Y105.735180 Z-0.125000
G01 X-315.251780 Y105.186380 Z-0.125000
G01 X-315.370500 Y104.872780 Z-0.125000
G01 X-315.725520 Y105.030700 Z-0.125000
G01 X-319.404690 Y108.709860 Z-0.125000
G01 X-319.954600 Y109.063770 Z-0.125000
G01 X-320.506750 Y109.183610 Z-0.125000
G01 X-320.821470 Y109.067130 Z-0.125000
G01 X-320.665790 Y108.714340 Z-0.125000
G01 X-315.728890 Y103.778560 Z-0.125000
G01 X-315.376100 Y103.228640 Z-0.125000
G01 X-315.259620 Y102.679840 Z-0.125000
G01 X-315.379460 Y102.367370 Z-0.125000
G01 X-315.733370 Y102.525290 Z-0.125000
G01 X-321.926900 Y108.718820 Z-0.125000
G01 X-322.477930 Y109.072730 Z-0.125000
G01 X-323.028970 Y109.191450 Z-0.125000
G01 X-323.344810 Y109.076090 Z-0.125000
G01 X-323.189130 Y108.723300 Z-0.125000
G01 X-315.737850 Y101.272020 Z-0.125000
G01 X-315.385060 Y100.723230 Z-0.125000
G01 X-315.268580 Y100.174430 Z-0.125000
G01 X-315.388420 Y99.861960 Z-0.125000
G01 X-315.742330 Y100.018760 Z-0.125000
G01 X-324.450240 Y108.726660 Z-0.125000
G01 X-325.001270 Y109.081690 Z-0.125000
G01 X-325.552300 Y109.200410 Z-0.125000
G01 X-325.868140 Y109.083940 Z-0.125000
G01 X-325.711340 Y108.731140 Z-0.125000
G01 X-315.746810 Y98.766610 Z-0.125000
G01 X-315.394020 Y98.216690 Z-0.125000
G01 X-315.277540 Y97.667910 Z-0.125000
G01 X-315.396250 Y97.355420 Z-0.125000
G01 X-315.751290 Y97.513350 Z-0.125000
G01 X-326.973560 Y108.735620 Z-0.125000
G01 X-327.524600 Y109.089530 Z-0.125000
G01 X-328.075630 Y109.209370 Z-0.125000
G01 X-328.391460 Y109.092900 Z-0.125000
G01 X-328.234670 Y108.740100 Z-0.125000
G01 X-315.754650 Y96.260070 Z-0.125000
G01 X-315.401860 Y95.711290 Z-0.125000
G01 X-315.285370 Y95.162490 Z-0.125000
G01 X-315.405210 Y94.850020 Z-0.125000
G01 X-315.759130 Y95.007930 Z-0.125000
G01 X-329.496890 Y108.744580 Z-0.125000
G01 X-330.046810 Y109.098490 Z-0.125000
G01 X-330.598970 Y109.218330 Z-0.125000
G01 X-330.914800 Y109.101860 Z-0.125000
G01 X-330.758010 Y108.749060 Z-0.125000
G01 X-315.763610 Y93.754670 Z-0.125000
G01 X-315.410820 Y93.204750 Z-0.125000
G01 X-315.294330 Y92.657080 Z-0.125000
G01 X-315.414170 Y92.343480 Z-0.125000
G01 X-315.768090 Y92.501400 Z-0.125000
G01 X-332.019110 Y108.752420 Z-0.125000
G01 X-332.570150 Y109.107450 Z-0.125000
G01 X-333.121180 Y109.226170 Z-0.125000
G01 X-333.437010 Y109.109700 Z-0.125000
G01 X-333.281340 Y108.756900 Z-0.125000
G01 X-315.772570 Y91.249260 Z-0.125000
G01 X-315.419780 Y90.699340 Z-0.125000
G01 X-315.303290 Y90.150540 Z-0.125000
G01 X-315.422010 Y89.838070 Z-0.125000
G01 X-315.777050 Y89.995980 Z-0.125000
G01 X-334.542440 Y108.761380 Z-0.125000
G01 X-335.093470 Y109.115290 Z-0.125000
G01 X-335.644510 Y109.235130 Z-0.125000
G01 X-335.960340 Y109.118660 Z-0.125000
G01 X-335.804660 Y108.765860 Z-0.125000
G01 X-315.781530 Y88.742720 Z-0.125000
G01 X-315.427610 Y88.193930 Z-0.125000
G01 X-315.311130 Y87.645130 Z-0.125000
G01 X-315.430970 Y87.331530 Z-0.125000
G01 X-315.786010 Y87.489460 Z-0.125000
G01 X-337.065770 Y108.770340 Z-0.125000
G01 X-337.616800 Y109.124250 Z-0.125000
G01 X-338.167840 Y109.244090 Z-0.125000
G01 X-338.483680 Y109.127620 Z-0.125000
G01 X-338.326870 Y108.774820 Z-0.125000
G01 X-315.789370 Y86.237310 Z-0.125000
G01 X-315.436570 Y85.687400 Z-0.125000
G01 X-315.320090 Y85.138600 Z-0.125000
G01 X-315.439930 Y84.826130 Z-0.125000
G01 X-315.793850 Y84.984050 Z-0.125000
G01 X-339.589110 Y108.778180 Z-0.125000
G01 X-340.140140 Y109.133210 Z-0.125000
G01 X-340.691170 Y109.251940 Z-0.125000
G01 X-341.007010 Y109.135460 Z-0.125000
G01 X-340.850210 Y108.782660 Z-0.125000
G01 X-315.798330 Y83.730780 Z-0.125000
G01 X-315.445530 Y83.181990 Z-0.125000
G01 X-315.329050 Y82.633190 Z-0.125000
G01 X-315.447770 Y82.320720 Z-0.125000
G01 X-315.802810 Y82.478630 Z-0.125000
G01 X-342.112440 Y108.787140 Z-0.125000
G01 X-342.662350 Y109.141060 Z-0.125000
G01 X-343.214500 Y109.260900 Z-0.125000
G01 X-343.530340 Y109.144420 Z-0.125000
G01 X-343.373540 Y108.791620 Z-0.125000
G01 X-315.807290 Y81.225370 Z-0.125000
G01 X-315.453370 Y80.675450 Z-0.125000
G01 X-315.338010 Y80.127780 Z-0.125000
G01 X-315.456730 Y79.814180 Z-0.125000
G01 X-315.811770 Y79.972100 Z-0.125000
G01 X-344.634650 Y108.796100 Z-0.125000
G01 X-345.185680 Y109.150020 Z-0.125000
G01 X-345.736710 Y109.269860 Z-0.125000
G01 X-346.052560 Y109.153380 Z-0.125000
G01 X-345.896880 Y108.800580 Z-0.125000
G01 X-315.815130 Y78.719960 Z-0.125000
G01 X-315.462330 Y78.170040 Z-0.125000
G01 X-315.345850 Y77.621240 Z-0.125000
G01 X-315.465690 Y77.308770 Z-0.125000
G01 X-315.819610 Y77.466680 Z-0.125000
G01 X-347.157980 Y108.805060 Z-0.125000
G01 X-347.683260 Y109.133210 Z-0.125000
G01 X-348.177170 Y109.194810 Z-0.125000
G01 X-348.435880 Y109.022340 Z-0.125000
G01 X-348.253320 Y108.642660 Z-0.125000
G01 X-315.824090 Y76.213420 Z-0.125000
G01 X-315.659450 Y75.851670 Z-0.125000
G01 X-315.956240 Y75.716150 Z-0.125000
G01 X-316.489370 Y75.816980 Z-0.125000
G01 X-317.031440 Y76.163060 Z-0.125000
G01 X-348.257800 Y107.390550 Z-0.125000
G01 X-348.611720 Y107.547340 Z-0.125000
G01 X-348.731560 Y107.234870 Z-0.125000
G01 X-348.615090 Y106.686070 Z-0.125000
G01 X-348.262280 Y106.137290 Z-0.125000
G01 X-318.292540 Y76.167540 Z-0.125000
G01 X-318.135740 Y75.814730 Z-0.125000
G01 X-318.451580 Y75.698260 Z-0.125000
G01 X-319.003730 Y75.816980 Z-0.125000
G01 X-319.554770 Y76.172020 Z-0.125000
G01 X-348.266760 Y104.884010 Z-0.125000
G01 X-348.620680 Y105.041940 Z-0.125000
G01 X-348.740520 Y104.729450 Z-0.125000
G01 X-348.624050 Y104.180660 Z-0.125000
G01 X-348.271240 Y103.630750 Z-0.125000
G01 X-320.815870 Y76.175380 Z-0.125000
G01 X-320.659080 Y75.822580 Z-0.125000
G01 X-320.974910 Y75.706100 Z-0.125000
G01 X-321.527060 Y75.825940 Z-0.125000
G01 X-322.076980 Y76.179860 Z-0.125000
G01 X-348.275720 Y102.378600 Z-0.125000
G01 X-348.629640 Y102.536520 Z-0.125000
G01 X-348.748360 Y102.222930 Z-0.125000
G01 X-348.633010 Y101.674130 Z-0.125000
G01 X-348.280200 Y101.125340 Z-0.125000
G01 X-323.339200 Y76.184340 Z-0.125000
G01 X-323.182410 Y75.831540 Z-0.125000
G01 X-323.498240 Y75.715060 Z-0.125000
G01 X-324.049270 Y75.834900 Z-0.125000
G01 X-324.600320 Y76.188820 Z-0.125000
G01 X-348.283570 Y99.872070 Z-0.125000
G01 X-348.638600 Y100.029990 Z-0.125000
G01 X-348.757320 Y99.717520 Z-0.125000
G01 X-348.640850 Y99.168720 Z-0.125000
G01 X-348.288050 Y98.618800 Z-0.125000
G01 X-325.862540 Y76.193300 Z-0.125000
G01 X-325.705730 Y75.840500 Z-0.125000
G01 X-326.021580 Y75.724020 Z-0.125000
G01 X-326.572610 Y75.842740 Z-0.125000
G01 X-327.123640 Y76.197780 Z-0.125000
G01 X-348.292530 Y97.366660 Z-0.125000
G01 X-348.646440 Y97.524580 Z-0.125000
G01 X-348.766280 Y97.210980 Z-0.125000
G01 X-348.649810 Y96.663310 Z-0.125000
G01 X-348.297010 Y96.113400 Z-0.125000
G01 X-328.384750 Y76.202260 Z-0.125000
G01 X-328.229070 Y75.848340 Z-0.125000
G01 X-328.544910 Y75.731860 Z-0.125000
G01 X-329.095940 Y75.851700 Z-0.125000
G01 X-329.646970 Y76.206740 Z-0.125000
G01 X-348.301490 Y94.860120 Z-0.125000
G01 X-348.655400 Y95.018050 Z-0.125000
G01 X-348.774130 Y94.705570 Z-0.125000
G01 X-348.658770 Y94.156780 Z-0.125000
G01 X-348.305970 Y93.607980 Z-0.125000
G01 X-330.908080 Y76.210090 Z-0.125000
G01 X-330.751280 Y75.857300 Z-0.125000
G01 X-331.067120 Y75.740820 Z-0.125000
G01 X-331.619280 Y75.860660 Z-0.125000
G01 X-332.169180 Y76.214570 Z-0.125000
G01 X-348.309330 Y92.354710 Z-0.125000
G01 X-348.664360 Y92.512640 Z-0.125000
G01 X-348.783090 Y92.200150 Z-0.125000
G01 X-348.666600 Y91.651370 Z-0.125000
G01 X-348.313810 Y91.101450 Z-0.125000
G01 X-333.431420 Y76.219060 Z-0.125000
G01 X-333.274610 Y75.866260 Z-0.125000
G01 X-333.590460 Y75.749780 Z-0.125000
G01 X-334.142610 Y75.868500 Z-0.125000
G01 X-334.692520 Y76.223540 Z-0.125000
G01 X-348.318290 Y89.849310 Z-0.125000
G01 X-348.672210 Y90.007220 Z-0.125000
G01 X-348.792050 Y89.693630 Z-0.125000
G01 X-348.675560 Y89.144830 Z-0.125000
G01 X-348.322770 Y88.596030 Z-0.125000
G01 X-335.954740 Y76.228020 Z-0.125000
G01 X-335.797950 Y75.874100 Z-0.125000
G01 X-336.113780 Y75.758740 Z-0.125000
G01 X-336.664820 Y75.877460 Z-0.125000
G01 X-337.215850 Y76.232500 Z-0.125000
G01 X-348.327250 Y87.342770 Z-0.125000
G01 X-348.681170 Y87.500690 Z-0.125000
G01 X-348.799880 Y87.188210 Z-0.125000
G01 X-348.684520 Y86.639420 Z-0.125000
G01 X-348.331730 Y86.089510 Z-0.125000
G01 X-338.478070 Y76.235850 Z-0.125000
G01 X-338.321280 Y75.883060 Z-0.125000
G01 X-338.637110 Y75.766580 Z-0.125000
G01 X-339.188140 Y75.886420 Z-0.125000
G01 X-339.739190 Y76.240330 Z-0.125000
G01 X-348.335090 Y84.837360 Z-0.125000
G01 X-348.690130 Y84.995270 Z-0.125000
G01 X-348.808840 Y84.681680 Z-0.125000
G01 X-348.692360 Y84.132890 Z-0.125000
G01 X-348.339570 Y83.584090 Z-0.125000
G01 X-341.000290 Y76.244810 Z-0.125000
G01 X-340.844620 Y75.892020 Z-0.125000
G01 X-341.159320 Y75.775540 Z-0.125000
G01 X-341.711480 Y75.895380 Z-0.125000
G01 X-342.262520 Y76.249290 Z-0.125000
G01 X-348.344050 Y82.330820 Z-0.125000
G01 X-348.697960 Y82.488750 Z-0.125000
G01 X-348.817800 Y82.176260 Z-0.125000
G01 X-348.701320 Y81.627480 Z-0.125000
G01 X-348.348530 Y81.078680 Z-0.125000
G01 X-343.523620 Y76.253770 Z-0.125000
G01 X-343.366830 Y75.900980 Z-0.125000
G01 X-343.682660 Y75.784500 Z-0.125000
G01 X-344.234810 Y75.903210 Z-0.125000
G01 X-344.784730 Y76.258250 Z-0.125000
G01 X-348.353010 Y79.825420 Z-0.125000
G01 X-348.706930 Y79.983330 Z-0.125000
G01 X-348.825640 Y79.670860 Z-0.125000
G01 X-348.710280 Y79.122060 Z-0.125000
G01 X-348.357490 Y78.572150 Z-0.125000
G01 X-346.046950 Y76.261610 Z-0.125000
G01 X-345.890150 Y75.908820 Z-0.125000
G01 X-346.205990 Y75.792330 Z-0.125000
G01 X-346.757020 Y75.912170 Z-0.125000
G01 X-347.308050 Y76.266090 Z-0.125000
G01 X-348.462760 Y77.421920 Z-0.125000
G01 X-348.740520 Y77.502620 Z-0.125000
G01 X-348.834620 Y77.164390 Z-0.125000
G01 X-348.743920 Y76.641350 Z-0.125000
G01 X-348.467280 Y76.168710 Z-0.125000
G01 X-348.098800 Y75.799120 Z-0.125000
G00 Z5.000000

(End cutting path id: path133)


(Start cutting path id: path134)
(Change tool to Default tool)

G00 Z5.000000
G00 X-315.930790 Y41.520100

G01 Z-0.125000 F100.0(Penetrate)
G01 X-315.505200 Y41.095630 Z-0.125000 F400.000000
G01 X-315.187120 Y40.581550 Z-0.125000
G01 X-315.082960 Y40.043960 Z-0.125000
G01 X-315.190480 Y39.719160 Z-0.125000
G01 X-315.509680 Y39.842350 Z-0.125000
G01 X-316.720390 Y41.053060 Z-0.125000
G01 X-317.271420 Y41.406980 Z-0.125000
G01 X-317.822450 Y41.526820 Z-0.125000
G01 X-318.138290 Y41.410330 Z-0.125000
G01 X-317.981490 Y41.057540 Z-0.125000
G01 X-315.560070 Y38.636130 Z-0.125000
G01 X-315.207280 Y38.087340 Z-0.125000
G01 X-315.090810 Y37.538540 Z-0.125000
G01 X-315.210640 Y37.224950 Z-0.125000
G01 X-315.564550 Y37.382860 Z-0.125000
G01 X-319.243710 Y41.062020 Z-0.125000
G01 X-319.794750 Y41.415940 Z-0.125000
G01 X-320.345780 Y41.535780 Z-0.125000
G01 X-320.661610 Y41.419300 Z-0.125000
G01 X-320.504820 Y41.066500 Z-0.125000
G01 X-315.569030 Y36.130710 Z-0.125000
G01 X-315.216240 Y35.580800 Z-0.125000
G01 X-315.099760 Y35.032010 Z-0.125000
G01 X-315.219600 Y34.719530 Z-0.125000
G01 X-315.573510 Y34.877450 Z-0.125000
G01 X-321.767040 Y41.070980 Z-0.125000
G01 X-322.316960 Y41.424900 Z-0.125000
G01 X-322.869120 Y41.543620 Z-0.125000
G01 X-323.184950 Y41.428260 Z-0.125000
G01 X-323.028150 Y41.075460 Z-0.125000
G01 X-315.577990 Y33.624190 Z-0.125000
G01 X-315.225200 Y33.075390 Z-0.125000
G01 X-315.108720 Y32.526590 Z-0.125000
G01 X-315.227440 Y32.213000 Z-0.125000
G01 X-315.582470 Y32.370920 Z-0.125000
G01 X-324.290380 Y41.078820 Z-0.125000
G01 X-324.840300 Y41.433860 Z-0.125000
G01 X-325.392450 Y41.552580 Z-0.125000
G01 X-325.708280 Y41.436100 Z-0.125000
G01 X-325.551490 Y41.083300 Z-0.125000
G01 X-315.585830 Y31.118770 Z-0.125000
G01 X-315.233040 Y30.568850 Z-0.125000
G01 X-315.116560 Y30.020070 Z-0.125000
G01 X-315.236400 Y29.707580 Z-0.125000
G01 X-315.590310 Y29.865510 Z-0.125000
G01 X-326.812590 Y41.087780 Z-0.125000
G01 X-327.363620 Y41.441700 Z-0.125000
G01 X-327.914660 Y41.561540 Z-0.125000
G01 X-328.230490 Y41.445060 Z-0.125000
G01 X-328.074810 Y41.092260 Z-0.125000
G01 X-315.594790 Y28.612240 Z-0.125000
G01 X-315.242000 Y28.063450 Z-0.125000
G01 X-315.125520 Y27.514660 Z-0.125000
G01 X-315.245360 Y27.202180 Z-0.125000
G01 X-315.599270 Y27.360100 Z-0.125000
G01 X-329.335920 Y41.096740 Z-0.125000
G01 X-329.886950 Y41.450660 Z-0.125000
G01 X-330.438000 Y41.570500 Z-0.125000
G01 X-330.753830 Y41.454010 Z-0.125000
G01 X-330.597030 Y41.101220 Z-0.125000
G01 X-315.603750 Y26.106820 Z-0.125000
G01 X-315.250960 Y25.556920 Z-0.125000
G01 X-315.134480 Y25.009240 Z-0.125000
G01 X-315.253200 Y24.695650 Z-0.125000
G01 X-315.608230 Y24.853560 Z-0.125000
G01 X-331.859260 Y41.104590 Z-0.125000
G01 X-332.410290 Y41.459620 Z-0.125000
G01 X-332.961320 Y41.578330 Z-0.125000
G01 X-333.277160 Y41.461860 Z-0.125000
G01 X-333.120360 Y41.109070 Z-0.125000
G01 X-315.611600 Y23.601420 Z-0.125000
G01 X-315.258790 Y23.051500 Z-0.125000
G01 X-315.142320 Y22.502710 Z-0.125000
G01 X-315.262160 Y22.190230 Z-0.125000
G01 X-315.616080 Y22.348150 Z-0.125000
G01 X-334.382590 Y41.113550 Z-0.125000
G01 X-334.932500 Y41.467450 Z-0.125000
G01 X-335.484650 Y41.587290 Z-0.125000
G01 X-335.800490 Y41.470820 Z-0.125000
G01 X-335.643690 Y41.118030 Z-0.125000
G01 X-315.620560 Y21.094880 Z-0.125000
G01 X-315.267750 Y20.546090 Z-0.125000
G01 X-315.151280 Y19.997290 Z-0.125000
G01 X-315.271120 Y19.683700 Z-0.125000
G01 X-315.625040 Y19.841620 Z-0.125000
G01 X-336.904800 Y41.122510 Z-0.125000
G01 X-337.455830 Y41.476410 Z-0.125000
G01 X-338.007990 Y41.596250 Z-0.125000
G01 X-338.322710 Y41.479780 Z-0.125000
G01 X-338.167020 Y41.126990 Z-0.125000
G01 X-315.629520 Y18.589470 Z-0.125000
G01 X-315.276710 Y18.039560 Z-0.125000
G01 X-315.160240 Y17.490770 Z-0.125000
G01 X-315.278960 Y17.178290 Z-0.125000
G01 X-315.634000 Y17.336210 Z-0.125000
G01 X-339.428140 Y41.130340 Z-0.125000
G01 X-339.979170 Y41.485370 Z-0.125000
G01 X-340.530200 Y41.604100 Z-0.125000
G01 X-340.846040 Y41.487620 Z-0.125000
G01 X-340.689240 Y41.134820 Z-0.125000
G01 X-315.637360 Y16.082940 Z-0.125000
G01 X-315.284560 Y15.534150 Z-0.125000
G01 X-315.168080 Y14.985350 Z-0.125000
G01 X-315.287920 Y14.672880 Z-0.125000
G01 X-315.641840 Y14.829670 Z-0.125000
G01 X-341.951460 Y41.139300 Z-0.125000
G01 X-342.502500 Y41.493220 Z-0.125000
G01 X-343.053530 Y41.613050 Z-0.125000
G01 X-343.369360 Y41.496580 Z-0.125000
G01 X-343.212570 Y41.143780 Z-0.125000
G01 X-315.646320 Y13.577530 Z-0.125000
G01 X-315.293520 Y13.027610 Z-0.125000
G01 X-315.177040 Y12.479940 Z-0.125000
G01 X-315.296880 Y12.166340 Z-0.125000
G01 X-315.650800 Y12.324260 Z-0.125000
G01 X-344.474790 Y41.148260 Z-0.125000
G01 X-345.025820 Y41.502180 Z-0.125000
G01 X-345.576870 Y41.622010 Z-0.125000
G01 X-345.892700 Y41.505540 Z-0.125000
G01 X-345.735900 Y41.152750 Z-0.125000
G01 X-315.655280 Y11.072120 Z-0.125000
G01 X-315.302480 Y10.522200 Z-0.125000
G01 X-315.186000 Y9.973400 Z-0.125000
G01 X-315.304720 Y9.660930 Z-0.125000
G01 X-315.659760 Y9.818850 Z-0.125000
G01 X-346.998130 Y41.157230 Z-0.125000
G01 X-347.522280 Y41.485370 Z-0.125000
G01 X-348.017310 Y41.546970 Z-0.125000
G01 X-348.276040 Y41.374500 Z-0.125000
G01 X-348.093470 Y40.994820 Z-0.125000
G01 X-315.663120 Y8.565580 Z-0.125000
G01 X-315.498470 Y8.203830 Z-0.125000
G01 X-315.795270 Y8.068310 Z-0.125000
G01 X-316.328380 Y8.169140 Z-0.125000
G01 X-316.870460 Y8.515220 Z-0.125000
G01 X-348.097950 Y39.742710 Z-0.125000
G01 X-348.451870 Y39.899500 Z-0.125000
G01 X-348.570590 Y39.587030 Z-0.125000
G01 X-348.455230 Y39.038230 Z-0.125000
G01 X-348.102430 Y38.489450 Z-0.125000
G01 X-318.132690 Y8.519690 Z-0.125000
G01 X-317.975880 Y8.166900 Z-0.125000
G01 X-318.291730 Y8.050430 Z-0.125000
G01 X-318.842760 Y8.169140 Z-0.125000
G01 X-319.393790 Y8.524170 Z-0.125000
G01 X-348.105790 Y37.236180 Z-0.125000
G01 X-348.460830 Y37.394090 Z-0.125000
G01 X-348.579550 Y37.081620 Z-0.125000
G01 X-348.463070 Y36.532820 Z-0.125000
G01 X-348.110270 Y35.982910 Z-0.125000
G01 X-320.654900 Y8.527540 Z-0.125000
G01 X-320.499220 Y8.174750 Z-0.125000
G01 X-320.815060 Y8.058260 Z-0.125000
G01 X-321.366090 Y8.178100 Z-0.125000
G01 X-321.917120 Y8.532020 Z-0.125000
G01 X-348.114750 Y34.730760 Z-0.125000
G01 X-348.468670 Y34.888690 Z-0.125000
G01 X-348.588510 Y34.575090 Z-0.125000
G01 X-348.472030 Y34.026300 Z-0.125000
G01 X-348.119230 Y33.477500 Z-0.125000
G01 X-323.178230 Y8.536500 Z-0.125000
G01 X-323.022550 Y8.183710 Z-0.125000
G01 X-323.337270 Y8.067220 Z-0.125000
G01 X-323.889420 Y8.187060 Z-0.125000
G01 X-324.439330 Y8.540980 Z-0.125000
G01 X-348.123710 Y32.224240 Z-0.125000
G01 X-348.477630 Y32.382150 Z-0.125000
G01 X-348.596350 Y32.069680 Z-0.125000
G01 X-348.480990 Y31.520880 Z-0.125000
G01 X-348.128190 Y30.970960 Z-0.125000
G01 X-325.701570 Y8.545460 Z-0.125000
G01 X-325.544760 Y8.192670 Z-0.125000
G01 X-325.860600 Y8.076180 Z-0.125000
G01 X-326.412760 Y8.194900 Z-0.125000
G01 X-326.962670 Y8.549940 Z-0.125000
G01 X-348.131550 Y29.718820 Z-0.125000
G01 X-348.486590 Y29.876740 Z-0.125000
G01 X-348.605310 Y29.563140 Z-0.125000
G01 X-348.488830 Y29.015470 Z-0.125000
G01 X-348.136030 Y28.465560 Z-0.125000
G01 X-328.224890 Y8.554420 Z-0.125000
G01 X-328.068100 Y8.200500 Z-0.125000
G01 X-328.383930 Y8.084020 Z-0.125000
G01 X-328.934970 Y8.203860 Z-0.125000
G01 X-329.486000 Y8.558900 Z-0.125000
G01 X-348.140510 Y27.212290 Z-0.125000
G01 X-348.494430 Y27.370210 Z-0.125000
G01 X-348.614270 Y27.057730 Z-0.125000
G01 X-348.497790 Y26.508930 Z-0.125000
G01 X-348.144990 Y25.960150 Z-0.125000
G01 X-330.748220 Y8.562260 Z-0.125000
G01 X-330.591430 Y8.209460 Z-0.125000
G01 X-330.907260 Y8.092980 Z-0.125000
G01 X-331.458300 Y8.212820 Z-0.125000
G01 X-332.009330 Y8.566740 Z-0.125000
G01 X-348.149470 Y24.706870 Z-0.125000
G01 X-348.503390 Y24.864800 Z-0.125000
G01 X-348.623230 Y24.552320 Z-0.125000
G01 X-348.506740 Y24.003530 Z-0.125000
G01 X-348.153950 Y23.453610 Z-0.125000
G01 X-333.270440 Y8.571220 Z-0.125000
G01 X-333.114760 Y8.218420 Z-0.125000
G01 X-333.430600 Y8.101940 Z-0.125000
G01 X-333.981630 Y8.220660 Z-0.125000
G01 X-334.532670 Y8.575700 Z-0.125000
G01 X-348.157320 Y22.201460 Z-0.125000
G01 X-348.512350 Y22.359390 Z-0.125000
G01 X-348.631060 Y22.045790 Z-0.125000
G01 X-348.514590 Y21.496990 Z-0.125000
G01 X-348.161800 Y20.948200 Z-0.125000
G01 X-335.793770 Y8.580180 Z-0.125000
G01 X-335.636980 Y8.226260 Z-0.125000
G01 X-335.952810 Y8.110900 Z-0.125000
G01 X-336.504960 Y8.229620 Z-0.125000
G01 X-337.054880 Y8.584660 Z-0.125000
G01 X-348.166280 Y19.694930 Z-0.125000
G01 X-348.520190 Y19.852850 Z-0.125000
G01 X-348.640030 Y19.540380 Z-0.125000
G01 X-348.523550 Y18.991580 Z-0.125000
G01 X-348.170760 Y18.441670 Z-0.125000
G01 X-338.317100 Y8.588020 Z-0.125000
G01 X-338.160300 Y8.235220 Z-0.125000
G01 X-338.476140 Y8.118740 Z-0.125000
G01 X-339.028290 Y8.238580 Z-0.125000
G01 X-339.578210 Y8.592500 Z-0.125000
G01 X-348.175240 Y17.189520 Z-0.125000
G01 X-348.529150 Y17.347440 Z-0.125000
G01 X-348.648990 Y17.033840 Z-0.125000
G01 X-348.532510 Y16.485040 Z-0.125000
G01 X-348.179720 Y15.936260 Z-0.125000
G01 X-340.840440 Y8.596980 Z-0.125000
G01 X-340.683630 Y8.244180 Z-0.125000
G01 X-340.999470 Y8.127700 Z-0.125000
G01 X-341.550510 Y8.247540 Z-0.125000
G01 X-342.101540 Y8.601460 Z-0.125000
G01 X-348.183080 Y14.682980 Z-0.125000
G01 X-348.538110 Y14.840910 Z-0.125000
G01 X-348.656830 Y14.528430 Z-0.125000
G01 X-348.540350 Y13.979640 Z-0.125000
G01 X-348.187560 Y13.430840 Z-0.125000
G01 X-343.363770 Y8.605940 Z-0.125000
G01 X-343.206970 Y8.253140 Z-0.125000
G01 X-343.522810 Y8.136660 Z-0.125000
G01 X-344.073840 Y8.255380 Z-0.125000
G01 X-344.624870 Y8.610420 Z-0.125000
G01 X-348.192040 Y12.177580 Z-0.125000
G01 X-348.545950 Y12.335500 Z-0.125000
G01 X-348.665780 Y12.021900 Z-0.125000
G01 X-348.549310 Y11.474230 Z-0.125000
G01 X-348.196520 Y10.924310 Z-0.125000
G01 X-345.885980 Y8.613770 Z-0.125000
G01 X-345.730300 Y8.260980 Z-0.125000
G01 X-346.046130 Y8.144500 Z-0.125000
G01 X-346.597170 Y8.264340 Z-0.125000
G01 X-347.148200 Y8.618250 Z-0.125000
G01 X-348.302920 Y9.774090 Z-0.125000
G01 X-348.580670 Y9.854790 Z-0.125000
G01 X-348.674770 Y9.516560 Z-0.125000
G01 X-348.584070 Y8.993520 Z-0.125000
G01 X-348.307430 Y8.520890 Z-0.125000
G01 X-347.937830 Y8.151290 Z-0.125000
G00 Z5.000000

(End cutting path id: path134)


(Start cutting path id: path135)
(Change tool to Default tool)

G00 Z5.000000
G00 X-315.858710 Y-26.146420

G01 Z-0.125000 F100.0(Penetrate)
G01 X-315.434240 Y-26.570890 Z-0.125000 F400.000000
G01 X-315.116160 Y-27.084970 Z-0.125000
G01 X-315.010880 Y-27.622560 Z-0.125000
G01 X-315.118400 Y-27.947360 Z-0.125000
G01 X-315.438720 Y-27.824160 Z-0.125000
G01 X-316.649420 Y-26.613460 Z-0.125000
G01 X-317.199340 Y-26.259540 Z-0.125000
G01 X-317.751490 Y-26.139700 Z-0.125000
G01 X-318.067330 Y-26.256180 Z-0.125000
G01 X-317.910530 Y-26.608980 Z-0.125000
G01 X-315.489120 Y-29.030390 Z-0.125000
G01 X-315.136320 Y-29.579180 Z-0.125000
G01 X-315.019840 Y-30.127970 Z-0.125000
G01 X-315.138560 Y-30.441570 Z-0.125000
G01 X-315.493600 Y-30.283650 Z-0.125000
G01 X-319.172760 Y-26.604500 Z-0.125000
G01 X-319.722680 Y-26.250580 Z-0.125000
G01 X-320.274830 Y-26.130740 Z-0.125000
G01 X-320.589540 Y-26.247220 Z-0.125000
G01 X-320.433870 Y-26.600020 Z-0.125000
G01 X-315.496960 Y-31.535800 Z-0.125000
G01 X-315.144160 Y-32.085710 Z-0.125000
G01 X-315.027680 Y-32.634510 Z-0.125000
G01 X-315.147520 Y-32.946980 Z-0.125000
G01 X-315.501440 Y-32.789070 Z-0.125000
G01 X-321.694970 Y-26.595540 Z-0.125000
G01 X-322.246000 Y-26.241620 Z-0.125000
G01 X-322.797040 Y-26.122900 Z-0.125000
G01 X-323.112870 Y-26.238260 Z-0.125000
G01 X-322.957190 Y-26.591060 Z-0.125000
G01 X-315.505920 Y-34.042330 Z-0.125000
G01 X-315.153120 Y-34.591130 Z-0.125000
G01 X-315.036640 Y-35.139920 Z-0.125000
G01 X-315.156480 Y-35.453520 Z-0.125000
G01 X-315.510400 Y-35.295600 Z-0.125000
G01 X-324.218300 Y-26.587700 Z-0.125000
G01 X-324.769330 Y-26.232660 Z-0.125000
G01 X-325.320360 Y-26.113940 Z-0.125000
G01 X-325.636210 Y-26.230410 Z-0.125000
G01 X-325.479400 Y-26.583220 Z-0.125000
G01 X-315.514880 Y-36.547740 Z-0.125000
G01 X-315.162080 Y-37.097660 Z-0.125000
G01 X-315.045600 Y-37.646450 Z-0.125000
G01 X-315.164320 Y-37.958930 Z-0.125000
G01 X-315.519360 Y-37.801010 Z-0.125000
G01 X-326.741640 Y-26.578740 Z-0.125000
G01 X-327.292670 Y-26.224820 Z-0.125000
G01 X-327.843700 Y-26.104980 Z-0.125000
G01 X-328.159540 Y-26.221460 Z-0.125000
G01 X-328.002740 Y-26.574260 Z-0.125000
G01 X-315.523840 Y-39.054280 Z-0.125000
G01 X-315.169920 Y-39.603060 Z-0.125000
G01 X-315.053440 Y-40.151860 Z-0.125000
G01 X-315.173280 Y-40.464340 Z-0.125000
G01 X-315.528320 Y-40.306420 Z-0.125000
G01 X-329.264970 Y-26.569780 Z-0.125000
G01 X-329.814880 Y-26.215860 Z-0.125000
G01 X-330.367030 Y-26.096020 Z-0.125000
G01 X-330.682870 Y-26.212500 Z-0.125000
G01 X-330.526070 Y-26.565300 Z-0.125000
G01 X-315.531670 Y-41.559690 Z-0.125000
G01 X-315.178880 Y-42.109600 Z-0.125000
G01 X-315.062400 Y-42.657270 Z-0.125000
G01 X-315.182240 Y-42.970870 Z-0.125000
G01 X-315.536150 Y-42.812950 Z-0.125000
G01 X-331.787180 Y-26.561930 Z-0.125000
G01 X-332.338210 Y-26.206900 Z-0.125000
G01 X-332.889240 Y-26.088180 Z-0.125000
G01 X-333.205080 Y-26.204650 Z-0.125000
G01 X-333.049400 Y-26.557450 Z-0.125000
G01 X-315.540630 Y-44.065100 Z-0.125000
G01 X-315.187840 Y-44.615010 Z-0.125000
G01 X-315.071360 Y-45.163810 Z-0.125000
G01 X-315.190090 Y-45.476280 Z-0.125000
G01 X-315.545110 Y-45.318370 Z-0.125000
G01 X-334.310500 Y-26.552970 Z-0.125000
G01 X-334.861550 Y-26.199060 Z-0.125000
G01 X-335.412580 Y-26.079220 Z-0.125000
G01 X-335.728410 Y-26.195690 Z-0.125000
G01 X-335.571610 Y-26.548490 Z-0.125000
G01 X-315.549600 Y-46.571630 Z-0.125000
G01 X-315.195680 Y-47.120430 Z-0.125000
G01 X-315.079210 Y-47.669220 Z-0.125000
G01 X-315.199040 Y-47.982820 Z-0.125000
G01 X-315.554080 Y-47.824890 Z-0.125000
G01 X-336.833840 Y-26.544020 Z-0.125000
G01 X-337.384880 Y-26.190100 Z-0.125000
G01 X-337.935910 Y-26.070260 Z-0.125000
G01 X-338.251740 Y-26.186730 Z-0.125000
G01 X-338.094950 Y-26.539540 Z-0.125000
G01 X-315.557430 Y-49.077040 Z-0.125000
G01 X-315.204640 Y-49.626950 Z-0.125000
G01 X-315.088170 Y-50.175750 Z-0.125000
G01 X-315.208000 Y-50.488230 Z-0.125000
G01 X-315.561910 Y-50.330310 Z-0.125000
G01 X-339.357170 Y-26.536170 Z-0.125000
G01 X-339.907090 Y-26.181140 Z-0.125000
G01 X-340.459240 Y-26.062420 Z-0.125000
G01 X-340.775080 Y-26.178900 Z-0.125000
G01 X-340.618280 Y-26.531690 Z-0.125000
G01 X-315.566390 Y-51.583580 Z-0.125000
G01 X-315.213600 Y-52.132370 Z-0.125000
G01 X-315.097130 Y-52.681160 Z-0.125000
G01 X-315.215840 Y-52.993640 Z-0.125000
G01 X-315.570870 Y-52.836840 Z-0.125000
G01 X-341.880510 Y-26.527210 Z-0.125000
G01 X-342.430410 Y-26.173290 Z-0.125000
G01 X-342.982570 Y-26.053460 Z-0.125000
G01 X-343.298410 Y-26.169940 Z-0.125000
G01 X-343.141610 Y-26.522730 Z-0.125000
G01 X-315.575350 Y-54.088980 Z-0.125000
G01 X-315.221440 Y-54.638900 Z-0.125000
G01 X-315.104960 Y-55.186580 Z-0.125000
G01 X-315.224800 Y-55.500170 Z-0.125000
G01 X-315.579830 Y-55.342260 Z-0.125000
G01 X-344.402720 Y-26.518250 Z-0.125000
G01 X-344.953750 Y-26.164330 Z-0.125000
G01 X-345.504780 Y-26.044500 Z-0.125000
G01 X-345.820620 Y-26.160980 Z-0.125000
G01 X-345.664940 Y-26.513770 Z-0.125000
G01 X-315.583200 Y-56.594400 Z-0.125000
G01 X-315.230400 Y-57.144320 Z-0.125000
G01 X-315.113920 Y-57.693110 Z-0.125000
G01 X-315.233760 Y-58.005590 Z-0.125000
G01 X-315.587680 Y-57.847670 Z-0.125000
G01 X-346.926050 Y-26.509290 Z-0.125000
G01 X-347.451320 Y-26.181140 Z-0.125000
G01 X-347.945240 Y-26.119540 Z-0.125000
G01 X-348.203960 Y-26.292020 Z-0.125000
G01 X-348.021400 Y-26.671700 Z-0.125000
G01 X-315.592160 Y-59.100930 Z-0.125000
G01 X-315.427520 Y-59.462690 Z-0.125000
G01 X-315.724320 Y-59.598200 Z-0.125000
G01 X-316.257430 Y-59.497370 Z-0.125000
G01 X-316.799500 Y-59.151300 Z-0.125000
G01 X-348.025880 Y-27.923800 Z-0.125000
G01 X-348.379790 Y-27.767010 Z-0.125000
G01 X-348.499630 Y-28.079490 Z-0.125000
G01 X-348.383150 Y-28.628280 Z-0.125000
G01 X-348.030360 Y-29.177070 Z-0.125000
G01 X-318.060610 Y-59.146820 Z-0.125000
G01 X-317.903810 Y-59.499620 Z-0.125000
G01 X-318.219650 Y-59.616090 Z-0.125000
G01 X-318.771800 Y-59.497370 Z-0.125000
G01 X-319.321710 Y-59.142340 Z-0.125000
G01 X-348.034840 Y-30.430340 Z-0.125000
G01 X-348.388750 Y-30.272420 Z-0.125000
G01 X-348.508590 Y-30.584900 Z-0.125000
G01 X-348.392110 Y-31.133690 Z-0.125000
G01 X-348.039320 Y-31.683600 Z-0.125000
G01 X-320.583950 Y-59.138980 Z-0.125000
G01 X-320.427140 Y-59.491770 Z-0.125000
G01 X-320.742980 Y-59.608250 Z-0.125000
G01 X-321.294010 Y-59.488410 Z-0.125000
G01 X-321.845050 Y-59.134500 Z-0.125000
G01 X-348.042680 Y-32.935750 Z-0.125000
G01 X-348.397720 Y-32.777830 Z-0.125000
G01 X-348.516430 Y-33.091420 Z-0.125000
G01 X-348.399950 Y-33.640220 Z-0.125000
G01 X-348.047160 Y-34.189020 Z-0.125000
G01 X-323.107270 Y-59.130020 Z-0.125000
G01 X-322.950480 Y-59.482810 Z-0.125000
G01 X-323.266310 Y-59.599290 Z-0.125000
G01 X-323.817350 Y-59.479450 Z-0.125000
G01 X-324.368380 Y-59.125540 Z-0.125000
G01 X-348.051640 Y-35.442280 Z-0.125000
G01 X-348.405550 Y-35.284360 Z-0.125000
G01 X-348.525390 Y-35.596840 Z-0.125000
G01 X-348.408910 Y-36.145630 Z-0.125000
G01 X-348.056120 Y-36.695550 Z-0.125000
G01 X-325.630600 Y-59.121060 Z-0.125000
G01 X-325.473810 Y-59.473860 Z-0.125000
G01 X-325.789640 Y-59.590330 Z-0.125000
G01 X-326.340670 Y-59.471620 Z-0.125000
G01 X-326.891710 Y-59.116580 Z-0.125000
G01 X-348.060600 Y-37.947690 Z-0.125000
G01 X-348.414510 Y-37.789780 Z-0.125000
G01 X-348.534350 Y-38.103370 Z-0.125000
G01 X-348.417870 Y-38.651050 Z-0.125000
G01 X-348.065080 Y-39.200960 Z-0.125000
G01 X-328.152810 Y-59.112100 Z-0.125000
G01 X-327.997140 Y-59.466010 Z-0.125000
G01 X-328.311850 Y-59.582500 Z-0.125000
G01 X-328.864010 Y-59.462660 Z-0.125000
G01 X-329.415050 Y-59.107620 Z-0.125000
G01 X-348.068430 Y-40.454230 Z-0.125000
G01 X-348.423470 Y-40.296310 Z-0.125000
G01 X-348.542190 Y-40.608790 Z-0.125000
G01 X-348.425710 Y-41.157580 Z-0.125000
G01 X-348.072910 Y-41.706370 Z-0.125000
G01 X-330.676150 Y-59.104260 Z-0.125000
G01 X-330.519350 Y-59.457050 Z-0.125000
G01 X-330.835190 Y-59.573540 Z-0.125000
G01 X-331.387340 Y-59.453700 Z-0.125000
G01 X-331.937260 Y-59.099780 Z-0.125000
G01 X-348.077390 Y-42.959640 Z-0.125000
G01 X-348.431310 Y-42.801720 Z-0.125000
G01 X-348.551150 Y-43.114200 Z-0.125000
G01 X-348.434670 Y-43.662990 Z-0.125000
G01 X-348.081870 Y-44.212910 Z-0.125000
G01 X-333.199480 Y-59.095300 Z-0.125000
G01 X-333.042680 Y-59.448090 Z-0.125000
G01 X-333.358520 Y-59.564570 Z-0.125000
G01 X-333.909550 Y-59.445860 Z-0.125000
G01 X-334.460580 Y-59.090820 Z-0.125000
G01 X-348.086350 Y-45.465060 Z-0.125000
G01 X-348.440270 Y-45.307130 Z-0.125000
G01 X-348.560110 Y-45.620730 Z-0.125000
G01 X-348.443630 Y-46.169520 Z-0.125000
G01 X-348.090830 Y-46.718320 Z-0.125000
G01 X-335.722820 Y-59.086340 Z-0.125000
G01 X-335.566010 Y-59.440250 Z-0.125000
G01 X-335.881850 Y-59.555610 Z-0.125000
G01 X-336.432880 Y-59.436900 Z-0.125000
G01 X-336.983920 Y-59.081860 Z-0.125000
G01 X-348.095310 Y-47.971580 Z-0.125000
G01 X-348.449230 Y-47.813670 Z-0.125000
G01 X-348.567950 Y-48.126140 Z-0.125000
G01 X-348.452590 Y-48.674940 Z-0.125000
G01 X-348.099790 Y-49.224840 Z-0.125000
G01 X-338.245030 Y-59.078500 Z-0.125000
G01 X-338.089350 Y-59.431290 Z-0.125000
G01 X-338.405190 Y-59.547780 Z-0.125000
G01 X-338.956220 Y-59.427940 Z-0.125000
G01 X-339.507250 Y-59.074020 Z-0.125000
G01 X-348.103150 Y-50.477000 Z-0.125000
G01 X-348.458190 Y-50.319080 Z-0.125000
G01 X-348.576910 Y-50.632680 Z-0.125000
G01 X-348.460430 Y-51.181470 Z-0.125000
G01 X-348.107630 Y-51.730260 Z-0.125000
G01 X-340.768360 Y-59.069540 Z-0.125000
G01 X-340.612680 Y-59.422330 Z-0.125000
G01 X-340.927400 Y-59.538820 Z-0.125000
G01 X-341.479550 Y-59.418980 Z-0.125000
G01 X-342.030580 Y-59.065060 Z-0.125000
G01 X-348.112110 Y-52.983530 Z-0.125000
G01 X-348.466030 Y-52.825610 Z-0.125000
G01 X-348.585870 Y-53.138090 Z-0.125000
G01 X-348.469390 Y-53.686880 Z-0.125000
G01 X-348.116590 Y-54.235670 Z-0.125000
G01 X-343.291680 Y-59.060580 Z-0.125000
G01 X-343.134890 Y-59.413370 Z-0.125000
G01 X-343.450720 Y-59.529860 Z-0.125000
G01 X-344.002880 Y-59.411140 Z-0.125000
G01 X-344.552790 Y-59.056100 Z-0.125000
G01 X-348.121070 Y-55.488940 Z-0.125000
G01 X-348.474990 Y-55.331020 Z-0.125000
G01 X-348.593710 Y-55.644620 Z-0.125000
G01 X-348.478350 Y-56.192290 Z-0.125000
G01 X-348.125550 Y-56.742210 Z-0.125000
G01 X-345.815020 Y-59.052740 Z-0.125000
G01 X-345.658220 Y-59.405540 Z-0.125000
G01 X-345.974060 Y-59.522020 Z-0.125000
G01 X-346.525100 Y-59.402180 Z-0.125000
G01 X-347.076130 Y-59.048260 Z-0.125000
G01 X-348.230830 Y-57.892430 Z-0.125000
G01 X-348.508590 Y-57.811730 Z-0.125000
G01 X-348.602690 Y-58.149960 Z-0.125000
G01 X-348.511890 Y-58.673000 Z-0.125000
G01 X-348.235250 Y-59.145630 Z-0.125000
G01 X-347.866780 Y-59.515220 Z-0.125000
G00 Z5.000000

(End cutting path id: path135)


(Start cutting path id: path138)
(Change tool to Default tool)

G00 Z5.000000
G00 X-282.139340 Y-25.581130

G01 Z-0.125000 F100.0(Penetrate)
G01 X-281.713740 Y-25.155530 Z-0.125000 F400.000000
G01 X-281.395670 Y-24.641450 Z-0.125000
G01 X-281.291510 Y-24.104990 Z-0.125000
G01 X-281.399020 Y-23.780180 Z-0.125000
G01 X-281.718220 Y-23.903380 Z-0.125000
G01 X-282.928930 Y-25.114090 Z-0.125000
G01 X-283.479960 Y-25.468010 Z-0.125000
G01 X-284.030990 Y-25.586720 Z-0.125000
G01 X-284.346830 Y-25.471370 Z-0.125000
G01 X-284.191150 Y-25.118570 Z-0.125000
G01 X-281.768630 Y-22.697150 Z-0.125000
G01 X-281.415820 Y-22.147250 Z-0.125000
G01 X-281.299350 Y-21.598450 Z-0.125000
G01 X-281.419190 Y-21.285980 Z-0.125000
G01 X-281.773100 Y-21.443890 Z-0.125000
G01 X-285.452260 Y-25.121940 Z-0.125000
G01 X-286.003300 Y-25.476970 Z-0.125000
G01 X-286.554330 Y-25.595680 Z-0.125000
G01 X-286.870170 Y-25.479210 Z-0.125000
G01 X-286.713370 Y-25.126420 Z-0.125000
G01 X-281.777580 Y-20.190630 Z-0.125000
G01 X-281.424780 Y-19.641830 Z-0.125000
G01 X-281.308310 Y-19.093040 Z-0.125000
G01 X-281.428150 Y-18.779440 Z-0.125000
G01 X-281.782060 Y-18.937370 Z-0.125000
G01 X-287.975590 Y-25.130900 Z-0.125000
G01 X-288.526630 Y-25.484800 Z-0.125000
G01 X-289.077660 Y-25.604640 Z-0.125000
G01 X-289.393500 Y-25.488170 Z-0.125000
G01 X-289.236700 Y-25.135380 Z-0.125000
G01 X-281.786540 Y-17.685220 Z-0.125000
G01 X-281.433740 Y-17.135300 Z-0.125000
G01 X-281.317270 Y-16.586510 Z-0.125000
G01 X-281.435990 Y-16.274030 Z-0.125000
G01 X-281.791020 Y-16.431950 Z-0.125000
G01 X-290.498920 Y-25.139860 Z-0.125000
G01 X-291.048840 Y-25.493760 Z-0.125000
G01 X-291.600990 Y-25.613600 Z-0.125000
G01 X-291.916830 Y-25.497130 Z-0.125000
G01 X-291.760030 Y-25.144340 Z-0.125000
G01 X-281.794390 Y-15.178680 Z-0.125000
G01 X-281.441590 Y-14.629890 Z-0.125000
G01 X-281.325110 Y-14.081100 Z-0.125000
G01 X-281.444950 Y-13.768620 Z-0.125000
G01 X-281.798870 Y-13.925420 Z-0.125000
G01 X-293.021130 Y-25.147690 Z-0.125000
G01 X-293.572170 Y-25.502720 Z-0.125000
G01 X-294.124330 Y-25.621450 Z-0.125000
G01 X-294.439040 Y-25.504970 Z-0.125000
G01 X-294.283370 Y-25.152180 Z-0.125000
G01 X-281.803350 Y-12.673270 Z-0.125000
G01 X-281.450550 Y-12.123360 Z-0.125000
G01 X-281.334070 Y-11.575680 Z-0.125000
G01 X-281.453910 Y-11.262090 Z-0.125000
G01 X-281.807830 Y-11.420000 Z-0.125000
G01 X-295.544470 Y-25.156660 Z-0.125000
G01 X-296.095500 Y-25.510570 Z-0.125000
G01 X-296.646540 Y-25.630410 Z-0.125000
G01 X-296.962370 Y-25.513930 Z-0.125000
G01 X-296.806690 Y-25.161140 Z-0.125000
G01 X-281.812310 Y-10.166740 Z-0.125000
G01 X-281.459500 Y-9.617940 Z-0.125000
G01 X-281.343030 Y-9.069150 Z-0.125000
G01 X-281.461750 Y-8.756670 Z-0.125000
G01 X-281.816790 Y-8.914590 Z-0.125000
G01 X-298.067800 Y-25.165620 Z-0.125000
G01 X-298.618830 Y-25.519530 Z-0.125000
G01 X-299.169870 Y-25.639360 Z-0.125000
G01 X-299.485700 Y-25.522890 Z-0.125000
G01 X-299.328910 Y-25.170100 Z-0.125000
G01 X-281.820140 Y-7.661330 Z-0.125000
G01 X-281.467350 Y-7.112530 Z-0.125000
G01 X-281.350870 Y-6.563730 Z-0.125000
G01 X-281.470710 Y-6.250140 Z-0.125000
G01 X-281.824620 Y-6.408060 Z-0.125000
G01 X-300.591130 Y-25.174580 Z-0.125000
G01 X-301.142170 Y-25.528490 Z-0.125000
G01 X-301.693200 Y-25.647210 Z-0.125000
G01 X-302.009040 Y-25.531850 Z-0.125000
G01 X-301.852240 Y-25.179060 Z-0.125000
G01 X-281.829100 Y-5.155910 Z-0.125000
G01 X-281.476310 Y-4.606010 Z-0.125000
G01 X-281.359830 Y-4.057210 Z-0.125000
G01 X-281.479670 Y-3.744740 Z-0.125000
G01 X-281.833580 Y-3.902650 Z-0.125000
G01 X-303.114470 Y-25.182410 Z-0.125000
G01 X-303.664380 Y-25.537450 Z-0.125000
G01 X-304.216530 Y-25.656170 Z-0.125000
G01 X-304.532370 Y-25.539690 Z-0.125000
G01 X-304.375570 Y-25.186890 Z-0.125000
G01 X-281.838060 Y-2.649380 Z-0.125000
G01 X-281.485270 Y-2.100590 Z-0.125000
G01 X-281.368790 Y-1.551800 Z-0.125000
G01 X-281.487500 Y-1.238200 Z-0.125000
G01 X-281.842540 Y-1.396110 Z-0.125000
G01 X-305.636680 Y-25.191370 Z-0.125000
G01 X-306.187710 Y-25.545290 Z-0.125000
G01 X-306.738740 Y-25.665130 Z-0.125000
G01 X-307.054580 Y-25.548650 Z-0.125000
G01 X-306.898900 Y-25.195850 Z-0.125000
G01 X-281.845900 Y-0.143970 Z-0.125000
G01 X-281.493110 Y0.405940 Z-0.125000
G01 X-281.376620 Y0.954740 Z-0.125000
G01 X-281.496460 Y1.267210 Z-0.125000
G01 X-281.850380 Y1.109300 Z-0.125000
G01 X-308.160010 Y-25.200330 Z-0.125000
G01 X-308.711040 Y-25.554250 Z-0.125000
G01 X-309.262080 Y-25.672970 Z-0.125000
G01 X-309.577920 Y-25.557610 Z-0.125000
G01 X-309.421110 Y-25.204810 Z-0.125000
G01 X-281.854860 Y2.362560 Z-0.125000
G01 X-281.502070 Y2.911360 Z-0.125000
G01 X-281.385580 Y3.460150 Z-0.125000
G01 X-281.505420 Y3.772630 Z-0.125000
G01 X-281.859340 Y3.614710 Z-0.125000
G01 X-310.683340 Y-25.208170 Z-0.125000
G01 X-311.234380 Y-25.563210 Z-0.125000
G01 X-311.785410 Y-25.681930 Z-0.125000
G01 X-312.101240 Y-25.565450 Z-0.125000
G01 X-311.944450 Y-25.212650 Z-0.125000
G01 X-281.863820 Y4.867980 Z-0.125000
G01 X-281.511030 Y5.417880 Z-0.125000
G01 X-281.394540 Y5.965560 Z-0.125000
G01 X-281.513260 Y6.279150 Z-0.125000
G01 X-281.868300 Y6.121240 Z-0.125000
G01 X-313.206670 Y-25.217130 Z-0.125000
G01 X-313.730830 Y-25.545290 Z-0.125000
G01 X-314.225860 Y-25.607990 Z-0.125000
G01 X-314.484580 Y-25.434390 Z-0.125000
G01 X-314.302020 Y-25.055840 Z-0.125000
G01 X-281.872780 Y7.374520 Z-0.125000
G01 X-281.707020 Y7.735160 Z-0.125000
G01 X-282.003820 Y7.870680 Z-0.125000
G01 X-282.536940 Y7.769850 Z-0.125000
G01 X-283.079010 Y7.424890 Z-0.125000
G01 X-314.306500 Y-23.802590 Z-0.125000
G01 X-314.660420 Y-23.960520 Z-0.125000
G01 X-314.780260 Y-23.648040 Z-0.125000
G01 X-314.663770 Y-23.099240 Z-0.125000
G01 X-314.310980 Y-22.549330 Z-0.125000
G01 X-284.341230 Y7.420410 Z-0.125000
G01 X-284.184440 Y7.773210 Z-0.125000
G01 X-284.500270 Y7.889690 Z-0.125000
G01 X-285.051300 Y7.769850 Z-0.125000
G01 X-285.602340 Y7.415930 Z-0.125000
G01 X-314.314340 Y-21.297180 Z-0.125000
G01 X-314.669380 Y-21.453980 Z-0.125000
G01 X-314.788090 Y-21.141510 Z-0.125000
G01 X-314.671620 Y-20.592710 Z-0.125000
G01 X-314.318820 Y-20.043920 Z-0.125000
G01 X-286.864570 Y7.411450 Z-0.125000
G01 X-286.707760 Y7.764250 Z-0.125000
G01 X-287.023600 Y7.880730 Z-0.125000
G01 X-287.574640 Y7.762010 Z-0.125000
G01 X-288.125680 Y7.406970 Z-0.125000
G01 X-314.323300 Y-18.790660 Z-0.125000
G01 X-314.677210 Y-18.948570 Z-0.125000
G01 X-314.797050 Y-18.636100 Z-0.125000
G01 X-314.680580 Y-18.087300 Z-0.125000
G01 X-314.327780 Y-17.537380 Z-0.125000
G01 X-289.386780 Y7.402490 Z-0.125000
G01 X-289.231100 Y7.756410 Z-0.125000
G01 X-289.546940 Y7.871770 Z-0.125000
G01 X-290.097970 Y7.753050 Z-0.125000
G01 X-290.649000 Y7.398010 Z-0.125000
G01 X-314.332260 Y-16.285240 Z-0.125000
G01 X-314.686170 Y-16.443160 Z-0.125000
G01 X-314.806010 Y-16.129560 Z-0.125000
G01 X-314.689540 Y-15.580760 Z-0.125000
G01 X-314.336740 Y-15.031980 Z-0.125000
G01 X-291.910110 Y7.394660 Z-0.125000
G01 X-291.753310 Y7.747450 Z-0.125000
G01 X-292.069150 Y7.863930 Z-0.125000
G01 X-292.621300 Y7.744090 Z-0.125000
G01 X-293.171210 Y7.390180 Z-0.125000
G01 X-314.340100 Y-13.778710 Z-0.125000
G01 X-314.695130 Y-13.936630 Z-0.125000
G01 X-314.813850 Y-13.624150 Z-0.125000
G01 X-314.697380 Y-13.075350 Z-0.125000
G01 X-314.344580 Y-12.526570 Z-0.125000
G01 X-294.433440 Y7.385700 Z-0.125000
G01 X-294.276640 Y7.738490 Z-0.125000
G01 X-294.592480 Y7.854970 Z-0.125000
G01 X-295.143510 Y7.735130 Z-0.125000
G01 X-295.694550 Y7.381220 Z-0.125000
G01 X-314.349060 Y-11.273290 Z-0.125000
G01 X-314.702970 Y-11.431220 Z-0.125000
G01 X-314.822810 Y-11.117620 Z-0.125000
G01 X-314.706340 Y-10.569950 Z-0.125000
G01 X-314.353540 Y-10.020030 Z-0.125000
G01 X-296.956780 Y7.376740 Z-0.125000
G01 X-296.799980 Y7.729530 Z-0.125000
G01 X-297.115820 Y7.846010 Z-0.125000
G01 X-297.666850 Y7.727300 Z-0.125000
G01 X-298.217880 Y7.372260 Z-0.125000
G01 X-314.358020 Y-8.767890 Z-0.125000
G01 X-314.711930 Y-8.924680 Z-0.125000
G01 X-314.831770 Y-8.612210 Z-0.125000
G01 X-314.715300 Y-8.063410 Z-0.125000
G01 X-314.362500 Y-7.514620 Z-0.125000
G01 X-299.480100 Y7.368900 Z-0.125000
G01 X-299.323310 Y7.721690 Z-0.125000
G01 X-299.639140 Y7.838180 Z-0.125000
G01 X-300.190180 Y7.718340 Z-0.125000
G01 X-300.741210 Y7.364420 Z-0.125000
G01 X-314.365860 Y-6.261350 Z-0.125000
G01 X-314.720890 Y-6.419270 Z-0.125000
G01 X-314.839620 Y-6.106800 Z-0.125000
G01 X-314.723140 Y-5.558000 Z-0.125000
G01 X-314.370340 Y-5.008090 Z-0.125000
G01 X-302.002310 Y7.359940 Z-0.125000
G01 X-301.846640 Y7.712730 Z-0.125000
G01 X-302.161350 Y7.829220 Z-0.125000
G01 X-302.713510 Y7.709380 Z-0.125000
G01 X-303.264550 Y7.355460 Z-0.125000
G01 X-314.374820 Y-3.755940 Z-0.125000
G01 X-314.728740 Y-3.913860 Z-0.125000
G01 X-314.848580 Y-3.600260 Z-0.125000
G01 X-314.732100 Y-3.051460 Z-0.125000
G01 X-314.379300 Y-2.502680 Z-0.125000
G01 X-304.525650 Y7.350980 Z-0.125000
G01 X-304.368850 Y7.703770 Z-0.125000
G01 X-304.684690 Y7.820260 Z-0.125000
G01 X-305.236840 Y7.701530 Z-0.125000
G01 X-305.786760 Y7.346500 Z-0.125000
G01 X-314.383780 Y-1.249400 Z-0.125000
G01 X-314.737700 Y-1.407330 Z-0.125000
G01 X-314.857540 Y-1.094850 Z-0.125000
G01 X-314.741060 Y-0.546060 Z-0.125000
G01 X-314.388260 Y0.003860 Z-0.125000
G01 X-307.048980 Y7.343140 Z-0.125000
G01 X-306.892190 Y7.695940 Z-0.125000
G01 X-307.208020 Y7.812410 Z-0.125000
G01 X-307.759050 Y7.692570 Z-0.125000
G01 X-308.310090 Y7.338660 Z-0.125000
G01 X-314.392740 Y1.256000 Z-0.125000
G01 X-314.746660 Y1.098080 Z-0.125000
G01 X-314.865380 Y1.411680 Z-0.125000
G01 X-314.750020 Y1.959350 Z-0.125000
G01 X-314.397220 Y2.509270 Z-0.125000
G01 X-309.572310 Y7.334180 Z-0.125000
G01 X-309.415510 Y7.686980 Z-0.125000
G01 X-309.731350 Y7.803450 Z-0.125000
G01 X-310.282380 Y7.683620 Z-0.125000
G01 X-310.833420 Y7.329700 Z-0.125000
G01 X-314.400580 Y3.762540 Z-0.125000
G01 X-314.755620 Y3.604620 Z-0.125000
G01 X-314.874340 Y3.917090 Z-0.125000
G01 X-314.757850 Y4.465890 Z-0.125000
G01 X-314.405060 Y5.014690 Z-0.125000
G01 X-312.095650 Y7.325220 Z-0.125000
G01 X-311.938850 Y7.678020 Z-0.125000
G01 X-312.254690 Y7.794490 Z-0.125000
G01 X-312.805720 Y7.675770 Z-0.125000
G01 X-313.356750 Y7.320740 Z-0.125000
G01 X-314.511460 Y6.166030 Z-0.125000
G01 X-314.789220 Y6.084330 Z-0.125000
G01 X-314.883320 Y6.422560 Z-0.125000
G01 X-314.792520 Y6.945600 Z-0.125000
G01 X-314.515890 Y7.419340 Z-0.125000
G01 X-314.146290 Y7.787820 Z-0.125000
G00 Z5.000000

(End cutting path id: path138)


(Start cutting path id: path136)
(Change tool to Default tool)

G00 Z5.000000
G00 X-282.361090 Y42.098600

G01 Z-0.125000 F100.0(Penetrate)
G01 X-281.936620 Y42.524200 Z-0.125000 F400.000000
G01 X-281.618540 Y43.038270 Z-0.125000
G01 X-281.513260 Y43.574740 Z-0.125000
G01 X-281.620780 Y43.899540 Z-0.125000
G01 X-281.941100 Y43.776350 Z-0.125000
G01 X-283.151800 Y42.565640 Z-0.125000
G01 X-283.701720 Y42.211720 Z-0.125000
G01 X-284.253880 Y42.093000 Z-0.125000
G01 X-284.569710 Y42.208360 Z-0.125000
G01 X-284.412910 Y42.561160 Z-0.125000
G01 X-281.991500 Y44.982570 Z-0.125000
G01 X-281.638700 Y45.532480 Z-0.125000
G01 X-281.522220 Y46.081280 Z-0.125000
G01 X-281.640940 Y46.393750 Z-0.125000
G01 X-281.995980 Y46.235840 Z-0.125000
G01 X-285.675140 Y42.557790 Z-0.125000
G01 X-286.225060 Y42.202760 Z-0.125000
G01 X-286.777210 Y42.084040 Z-0.125000
G01 X-287.093040 Y42.200520 Z-0.125000
G01 X-286.936250 Y42.553310 Z-0.125000
G01 X-282.000460 Y47.489100 Z-0.125000
G01 X-281.646540 Y48.037890 Z-0.125000
G01 X-281.531180 Y48.586690 Z-0.125000
G01 X-281.649900 Y48.900290 Z-0.125000
G01 X-282.004940 Y48.742360 Z-0.125000
G01 X-288.197350 Y42.548830 Z-0.125000
G01 X-288.748390 Y42.194920 Z-0.125000
G01 X-289.299420 Y42.075080 Z-0.125000
G01 X-289.615250 Y42.191560 Z-0.125000
G01 X-289.459580 Y42.544350 Z-0.125000
G01 X-282.008300 Y49.994510 Z-0.125000
G01 X-281.655500 Y50.544430 Z-0.125000
G01 X-281.539020 Y51.093220 Z-0.125000
G01 X-281.658860 Y51.405700 Z-0.125000
G01 X-282.012780 Y51.247770 Z-0.125000
G01 X-290.720680 Y42.539870 Z-0.125000
G01 X-291.271710 Y42.185960 Z-0.125000
G01 X-291.822750 Y42.066120 Z-0.125000
G01 X-292.138590 Y42.182600 Z-0.125000
G01 X-291.981790 Y42.535390 Z-0.125000
G01 X-282.017260 Y52.501050 Z-0.125000
G01 X-281.664460 Y53.049830 Z-0.125000
G01 X-281.547980 Y53.598630 Z-0.125000
G01 X-281.666710 Y53.911100 Z-0.125000
G01 X-282.021740 Y53.754310 Z-0.125000
G01 X-293.244020 Y42.532030 Z-0.125000
G01 X-293.795050 Y42.177000 Z-0.125000
G01 X-294.346080 Y42.058280 Z-0.125000
G01 X-294.661920 Y42.174760 Z-0.125000
G01 X-294.505120 Y42.527550 Z-0.125000
G01 X-282.026220 Y55.006460 Z-0.125000
G01 X-281.672300 Y55.556370 Z-0.125000
G01 X-281.556940 Y56.105170 Z-0.125000
G01 X-281.675670 Y56.417640 Z-0.125000
G01 X-282.030700 Y56.259720 Z-0.125000
G01 X-295.767350 Y42.523070 Z-0.125000
G01 X-296.317260 Y42.169160 Z-0.125000
G01 X-296.869410 Y42.049330 Z-0.125000
G01 X-297.185250 Y42.165800 Z-0.125000
G01 X-297.028450 Y42.518590 Z-0.125000
G01 X-282.034050 Y57.512990 Z-0.125000
G01 X-281.681260 Y58.061780 Z-0.125000
G01 X-281.564790 Y58.610580 Z-0.125000
G01 X-281.684630 Y58.923050 Z-0.125000
G01 X-282.038540 Y58.765140 Z-0.125000
G01 X-298.289560 Y42.514110 Z-0.125000
G01 X-298.840590 Y42.160200 Z-0.125000
G01 X-299.392750 Y42.040370 Z-0.125000
G01 X-299.708590 Y42.156840 Z-0.125000
G01 X-299.551780 Y42.509630 Z-0.125000
G01 X-282.043020 Y60.018400 Z-0.125000
G01 X-281.690220 Y60.568320 Z-0.125000
G01 X-281.573750 Y61.115990 Z-0.125000
G01 X-281.692470 Y61.429590 Z-0.125000
G01 X-282.047500 Y61.271660 Z-0.125000
G01 X-300.812890 Y42.505150 Z-0.125000
G01 X-301.363930 Y42.151230 Z-0.125000
G01 X-301.914960 Y42.032520 Z-0.125000
G01 X-302.230800 Y42.149000 Z-0.125000
G01 X-302.075120 Y42.500670 Z-0.125000
G01 X-282.051980 Y62.523810 Z-0.125000
G01 X-281.698060 Y63.073720 Z-0.125000
G01 X-281.582710 Y63.622520 Z-0.125000
G01 X-281.701430 Y63.934990 Z-0.125000
G01 X-282.056460 Y63.777080 Z-0.125000
G01 X-303.336220 Y42.497310 Z-0.125000
G01 X-303.887260 Y42.142270 Z-0.125000
G01 X-304.438290 Y42.023560 Z-0.125000
G01 X-304.754130 Y42.140040 Z-0.125000
G01 X-304.597330 Y42.492830 Z-0.125000
G01 X-282.059820 Y65.030350 Z-0.125000
G01 X-281.707020 Y65.579140 Z-0.125000
G01 X-281.590550 Y66.127930 Z-0.125000
G01 X-281.710390 Y66.441530 Z-0.125000
G01 X-282.064300 Y66.283610 Z-0.125000
G01 X-305.859550 Y42.488350 Z-0.125000
G01 X-306.410590 Y42.134440 Z-0.125000
G01 X-306.961620 Y42.014600 Z-0.125000
G01 X-307.277460 Y42.131080 Z-0.125000
G01 X-307.120660 Y42.483870 Z-0.125000
G01 X-282.068780 Y67.535750 Z-0.125000
G01 X-281.715980 Y68.085670 Z-0.125000
G01 X-281.599510 Y68.634470 Z-0.125000
G01 X-281.718220 Y68.946940 Z-0.125000
G01 X-282.073260 Y68.789030 Z-0.125000
G01 X-308.382890 Y42.479390 Z-0.125000
G01 X-308.932800 Y42.125480 Z-0.125000
G01 X-309.484960 Y42.006760 Z-0.125000
G01 X-309.800790 Y42.122120 Z-0.125000
G01 X-309.644000 Y42.474910 Z-0.125000
G01 X-282.077740 Y70.042290 Z-0.125000
G01 X-281.724940 Y70.591090 Z-0.125000
G01 X-281.608470 Y71.139880 Z-0.125000
G01 X-281.727180 Y71.452360 Z-0.125000
G01 X-282.082220 Y71.294440 Z-0.125000
G01 X-310.905100 Y42.471560 Z-0.125000
G01 X-311.456130 Y42.116520 Z-0.125000
G01 X-312.008280 Y41.997800 Z-0.125000
G01 X-312.323000 Y42.114280 Z-0.125000
G01 X-312.167320 Y42.467080 Z-0.125000
G01 X-282.085580 Y72.547700 Z-0.125000
G01 X-281.732790 Y73.097610 Z-0.125000
G01 X-281.616300 Y73.645280 Z-0.125000
G01 X-281.736140 Y73.958880 Z-0.125000
G01 X-282.090060 Y73.800970 Z-0.125000
G01 X-313.428430 Y42.462600 Z-0.125000
G01 X-313.953700 Y42.134440 Z-0.125000
G01 X-314.447620 Y42.071740 Z-0.125000
G01 X-314.706340 Y42.245340 Z-0.125000
G01 X-314.524900 Y42.623890 Z-0.125000
G01 X-282.094540 Y75.054260 Z-0.125000
G01 X-281.929900 Y75.414890 Z-0.125000
G01 X-282.226700 Y75.550410 Z-0.125000
G01 X-282.759810 Y75.449580 Z-0.125000
G01 X-283.301880 Y75.104620 Z-0.125000
G01 X-314.528260 Y43.877130 Z-0.125000
G01 X-314.883300 Y43.719220 Z-0.125000
G01 X-315.002020 Y44.032810 Z-0.125000
G01 X-314.885530 Y44.580490 Z-0.125000
G01 X-314.532740 Y45.130400 Z-0.125000
G01 X-284.562990 Y75.100140 Z-0.125000
G01 X-284.407310 Y75.452940 Z-0.125000
G01 X-284.722030 Y75.569420 Z-0.125000
G01 X-285.274180 Y75.449580 Z-0.125000
G01 X-285.825210 Y75.095660 Z-0.125000
G01 X-314.537220 Y46.382550 Z-0.125000
G01 X-314.891140 Y46.225740 Z-0.125000
G01 X-315.010980 Y46.538220 Z-0.125000
G01 X-314.894490 Y47.087010 Z-0.125000
G01 X-314.541700 Y47.635810 Z-0.125000
G01 X-287.086330 Y75.091180 Z-0.125000
G01 X-286.929520 Y75.443980 Z-0.125000
G01 X-287.245360 Y75.560460 Z-0.125000
G01 X-287.797520 Y75.441740 Z-0.125000
G01 X-288.347430 Y75.086700 Z-0.125000
G01 X-314.546180 Y48.889070 Z-0.125000
G01 X-314.900100 Y48.731160 Z-0.125000
G01 X-315.018810 Y49.043630 Z-0.125000
G01 X-314.903450 Y49.592430 Z-0.125000
G01 X-314.550660 Y50.142350 Z-0.125000
G01 X-289.609660 Y75.082220 Z-0.125000
G01 X-289.452860 Y75.436140 Z-0.125000
G01 X-289.768700 Y75.552620 Z-0.125000
G01 X-290.319730 Y75.432780 Z-0.125000
G01 X-290.870760 Y75.077740 Z-0.125000
G01 X-314.554020 Y51.394490 Z-0.125000
G01 X-314.909060 Y51.236570 Z-0.125000
G01 X-315.027770 Y51.550170 Z-0.125000
G01 X-314.911290 Y52.098960 Z-0.125000
G01 X-314.558500 Y52.647750 Z-0.125000
G01 X-292.132980 Y75.074380 Z-0.125000
G01 X-291.976190 Y75.427180 Z-0.125000
G01 X-292.292020 Y75.543660 Z-0.125000
G01 X-292.843060 Y75.423820 Z-0.125000
G01 X-293.394090 Y75.069900 Z-0.125000
G01 X-314.562980 Y53.901020 Z-0.125000
G01 X-314.916890 Y53.743110 Z-0.125000
G01 X-315.036730 Y54.055580 Z-0.125000
G01 X-314.920250 Y54.604380 Z-0.125000
G01 X-314.567460 Y55.154280 Z-0.125000
G01 X-294.655190 Y75.065420 Z-0.125000
G01 X-294.499520 Y75.418220 Z-0.125000
G01 X-294.815350 Y75.534700 Z-0.125000
G01 X-295.366400 Y75.415980 Z-0.125000
G01 X-295.917430 Y75.060940 Z-0.125000
G01 X-314.571940 Y56.406440 Z-0.125000
G01 X-314.925850 Y56.248510 Z-0.125000
G01 X-315.044570 Y56.562110 Z-0.125000
G01 X-314.929210 Y57.109780 Z-0.125000
G01 X-314.576420 Y57.659700 Z-0.125000
G01 X-297.178530 Y75.056460 Z-0.125000
G01 X-297.021730 Y75.409260 Z-0.125000
G01 X-297.337570 Y75.525740 Z-0.125000
G01 X-297.889720 Y75.407020 Z-0.125000
G01 X-298.439640 Y75.051980 Z-0.125000
G01 X-314.579770 Y58.912960 Z-0.125000
G01 X-314.934810 Y58.755050 Z-0.125000
G01 X-315.053530 Y59.067520 Z-0.125000
G01 X-314.937060 Y59.616320 Z-0.125000
G01 X-314.584250 Y60.165110 Z-0.125000
G01 X-299.701860 Y75.048630 Z-0.125000
G01 X-299.545070 Y75.401420 Z-0.125000
G01 X-299.860900 Y75.517900 Z-0.125000
G01 X-300.413050 Y75.398060 Z-0.125000
G01 X-300.962970 Y75.044150 Z-0.125000
G01 X-314.588730 Y61.418370 Z-0.125000
G01 X-314.942650 Y61.260460 Z-0.125000
G01 X-315.062490 Y61.572930 Z-0.125000
G01 X-314.946010 Y62.121730 Z-0.125000
G01 X-314.593210 Y62.671640 Z-0.125000
G01 X-302.225200 Y75.039670 Z-0.125000
G01 X-302.068390 Y75.392460 Z-0.125000
G01 X-302.384230 Y75.508940 Z-0.125000
G01 X-302.935260 Y75.389100 Z-0.125000
G01 X-303.486300 Y75.035190 Z-0.125000
G01 X-314.597690 Y63.923790 Z-0.125000
G01 X-314.951610 Y63.765870 Z-0.125000
G01 X-315.071450 Y64.079470 Z-0.125000
G01 X-314.954970 Y64.628260 Z-0.125000
G01 X-314.602170 Y65.177050 Z-0.125000
G01 X-304.748530 Y75.030710 Z-0.125000
G01 X-304.591730 Y75.383500 Z-0.125000
G01 X-304.907570 Y75.499980 Z-0.125000
G01 X-305.458600 Y75.381270 Z-0.125000
G01 X-306.009630 Y75.026230 Z-0.125000
G01 X-314.605540 Y66.430320 Z-0.125000
G01 X-314.960570 Y66.272400 Z-0.125000
G01 X-315.079290 Y66.584880 Z-0.125000
G01 X-314.962820 Y67.133670 Z-0.125000
G01 X-314.610020 Y67.683590 Z-0.125000
G01 X-307.270740 Y75.022870 Z-0.125000
G01 X-307.115060 Y75.375660 Z-0.125000
G01 X-307.430900 Y75.492140 Z-0.125000
G01 X-307.981930 Y75.372310 Z-0.125000
G01 X-308.532960 Y75.018390 Z-0.125000
G01 X-314.614500 Y68.935740 Z-0.125000
G01 X-314.968410 Y68.777810 Z-0.125000
G01 X-315.088250 Y69.091410 Z-0.125000
G01 X-314.971780 Y69.640200 Z-0.125000
G01 X-314.618980 Y70.189000 Z-0.125000
G01 X-309.794070 Y75.013910 Z-0.125000
G01 X-309.637270 Y75.366700 Z-0.125000
G01 X-309.953110 Y75.483170 Z-0.125000
G01 X-310.505270 Y75.363350 Z-0.125000
G01 X-311.055170 Y75.009430 Z-0.125000
G01 X-314.623450 Y71.442260 Z-0.125000
G01 X-314.977370 Y71.284350 Z-0.125000
G01 X-315.097210 Y71.596820 Z-0.125000
G01 X-314.980740 Y72.145620 Z-0.125000
G01 X-314.627930 Y72.694410 Z-0.125000
G01 X-312.317400 Y75.004950 Z-0.125000
G01 X-312.160600 Y75.357740 Z-0.125000
G01 X-312.476440 Y75.474210 Z-0.125000
G01 X-313.028600 Y75.355500 Z-0.125000
G01 X-313.578510 Y75.000470 Z-0.125000
G01 X-314.734330 Y73.845760 Z-0.125000
G01 X-315.010980 Y73.764060 Z-0.125000
G01 X-315.105080 Y74.102300 Z-0.125000
G01 X-315.014280 Y74.626450 Z-0.125000
G01 X-314.738760 Y75.099080 Z-0.125000
G01 X-314.369170 Y75.467560 Z-0.125000
G00 Z5.000000

(End cutting path id: path136)


(Start cutting path id: path137)
(Change tool to Default tool)

G00 Z5.000000
G00 X-282.583970 Y109.778320

G01 Z-0.125000 F100.0(Penetrate)
G01 X-282.158370 Y110.203920 Z-0.125000 F400.000000
G01 X-281.840300 Y110.718000 Z-0.125000
G01 X-281.736140 Y111.254470 Z-0.125000
G01 X-281.843670 Y111.579270 Z-0.125000
G01 X-282.162860 Y111.456070 Z-0.125000
G01 X-283.373560 Y110.245370 Z-0.125000
G01 X-283.924590 Y109.891450 Z-0.125000
G01 X-284.475630 Y109.772730 Z-0.125000
G01 X-284.791470 Y109.888090 Z-0.125000
G01 X-284.635790 Y110.240890 Z-0.125000
G01 X-282.213260 Y112.662300 Z-0.125000
G01 X-281.860460 Y113.212210 Z-0.125000
G01 X-281.743980 Y113.761010 Z-0.125000
G01 X-281.863820 Y114.073480 Z-0.125000
G01 X-282.217740 Y113.915560 Z-0.125000
G01 X-285.896900 Y110.237520 Z-0.125000
G01 X-286.447930 Y109.882490 Z-0.125000
G01 X-286.998970 Y109.763770 Z-0.125000
G01 X-287.314800 Y109.880240 Z-0.125000
G01 X-287.158010 Y110.233040 Z-0.125000
G01 X-282.222220 Y115.168830 Z-0.125000
G01 X-281.869420 Y115.717620 Z-0.125000
G01 X-281.752940 Y116.266420 Z-0.125000
G01 X-281.872780 Y116.580010 Z-0.125000
G01 X-282.226700 Y116.422100 Z-0.125000
G01 X-288.420230 Y110.228560 Z-0.125000
G01 X-288.971260 Y109.874650 Z-0.125000
G01 X-289.522290 Y109.754810 Z-0.125000
G01 X-289.838130 Y109.871280 Z-0.125000
G01 X-289.681330 Y110.224090 Z-0.125000
G01 X-282.231180 Y117.674240 Z-0.125000
G01 X-281.878380 Y118.224160 Z-0.125000
G01 X-281.761900 Y118.772940 Z-0.125000
G01 X-281.880620 Y119.085430 Z-0.125000
G01 X-282.235660 Y118.927500 Z-0.125000
G01 X-290.943560 Y110.219610 Z-0.125000
G01 X-291.493470 Y109.865690 Z-0.125000
G01 X-292.045630 Y109.745850 Z-0.125000
G01 X-292.361470 Y109.862320 Z-0.125000
G01 X-292.204660 Y110.215130 Z-0.125000
G01 X-282.239020 Y120.180780 Z-0.125000
G01 X-281.886220 Y120.729560 Z-0.125000
G01 X-281.769740 Y121.278360 Z-0.125000
G01 X-281.889580 Y121.590840 Z-0.125000
G01 X-282.243500 Y121.434040 Z-0.125000
G01 X-293.465770 Y110.211760 Z-0.125000
G01 X-294.016810 Y109.856730 Z-0.125000
G01 X-294.568960 Y109.738010 Z-0.125000
G01 X-294.883680 Y109.854490 Z-0.125000
G01 X-294.728000 Y110.207280 Z-0.125000
G01 X-282.247980 Y122.686190 Z-0.125000
G01 X-281.895180 Y123.236100 Z-0.125000
G01 X-281.778700 Y123.784890 Z-0.125000
G01 X-281.898540 Y124.097370 Z-0.125000
G01 X-282.252460 Y123.939450 Z-0.125000
G01 X-295.989110 Y110.202800 Z-0.125000
G01 X-296.540140 Y109.848880 Z-0.125000
G01 X-297.091170 Y109.729050 Z-0.125000
G01 X-297.407010 Y109.845530 Z-0.125000
G01 X-297.250210 Y110.198320 Z-0.125000
G01 X-282.256940 Y125.192710 Z-0.125000
G01 X-281.904140 Y125.741510 Z-0.125000
G01 X-281.787660 Y126.290310 Z-0.125000
G01 X-281.906380 Y126.602780 Z-0.125000
G01 X-282.261420 Y126.444870 Z-0.125000
G01 X-298.512430 Y110.193840 Z-0.125000
G01 X-299.063470 Y109.839920 Z-0.125000
G01 X-299.614500 Y109.720090 Z-0.125000
G01 X-299.930340 Y109.836570 Z-0.125000
G01 X-299.773540 Y110.189360 Z-0.125000
G01 X-282.264770 Y127.698130 Z-0.125000
G01 X-281.911980 Y128.246920 Z-0.125000
G01 X-281.795500 Y128.795720 Z-0.125000
G01 X-281.915340 Y129.109320 Z-0.125000
G01 X-282.269250 Y128.951390 Z-0.125000
G01 X-301.035770 Y110.184880 Z-0.125000
G01 X-301.585680 Y109.830960 Z-0.125000
G01 X-302.137840 Y109.712250 Z-0.125000
G01 X-302.453670 Y109.828730 Z-0.125000
G01 X-302.296880 Y110.180400 Z-0.125000
G01 X-282.273730 Y130.203540 Z-0.125000
G01 X-281.920940 Y130.753450 Z-0.125000
G01 X-281.804460 Y131.302250 Z-0.125000
G01 X-281.924300 Y131.614730 Z-0.125000
G01 X-282.278210 Y131.456800 Z-0.125000
G01 X-303.559100 Y110.177040 Z-0.125000
G01 X-304.109020 Y109.822010 Z-0.125000
G01 X-304.661170 Y109.703280 Z-0.125000
G01 X-304.977000 Y109.819770 Z-0.125000
G01 X-304.820210 Y110.172560 Z-0.125000
G01 X-282.282700 Y132.710080 Z-0.125000
G01 X-281.929900 Y133.258860 Z-0.125000
G01 X-281.813420 Y133.807660 Z-0.125000
G01 X-281.932140 Y134.121260 Z-0.125000
G01 X-282.287180 Y133.963340 Z-0.125000
G01 X-306.081310 Y110.168080 Z-0.125000
G01 X-306.632340 Y109.814160 Z-0.125000
G01 X-307.183380 Y109.694320 Z-0.125000
G01 X-307.499210 Y109.810810 Z-0.125000
G01 X-307.343530 Y110.163600 Z-0.125000
G01 X-282.290530 Y135.215480 Z-0.125000
G01 X-281.937740 Y135.765400 Z-0.125000
G01 X-281.821270 Y136.314200 Z-0.125000
G01 X-281.941100 Y136.626670 Z-0.125000
G01 X-282.295010 Y136.468750 Z-0.125000
G01 X-308.604640 Y110.159120 Z-0.125000
G01 X-309.155680 Y109.805200 Z-0.125000
G01 X-309.706710 Y109.686490 Z-0.125000
G01 X-310.022550 Y109.801850 Z-0.125000
G01 X-309.865750 Y110.154640 Z-0.125000
G01 X-282.299490 Y137.722020 Z-0.125000
G01 X-281.946700 Y138.270810 Z-0.125000
G01 X-281.830230 Y138.819610 Z-0.125000
G01 X-281.950060 Y139.132080 Z-0.125000
G01 X-282.303970 Y138.974170 Z-0.125000
G01 X-311.127980 Y110.151280 Z-0.125000
G01 X-311.679010 Y109.796240 Z-0.125000
G01 X-312.230040 Y109.677530 Z-0.125000
G01 X-312.545880 Y109.794010 Z-0.125000
G01 X-312.389080 Y110.146800 Z-0.125000
G01 X-282.308450 Y140.227430 Z-0.125000
G01 X-281.955660 Y140.777340 Z-0.125000
G01 X-281.839190 Y141.325020 Z-0.125000
G01 X-281.957900 Y141.638620 Z-0.125000
G01 X-282.312930 Y141.480690 Z-0.125000
G01 X-313.651310 Y110.142320 Z-0.125000
G01 X-314.175460 Y109.814160 Z-0.125000
G01 X-314.670500 Y109.751460 Z-0.125000
G01 X-314.929210 Y109.925070 Z-0.125000
G01 X-314.746660 Y110.303630 Z-0.125000
G01 X-282.317410 Y142.733990 Z-0.125000
G01 X-282.151660 Y143.094620 Z-0.125000
G01 X-282.448460 Y143.230140 Z-0.125000
G01 X-282.981570 Y143.129310 Z-0.125000
G01 X-283.523640 Y142.784350 Z-0.125000
G01 X-314.751140 Y111.556860 Z-0.125000
G01 X-315.105050 Y111.398950 Z-0.125000
G01 X-315.224890 Y111.711420 Z-0.125000
G01 X-315.108410 Y112.260220 Z-0.125000
G01 X-314.755620 Y112.810120 Z-0.125000
G01 X-284.785870 Y142.779870 Z-0.125000
G01 X-284.629070 Y143.132660 Z-0.125000
G01 X-284.944910 Y143.249150 Z-0.125000
G01 X-285.495940 Y143.129310 Z-0.125000
G01 X-286.046970 Y142.775390 Z-0.125000
G01 X-314.758980 Y114.062270 Z-0.125000
G01 X-315.114010 Y113.905470 Z-0.125000
G01 X-315.232730 Y114.217940 Z-0.125000
G01 X-315.116250 Y114.766740 Z-0.125000
G01 X-314.763460 Y115.315540 Z-0.125000
G01 X-287.309200 Y142.770910 Z-0.125000
G01 X-287.152400 Y143.123700 Z-0.125000
G01 X-287.468240 Y143.240190 Z-0.125000
G01 X-288.019280 Y143.121470 Z-0.125000
G01 X-288.570310 Y142.766430 Z-0.125000
G01 X-314.767940 Y116.568800 Z-0.125000
G01 X-315.121850 Y116.410880 Z-0.125000
G01 X-315.241690 Y116.723360 Z-0.125000
G01 X-315.125210 Y117.272150 Z-0.125000
G01 X-314.772420 Y117.822070 Z-0.125000
G01 X-289.831410 Y142.761950 Z-0.125000
G01 X-289.675740 Y143.115870 Z-0.125000
G01 X-289.991570 Y143.231230 Z-0.125000
G01 X-290.542600 Y143.112510 Z-0.125000
G01 X-291.093640 Y142.757470 Z-0.125000
G01 X-314.776900 Y119.074210 Z-0.125000
G01 X-315.130820 Y118.916300 Z-0.125000
G01 X-315.250660 Y119.229890 Z-0.125000
G01 X-315.134170 Y119.778690 Z-0.125000
G01 X-314.781380 Y120.327480 Z-0.125000
G01 X-292.354740 Y142.754110 Z-0.125000
G01 X-292.197950 Y143.106910 Z-0.125000
G01 X-292.513780 Y143.223390 Z-0.125000
G01 X-293.065930 Y143.103550 Z-0.125000
G01 X-293.615850 Y142.749630 Z-0.125000
G01 X-314.784740 Y121.580750 Z-0.125000
G01 X-315.139780 Y121.422830 Z-0.125000
G01 X-315.258490 Y121.735310 Z-0.125000
G01 X-315.142010 Y122.284100 Z-0.125000
G01 X-314.789220 Y122.834010 Z-0.125000
G01 X-294.878080 Y142.745150 Z-0.125000
G01 X-294.721280 Y143.097950 Z-0.125000
G01 X-295.037110 Y143.214430 Z-0.125000
G01 X-295.589270 Y143.094590 Z-0.125000
G01 X-296.139190 Y142.740670 Z-0.125000
G01 X-314.793700 Y124.086160 Z-0.125000
G01 X-315.147610 Y123.928240 Z-0.125000
G01 X-315.267450 Y124.241830 Z-0.125000
G01 X-315.150970 Y124.789510 Z-0.125000
G01 X-314.798180 Y125.339430 Z-0.125000
G01 X-297.401410 Y142.736190 Z-0.125000
G01 X-297.244610 Y143.088990 Z-0.125000
G01 X-297.560450 Y143.205470 Z-0.125000
G01 X-298.111480 Y143.086750 Z-0.125000
G01 X-298.662510 Y142.731710 Z-0.125000
G01 X-314.802660 Y126.591580 Z-0.125000
G01 X-315.156570 Y126.434770 Z-0.125000
G01 X-315.276410 Y126.747250 Z-0.125000
G01 X-315.159930 Y127.296040 Z-0.125000
G01 X-314.807140 Y127.844840 Z-0.125000
G01 X-299.924740 Y142.728350 Z-0.125000
G01 X-299.767940 Y143.081150 Z-0.125000
G01 X-300.083780 Y143.197630 Z-0.125000
G01 X-300.634810 Y143.077790 Z-0.125000
G01 X-301.185840 Y142.723870 Z-0.125000
G01 X-314.810490 Y129.098100 Z-0.125000
G01 X-315.165530 Y128.940190 Z-0.125000
G01 X-315.284250 Y129.252660 Z-0.125000
G01 X-315.167770 Y129.801460 Z-0.125000
G01 X-314.814970 Y130.351360 Z-0.125000
G01 X-302.446950 Y142.719390 Z-0.125000
G01 X-302.291270 Y143.072190 Z-0.125000
G01 X-302.607120 Y143.188670 Z-0.125000
G01 X-303.158150 Y143.068830 Z-0.125000
G01 X-303.709180 Y142.714910 Z-0.125000
G01 X-314.819450 Y131.603520 Z-0.125000
G01 X-315.174490 Y131.445600 Z-0.125000
G01 X-315.293210 Y131.759200 Z-0.125000
G01 X-315.176730 Y132.307990 Z-0.125000
G01 X-314.823930 Y132.856780 Z-0.125000
G01 X-304.970290 Y142.710430 Z-0.125000
G01 X-304.813490 Y143.063230 Z-0.125000
G01 X-305.129330 Y143.179710 Z-0.125000
G01 X-305.681480 Y143.060990 Z-0.125000
G01 X-306.231390 Y142.705950 Z-0.125000
G01 X-314.828410 Y134.110050 Z-0.125000
G01 X-315.182330 Y133.952130 Z-0.125000
G01 X-315.302170 Y134.264610 Z-0.125000
G01 X-315.185690 Y134.813400 Z-0.125000
G01 X-314.832890 Y135.363310 Z-0.125000
G01 X-307.493610 Y142.702600 Z-0.125000
G01 X-307.336820 Y143.055390 Z-0.125000
G01 X-307.652650 Y143.171860 Z-0.125000
G01 X-308.203690 Y143.052030 Z-0.125000
G01 X-308.754720 Y142.698120 Z-0.125000
G01 X-314.837370 Y136.615460 Z-0.125000
G01 X-315.191290 Y136.457540 Z-0.125000
G01 X-315.310010 Y136.771140 Z-0.125000
G01 X-315.194650 Y137.318810 Z-0.125000
G01 X-314.841850 Y137.868730 Z-0.125000
G01 X-310.016950 Y142.693640 Z-0.125000
G01 X-309.860150 Y143.046430 Z-0.125000
G01 X-310.175980 Y143.162900 Z-0.125000
G01 X-310.727020 Y143.043070 Z-0.125000
G01 X-311.278060 Y142.689160 Z-0.125000
G01 X-314.845210 Y139.121990 Z-0.125000
G01 X-315.200250 Y138.964080 Z-0.125000
G01 X-315.318970 Y139.276550 Z-0.125000
G01 X-315.202490 Y139.825350 Z-0.125000
G01 X-314.849690 Y140.374140 Z-0.125000
G01 X-312.540280 Y142.684680 Z-0.125000
G01 X-312.383490 Y143.037470 Z-0.125000
G01 X-312.699320 Y143.153950 Z-0.125000
G01 X-313.250350 Y143.035230 Z-0.125000
G01 X-313.801390 Y142.680200 Z-0.125000
G01 X-314.956090 Y141.525480 Z-0.125000
G01 X-315.233850 Y141.443780 Z-0.125000
G01 X-315.327950 Y141.782010 Z-0.125000
G01 X-315.237150 Y142.305050 Z-0.125000
G01 X-314.960510 Y142.778800 Z-0.125000
G01 X-314.590920 Y143.147280 Z-0.125000
G00 Z5.000000

(End cutting path id: path137)


(Start cutting path id: path152)
(Change tool to Default tool)

G00 Z5.000000
G00 X-248.805840 Y176.815780

G01 Z-0.125000 F100.0(Penetrate)
G01 X-248.381370 Y176.391300 Z-0.125000 F400.000000
G01 X-248.063290 Y175.877220 Z-0.125000
G01 X-247.958000 Y175.339630 Z-0.125000
G01 X-248.066650 Y175.014830 Z-0.125000
G01 X-248.385850 Y175.138030 Z-0.125000
G01 X-249.596550 Y176.348730 Z-0.125000
G01 X-250.147590 Y176.703770 Z-0.125000
G01 X-250.698620 Y176.822490 Z-0.125000
G01 X-251.014460 Y176.706010 Z-0.125000
G01 X-250.857660 Y176.353210 Z-0.125000
G01 X-248.436240 Y173.931800 Z-0.125000
G01 X-248.083450 Y173.383010 Z-0.125000
G01 X-247.966960 Y172.834220 Z-0.125000
G01 X-248.086800 Y172.520620 Z-0.125000
G01 X-248.440720 Y172.678540 Z-0.125000
G01 X-252.119880 Y176.357690 Z-0.125000
G01 X-252.669800 Y176.711610 Z-0.125000
G01 X-253.221950 Y176.831450 Z-0.125000
G01 X-253.537780 Y176.714970 Z-0.125000
G01 X-253.380990 Y176.362170 Z-0.125000
G01 X-248.445200 Y171.426400 Z-0.125000
G01 X-248.092410 Y170.876480 Z-0.125000
G01 X-247.975920 Y170.327680 Z-0.125000
G01 X-248.094650 Y170.015210 Z-0.125000
G01 X-248.449680 Y170.173120 Z-0.125000
G01 X-254.643210 Y176.366650 Z-0.125000
G01 X-255.193130 Y176.720570 Z-0.125000
G01 X-255.745280 Y176.839290 Z-0.125000
G01 X-256.061120 Y176.723930 Z-0.125000
G01 X-255.904320 Y176.371130 Z-0.125000
G01 X-248.453040 Y168.919860 Z-0.125000
G01 X-248.100240 Y168.371060 Z-0.125000
G01 X-247.983770 Y167.822270 Z-0.125000
G01 X-248.103600 Y167.509790 Z-0.125000
G01 X-248.457520 Y167.666600 Z-0.125000
G01 X-257.165420 Y176.374490 Z-0.125000
G01 X-257.716460 Y176.729530 Z-0.125000
G01 X-258.267500 Y176.848250 Z-0.125000
G01 X-258.583330 Y176.731780 Z-0.125000
G01 X-258.427660 Y176.378970 Z-0.125000
G01 X-248.462000 Y166.414450 Z-0.125000
G01 X-248.109200 Y165.864540 Z-0.125000
G01 X-247.992730 Y165.316870 Z-0.125000
G01 X-248.112560 Y165.003260 Z-0.125000
G01 X-248.466480 Y165.161180 Z-0.125000
G01 X-259.688760 Y176.383450 Z-0.125000
G01 X-260.239790 Y176.737370 Z-0.125000
G01 X-260.790830 Y176.857210 Z-0.125000
G01 X-261.106660 Y176.740740 Z-0.125000
G01 X-260.949870 Y176.387930 Z-0.125000
G01 X-248.470960 Y163.907910 Z-0.125000
G01 X-248.118160 Y163.359130 Z-0.125000
G01 X-248.001690 Y162.810330 Z-0.125000
G01 X-248.120410 Y162.497860 Z-0.125000
G01 X-248.475440 Y162.655770 Z-0.125000
G01 X-262.212090 Y176.392410 Z-0.125000
G01 X-262.763120 Y176.746330 Z-0.125000
G01 X-263.314150 Y176.866170 Z-0.125000
G01 X-263.629990 Y176.749700 Z-0.125000
G01 X-263.473190 Y176.396890 Z-0.125000
G01 X-248.478810 Y161.402510 Z-0.125000
G01 X-248.126000 Y160.853710 Z-0.125000
G01 X-248.009530 Y160.304920 Z-0.125000
G01 X-248.129370 Y159.991320 Z-0.125000
G01 X-248.483290 Y160.149230 Z-0.125000
G01 X-264.735420 Y176.400260 Z-0.125000
G01 X-265.285330 Y176.755290 Z-0.125000
G01 X-265.837490 Y176.874010 Z-0.125000
G01 X-266.153330 Y176.757530 Z-0.125000
G01 X-265.996530 Y176.404740 Z-0.125000
G01 X-248.487770 Y158.897090 Z-0.125000
G01 X-248.134960 Y158.347180 Z-0.125000
G01 X-248.018490 Y157.798380 Z-0.125000
G01 X-248.138330 Y157.485910 Z-0.125000
G01 X-248.492250 Y157.643820 Z-0.125000
G01 X-267.257640 Y176.409220 Z-0.125000
G01 X-267.808670 Y176.763140 Z-0.125000
G01 X-268.360820 Y176.882970 Z-0.125000
G01 X-268.675540 Y176.766500 Z-0.125000
G01 X-268.519860 Y176.413700 Z-0.125000
G01 X-248.496720 Y156.390560 Z-0.125000
G01 X-248.143920 Y155.841760 Z-0.125000
G01 X-248.027450 Y155.292980 Z-0.125000
G01 X-248.146170 Y154.979370 Z-0.125000
G01 X-248.501200 Y155.137300 Z-0.125000
G01 X-269.780970 Y176.418180 Z-0.125000
G01 X-270.332000 Y176.772090 Z-0.125000
G01 X-270.883030 Y176.891930 Z-0.125000
G01 X-271.198870 Y176.775460 Z-0.125000
G01 X-271.042070 Y176.422660 Z-0.125000
G01 X-248.504570 Y153.885150 Z-0.125000
G01 X-248.151770 Y153.335240 Z-0.125000
G01 X-248.035290 Y152.786440 Z-0.125000
G01 X-248.155130 Y152.473970 Z-0.125000
G01 X-248.509050 Y152.631880 Z-0.125000
G01 X-272.304290 Y176.427140 Z-0.125000
G01 X-272.855330 Y176.781050 Z-0.125000
G01 X-273.406370 Y176.899780 Z-0.125000
G01 X-273.722200 Y176.783290 Z-0.125000
G01 X-273.565400 Y176.431620 Z-0.125000
G01 X-248.513530 Y151.378620 Z-0.125000
G01 X-248.160730 Y150.829820 Z-0.125000
G01 X-248.044250 Y150.281030 Z-0.125000
G01 X-248.164090 Y149.968550 Z-0.125000
G01 X-248.518010 Y150.126470 Z-0.125000
G01 X-274.827630 Y176.434980 Z-0.125000
G01 X-275.378670 Y176.790010 Z-0.125000
G01 X-275.929700 Y176.908740 Z-0.125000
G01 X-276.245530 Y176.792250 Z-0.125000
G01 X-276.088740 Y176.439460 Z-0.125000
G01 X-248.522490 Y148.873210 Z-0.125000
G01 X-248.169690 Y148.323290 Z-0.125000
G01 X-248.053210 Y147.775610 Z-0.125000
G01 X-248.171930 Y147.462020 Z-0.125000
G01 X-248.526970 Y147.619930 Z-0.125000
G01 X-277.350960 Y176.443940 Z-0.125000
G01 X-277.900880 Y176.797860 Z-0.125000
G01 X-278.453030 Y176.917700 Z-0.125000
G01 X-278.768860 Y176.801210 Z-0.125000
G01 X-278.612070 Y176.448420 Z-0.125000
G01 X-248.530320 Y146.367790 Z-0.125000
G01 X-248.177530 Y145.817870 Z-0.125000
G01 X-248.061050 Y145.269090 Z-0.125000
G01 X-248.180890 Y144.956600 Z-0.125000
G01 X-248.534800 Y145.114520 Z-0.125000
G01 X-279.873170 Y176.452900 Z-0.125000
G01 X-280.398450 Y176.781050 Z-0.125000
G01 X-280.893480 Y176.842650 Z-0.125000
G01 X-281.152200 Y176.670170 Z-0.125000
G01 X-280.969640 Y176.290490 Z-0.125000
G01 X-248.539280 Y143.861250 Z-0.125000
G01 X-248.374640 Y143.499490 Z-0.125000
G01 X-248.671440 Y143.365090 Z-0.125000
G01 X-249.204550 Y143.464790 Z-0.125000
G01 X-249.746630 Y143.810870 Z-0.125000
G01 X-280.968520 Y175.033880 Z-0.125000
G01 X-281.323560 Y175.191800 Z-0.125000
G01 X-281.442280 Y174.879330 Z-0.125000
G01 X-281.325790 Y174.330530 Z-0.125000
G01 X-280.973000 Y173.780620 Z-0.125000
G01 X-251.003250 Y143.810870 Z-0.125000
G01 X-250.846460 Y143.458070 Z-0.125000
G01 X-251.162290 Y143.341600 Z-0.125000
G01 X-251.714450 Y143.461440 Z-0.125000
G01 X-252.265480 Y143.815350 Z-0.125000
G01 X-280.977480 Y172.528470 Z-0.125000
G01 X-281.331400 Y172.685270 Z-0.125000
G01 X-281.451240 Y172.372790 Z-0.125000
G01 X-281.334750 Y171.824000 Z-0.125000
G01 X-280.981960 Y171.275210 Z-0.125000
G01 X-253.526590 Y143.819830 Z-0.125000
G01 X-253.369780 Y143.467030 Z-0.125000
G01 X-253.685630 Y143.350560 Z-0.125000
G01 X-254.237780 Y143.469270 Z-0.125000
G01 X-254.787690 Y143.824310 Z-0.125000
G01 X-280.986440 Y170.021930 Z-0.125000
G01 X-281.340360 Y170.179860 Z-0.125000
G01 X-281.459070 Y169.867380 Z-0.125000
G01 X-281.343710 Y169.318590 Z-0.125000
G01 X-280.990920 Y168.768670 Z-0.125000
G01 X-256.049920 Y143.828790 Z-0.125000
G01 X-255.893120 Y143.474880 Z-0.125000
G01 X-256.208960 Y143.359520 Z-0.125000
G01 X-256.759990 Y143.478230 Z-0.125000
G01 X-257.311020 Y143.833270 Z-0.125000
G01 X-280.994280 Y167.516530 Z-0.125000
G01 X-281.349320 Y167.674450 Z-0.125000
G01 X-281.468030 Y167.360850 Z-0.125000
G01 X-281.351550 Y166.812050 Z-0.125000
G01 X-280.998760 Y166.263260 Z-0.125000
G01 X-258.573250 Y143.836630 Z-0.125000
G01 X-258.416450 Y143.483840 Z-0.125000
G01 X-258.732290 Y143.367360 Z-0.125000
G01 X-259.283320 Y143.487200 Z-0.125000
G01 X-259.834360 Y143.841110 Z-0.125000
G01 X-281.003240 Y165.009990 Z-0.125000
G01 X-281.357150 Y165.167910 Z-0.125000
G01 X-281.476990 Y164.855440 Z-0.125000
G01 X-281.360510 Y164.306640 Z-0.125000
G01 X-281.007720 Y163.756730 Z-0.125000
G01 X-261.095470 Y143.845590 Z-0.125000
G01 X-260.939790 Y143.492800 Z-0.125000
G01 X-261.255620 Y143.376320 Z-0.125000
G01 X-261.806660 Y143.496160 Z-0.125000
G01 X-262.357690 Y143.850070 Z-0.125000
G01 X-281.012200 Y162.504580 Z-0.125000
G01 X-281.366120 Y162.662500 Z-0.125000
G01 X-281.484830 Y162.348900 Z-0.125000
G01 X-281.369470 Y161.801230 Z-0.125000
G01 X-281.016680 Y161.251320 Z-0.125000
G01 X-263.618790 Y143.854550 Z-0.125000
G01 X-263.462000 Y143.501760 Z-0.125000
G01 X-263.777830 Y143.385280 Z-0.125000
G01 X-264.329980 Y143.503990 Z-0.125000
G01 X-264.879900 Y143.859030 Z-0.125000
G01 X-281.020050 Y159.999170 Z-0.125000
G01 X-281.375080 Y160.155970 Z-0.125000
G01 X-281.493790 Y159.843490 Z-0.125000
G01 X-281.377320 Y159.294700 Z-0.125000
G01 X-281.024530 Y158.745910 Z-0.125000
G01 X-266.142120 Y143.862390 Z-0.125000
G01 X-265.985330 Y143.509600 Z-0.125000
G01 X-266.301160 Y143.393110 Z-0.125000
G01 X-266.853320 Y143.512950 Z-0.125000
G01 X-267.403230 Y143.866870 Z-0.125000
G01 X-281.029010 Y157.492640 Z-0.125000
G01 X-281.382910 Y157.650560 Z-0.125000
G01 X-281.502750 Y157.338080 Z-0.125000
G01 X-281.386280 Y156.789290 Z-0.125000
G01 X-281.033480 Y156.239370 Z-0.125000
G01 X-268.665460 Y143.871350 Z-0.125000
G01 X-268.508660 Y143.518560 Z-0.125000
G01 X-268.824500 Y143.402070 Z-0.125000
G01 X-269.375530 Y143.521910 Z-0.125000
G01 X-269.926570 Y143.875830 Z-0.125000
G01 X-281.037960 Y154.987230 Z-0.125000
G01 X-281.391870 Y155.145140 Z-0.125000
G01 X-281.511710 Y154.831550 Z-0.125000
G01 X-281.395240 Y154.282750 Z-0.125000
G01 X-281.042440 Y153.733960 Z-0.125000
G01 X-271.188790 Y143.880310 Z-0.125000
G01 X-271.031990 Y143.527520 Z-0.125000
G01 X-271.347830 Y143.411030 Z-0.125000
G01 X-271.898860 Y143.529750 Z-0.125000
G01 X-272.449890 Y143.884790 Z-0.125000
G01 X-281.045800 Y152.480690 Z-0.125000
G01 X-281.400830 Y152.638610 Z-0.125000
G01 X-281.519550 Y152.326130 Z-0.125000
G01 X-281.403080 Y151.777340 Z-0.125000
G01 X-281.050280 Y151.227430 Z-0.125000
G01 X-273.711000 Y143.888150 Z-0.125000
G01 X-273.555320 Y143.535350 Z-0.125000
G01 X-273.871160 Y143.418870 Z-0.125000
G01 X-274.422190 Y143.538710 Z-0.125000
G01 X-274.973230 Y143.892630 Z-0.125000
G01 X-281.054760 Y149.975280 Z-0.125000
G01 X-281.408680 Y150.133190 Z-0.125000
G01 X-281.528510 Y149.819600 Z-0.125000
G01 X-281.412040 Y149.271920 Z-0.125000
G01 X-281.059240 Y148.722020 Z-0.125000
G01 X-276.234340 Y143.897110 Z-0.125000
G01 X-276.077530 Y143.544310 Z-0.125000
G01 X-276.393370 Y143.427830 Z-0.125000
G01 X-276.945530 Y143.547670 Z-0.125000
G01 X-277.495440 Y143.901590 Z-0.125000
G01 X-281.063720 Y147.468750 Z-0.125000
G01 X-281.417640 Y147.626670 Z-0.125000
G01 X-281.537470 Y147.314200 Z-0.125000
G01 X-281.421000 Y146.765400 Z-0.125000
G01 X-281.068200 Y146.216600 Z-0.125000
G01 X-278.757670 Y143.906070 Z-0.125000
G01 X-278.600870 Y143.553270 Z-0.125000
G01 X-278.916710 Y143.436790 Z-0.125000
G01 X-279.468860 Y143.555510 Z-0.125000
G01 X-280.018770 Y143.910550 Z-0.125000
G01 X-281.174600 Y145.065260 Z-0.125000
G01 X-281.451240 Y145.147060 Z-0.125000
G01 X-281.545340 Y144.808820 Z-0.125000
G01 X-281.454640 Y144.285790 Z-0.125000
G01 X-281.179130 Y143.812030 Z-0.125000
G01 X-280.809530 Y143.443560 Z-0.125000
G00 Z5.000000

(End cutting path id: path152)


(Start cutting path id: path147)
(Change tool to Default tool)

G00 Z5.000000
G00 X-248.548050 Y109.072260

G01 Z-0.125000 F100.0(Penetrate)
G01 X-248.122450 Y108.647780 Z-0.125000 F400.000000
G01 X-247.804370 Y108.133700 Z-0.125000
G01 X-247.700220 Y107.596110 Z-0.125000
G01 X-247.807740 Y107.271310 Z-0.125000
G01 X-248.126930 Y107.394510 Z-0.125000
G01 X-249.337630 Y108.605210 Z-0.125000
G01 X-249.888680 Y108.959130 Z-0.125000
G01 X-250.440830 Y109.078970 Z-0.125000
G01 X-250.755540 Y108.962490 Z-0.125000
G01 X-250.599870 Y108.609690 Z-0.125000
G01 X-248.178450 Y106.188280 Z-0.125000
G01 X-247.824540 Y105.639490 Z-0.125000
G01 X-247.708050 Y105.090700 Z-0.125000
G01 X-247.827890 Y104.777100 Z-0.125000
G01 X-248.182930 Y104.935020 Z-0.125000
G01 X-251.860970 Y108.614170 Z-0.125000
G01 X-252.412000 Y108.968090 Z-0.125000
G01 X-252.963040 Y109.087930 Z-0.125000
G01 X-253.278870 Y108.971450 Z-0.125000
G01 X-253.122080 Y108.618650 Z-0.125000
G01 X-248.186290 Y103.682880 Z-0.125000
G01 X-247.833500 Y103.132960 Z-0.125000
G01 X-247.717010 Y102.584160 Z-0.125000
G01 X-247.836850 Y102.271690 Z-0.125000
G01 X-248.190770 Y102.429600 Z-0.125000
G01 X-254.384300 Y108.623130 Z-0.125000
G01 X-254.935330 Y108.977050 Z-0.125000
G01 X-255.486370 Y109.095770 Z-0.125000
G01 X-255.802210 Y108.980410 Z-0.125000
G01 X-255.645410 Y108.627610 Z-0.125000
G01 X-248.195250 Y101.176340 Z-0.125000
G01 X-247.842460 Y100.627540 Z-0.125000
G01 X-247.725970 Y100.078750 Z-0.125000
G01 X-247.844690 Y99.766270 Z-0.125000
G01 X-248.199730 Y99.923080 Z-0.125000
G01 X-256.907640 Y108.630970 Z-0.125000
G01 X-257.458670 Y108.986010 Z-0.125000
G01 X-258.009700 Y109.104730 Z-0.125000
G01 X-258.325540 Y108.988260 Z-0.125000
G01 X-258.168740 Y108.635450 Z-0.125000
G01 X-248.204210 Y98.670930 Z-0.125000
G01 X-247.850290 Y98.121010 Z-0.125000
G01 X-247.734930 Y97.572220 Z-0.125000
G01 X-247.853650 Y97.259740 Z-0.125000
G01 X-248.208690 Y97.417660 Z-0.125000
G01 X-259.430970 Y108.639930 Z-0.125000
G01 X-259.980880 Y108.993850 Z-0.125000
G01 X-260.533030 Y109.113690 Z-0.125000
G01 X-260.848870 Y108.997220 Z-0.125000
G01 X-260.692070 Y108.644410 Z-0.125000
G01 X-248.212050 Y96.164390 Z-0.125000
G01 X-247.859250 Y95.615610 Z-0.125000
G01 X-247.742770 Y95.066810 Z-0.125000
G01 X-247.862610 Y94.754340 Z-0.125000
G01 X-248.216530 Y94.912250 Z-0.125000
G01 X-261.953180 Y108.648890 Z-0.125000
G01 X-262.504210 Y109.002810 Z-0.125000
G01 X-263.056370 Y109.122650 Z-0.125000
G01 X-263.371080 Y109.006180 Z-0.125000
G01 X-263.215400 Y108.653370 Z-0.125000
G01 X-248.221010 Y93.658990 Z-0.125000
G01 X-247.868210 Y93.109070 Z-0.125000
G01 X-247.751730 Y92.561400 Z-0.125000
G01 X-247.870450 Y92.247800 Z-0.125000
G01 X-248.225490 Y92.405720 Z-0.125000
G01 X-264.476510 Y108.656740 Z-0.125000
G01 X-265.027550 Y109.011770 Z-0.125000
G01 X-265.578580 Y109.130490 Z-0.125000
G01 X-265.894420 Y109.014020 Z-0.125000
G01 X-265.737620 Y108.661220 Z-0.125000
G01 X-248.229970 Y91.153570 Z-0.125000
G01 X-247.877170 Y90.603660 Z-0.125000
G01 X-247.760690 Y90.054860 Z-0.125000
G01 X-247.879410 Y89.742390 Z-0.125000
G01 X-248.234450 Y89.900300 Z-0.125000
G01 X-266.999840 Y108.665700 Z-0.125000
G01 X-267.550880 Y109.019610 Z-0.125000
G01 X-268.101910 Y109.139450 Z-0.125000
G01 X-268.417740 Y109.022980 Z-0.125000
G01 X-268.260950 Y108.670180 Z-0.125000
G01 X-248.237810 Y88.647040 Z-0.125000
G01 X-247.885010 Y88.098240 Z-0.125000
G01 X-247.768540 Y87.549450 Z-0.125000
G01 X-247.888370 Y87.235850 Z-0.125000
G01 X-248.242290 Y87.393780 Z-0.125000
G01 X-269.523170 Y108.674660 Z-0.125000
G01 X-270.073090 Y109.028570 Z-0.125000
G01 X-270.625240 Y109.148410 Z-0.125000
G01 X-270.941080 Y109.031940 Z-0.125000
G01 X-270.784280 Y108.679140 Z-0.125000
G01 X-248.246770 Y86.141630 Z-0.125000
G01 X-247.893970 Y85.591720 Z-0.125000
G01 X-247.777490 Y85.042920 Z-0.125000
G01 X-247.897330 Y84.730450 Z-0.125000
G01 X-248.251250 Y84.888360 Z-0.125000
G01 X-272.046510 Y108.682500 Z-0.125000
G01 X-272.596410 Y109.037530 Z-0.125000
G01 X-273.148580 Y109.156260 Z-0.125000
G01 X-273.464410 Y109.039770 Z-0.125000
G01 X-273.307620 Y108.686980 Z-0.125000
G01 X-248.255730 Y83.635100 Z-0.125000
G01 X-247.902930 Y83.086300 Z-0.125000
G01 X-247.786450 Y82.537510 Z-0.125000
G01 X-247.905180 Y82.225030 Z-0.125000
G01 X-248.260210 Y82.382950 Z-0.125000
G01 X-274.568720 Y108.691460 Z-0.125000
G01 X-275.119750 Y109.045380 Z-0.125000
G01 X-275.670790 Y109.165220 Z-0.125000
G01 X-275.986620 Y109.048730 Z-0.125000
G01 X-275.830940 Y108.695940 Z-0.125000
G01 X-248.263570 Y81.129690 Z-0.125000
G01 X-247.910770 Y80.579770 Z-0.125000
G01 X-247.794300 Y80.032090 Z-0.125000
G01 X-247.914140 Y79.718500 Z-0.125000
G01 X-248.268050 Y79.876410 Z-0.125000
G01 X-277.092050 Y108.700420 Z-0.125000
G01 X-277.643080 Y109.054340 Z-0.125000
G01 X-278.194110 Y109.174180 Z-0.125000
G01 X-278.509950 Y109.057690 Z-0.125000
G01 X-278.353150 Y108.704900 Z-0.125000
G01 X-248.272530 Y78.624270 Z-0.125000
G01 X-247.919730 Y78.074350 Z-0.125000
G01 X-247.803260 Y77.525560 Z-0.125000
G01 X-247.923100 Y77.213080 Z-0.125000
G01 X-248.277010 Y77.371000 Z-0.125000
G01 X-279.615380 Y108.709380 Z-0.125000
G01 X-280.140660 Y109.037530 Z-0.125000
G01 X-280.634570 Y109.099130 Z-0.125000
G01 X-280.893280 Y108.926660 Z-0.125000
G01 X-280.710730 Y108.546970 Z-0.125000
G01 X-248.281490 Y76.117740 Z-0.125000
G01 X-248.115730 Y75.755980 Z-0.125000
G01 X-248.413650 Y75.620470 Z-0.125000
G01 X-248.945640 Y75.721300 Z-0.125000
G01 X-249.487710 Y76.067380 Z-0.125000
G01 X-280.715210 Y107.294870 Z-0.125000
G01 X-281.069130 Y107.451660 Z-0.125000
G01 X-281.188960 Y107.139180 Z-0.125000
G01 X-281.072490 Y106.590390 Z-0.125000
G01 X-280.719690 Y106.041600 Z-0.125000
G01 X-250.749950 Y76.071860 Z-0.125000
G01 X-250.593140 Y75.719050 Z-0.125000
G01 X-250.908980 Y75.602580 Z-0.125000
G01 X-251.461140 Y75.721300 Z-0.125000
G01 X-252.011050 Y76.076340 Z-0.125000
G01 X-280.724170 Y104.788330 Z-0.125000
G01 X-281.078090 Y104.946260 Z-0.125000
G01 X-281.196810 Y104.633770 Z-0.125000
G01 X-281.081450 Y104.084980 Z-0.125000
G01 X-280.728650 Y103.535070 Z-0.125000
G01 X-253.273270 Y76.079690 Z-0.125000
G01 X-253.116480 Y75.726900 Z-0.125000
G01 X-253.432310 Y75.610420 Z-0.125000
G01 X-253.983350 Y75.730260 Z-0.125000
G01 X-254.534380 Y76.084170 Z-0.125000
G01 X-280.732010 Y102.282920 Z-0.125000
G01 X-281.087050 Y102.440840 Z-0.125000
G01 X-281.205770 Y102.127250 Z-0.125000
G01 X-281.089280 Y101.578450 Z-0.125000
G01 X-280.736490 Y101.029650 Z-0.125000
G01 X-255.796600 Y76.088650 Z-0.125000
G01 X-255.639810 Y75.735860 Z-0.125000
G01 X-255.955640 Y75.619380 Z-0.125000
G01 X-256.506680 Y75.739220 Z-0.125000
G01 X-257.057710 Y76.093130 Z-0.125000
G01 X-280.740970 Y99.776390 Z-0.125000
G01 X-281.094890 Y99.934310 Z-0.125000
G01 X-281.214730 Y99.621830 Z-0.125000
G01 X-281.098240 Y99.073040 Z-0.125000
G01 X-280.745450 Y98.523120 Z-0.125000
G01 X-258.318810 Y76.097610 Z-0.125000
G01 X-258.163140 Y75.744820 Z-0.125000
G01 X-258.478980 Y75.628340 Z-0.125000
G01 X-259.030010 Y75.747050 Z-0.125000
G01 X-259.581050 Y76.102090 Z-0.125000
G01 X-280.749930 Y97.270980 Z-0.125000
G01 X-281.103850 Y97.428890 Z-0.125000
G01 X-281.222560 Y97.115300 Z-0.125000
G01 X-281.107210 Y96.567620 Z-0.125000
G01 X-280.754410 Y96.017710 Z-0.125000
G01 X-260.842150 Y76.106570 Z-0.125000
G01 X-260.685360 Y75.752660 Z-0.125000
G01 X-261.001190 Y75.636170 Z-0.125000
G01 X-261.553340 Y75.756010 Z-0.125000
G01 X-262.103260 Y76.111050 Z-0.125000
G01 X-280.757770 Y94.764440 Z-0.125000
G01 X-281.112810 Y94.922370 Z-0.125000
G01 X-281.231530 Y94.609880 Z-0.125000
G01 X-281.115040 Y94.061100 Z-0.125000
G01 X-280.762250 Y93.512300 Z-0.125000
G01 X-263.365480 Y76.114410 Z-0.125000
G01 X-263.208690 Y75.761620 Z-0.125000
G01 X-263.524520 Y75.645130 Z-0.125000
G01 X-264.075550 Y75.764970 Z-0.125000
G01 X-264.626590 Y76.118890 Z-0.125000
G01 X-280.766730 Y92.259030 Z-0.125000
G01 X-281.120650 Y92.416950 Z-0.125000
G01 X-281.240490 Y92.104470 Z-0.125000
G01 X-281.124000 Y91.555680 Z-0.125000
G01 X-280.771210 Y91.005760 Z-0.125000
G01 X-265.888820 Y76.123370 Z-0.125000
G01 X-265.732010 Y75.770580 Z-0.125000
G01 X-266.047850 Y75.654100 Z-0.125000
G01 X-266.598890 Y75.772810 Z-0.125000
G01 X-267.149920 Y76.127850 Z-0.125000
G01 X-280.775690 Y89.753620 Z-0.125000
G01 X-281.129610 Y89.911540 Z-0.125000
G01 X-281.248320 Y89.597940 Z-0.125000
G01 X-281.132960 Y89.049150 Z-0.125000
G01 X-280.780170 Y88.500350 Z-0.125000
G01 X-268.412150 Y76.132330 Z-0.125000
G01 X-268.255350 Y75.778420 Z-0.125000
G01 X-268.571190 Y75.663060 Z-0.125000
G01 X-269.122220 Y75.781770 Z-0.125000
G01 X-269.673250 Y76.136810 Z-0.125000
G01 X-280.783530 Y87.247090 Z-0.125000
G01 X-281.138570 Y87.405000 Z-0.125000
G01 X-281.257280 Y87.092530 Z-0.125000
G01 X-281.140800 Y86.543730 Z-0.125000
G01 X-280.788010 Y85.993830 Z-0.125000
G01 X-270.934360 Y76.140170 Z-0.125000
G01 X-270.777560 Y75.787380 Z-0.125000
G01 X-271.093400 Y75.670890 Z-0.125000
G01 X-271.645550 Y75.790730 Z-0.125000
G01 X-272.196580 Y76.144650 Z-0.125000
G01 X-280.792490 Y84.741670 Z-0.125000
G01 X-281.146400 Y84.899590 Z-0.125000
G01 X-281.266240 Y84.585990 Z-0.125000
G01 X-281.149760 Y84.037210 Z-0.125000
G01 X-280.796970 Y83.488410 Z-0.125000
G01 X-273.457690 Y76.149130 Z-0.125000
G01 X-273.300890 Y75.796340 Z-0.125000
G01 X-273.616730 Y75.679850 Z-0.125000
G01 X-274.168890 Y75.799690 Z-0.125000
G01 X-274.718800 Y76.153610 Z-0.125000
G01 X-280.801450 Y82.235140 Z-0.125000
G01 X-281.155360 Y82.393060 Z-0.125000
G01 X-281.275200 Y82.080580 Z-0.125000
G01 X-281.158720 Y81.531790 Z-0.125000
G01 X-280.805930 Y80.983000 Z-0.125000
G01 X-275.981020 Y76.158090 Z-0.125000
G01 X-275.824230 Y75.805300 Z-0.125000
G01 X-276.140060 Y75.688810 Z-0.125000
G01 X-276.691100 Y75.807530 Z-0.125000
G01 X-277.242130 Y76.162570 Z-0.125000
G01 X-280.809280 Y79.729740 Z-0.125000
G01 X-281.164320 Y79.887650 Z-0.125000
G01 X-281.283040 Y79.575180 Z-0.125000
G01 X-281.166570 Y79.026380 Z-0.125000
G01 X-280.813760 Y78.476460 Z-0.125000
G01 X-278.504350 Y76.165930 Z-0.125000
G01 X-278.347560 Y75.813130 Z-0.125000
G01 X-278.663390 Y75.696650 Z-0.125000
G01 X-279.214420 Y75.816490 Z-0.125000
G01 X-279.765460 Y76.170410 Z-0.125000
G01 X-280.920160 Y77.326240 Z-0.125000
G01 X-281.197920 Y77.406940 Z-0.125000
G01 X-281.292020 Y77.068710 Z-0.125000
G01 X-281.201320 Y76.545670 Z-0.125000
G01 X-280.924670 Y76.073040 Z-0.125000
G01 X-280.555080 Y75.703450 Z-0.125000
G00 Z5.000000

(End cutting path id: path147)


(Start cutting path id: path145)
(Change tool to Default tool)

G00 Z5.000000
G00 X-248.163820 Y41.520100

G01 Z-0.125000 F100.0(Penetrate)
G01 X-247.739340 Y41.095630 Z-0.125000 F400.000000
G01 X-247.421270 Y40.581550 Z-0.125000
G01 X-247.315990 Y40.043960 Z-0.125000
G01 X-247.424620 Y39.719160 Z-0.125000
G01 X-247.743820 Y39.842350 Z-0.125000
G01 X-248.954530 Y41.053060 Z-0.125000
G01 X-249.505560 Y41.406980 Z-0.125000
G01 X-250.056590 Y41.526820 Z-0.125000
G01 X-250.372430 Y41.410330 Z-0.125000
G01 X-250.215630 Y41.057540 Z-0.125000
G01 X-247.794230 Y38.636130 Z-0.125000
G01 X-247.441420 Y38.087340 Z-0.125000
G01 X-247.324950 Y37.538540 Z-0.125000
G01 X-247.444790 Y37.224950 Z-0.125000
G01 X-247.798710 Y37.382860 Z-0.125000
G01 X-251.477860 Y41.062020 Z-0.125000
G01 X-252.027770 Y41.415940 Z-0.125000
G01 X-252.579920 Y41.535780 Z-0.125000
G01 X-252.895770 Y41.419300 Z-0.125000
G01 X-252.738960 Y41.066500 Z-0.125000
G01 X-247.803190 Y36.130710 Z-0.125000
G01 X-247.450380 Y35.580800 Z-0.125000
G01 X-247.333910 Y35.032010 Z-0.125000
G01 X-247.452630 Y34.719530 Z-0.125000
G01 X-247.807670 Y34.877450 Z-0.125000
G01 X-254.001200 Y41.070980 Z-0.125000
G01 X-254.551110 Y41.424900 Z-0.125000
G01 X-255.103260 Y41.543620 Z-0.125000
G01 X-255.419100 Y41.428260 Z-0.125000
G01 X-255.262300 Y41.075460 Z-0.125000
G01 X-247.811020 Y33.624190 Z-0.125000
G01 X-247.458230 Y33.075390 Z-0.125000
G01 X-247.341750 Y32.526590 Z-0.125000
G01 X-247.461590 Y32.213000 Z-0.125000
G01 X-247.815500 Y32.370920 Z-0.125000
G01 X-256.523410 Y41.078820 Z-0.125000
G01 X-257.074440 Y41.433860 Z-0.125000
G01 X-257.625470 Y41.552580 Z-0.125000
G01 X-257.941310 Y41.436100 Z-0.125000
G01 X-257.785630 Y41.083300 Z-0.125000
G01 X-247.819980 Y31.118770 Z-0.125000
G01 X-247.467190 Y30.568850 Z-0.125000
G01 X-247.350710 Y30.020070 Z-0.125000
G01 X-247.470550 Y29.707580 Z-0.125000
G01 X-247.824460 Y29.865510 Z-0.125000
G01 X-259.046730 Y41.087780 Z-0.125000
G01 X-259.597770 Y41.441700 Z-0.125000
G01 X-260.148800 Y41.561540 Z-0.125000
G01 X-260.464640 Y41.445060 Z-0.125000
G01 X-260.307840 Y41.092260 Z-0.125000
G01 X-247.828940 Y28.612240 Z-0.125000
G01 X-247.476150 Y28.063450 Z-0.125000
G01 X-247.359670 Y27.514660 Z-0.125000
G01 X-247.478380 Y27.202180 Z-0.125000
G01 X-247.833420 Y27.360100 Z-0.125000
