%
(Header)
(Generated by gcodetools from Inkscape.)
(Using default header. To add your own header create file "header" in the output dir.)
M3
(Header end.)
G21 (All units in mm)

(Start cutting path id: path60974)
(Change tool to Default tool)

G00 Z5.000000
G00 X9.545950 Y-149.339000

G01 Z-0.125000 F100.0(Penetrate)
G01 X9.665470 Y-149.220000 Z-0.125000 F400.000000
G01 X10.346200 Y-149.100000 Z-0.125000
G01 X10.702200 Y-149.130000 Z-0.125000
G01 X10.788000 Y-149.220000 Z-0.125000
G01 X9.966900 Y-150.041000 Z-0.125000
G01 X9.651190 Y-150.532000 Z-0.125000
G01 X9.545950 Y-151.023000 Z-0.125000
G01 X9.651190 Y-151.304000 Z-0.125000
G01 X9.966900 Y-151.163000 Z-0.125000
G01 X11.609100 Y-149.521000 Z-0.125000
G01 X12.100200 Y-149.206000 Z-0.125000
G01 X12.591300 Y-149.100000 Z-0.125000
G01 X12.871900 Y-149.206000 Z-0.125000
G01 X12.731600 Y-149.521000 Z-0.125000
G01 X9.966900 Y-152.286000 Z-0.125000
G01 X9.651190 Y-152.777000 Z-0.125000
G01 X9.545950 Y-153.268000 Z-0.125000
G01 X9.651190 Y-153.549000 Z-0.125000
G01 X9.966900 Y-153.409000 Z-0.125000
G01 X13.004100 Y-150.371000 Z-0.125000
G01 X13.319800 Y-150.231000 Z-0.125000
G01 X13.425000 Y-150.512000 Z-0.125000
G01 X13.319800 Y-151.003000 Z-0.125000
G01 X13.004100 Y-151.494000 Z-0.125000
G01 X9.966900 Y-154.531000 Z-0.125000
G01 X9.651190 Y-155.022000 Z-0.125000
G01 X9.545950 Y-155.513000 Z-0.125000
G01 X9.651190 Y-155.794000 Z-0.125000
G01 X9.966900 Y-155.654000 Z-0.125000
G01 X13.004100 Y-152.616000 Z-0.125000
G01 X13.319800 Y-152.476000 Z-0.125000
G01 X13.425000 Y-152.757000 Z-0.125000
G01 X13.319800 Y-153.248000 Z-0.125000
G01 X13.004100 Y-153.739000 Z-0.125000
G01 X9.966900 Y-156.776000 Z-0.125000
G01 X9.651190 Y-157.267000 Z-0.125000
G01 X9.545950 Y-157.758000 Z-0.125000
G01 X9.651190 Y-158.039000 Z-0.125000
G01 X9.966900 Y-157.899000 Z-0.125000
G01 X13.004100 Y-154.861000 Z-0.125000
G01 X13.319800 Y-154.721000 Z-0.125000
G01 X13.425000 Y-155.002000 Z-0.125000
G01 X13.319800 Y-155.493000 Z-0.125000
G01 X13.004100 Y-155.984000 Z-0.125000
G01 X9.966900 Y-159.021000 Z-0.125000
G01 X9.651190 Y-159.512000 Z-0.125000
G01 X9.545950 Y-160.003000 Z-0.125000
G01 X9.651190 Y-160.284000 Z-0.125000
G01 X9.966900 Y-160.144000 Z-0.125000
G01 X13.004100 Y-157.107000 Z-0.125000
G01 X13.319800 Y-156.966000 Z-0.125000
G01 X13.425000 Y-157.247000 Z-0.125000
G01 X13.319800 Y-157.738000 Z-0.125000
G01 X13.004100 Y-158.229000 Z-0.125000
G01 X9.966900 Y-161.266000 Z-0.125000
G01 X9.651190 Y-161.757000 Z-0.125000
G01 X9.545950 Y-162.248000 Z-0.125000
G01 X9.651190 Y-162.529000 Z-0.125000
G01 X9.966900 Y-162.389000 Z-0.125000
G01 X13.004100 Y-159.352000 Z-0.125000
G01 X13.319800 Y-159.211000 Z-0.125000
G01 X13.425000 Y-159.492000 Z-0.125000
G01 X13.319800 Y-159.983000 Z-0.125000
G01 X13.004100 Y-160.474000 Z-0.125000
G01 X9.966900 Y-163.511000 Z-0.125000
G01 X9.651190 Y-164.002000 Z-0.125000
G01 X9.545950 Y-164.494000 Z-0.125000
G01 X9.651190 Y-164.774000 Z-0.125000
G01 X9.966900 Y-164.634000 Z-0.125000
G01 X13.004100 Y-161.597000 Z-0.125000
G01 X13.319800 Y-161.456000 Z-0.125000
G01 X13.425000 Y-161.737000 Z-0.125000
G01 X13.319800 Y-162.228000 Z-0.125000
G01 X13.004100 Y-162.719000 Z-0.125000
G01 X9.966900 Y-165.756000 Z-0.125000
G01 X9.651190 Y-166.247000 Z-0.125000
G01 X9.545950 Y-166.739000 Z-0.125000
G01 X9.651190 Y-167.019000 Z-0.125000
G01 X9.966900 Y-166.879000 Z-0.125000
G01 X13.004100 Y-163.842000 Z-0.125000
G01 X13.319800 Y-163.701000 Z-0.125000
G01 X13.425000 Y-163.982000 Z-0.125000
G01 X13.319800 Y-164.473000 Z-0.125000
G01 X13.004100 Y-164.964000 Z-0.125000
G01 X9.966900 Y-168.001000 Z-0.125000
G01 X9.651190 Y-168.493000 Z-0.125000
G01 X9.545950 Y-168.984000 Z-0.125000
G01 X9.651190 Y-169.264000 Z-0.125000
G01 X9.966900 Y-169.124000 Z-0.125000
G01 X13.004100 Y-166.087000 Z-0.125000
G01 X13.319800 Y-165.946000 Z-0.125000
G01 X13.425000 Y-166.227000 Z-0.125000
G01 X13.319800 Y-166.718000 Z-0.125000
G01 X13.004100 Y-167.209000 Z-0.125000
G01 X9.966900 Y-170.246000 Z-0.125000
G01 X9.651190 Y-170.738000 Z-0.125000
G01 X9.545950 Y-171.229000 Z-0.125000
G01 X9.651190 Y-171.509000 Z-0.125000
G01 X9.966900 Y-171.369000 Z-0.125000
G01 X13.004100 Y-168.332000 Z-0.125000
G01 X13.319800 Y-168.192000 Z-0.125000
G01 X13.425000 Y-168.472000 Z-0.125000
G01 X13.319800 Y-168.963000 Z-0.125000
G01 X13.004100 Y-169.454000 Z-0.125000
G01 X9.966900 Y-172.492000 Z-0.125000
G01 X9.651190 Y-172.983000 Z-0.125000
G01 X9.545950 Y-173.474000 Z-0.125000
G01 X9.651190 Y-173.754000 Z-0.125000
G01 X9.966900 Y-173.614000 Z-0.125000
G01 X13.004100 Y-170.577000 Z-0.125000
G01 X13.319800 Y-170.437000 Z-0.125000
G01 X13.425000 Y-170.717000 Z-0.125000
G01 X13.319800 Y-171.208000 Z-0.125000
G01 X13.004100 Y-171.699000 Z-0.125000
G01 X9.966900 Y-174.737000 Z-0.125000
G01 X9.651190 Y-175.228000 Z-0.125000
G01 X9.545950 Y-175.719000 Z-0.125000
G01 X9.651190 Y-175.999000 Z-0.125000
G01 X9.966900 Y-175.859000 Z-0.125000
G01 X13.004100 Y-172.822000 Z-0.125000
G01 X13.319800 Y-172.682000 Z-0.125000
G01 X13.425000 Y-172.962000 Z-0.125000
G01 X13.319800 Y-173.453000 Z-0.125000
G01 X13.004100 Y-173.945000 Z-0.125000
G01 X9.966900 Y-176.982000 Z-0.125000
G01 X9.651190 Y-177.473000 Z-0.125000
G01 X9.545950 Y-177.964000 Z-0.125000
G01 X9.651190 Y-178.245000 Z-0.125000
G01 X9.966900 Y-178.104000 Z-0.125000
G01 X13.004100 Y-175.067000 Z-0.125000
G01 X13.319800 Y-174.927000 Z-0.125000
G01 X13.425000 Y-175.207000 Z-0.125000
G01 X13.319800 Y-175.698000 Z-0.125000
G01 X13.004100 Y-176.190000 Z-0.125000
G01 X9.966900 Y-179.227000 Z-0.125000
G01 X9.651190 Y-179.718000 Z-0.125000
G01 X9.545950 Y-180.209000 Z-0.125000
G01 X9.651190 Y-180.490000 Z-0.125000
G01 X9.966900 Y-180.349000 Z-0.125000
G01 X13.004100 Y-177.312000 Z-0.125000
G01 X13.319800 Y-177.172000 Z-0.125000
G01 X13.425000 Y-177.452000 Z-0.125000
G01 X13.319800 Y-177.944000 Z-0.125000
G01 X13.004100 Y-178.435000 Z-0.125000
G01 X9.966900 Y-181.472000 Z-0.125000
G01 X9.651190 Y-181.963000 Z-0.125000
G01 X9.545950 Y-182.454000 Z-0.125000
G01 X9.651190 Y-182.735000 Z-0.125000
G01 X9.966900 Y-182.594000 Z-0.125000
G01 X13.004100 Y-179.557000 Z-0.125000
G01 X13.319800 Y-179.417000 Z-0.125000
G01 X13.425000 Y-179.698000 Z-0.125000
G01 X13.319800 Y-180.189000 Z-0.125000
G01 X13.004100 Y-180.680000 Z-0.125000
G01 X9.966900 Y-183.717000 Z-0.125000
G01 X9.651190 Y-184.208000 Z-0.125000
G01 X9.545950 Y-184.699000 Z-0.125000
G01 X9.651190 Y-184.980000 Z-0.125000
G01 X9.966900 Y-184.839000 Z-0.125000
G01 X13.004100 Y-181.802000 Z-0.125000
G01 X13.319800 Y-181.662000 Z-0.125000
G01 X13.425000 Y-181.943000 Z-0.125000
G01 X13.319800 Y-182.434000 Z-0.125000
G01 X13.004100 Y-182.925000 Z-0.125000
G01 X9.966900 Y-185.962000 Z-0.125000
G01 X9.651190 Y-186.453000 Z-0.125000
G01 X9.545950 Y-186.944000 Z-0.125000
G01 X9.651190 Y-187.225000 Z-0.125000
G01 X9.966900 Y-187.084000 Z-0.125000
G01 X13.004100 Y-184.047000 Z-0.125000
G01 X13.319800 Y-183.907000 Z-0.125000
G01 X13.425000 Y-184.188000 Z-0.125000
G01 X13.319800 Y-184.679000 Z-0.125000
G01 X13.004100 Y-185.170000 Z-0.125000
G01 X9.966900 Y-188.207000 Z-0.125000
G01 X9.651190 Y-188.698000 Z-0.125000
G01 X9.545950 Y-189.189000 Z-0.125000
G01 X9.651190 Y-189.470000 Z-0.125000
G01 X9.966900 Y-189.330000 Z-0.125000
G01 X13.004100 Y-186.292000 Z-0.125000
G01 X13.319800 Y-186.152000 Z-0.125000
G01 X13.425000 Y-186.433000 Z-0.125000
G01 X13.319800 Y-186.924000 Z-0.125000
G01 X13.004100 Y-187.415000 Z-0.125000
G01 X9.966900 Y-190.452000 Z-0.125000
G01 X9.651190 Y-190.943000 Z-0.125000
G01 X9.545950 Y-191.434000 Z-0.125000
G01 X9.651190 Y-191.715000 Z-0.125000
G01 X9.966900 Y-191.575000 Z-0.125000
G01 X13.004100 Y-188.537000 Z-0.125000
G01 X13.319800 Y-188.397000 Z-0.125000
G01 X13.425000 Y-188.678000 Z-0.125000
G01 X13.319800 Y-189.169000 Z-0.125000
G01 X13.004100 Y-189.660000 Z-0.125000
G01 X9.966900 Y-192.697000 Z-0.125000
G01 X9.736260 Y-193.103000 Z-0.125000
G01 X9.818180 Y-193.407000 Z-0.125000
G01 X10.110600 Y-193.501000 Z-0.125000
G01 X10.511400 Y-193.275000 Z-0.125000
G01 X13.004100 Y-190.783000 Z-0.125000
G01 X13.319800 Y-190.642000 Z-0.125000
G01 X13.425000 Y-190.923000 Z-0.125000
G01 X13.319800 Y-191.414000 Z-0.125000
G01 X13.004100 Y-191.905000 Z-0.125000
G01 X11.633900 Y-193.275000 Z-0.125000
G01 X11.493600 Y-193.591000 Z-0.125000
G01 X11.774200 Y-193.696000 Z-0.125000
G01 X12.265300 Y-193.591000 Z-0.125000
G01 X12.756400 Y-193.275000 Z-0.125000
G01 X13.425000 Y-192.607000 Z-0.125000
G00 Z5.000000

(End cutting path id: path60974)


(Start cutting path id: path60975)
(Change tool to Default tool)

G00 Z5.000000
G00 X9.413660 Y-148.968000

G01 Z-0.125000 F100.0(Penetrate)
G01 X13.557300 Y-148.968000 Z-0.125000 F400.000000
G01 X13.557300 Y-193.828000 Z-0.125000
G01 X9.413660 Y-193.828000 Z-0.125000
G01 X9.413660 Y-148.968000 Z-0.125000
G00 Z5.000000

(End cutting path id: path60975)


(Start cutting path id: path42327)
(Change tool to Default tool)

G00 Z5.000000
G00 X6.666410 Y-199.269000

G01 Z-0.125000 F100.0(Penetrate)
G01 X6.720000 Y-199.303000 Z-0.125000 F400.000000
G01 X6.720000 Y-199.835000 Z-0.125000
G01 X6.107790 Y-199.449000 Z-0.125000
G01 X5.400290 Y-199.269000 Z-0.125000
G01 X5.181500 Y-199.314000 Z-0.125000
G01 X5.263710 Y-199.449000 Z-0.125000
G01 X6.488120 Y-200.220000 Z-0.125000
G01 X6.773580 Y-200.666000 Z-0.125000
G01 X6.702210 Y-200.803000 Z-0.125000
G01 X6.488120 Y-200.752000 Z-0.125000
G01 X4.419620 Y-199.449000 Z-0.125000
G01 X3.712130 Y-199.269000 Z-0.125000
G01 X3.493340 Y-199.314000 Z-0.125000
G01 X3.575540 Y-199.449000 Z-0.125000
G01 X6.378140 Y-201.214000 Z-0.125000
G01 X6.460350 Y-201.349000 Z-0.125000
G01 X6.241560 Y-201.394000 Z-0.125000
G01 X5.534060 Y-201.214000 Z-0.125000
G01 X2.731460 Y-199.449000 Z-0.125000
G01 X2.023960 Y-199.269000 Z-0.125000
G01 X1.805170 Y-199.314000 Z-0.125000
G01 X1.887380 Y-199.449000 Z-0.125000
G01 X4.689980 Y-201.214000 Z-0.125000
G01 X4.772180 Y-201.349000 Z-0.125000
G01 X4.553390 Y-201.394000 Z-0.125000
G01 X3.845890 Y-201.214000 Z-0.125000
G01 X1.043290 Y-199.449000 Z-0.125000
G01 X0.335793 Y-199.269000 Z-0.125000
G01 X0.117004 Y-199.314000 Z-0.125000
G01 X0.199210 Y-199.449000 Z-0.125000
G01 X3.001810 Y-201.214000 Z-0.125000
G01 X3.084020 Y-201.349000 Z-0.125000
G01 X2.865230 Y-201.394000 Z-0.125000
G01 X2.157730 Y-201.214000 Z-0.125000
G01 X-0.644873 Y-199.449000 Z-0.125000
G01 X-1.352370 Y-199.269000 Z-0.125000
G01 X-1.571160 Y-199.314000 Z-0.125000
G01 X-1.488960 Y-199.449000 Z-0.125000
G01 X1.313640 Y-201.214000 Z-0.125000
G01 X1.513780 Y-201.423000 Z-0.125000
G01 X1.554430 Y-201.631000 Z-0.125000
G01 X1.452350 Y-201.750000 Z-0.125000
G01 X1.224300 Y-201.689000 Z-0.125000
G01 X-2.333040 Y-199.449000 Z-0.125000
G01 X-3.040540 Y-199.269000 Z-0.125000
G01 X-3.259330 Y-199.314000 Z-0.125000
G01 X-3.177120 Y-199.449000 Z-0.125000
G01 X1.224300 Y-202.221000 Z-0.125000
G01 X1.509760 Y-202.666000 Z-0.125000
G01 X1.438390 Y-202.804000 Z-0.125000
G01 X1.224300 Y-202.752000 Z-0.125000
G01 X-4.021210 Y-199.449000 Z-0.125000
G01 X-4.728700 Y-199.269000 Z-0.125000
G01 X-4.947490 Y-199.314000 Z-0.125000
G01 X-4.865290 Y-199.449000 Z-0.125000
G01 X-2.062690 Y-201.214000 Z-0.125000
G01 X-1.980480 Y-201.349000 Z-0.125000
G01 X-2.199270 Y-201.394000 Z-0.125000
G01 X-2.906770 Y-201.214000 Z-0.125000
G01 X-5.601680 Y-199.517000 Z-0.125000
G01 X-5.815780 Y-199.465000 Z-0.125000
G01 X-5.887140 Y-199.603000 Z-0.125000
G01 X-5.601680 Y-200.048000 Z-0.125000
G01 X-3.750850 Y-201.214000 Z-0.125000
G01 X-3.668650 Y-201.349000 Z-0.125000
G01 X-3.887440 Y-201.394000 Z-0.125000
G01 X-4.594940 Y-201.214000 Z-0.125000
G01 X-5.601680 Y-200.580000 Z-0.125000
G01 X-5.815780 Y-200.528000 Z-0.125000
G01 X-5.887140 Y-200.666000 Z-0.125000
G01 X-5.601680 Y-201.111000 Z-0.125000
G01 X-5.153560 Y-201.394000 Z-0.125000
G00 Z5.000000

(End cutting path id: path42327)


(Start cutting path id: path42328)
(Change tool to Default tool)

G00 Z5.000000
G00 X-0.614128 Y-202.126000

G01 Z-0.125000 F100.0(Penetrate)
G01 X1.224300 Y-203.284000 Z-0.125000 F400.000000
G01 X1.509760 Y-203.729000 Z-0.125000
G01 X1.438390 Y-203.867000 Z-0.125000
G01 X1.224300 Y-203.815000 Z-0.125000
G01 X-0.328670 Y-202.837000 Z-0.125000
G01 X-0.542764 Y-202.786000 Z-0.125000
G01 X-0.614128 Y-202.923000 Z-0.125000
G01 X-0.328670 Y-203.369000 Z-0.125000
G01 X1.224300 Y-204.347000 Z-0.125000
G01 X1.509760 Y-204.792000 Z-0.125000
G01 X1.438390 Y-204.930000 Z-0.125000
G01 X1.224300 Y-204.878000 Z-0.125000
G01 X-0.328670 Y-203.901000 Z-0.125000
G01 X-0.542764 Y-203.849000 Z-0.125000
G01 X-0.614128 Y-203.987000 Z-0.125000
G01 X-0.328670 Y-204.432000 Z-0.125000
G01 X1.224300 Y-205.410000 Z-0.125000
G01 X1.509760 Y-205.856000 Z-0.125000
G01 X1.438390 Y-205.993000 Z-0.125000
G01 X1.224300 Y-205.942000 Z-0.125000
G01 X-0.328670 Y-204.964000 Z-0.125000
G01 X-0.542764 Y-204.912000 Z-0.125000
G01 X-0.614128 Y-205.050000 Z-0.125000
G01 X-0.328670 Y-205.495000 Z-0.125000
G01 X1.224300 Y-206.473000 Z-0.125000
G01 X1.509760 Y-206.919000 Z-0.125000
G01 X1.438390 Y-207.056000 Z-0.125000
G01 X1.224300 Y-207.005000 Z-0.125000
G01 X-0.328670 Y-206.027000 Z-0.125000
G01 X-0.542764 Y-205.975000 Z-0.125000
G01 X-0.614128 Y-206.113000 Z-0.125000
G01 X-0.328670 Y-206.558000 Z-0.125000
G01 X1.224300 Y-207.536000 Z-0.125000
G01 X1.509760 Y-207.982000 Z-0.125000
G01 X1.438390 Y-208.120000 Z-0.125000
G01 X1.224300 Y-208.068000 Z-0.125000
G01 X-0.328670 Y-207.090000 Z-0.125000
G01 X-0.542764 Y-207.038000 Z-0.125000
G01 X-0.614128 Y-207.176000 Z-0.125000
G01 X-0.328670 Y-207.621000 Z-0.125000
G01 X1.224300 Y-208.599000 Z-0.125000
G01 X1.509760 Y-209.045000 Z-0.125000
G01 X1.438390 Y-209.183000 Z-0.125000
G01 X1.224300 Y-209.131000 Z-0.125000
G01 X-0.328670 Y-208.153000 Z-0.125000
G01 X-0.542764 Y-208.101000 Z-0.125000
G01 X-0.614128 Y-208.239000 Z-0.125000
G01 X-0.328670 Y-208.684000 Z-0.125000
G01 X1.224300 Y-209.662000 Z-0.125000
G01 X1.509760 Y-210.108000 Z-0.125000
G01 X1.438390 Y-210.246000 Z-0.125000
G01 X1.224300 Y-210.194000 Z-0.125000
G01 X-0.328670 Y-209.216000 Z-0.125000
G01 X-0.542764 Y-209.164000 Z-0.125000
G01 X-0.614128 Y-209.302000 Z-0.125000
G01 X-0.328670 Y-209.748000 Z-0.125000
G01 X1.224300 Y-210.725000 Z-0.125000
G01 X1.509760 Y-211.171000 Z-0.125000
G01 X1.438390 Y-211.309000 Z-0.125000
G01 X1.224300 Y-211.257000 Z-0.125000
G01 X-0.328670 Y-210.279000 Z-0.125000
G01 X-0.542764 Y-210.227000 Z-0.125000
G01 X-0.614128 Y-210.365000 Z-0.125000
G01 X-0.328670 Y-210.811000 Z-0.125000
G01 X1.224300 Y-211.789000 Z-0.125000
G01 X1.358690 Y-211.956000 Z-0.125000
G01 X1.254710 Y-212.074000 Z-0.125000
G01 X0.714195 Y-211.999000 Z-0.125000
G01 X-0.328670 Y-211.342000 Z-0.125000
G01 X-0.542764 Y-211.290000 Z-0.125000
G01 X-0.614128 Y-211.428000 Z-0.125000
G01 X-0.328670 Y-211.874000 Z-0.125000
G01 X0.155570 Y-212.179000 Z-0.125000
G00 Z5.000000

(End cutting path id: path42328)


(Start cutting path id: path42329)
(Change tool to Default tool)

G00 Z5.000000
G00 X6.905870 Y-201.526000

G01 Z-0.125000 F100.0(Penetrate)
G01 X1.642050 Y-201.526000 Z-0.125000 F400.000000
G01 X1.642050 Y-212.311000 Z-0.125000
G01 X-0.746420 Y-212.311000 Z-0.125000
G01 X-0.746420 Y-201.526000 Z-0.125000
G01 X-6.019430 Y-201.526000 Z-0.125000
G01 X-6.019430 Y-199.137000 Z-0.125000
G01 X6.905870 Y-199.137000 Z-0.125000
G01 X6.905870 Y-201.526000 Z-0.125000
G00 Z5.000000

(End cutting path id: path42329)


(Start cutting path id: path42324)
(Change tool to Default tool)

G00 Z5.000000
G00 X16.869200 Y-202.814000

G01 Z-0.125000 F100.0(Penetrate)
G01 X17.105400 Y-202.963000 Z-0.125000 F400.000000
G01 X17.731100 Y-203.622000 Z-0.125000
G01 X17.939700 Y-203.937000 Z-0.125000
G01 X17.884200 Y-203.985000 Z-0.125000
G01 X15.885100 Y-202.726000 Z-0.125000
G01 X15.150800 Y-202.529000 Z-0.125000
G01 X14.913600 Y-202.562000 Z-0.125000
G01 X14.987400 Y-202.692000 Z-0.125000
G01 X18.115700 Y-204.662000 Z-0.125000
G01 X18.442500 Y-205.134000 Z-0.125000
G01 X18.399600 Y-205.289000 Z-0.125000
G01 X18.198400 Y-205.246000 Z-0.125000
G01 X14.143400 Y-202.692000 Z-0.125000
G01 X13.435900 Y-202.512000 Z-0.125000
G01 X13.217100 Y-202.557000 Z-0.125000
G01 X13.299300 Y-202.692000 Z-0.125000
G01 X18.242100 Y-205.805000 Z-0.125000
G01 X18.527500 Y-206.250000 Z-0.125000
G01 X18.456200 Y-206.388000 Z-0.125000
G01 X18.242100 Y-206.336000 Z-0.125000
G01 X12.455200 Y-202.692000 Z-0.125000
G01 X11.747700 Y-202.512000 Z-0.125000
G01 X11.528900 Y-202.557000 Z-0.125000
G01 X11.611100 Y-202.692000 Z-0.125000
G01 X14.413700 Y-204.457000 Z-0.125000
G01 X14.495900 Y-204.592000 Z-0.125000
G01 X14.277100 Y-204.637000 Z-0.125000
G01 X13.569600 Y-204.457000 Z-0.125000
G01 X11.425300 Y-203.106000 Z-0.125000
G01 X11.211200 Y-203.055000 Z-0.125000
G01 X11.139800 Y-203.192000 Z-0.125000
G01 X11.425300 Y-203.638000 Z-0.125000
G01 X12.725500 Y-204.457000 Z-0.125000
G01 X12.807800 Y-204.592000 Z-0.125000
G01 X12.589000 Y-204.637000 Z-0.125000
G01 X11.881500 Y-204.457000 Z-0.125000
G01 X11.231300 Y-204.047000 Z-0.125000
G01 X11.139800 Y-204.256000 Z-0.125000
G01 X11.231300 Y-204.579000 Z-0.125000
G01 X11.322800 Y-204.637000 Z-0.125000
G00 Z5.000000

(End cutting path id: path42324)


(Start cutting path id: path42325)
(Change tool to Default tool)

G00 Z5.000000
G00 X18.527500 Y-207.047000

G01 Z-0.125000 F100.0(Penetrate)
G01 X16.692400 Y-205.892000 Z-0.125000 F400.000000
G01 X16.477800 Y-205.840000 Z-0.125000
G01 X16.405300 Y-205.977000 Z-0.125000
G01 X16.689100 Y-206.421000 Z-0.125000
G01 X18.242100 Y-207.399000 Z-0.125000
G01 X18.527600 Y-207.845000 Z-0.125000
G01 X18.456200 Y-207.983000 Z-0.125000
G01 X18.242100 Y-207.931000 Z-0.125000
G01 X16.689100 Y-206.953000 Z-0.125000
G01 X16.475000 Y-206.901000 Z-0.125000
G01 X16.403600 Y-207.039000 Z-0.125000
G01 X16.689100 Y-207.484000 Z-0.125000
G01 X18.242100 Y-208.462000 Z-0.125000
G01 X18.527500 Y-208.908000 Z-0.125000
G01 X18.456100 Y-209.046000 Z-0.125000
G01 X18.242100 Y-208.994000 Z-0.125000
G01 X16.689100 Y-208.016000 Z-0.125000
G01 X16.475000 Y-207.964000 Z-0.125000
G01 X16.403600 Y-208.102000 Z-0.125000
G01 X16.689100 Y-208.548000 Z-0.125000
G01 X18.242100 Y-209.526000 Z-0.125000
G01 X18.527500 Y-209.971000 Z-0.125000
G01 X18.456100 Y-210.109000 Z-0.125000
G01 X18.242100 Y-210.057000 Z-0.125000
G01 X16.689100 Y-209.079000 Z-0.125000
G01 X16.475000 Y-209.027000 Z-0.125000
G01 X16.403600 Y-209.165000 Z-0.125000
G01 X16.689100 Y-209.611000 Z-0.125000
G01 X18.242100 Y-210.589000 Z-0.125000
G01 X18.527500 Y-211.034000 Z-0.125000
G01 X18.456100 Y-211.172000 Z-0.125000
G01 X18.242100 Y-211.120000 Z-0.125000
G01 X16.689100 Y-210.142000 Z-0.125000
G01 X16.475000 Y-210.090000 Z-0.125000
G01 X16.403600 Y-210.228000 Z-0.125000
G01 X16.689100 Y-210.674000 Z-0.125000
G01 X18.242100 Y-211.652000 Z-0.125000
G01 X18.410400 Y-211.841000 Z-0.125000
G01 X18.381200 Y-212.005000 Z-0.125000
G01 X18.209200 Y-212.080000 Z-0.125000
G01 X17.949400 Y-211.999000 Z-0.125000
G01 X16.689100 Y-211.205000 Z-0.125000
G01 X16.475000 Y-211.154000 Z-0.125000
G01 X16.403600 Y-211.291000 Z-0.125000
G01 X16.689100 Y-211.737000 Z-0.125000
G01 X17.319200 Y-212.134000 Z-0.125000
G01 X16.968700 Y-212.179000 Z-0.125000
G01 X16.475100 Y-212.134000 Z-0.125000
G01 X16.403600 Y-212.089000 Z-0.125000
G00 Z5.000000

(End cutting path id: path42325)


(Start cutting path id: path42326)
(Change tool to Default tool)

G00 Z5.000000
G00 X18.659800 Y-212.311000

G01 Z-0.125000 F100.0(Penetrate)
G01 X16.271300 Y-212.311000 Z-0.125000 F400.000000
G01 X16.271300 Y-205.724000 Z-0.125000
G01 X16.032500 Y-205.017000 Z-0.125000
G01 X15.733900 Y-204.831000 Z-0.125000
G01 X15.315900 Y-204.769000 Z-0.125000
G01 X11.007500 Y-204.769000 Z-0.125000
G01 X11.007500 Y-202.380000 Z-0.125000
G01 X15.315900 Y-202.380000 Z-0.125000
G01 X16.032500 Y-202.463000 Z-0.125000
G01 X16.776600 Y-202.702000 Z-0.125000
G01 X17.493100 Y-203.134000 Z-0.125000
G01 X18.090200 Y-203.767000 Z-0.125000
G01 X18.503600 Y-204.622000 Z-0.125000
G01 X18.659800 Y-205.724000 Z-0.125000
G01 X18.659800 Y-212.311000 Z-0.125000
G00 Z5.000000

(End cutting path id: path42326)


(Start cutting path id: path42318)
(Change tool to Default tool)

G00 Z5.000000
G00 X9.597734 Y-198.314292

G01 Z-0.125000 F100.0(Penetrate)
G01 X9.754171 Y-198.412806 Z-0.125000 F400.000000
G02 X9.979067 Y-198.820204 Z-0.125000 I-0.256553 J-0.407398
G02 X9.754171 Y-198.944353 Z-0.125000 I-0.146715 J0.000000
G01 X9.039109 Y-198.494054 Z-0.125000
G03 X8.259939 Y-198.269158 Z-0.125000 I-0.779170 J-1.237304
G03 X8.195026 Y-198.494054 Z-0.125000 I0.000000 J-0.121816
G01 X9.625150 Y-199.394651 Z-0.125000
G02 X9.850046 Y-199.802049 Z-0.125000 I-0.256552 J-0.407398
G02 X9.625150 Y-199.926198 Z-0.125000 I-0.146715 J0.000000
G01 X8.072189 Y-198.948247 Z-0.125000
G03 X7.847293 Y-199.072396 Z-0.125000 I-0.078181 J-0.124149
G03 X8.072189 Y-199.479794 Z-0.125000 I0.481447 J0.000000
G01 X9.625150 Y-200.457745 Z-0.125000
G02 X9.850046 Y-200.865143 Z-0.125000 I-0.256552 J-0.407398
G02 X9.625150 Y-200.989292 Z-0.125000 I-0.146715 J0.000000
G01 X8.072189 Y-200.011341 Z-0.125000
G03 X7.847293 Y-200.135490 Z-0.125000 I-0.078181 J-0.124149
G03 X8.072189 Y-200.542888 Z-0.125000 I0.481447 J0.000000
G01 X9.625150 Y-201.520839 Z-0.125000
G02 X9.850046 Y-201.928237 Z-0.125000 I-0.256552 J-0.407398
G02 X9.625150 Y-202.052386 Z-0.125000 I-0.146715 J0.000000
G01 X8.072189 Y-201.074435 Z-0.125000
G03 X7.847293 Y-201.198584 Z-0.125000 I-0.078181 J-0.124149
G03 X8.072189 Y-201.605982 Z-0.125000 I0.481447 J0.000000
G01 X9.625150 Y-202.583933 Z-0.125000
G02 X9.850046 Y-202.991331 Z-0.125000 I-0.256552 J-0.407398
G02 X9.625150 Y-203.115480 Z-0.125000 I-0.146715 J0.000000
G01 X8.072189 Y-202.137529 Z-0.125000
G03 X7.847293 Y-202.261678 Z-0.125000 I-0.078181 J-0.124149
G03 X8.072189 Y-202.669076 Z-0.125000 I0.481447 J0.000000
G01 X9.625150 Y-203.647027 Z-0.125000
G02 X9.850046 Y-204.054425 Z-0.125000 I-0.256552 J-0.407398
G02 X9.625150 Y-204.178574 Z-0.125000 I-0.146715 J0.000000
G01 X8.072189 Y-203.200623 Z-0.125000
G03 X7.847293 Y-203.324772 Z-0.125000 I-0.078181 J-0.124149
G03 X8.072189 Y-203.732170 Z-0.125000 I0.481447 J0.000000
G01 X9.625150 Y-204.710121 Z-0.125000
G02 X9.850046 Y-205.117519 Z-0.125000 I-0.256552 J-0.407398
G02 X9.625150 Y-205.241668 Z-0.125000 I-0.146715 J0.000000
G01 X8.072189 Y-204.263717 Z-0.125000
G03 X7.847293 Y-204.387866 Z-0.125000 I-0.078181 J-0.124149
G03 X8.072189 Y-204.795264 Z-0.125000 I0.481447 J0.000000
G01 X9.625150 Y-205.773215 Z-0.125000
G02 X9.850046 Y-206.180613 Z-0.125000 I-0.256552 J-0.407398
G02 X9.625150 Y-206.304762 Z-0.125000 I-0.146715 J0.000000
G01 X8.072189 Y-205.326811 Z-0.125000
G03 X7.847293 Y-205.450960 Z-0.125000 I-0.078181 J-0.124149
G03 X8.072189 Y-205.858358 Z-0.125000 I0.481447 J0.000000
G01 X9.625150 Y-206.836309 Z-0.125000
G02 X9.850046 Y-207.243707 Z-0.125000 I-0.256552 J-0.407398
G02 X9.625150 Y-207.367856 Z-0.125000 I-0.146715 J0.000000
G01 X8.072189 Y-206.389905 Z-0.125000
G03 X7.847293 Y-206.514054 Z-0.125000 I-0.078181 J-0.124149
G03 X8.072189 Y-206.921452 Z-0.125000 I0.481447 J0.000000
G01 X9.625150 Y-207.899403 Z-0.125000
G02 X9.850046 Y-208.306801 Z-0.125000 I-0.256552 J-0.407398
G02 X9.625150 Y-208.430950 Z-0.125000 I-0.146715 J0.000000
G01 X8.072189 Y-207.452999 Z-0.125000
G03 X7.847293 Y-207.577148 Z-0.125000 I-0.078181 J-0.124149
G03 X8.072189 Y-207.984546 Z-0.125000 I0.481447 J0.000000
G01 X9.625150 Y-208.962497 Z-0.125000
G02 X9.850046 Y-209.369895 Z-0.125000 I-0.256552 J-0.407398
G02 X9.625150 Y-209.494044 Z-0.125000 I-0.146715 J0.000000
G01 X8.072189 Y-208.516093 Z-0.125000
G03 X7.847293 Y-208.640242 Z-0.125000 I-0.078181 J-0.124149
G03 X8.072189 Y-209.047640 Z-0.125000 I0.481447 J0.000000
G01 X9.625150 Y-210.025591 Z-0.125000
G02 X9.850046 Y-210.432989 Z-0.125000 I-0.256552 J-0.407398
G02 X9.625150 Y-210.557138 Z-0.125000 I-0.146715 J0.000000
G01 X8.072189 Y-209.579187 Z-0.125000
G03 X7.847293 Y-209.703336 Z-0.125000 I-0.078181 J-0.124149
G03 X8.072189 Y-210.110734 Z-0.125000 I0.481447 J0.000000
G01 X9.625150 Y-211.088685 Z-0.125000
G02 X9.850046 Y-211.496083 Z-0.125000 I-0.256552 J-0.407398
G02 X9.625150 Y-211.620232 Z-0.125000 I-0.146715 J0.000000
G01 X8.072189 Y-210.642281 Z-0.125000
G03 X7.847293 Y-210.766430 Z-0.125000 I-0.078181 J-0.124149
G03 X8.072189 Y-211.173828 Z-0.125000 I0.481447 J0.000000
G01 X9.382441 Y-211.998938 Z-0.125000
G02 X9.317528 Y-212.223834 Z-0.125000 I-0.064913 J-0.103080
G02 X8.538358 Y-211.998938 Z-0.125000 I-0.000000 J1.462200
G01 X7.883232 Y-211.586383 Z-0.125000
G03 X7.658335 Y-211.710532 Z-0.125000 I-0.078181 J-0.124149
G03 X7.883232 Y-212.117930 Z-0.125000 I0.481447 J0.000000
G01 X7.979733 Y-212.178700 Z-0.125000
G00 Z5.000000

(End cutting path id: path42318)


(Start cutting path id: path60978)
(Change tool to Default tool)

G00 Z5.000000
G00 X10.042900 Y-212.311000

G01 Z-0.125000 F100.0(Penetrate)
G01 X7.654440 Y-212.311000 Z-0.125000 F400.000000
G01 X7.654440 Y-198.182000 Z-0.125000
G01 X10.042900 Y-198.182000 Z-0.125000
G01 X10.042900 Y-212.311000 Z-0.125000
G00 Z5.000000

(End cutting path id: path60978)


(Start cutting path id: path42320)
(Change tool to Default tool)

G00 Z5.000000
G00 X29.810500 Y-203.599000

G01 Z-0.125000 F100.0(Penetrate)
G01 X28.593700 Y-202.832000 Z-0.125000 F400.000000
G01 X27.774800 Y-202.582000 Z-0.125000
G01 X27.479400 Y-202.579000 Z-0.125000
G01 X27.526800 Y-202.692000 Z-0.125000
G01 X30.127600 Y-204.330000 Z-0.125000
G01 X30.490500 Y-204.824000 Z-0.125000
G01 X30.472300 Y-204.995000 Z-0.125000
G01 X30.282400 Y-204.959000 Z-0.125000
G01 X26.682800 Y-202.692000 Z-0.125000
G01 X25.975300 Y-202.512000 Z-0.125000
G01 X25.756500 Y-202.557000 Z-0.125000
G01 X25.838700 Y-202.692000 Z-0.125000
G01 X30.329100 Y-205.520000 Z-0.125000
G01 X30.531000 Y-205.730000 Z-0.125000
G01 X30.575400 Y-205.941000 Z-0.125000
G01 X30.477200 Y-206.062000 Z-0.125000
G01 X30.250800 Y-206.002000 Z-0.125000
G01 X24.994600 Y-202.692000 Z-0.125000
G01 X24.287100 Y-202.512000 Z-0.125000
G01 X24.068300 Y-202.557000 Z-0.125000
G01 X24.150500 Y-202.692000 Z-0.125000
G01 X26.762600 Y-204.337000 Z-0.125000
G01 X26.844800 Y-204.472000 Z-0.125000
G01 X26.626000 Y-204.517000 Z-0.125000
G01 X25.918500 Y-204.337000 Z-0.125000
G01 X23.325800 Y-202.704000 Z-0.125000
G01 X22.681100 Y-202.564000 Z-0.125000
G01 X22.505500 Y-202.636000 Z-0.125000
G01 X22.607400 Y-202.783000 Z-0.125000
G01 X25.074400 Y-204.337000 Z-0.125000
G01 X25.156600 Y-204.472000 Z-0.125000
G01 X24.937800 Y-204.517000 Z-0.125000
G01 X24.230300 Y-204.337000 Z-0.125000
G01 X22.067100 Y-202.975000 Z-0.125000
G01 X21.790700 Y-202.884000 Z-0.125000
G01 X21.582300 Y-202.935000 Z-0.125000
G01 X21.516600 Y-203.077000 Z-0.125000
G01 X21.668400 Y-203.255000 Z-0.125000
G01 X23.386200 Y-204.337000 Z-0.125000
G01 X23.479300 Y-204.479000 Z-0.125000
G01 X23.284300 Y-204.539000 Z-0.125000
G01 X22.611400 Y-204.381000 Z-0.125000
G01 X21.299500 Y-203.554000 Z-0.125000
G01 X21.031900 Y-203.469000 Z-0.125000
G01 X20.842900 Y-203.533000 Z-0.125000
G01 X20.796600 Y-203.686000 Z-0.125000
G01 X20.957200 Y-203.870000 Z-0.125000
G01 X22.124500 Y-204.605000 Z-0.125000
G01 X22.295400 Y-204.796000 Z-0.125000
G01 X22.271700 Y-204.964000 Z-0.125000
G01 X22.105300 Y-205.042000 Z-0.125000
G01 X21.848000 Y-204.963000 Z-0.125000
G01 X20.747100 Y-204.270000 Z-0.125000
G01 X20.500200 Y-204.197000 Z-0.125000
G01 X20.356600 Y-204.289000 Z-0.125000
G01 X20.355800 Y-204.472000 Z-0.125000
G01 X20.537100 Y-204.669000 Z-0.125000
G01 X21.731400 Y-205.421000 Z-0.125000
G01 X22.010600 Y-205.863000 Z-0.125000
G01 X21.935000 Y-205.998000 Z-0.125000
G01 X21.719000 Y-205.945000 Z-0.125000
G01 X20.406800 Y-205.118000 Z-0.125000
G01 X20.180300 Y-205.059000 Z-0.125000
G01 X20.081900 Y-205.180000 Z-0.125000
G01 X20.126100 Y-205.390000 Z-0.125000
G01 X20.327900 Y-205.600000 Z-0.125000
G01 X21.719000 Y-206.476000 Z-0.125000
G01 X22.004400 Y-206.922000 Z-0.125000
G01 X21.933000 Y-207.060000 Z-0.125000
G01 X21.719000 Y-207.008000 Z-0.125000
G01 X20.285500 Y-206.105000 Z-0.125000
G01 X20.071400 Y-206.053000 Z-0.125000
G01 X20.000000 Y-206.191000 Z-0.125000
G01 X20.285500 Y-206.637000 Z-0.125000
G01 X21.719000 Y-207.539000 Z-0.125000
G01 X22.004400 Y-207.985000 Z-0.125000
G01 X21.933000 Y-208.123000 Z-0.125000
G01 X21.719000 Y-208.071000 Z-0.125000
G01 X20.285500 Y-207.168000 Z-0.125000
G01 X20.071400 Y-207.116000 Z-0.125000
G01 X20.000000 Y-207.254000 Z-0.125000
G01 X20.285500 Y-207.700000 Z-0.125000
G01 X21.719000 Y-208.602000 Z-0.125000
G01 X22.031600 Y-209.065000 Z-0.125000
G01 X21.979000 Y-209.215000 Z-0.125000
G01 X21.773400 Y-209.168000 Z-0.125000
G01 X20.285500 Y-208.231000 Z-0.125000
G01 X20.071400 Y-208.179000 Z-0.125000
G01 X20.000000 Y-208.317000 Z-0.125000
G01 X20.285500 Y-208.763000 Z-0.125000
G01 X25.424300 Y-211.999000 Z-0.125000
G01 X26.131800 Y-212.179000 Z-0.125000
G01 X26.350600 Y-212.134000 Z-0.125000
G01 X26.268400 Y-211.999000 Z-0.125000
G01 X23.565200 Y-210.297000 Z-0.125000
G01 X23.494700 Y-210.169000 Z-0.125000
G01 X23.739400 Y-210.141000 Z-0.125000
G01 X24.484500 Y-210.344000 Z-0.125000
G01 X27.047100 Y-211.958000 Z-0.125000
G01 X27.261100 Y-212.009000 Z-0.125000
G01 X27.332500 Y-211.872000 Z-0.125000
G01 X27.047100 Y-211.426000 Z-0.125000
G01 X25.328600 Y-210.344000 Z-0.125000
G01 X25.246400 Y-210.209000 Z-0.125000
G01 X25.465200 Y-210.164000 Z-0.125000
G01 X26.172700 Y-210.344000 Z-0.125000
G01 X27.047100 Y-210.895000 Z-0.125000
G01 X27.261100 Y-210.946000 Z-0.125000
G01 X27.332500 Y-210.809000 Z-0.125000
G01 X27.047100 Y-210.363000 Z-0.125000
G01 X26.731300 Y-210.164000 Z-0.125000
G00 Z5.000000

(End cutting path id: path42320)


(Start cutting path id: path42321)
(Change tool to Default tool)

G00 Z5.000000
G00 X28.589300 Y-205.487000

G01 Z-0.125000 F100.0(Penetrate)
G01 X30.172500 Y-206.484000 Z-0.125000 F400.000000
G01 X30.355000 Y-206.682000 Z-0.125000
G01 X30.356800 Y-206.866000 Z-0.125000
G01 X30.215900 Y-206.960000 Z-0.125000
G01 X29.970200 Y-206.888000 Z-0.125000
G01 X28.796400 Y-206.149000 Z-0.125000
G01 X28.558100 Y-206.082000 Z-0.125000
G01 X28.433300 Y-206.186000 Z-0.125000
G01 X28.451300 Y-206.380000 Z-0.125000
G01 X28.641100 Y-206.583000 Z-0.125000
G01 X29.757500 Y-207.286000 Z-0.125000
G01 X29.929600 Y-207.477000 Z-0.125000
G01 X29.908600 Y-207.647000 Z-0.125000
G01 X29.744900 Y-207.727000 Z-0.125000
G01 X29.488800 Y-207.648000 Z-0.125000
G01 X28.288600 Y-206.893000 Z-0.125000
G01 X27.667200 Y-206.767000 Z-0.125000
G01 X27.507600 Y-206.849000 Z-0.125000
G01 X27.616700 Y-207.001000 Z-0.125000
G01 X29.117600 Y-207.946000 Z-0.125000
G01 X29.273600 Y-208.127000 Z-0.125000
G01 X29.217400 Y-208.275000 Z-0.125000
G01 X29.018400 Y-208.332000 Z-0.125000
G01 X28.746300 Y-208.244000 Z-0.125000
G01 X26.772700 Y-207.001000 Z-0.125000
G01 X26.065200 Y-206.821000 Z-0.125000
G01 X25.846400 Y-206.866000 Z-0.125000
G01 X25.928600 Y-207.001000 Z-0.125000
G01 X28.256300 Y-208.467000 Z-0.125000
G01 X28.371800 Y-208.623000 Z-0.125000
G01 X28.226100 Y-208.714000 Z-0.125000
G01 X27.624900 Y-208.601000 Z-0.125000
G01 X25.084500 Y-207.001000 Z-0.125000
G01 X24.377000 Y-206.821000 Z-0.125000
G01 X24.158200 Y-206.866000 Z-0.125000
G01 X24.240400 Y-207.001000 Z-0.125000
G01 X26.852500 Y-208.646000 Z-0.125000
G01 X26.934700 Y-208.781000 Z-0.125000
G01 X26.715900 Y-208.826000 Z-0.125000
G01 X26.008400 Y-208.646000 Z-0.125000
G01 X23.574200 Y-207.113000 Z-0.125000
G01 X23.360100 Y-207.061000 Z-0.125000
G01 X23.288700 Y-207.199000 Z-0.125000
G01 X23.574200 Y-207.645000 Z-0.125000
G01 X25.164300 Y-208.646000 Z-0.125000
G01 X25.246500 Y-208.781000 Z-0.125000
G01 X25.027700 Y-208.826000 Z-0.125000
G01 X24.320200 Y-208.646000 Z-0.125000
G01 X23.525100 Y-208.145000 Z-0.125000
G01 X23.347800 Y-208.117000 Z-0.125000
G01 X23.288700 Y-208.262000 Z-0.125000
G01 X23.525100 Y-208.677000 Z-0.125000
G01 X23.761600 Y-208.826000 Z-0.125000
G00 Z5.000000

(End cutting path id: path42321)


(Start cutting path id: path42322)
(Change tool to Default tool)

G00 Z5.000000
G00 X24.865600 Y-212.179000

G01 Z-0.125000 F100.0(Penetrate)
G01 X20.295900 Y-209.301000 Z-0.125000 F400.000000
G01 X20.090600 Y-209.255000 Z-0.125000
G01 X20.038500 Y-209.405000 Z-0.125000
G01 X20.352100 Y-209.868000 Z-0.125000
G01 X23.736100 Y-211.999000 Z-0.125000
G01 X23.818300 Y-212.134000 Z-0.125000
G01 X23.599500 Y-212.179000 Z-0.125000
G01 X22.892000 Y-211.999000 Z-0.125000
G01 X20.549000 Y-210.523000 Z-0.125000
G01 X20.448600 Y-210.543000 Z-0.125000
G01 X20.627300 Y-210.839000 Z-0.125000
G01 X21.276600 Y-211.513000 Z-0.125000
G01 X22.042700 Y-211.996000 Z-0.125000
G00 Z5.000000

(End cutting path id: path42322)


(Start cutting path id: path42323)
(Change tool to Default tool)

G00 Z5.000000
G00 X30.753600 Y-205.669000

G01 Z-0.125000 F100.0(Penetrate)
G01 X30.579000 Y-206.744000 Z-0.125000 F400.000000
G01 X30.009500 Y-207.809000 Z-0.125000
G01 X28.989800 Y-208.627000 Z-0.125000
G01 X28.296200 Y-208.875000 Z-0.125000
G01 X27.464800 Y-208.958000 Z-0.125000
G01 X23.156400 Y-208.958000 Z-0.125000
G01 X23.156400 Y-206.689000 Z-0.125000
G01 X27.464800 Y-206.689000 Z-0.125000
G01 X27.896600 Y-206.615000 Z-0.125000
G01 X28.218100 Y-206.395000 Z-0.125000
G01 X28.484500 Y-205.651000 Z-0.125000
G01 X28.408700 Y-205.233000 Z-0.125000
G01 X28.181400 Y-204.916000 Z-0.125000
G01 X27.464800 Y-204.649000 Z-0.125000
G01 X23.156400 Y-204.649000 Z-0.125000
G01 X22.724600 Y-204.725000 Z-0.125000
G01 X22.403100 Y-204.952000 Z-0.125000
G01 X22.203300 Y-205.283000 Z-0.125000
G01 X22.136700 Y-205.687000 Z-0.125000
G01 X22.136700 Y-209.022000 Z-0.125000
G01 X22.210200 Y-209.447000 Z-0.125000
G01 X22.430700 Y-209.766000 Z-0.125000
G01 X23.174800 Y-210.032000 Z-0.125000
G01 X27.464800 Y-210.032000 Z-0.125000
G01 X27.464800 Y-212.311000 Z-0.125000
G01 X23.156400 Y-212.311000 Z-0.125000
G01 X22.081600 Y-212.136000 Z-0.125000
G01 X21.016000 Y-211.576000 Z-0.125000
G01 X20.198400 Y-210.556000 Z-0.125000
G01 X19.950300 Y-209.856000 Z-0.125000
G01 X19.867700 Y-209.022000 Z-0.125000
G01 X19.867700 Y-205.669000 Z-0.125000
G01 X20.042200 Y-204.603000 Z-0.125000
G01 X20.602600 Y-203.538000 Z-0.125000
G01 X21.622300 Y-202.711000 Z-0.125000
G01 X22.322700 Y-202.463000 Z-0.125000
G01 X23.156400 Y-202.380000 Z-0.125000
G01 X27.464800 Y-202.380000 Z-0.125000
G01 X28.530500 Y-202.555000 Z-0.125000
G01 X29.596100 Y-203.124000 Z-0.125000
G01 X30.422900 Y-204.144000 Z-0.125000
G01 X30.670900 Y-204.838000 Z-0.125000
G01 X30.753600 Y-205.669000 Z-0.125000
G01 X30.753600 Y-205.669000 Z-0.125000
G00 Z5.000000

(End cutting path id: path42323)


(Start cutting path id: path60972)
(Change tool to Default tool)

G00 Z5.000000
G00 X27.494000 Y-177.052000

G01 Z-0.125000 F100.0(Penetrate)
G01 X27.882900 Y-176.663000 Z-0.125000 F400.000000
G01 X28.350000 Y-176.371000 Z-0.125000
G01 X28.833100 Y-176.274000 Z-0.125000
G01 X29.121700 Y-176.371000 Z-0.125000
G01 X29.005400 Y-176.663000 Z-0.125000
G01 X27.914900 Y-177.753000 Z-0.125000
G01 X27.599200 Y-178.245000 Z-0.125000
G01 X27.494000 Y-178.736000 Z-0.125000
G01 X27.599200 Y-179.016000 Z-0.125000
G01 X27.914900 Y-178.876000 Z-0.125000
G01 X30.095900 Y-176.695000 Z-0.125000
G01 X30.587000 Y-176.379000 Z-0.125000
G01 X31.078100 Y-176.274000 Z-0.125000
G01 X31.358800 Y-176.379000 Z-0.125000
G01 X31.218400 Y-176.695000 Z-0.125000
G01 X27.914900 Y-179.998000 Z-0.125000
G01 X27.599200 Y-180.490000 Z-0.125000
G01 X27.494000 Y-180.981000 Z-0.125000
G01 X27.599200 Y-181.261000 Z-0.125000
G01 X27.914900 Y-181.121000 Z-0.125000
G01 X32.341000 Y-176.695000 Z-0.125000
G01 X32.832100 Y-176.379000 Z-0.125000
G01 X33.323200 Y-176.274000 Z-0.125000
G01 X33.603800 Y-176.379000 Z-0.125000
G01 X33.463500 Y-176.695000 Z-0.125000
G01 X27.914900 Y-182.244000 Z-0.125000
G01 X27.599200 Y-182.735000 Z-0.125000
G01 X27.494000 Y-183.226000 Z-0.125000
G01 X27.599200 Y-183.506000 Z-0.125000
G01 X27.914900 Y-183.366000 Z-0.125000
G01 X34.586000 Y-176.695000 Z-0.125000
G01 X35.077100 Y-176.379000 Z-0.125000
G01 X35.568200 Y-176.274000 Z-0.125000
G01 X35.848900 Y-176.379000 Z-0.125000
G01 X35.708600 Y-176.695000 Z-0.125000
G01 X27.914900 Y-184.489000 Z-0.125000
G01 X27.599200 Y-184.980000 Z-0.125000
G01 X27.494000 Y-185.471000 Z-0.125000
G01 X27.599200 Y-185.751000 Z-0.125000
G01 X27.914900 Y-185.611000 Z-0.125000
G01 X36.831100 Y-176.695000 Z-0.125000
G01 X37.322200 Y-176.379000 Z-0.125000
G01 X37.813300 Y-176.274000 Z-0.125000
G01 X38.093900 Y-176.379000 Z-0.125000
G01 X37.953600 Y-176.695000 Z-0.125000
G01 X28.870200 Y-185.778000 Z-0.125000
G01 X28.729900 Y-186.094000 Z-0.125000
G01 X29.010600 Y-186.199000 Z-0.125000
G01 X29.501700 Y-186.094000 Z-0.125000
G01 X29.992800 Y-185.778000 Z-0.125000
G01 X39.076200 Y-176.695000 Z-0.125000
G01 X39.567300 Y-176.379000 Z-0.125000
G01 X40.058400 Y-176.274000 Z-0.125000
G01 X40.339000 Y-176.379000 Z-0.125000
G01 X40.198700 Y-176.695000 Z-0.125000
G01 X31.115300 Y-185.778000 Z-0.125000
G01 X30.975000 Y-186.094000 Z-0.125000
G01 X31.255600 Y-186.199000 Z-0.125000
G01 X31.746700 Y-186.094000 Z-0.125000
G01 X32.237800 Y-185.778000 Z-0.125000
G01 X41.321200 Y-176.695000 Z-0.125000
G01 X41.812300 Y-176.379000 Z-0.125000
G01 X42.303400 Y-176.274000 Z-0.125000
G01 X42.584100 Y-176.379000 Z-0.125000
G01 X42.443800 Y-176.695000 Z-0.125000
G01 X33.360400 Y-185.778000 Z-0.125000
G01 X33.220100 Y-186.094000 Z-0.125000
G01 X33.500700 Y-186.199000 Z-0.125000
G01 X33.991800 Y-186.094000 Z-0.125000
G01 X34.482900 Y-185.778000 Z-0.125000
G01 X43.566300 Y-176.695000 Z-0.125000
G01 X44.057400 Y-176.379000 Z-0.125000
G01 X44.548500 Y-176.274000 Z-0.125000
G01 X44.829100 Y-176.379000 Z-0.125000
G01 X44.688800 Y-176.695000 Z-0.125000
G01 X35.605400 Y-185.778000 Z-0.125000
G01 X35.465100 Y-186.094000 Z-0.125000
G01 X35.745800 Y-186.199000 Z-0.125000
G01 X36.236900 Y-186.094000 Z-0.125000
G01 X36.728000 Y-185.778000 Z-0.125000
G01 X45.811300 Y-176.695000 Z-0.125000
G01 X46.302500 Y-176.379000 Z-0.125000
G01 X46.793600 Y-176.274000 Z-0.125000
G01 X47.074200 Y-176.379000 Z-0.125000
G01 X46.933900 Y-176.695000 Z-0.125000
G01 X37.850500 Y-185.778000 Z-0.125000
G01 X37.710200 Y-186.094000 Z-0.125000
G01 X37.990800 Y-186.199000 Z-0.125000
G01 X38.481900 Y-186.094000 Z-0.125000
G01 X38.973000 Y-185.778000 Z-0.125000
G01 X48.056400 Y-176.695000 Z-0.125000
G01 X48.547500 Y-176.379000 Z-0.125000
G01 X49.038600 Y-176.274000 Z-0.125000
G01 X49.319300 Y-176.379000 Z-0.125000
G01 X49.178900 Y-176.695000 Z-0.125000
G01 X40.095600 Y-185.778000 Z-0.125000
G01 X39.955300 Y-186.094000 Z-0.125000
G01 X40.235900 Y-186.199000 Z-0.125000
G01 X40.727000 Y-186.094000 Z-0.125000
G01 X41.218100 Y-185.778000 Z-0.125000
G01 X50.296100 Y-176.700000 Z-0.125000
G01 X50.775600 Y-176.396000 Z-0.125000
G01 X51.241000 Y-176.317000 Z-0.125000
G01 X51.496000 Y-176.448000 Z-0.125000
G01 X51.344000 Y-176.775000 Z-0.125000
G01 X42.340600 Y-185.778000 Z-0.125000
G01 X42.200300 Y-186.094000 Z-0.125000
G01 X42.481000 Y-186.199000 Z-0.125000
G01 X42.972100 Y-186.094000 Z-0.125000
G01 X43.463200 Y-185.778000 Z-0.125000
G01 X52.323100 Y-176.918000 Z-0.125000
G01 X52.785100 Y-176.632000 Z-0.125000
G01 X53.212300 Y-176.591000 Z-0.125000
G01 X53.428900 Y-176.760000 Z-0.125000
G01 X53.259500 Y-177.105000 Z-0.125000
G01 X44.585700 Y-185.778000 Z-0.125000
G01 X44.445400 Y-186.094000 Z-0.125000
G01 X44.726000 Y-186.199000 Z-0.125000
G01 X45.217100 Y-186.094000 Z-0.125000
G01 X45.708200 Y-185.778000 Z-0.125000
G01 X54.158000 Y-177.329000 Z-0.125000
G01 X54.606600 Y-177.055000 Z-0.125000
G01 X55.004400 Y-177.043000 Z-0.125000
G01 X55.191700 Y-177.242000 Z-0.125000
G01 X55.009000 Y-177.600000 Z-0.125000
G01 X46.830800 Y-185.778000 Z-0.125000
G01 X46.690400 Y-186.094000 Z-0.125000
G01 X46.971100 Y-186.199000 Z-0.125000
G01 X47.462200 Y-186.094000 Z-0.125000
G01 X47.953300 Y-185.778000 Z-0.125000
G01 X55.821300 Y-177.910000 Z-0.125000
G01 X56.257800 Y-177.649000 Z-0.125000
G01 X56.628900 Y-177.664000 Z-0.125000
G01 X56.789500 Y-177.889000 Z-0.125000
G01 X56.594600 Y-178.260000 Z-0.125000
G01 X49.075800 Y-185.778000 Z-0.125000
G01 X48.935500 Y-186.094000 Z-0.125000
G01 X49.216100 Y-186.199000 Z-0.125000
G01 X49.707200 Y-186.094000 Z-0.125000
G01 X50.198400 Y-185.778000 Z-0.125000
G01 X57.327700 Y-178.649000 Z-0.125000
G01 X57.752300 Y-178.400000 Z-0.125000
G01 X58.097200 Y-178.441000 Z-0.125000
G01 X58.231700 Y-178.692000 Z-0.125000
G01 X58.024900 Y-179.074000 Z-0.125000
G01 X51.295300 Y-185.804000 Z-0.125000
G01 X51.130800 Y-186.144000 Z-0.125000
G01 X51.358300 Y-186.302000 Z-0.125000
G01 X51.796200 Y-186.250000 Z-0.125000
G01 X52.263100 Y-185.959000 Z-0.125000
G01 X58.689600 Y-179.532000 Z-0.125000
G01 X59.104900 Y-179.292000 Z-0.125000
G01 X59.429100 Y-179.354000 Z-0.125000
G01 X59.542900 Y-179.626000 Z-0.125000
G01 X59.326700 Y-180.018000 Z-0.125000
G01 X53.082100 Y-186.262000 Z-0.125000
G01 X52.871900 Y-186.648000 Z-0.125000
G01 X52.998900 Y-186.907000 Z-0.125000
G01 X53.336400 Y-186.955000 Z-0.125000
G01 X53.757700 Y-186.709000 Z-0.125000
G01 X59.934600 Y-180.532000 Z-0.125000
G01 X60.339200 Y-180.303000 Z-0.125000
G01 X60.640100 Y-180.388000 Z-0.125000
G01 X60.730600 Y-180.683000 Z-0.125000
G01 X60.503800 Y-181.086000 Z-0.125000
G01 X54.298800 Y-187.291000 Z-0.125000
G01 X54.045400 Y-187.719000 Z-0.125000
G01 X54.077100 Y-188.074000 Z-0.125000
G01 X54.319400 Y-188.217000 Z-0.125000
G01 X54.697300 Y-188.015000 Z-0.125000
G01 X61.033500 Y-181.678000 Z-0.125000
G01 X61.426600 Y-181.461000 Z-0.125000
G01 X61.702100 Y-181.571000 Z-0.125000
G01 X61.767100 Y-181.892000 Z-0.125000
G01 X61.528800 Y-182.306000 Z-0.125000
G01 X54.944100 Y-188.890000 Z-0.125000
G01 X54.642700 Y-189.367000 Z-0.125000
G01 X54.568900 Y-189.827000 Z-0.125000
G01 X54.705600 Y-190.076000 Z-0.125000
G01 X55.035600 Y-189.921000 Z-0.125000
G01 X61.988600 Y-182.968000 Z-0.125000
G01 X62.369100 Y-182.763000 Z-0.125000
G01 X62.617000 Y-182.901000 Z-0.125000
G01 X62.654300 Y-183.250000 Z-0.125000
G01 X62.403400 Y-183.676000 Z-0.125000
G01 X55.035600 Y-191.044000 Z-0.125000
G01 X54.719900 Y-191.535000 Z-0.125000
G01 X54.614700 Y-192.026000 Z-0.125000
G01 X54.719900 Y-192.307000 Z-0.125000
G01 X55.035600 Y-192.166000 Z-0.125000
G01 X62.779200 Y-184.423000 Z-0.125000
G01 X63.147900 Y-184.230000 Z-0.125000
G01 X63.369700 Y-184.394000 Z-0.125000
G01 X63.380900 Y-184.768000 Z-0.125000
G01 X63.118200 Y-185.206000 Z-0.125000
G01 X55.035600 Y-193.289000 Z-0.125000
G01 X54.719900 Y-193.780000 Z-0.125000
G01 X54.614700 Y-194.271000 Z-0.125000
G01 X54.719900 Y-194.552000 Z-0.125000
G01 X55.035600 Y-194.412000 Z-0.125000
G01 X63.414000 Y-186.033000 Z-0.125000
G01 X63.769200 Y-185.853000 Z-0.125000
G01 X63.961400 Y-186.047000 Z-0.125000
G01 X63.943000 Y-186.451000 Z-0.125000
G01 X63.666800 Y-186.903000 Z-0.125000
G01 X55.035600 Y-195.534000 Z-0.125000
G01 X54.719900 Y-196.025000 Z-0.125000
G01 X54.614700 Y-196.516000 Z-0.125000
G01 X54.719900 Y-196.797000 Z-0.125000
G01 X55.035600 Y-196.657000 Z-0.125000
G01 X63.868800 Y-187.823000 Z-0.125000
G01 X64.206400 Y-187.661000 Z-0.125000
G01 X64.359600 Y-187.894000 Z-0.125000
G01 X64.302300 Y-188.337000 Z-0.125000
G01 X64.008400 Y-188.806000 Z-0.125000
G01 X55.035600 Y-197.779000 Z-0.125000
G01 X54.719900 Y-198.270000 Z-0.125000
G01 X54.614700 Y-198.761000 Z-0.125000
G01 X54.719900 Y-199.042000 Z-0.125000
G01 X55.035600 Y-198.902000 Z-0.125000
G01 X64.091800 Y-189.845000 Z-0.125000
G01 X64.415600 Y-189.697000 Z-0.125000
G01 X64.538600 Y-189.960000 Z-0.125000
G01 X64.451100 Y-190.433000 Z-0.125000
G01 X64.143500 Y-190.916000 Z-0.125000
G01 X55.035600 Y-200.024000 Z-0.125000
G01 X54.719900 Y-200.515000 Z-0.125000
G01 X54.614700 Y-201.006000 Z-0.125000
G01 X54.719900 Y-201.287000 Z-0.125000
G01 X55.035600 Y-201.147000 Z-0.125000
G01 X64.119000 Y-192.063000 Z-0.125000
G01 X64.434700 Y-191.923000 Z-0.125000
G01 X64.540000 Y-192.204000 Z-0.125000
G01 X64.434700 Y-192.695000 Z-0.125000
G01 X64.119000 Y-193.186000 Z-0.125000
G01 X55.035600 Y-202.269000 Z-0.125000
G01 X54.719900 Y-202.760000 Z-0.125000
G01 X54.614700 Y-203.251000 Z-0.125000
G01 X54.719900 Y-203.532000 Z-0.125000
G01 X55.035600 Y-203.392000 Z-0.125000
G01 X64.119000 Y-194.308000 Z-0.125000
G01 X64.434700 Y-194.168000 Z-0.125000
G01 X64.540000 Y-194.449000 Z-0.125000
G01 X64.434700 Y-194.940000 Z-0.125000
G01 X64.119000 Y-195.431000 Z-0.125000
G01 X55.035600 Y-204.514000 Z-0.125000
G01 X54.719900 Y-205.005000 Z-0.125000
G01 X54.614700 Y-205.496000 Z-0.125000
G01 X54.719900 Y-205.777000 Z-0.125000
G01 X55.035600 Y-205.637000 Z-0.125000
G01 X64.119000 Y-196.553000 Z-0.125000
G01 X64.434700 Y-196.413000 Z-0.125000
G01 X64.540000 Y-196.694000 Z-0.125000
G01 X64.434700 Y-197.185000 Z-0.125000
G01 X64.119000 Y-197.676000 Z-0.125000
G01 X55.035600 Y-206.759000 Z-0.125000
G01 X54.719900 Y-207.250000 Z-0.125000
G01 X54.614700 Y-207.742000 Z-0.125000
G01 X54.719900 Y-208.022000 Z-0.125000
G01 X55.035600 Y-207.882000 Z-0.125000
G01 X64.119000 Y-198.798000 Z-0.125000
G01 X64.434700 Y-198.658000 Z-0.125000
G01 X64.540000 Y-198.939000 Z-0.125000
G01 X64.434700 Y-199.430000 Z-0.125000
G01 X64.119000 Y-199.921000 Z-0.125000
G01 X55.035600 Y-209.004000 Z-0.125000
G01 X54.719900 Y-209.496000 Z-0.125000
G01 X54.614700 Y-209.987000 Z-0.125000
G01 X54.719900 Y-210.267000 Z-0.125000
G01 X55.035600 Y-210.127000 Z-0.125000
G01 X64.119000 Y-201.044000 Z-0.125000
G01 X64.434700 Y-200.903000 Z-0.125000
G01 X64.540000 Y-201.184000 Z-0.125000
G01 X64.434700 Y-201.675000 Z-0.125000
G01 X64.119000 Y-202.166000 Z-0.125000
G01 X55.035600 Y-211.249000 Z-0.125000
G01 X54.719900 Y-211.741000 Z-0.125000
G01 X54.614700 Y-212.232000 Z-0.125000
G01 X54.719900 Y-212.512000 Z-0.125000
G01 X55.035600 Y-212.372000 Z-0.125000
G01 X64.119000 Y-203.289000 Z-0.125000
G01 X64.434700 Y-203.148000 Z-0.125000
G01 X64.540000 Y-203.429000 Z-0.125000
G01 X64.434700 Y-203.920000 Z-0.125000
G01 X64.119000 Y-204.411000 Z-0.125000
G01 X55.035600 Y-213.495000 Z-0.125000
G01 X54.719900 Y-213.986000 Z-0.125000
G01 X54.614700 Y-214.477000 Z-0.125000
G01 X54.719900 Y-214.757000 Z-0.125000
G01 X55.035600 Y-214.617000 Z-0.125000
G01 X64.119000 Y-205.534000 Z-0.125000
G01 X64.434700 Y-205.393000 Z-0.125000
G01 X64.540000 Y-205.674000 Z-0.125000
G01 X64.434700 Y-206.165000 Z-0.125000
G01 X64.119000 Y-206.656000 Z-0.125000
G01 X55.035600 Y-215.740000 Z-0.125000
G01 X54.719900 Y-216.231000 Z-0.125000
G01 X54.614700 Y-216.722000 Z-0.125000
G01 X54.719900 Y-217.002000 Z-0.125000
G01 X55.035600 Y-216.862000 Z-0.125000
G01 X64.119000 Y-207.779000 Z-0.125000
G01 X64.434700 Y-207.638000 Z-0.125000
G01 X64.540000 Y-207.919000 Z-0.125000
G01 X64.434700 Y-208.410000 Z-0.125000
G01 X64.119000 Y-208.901000 Z-0.125000
G01 X55.065400 Y-217.955000 Z-0.125000
G01 X54.925100 Y-218.271000 Z-0.125000
G01 X55.205800 Y-218.376000 Z-0.125000
G01 X55.696900 Y-218.271000 Z-0.125000
G01 X56.188000 Y-217.955000 Z-0.125000
G01 X64.119000 Y-210.024000 Z-0.125000
G01 X64.434700 Y-209.884000 Z-0.125000
G01 X64.540000 Y-210.164000 Z-0.125000
G01 X64.434700 Y-210.655000 Z-0.125000
G01 X64.119000 Y-211.146000 Z-0.125000
G01 X57.310500 Y-217.955000 Z-0.125000
G01 X57.170200 Y-218.271000 Z-0.125000
G01 X57.450800 Y-218.376000 Z-0.125000
G01 X57.941900 Y-218.271000 Z-0.125000
G01 X58.433000 Y-217.955000 Z-0.125000
G01 X64.119000 Y-212.269000 Z-0.125000
G01 X64.434700 Y-212.129000 Z-0.125000
G01 X64.540000 Y-212.409000 Z-0.125000
G01 X64.434700 Y-212.900000 Z-0.125000
G01 X64.119000 Y-213.391000 Z-0.125000
G01 X59.555600 Y-217.955000 Z-0.125000
G01 X59.415300 Y-218.271000 Z-0.125000
G01 X59.695900 Y-218.376000 Z-0.125000
G01 X60.187000 Y-218.271000 Z-0.125000
G01 X60.678100 Y-217.955000 Z-0.125000
G01 X64.119000 Y-214.514000 Z-0.125000
G01 X64.434700 Y-214.374000 Z-0.125000
G01 X64.540000 Y-214.654000 Z-0.125000
G01 X64.434700 Y-215.145000 Z-0.125000
G01 X64.119000 Y-215.636000 Z-0.125000
G01 X61.800600 Y-217.955000 Z-0.125000
G01 X61.660300 Y-218.271000 Z-0.125000
G01 X61.941000 Y-218.376000 Z-0.125000
G01 X62.432100 Y-218.271000 Z-0.125000
G01 X62.923200 Y-217.955000 Z-0.125000
G01 X64.119000 Y-216.759000 Z-0.125000
G01 X64.434700 Y-216.619000 Z-0.125000
G01 X64.540000 Y-216.899000 Z-0.125000
G01 X64.434700 Y-217.390000 Z-0.125000
G01 X64.119000 Y-217.882000 Z-0.125000
G01 X63.624800 Y-218.376000 Z-0.125000
G00 Z5.000000

(End cutting path id: path60972)


(Start cutting path id: path60973)
(Change tool to Default tool)

G00 Z5.000000
G00 X27.361600 Y-186.332000

G01 Z-0.125000 F100.0(Penetrate)
G01 X50.288800 Y-186.332000 Z-0.125000 F400.000000
G01 X52.111200 Y-186.596000 Z-0.125000
G01 X52.831400 Y-186.927000 Z-0.125000
G01 X53.424100 Y-187.390000 Z-0.125000
G01 X53.887100 Y-187.961000 Z-0.125000
G01 X54.217800 Y-188.654000 Z-0.125000
G01 X54.482300 Y-190.408000 Z-0.125000
G01 X54.482300 Y-218.508000 Z-0.125000
G01 X64.672200 Y-218.508000 Z-0.125000
G01 X64.672200 Y-190.408000 Z-0.125000
G01 X64.505600 Y-187.919000 Z-0.125000
G01 X64.005900 Y-185.705000 Z-0.125000
G01 X63.231900 Y-183.755000 Z-0.125000
G01 X62.242300 Y-182.060000 Z-0.125000
G01 X61.027300 Y-180.580000 Z-0.125000
G01 X59.655600 Y-179.355000 Z-0.125000
G01 X58.176100 Y-178.327000 Z-0.125000
G01 X56.637900 Y-177.513000 Z-0.125000
G01 X55.031000 Y-176.906000 Z-0.125000
G01 X53.424100 Y-176.494000 Z-0.125000
G01 X51.836900 Y-176.230000 Z-0.125000
G01 X50.367200 Y-176.142000 Z-0.125000
G01 X27.361600 Y-176.142000 Z-0.125000
G01 X27.361600 Y-186.332000 Z-0.125000
G00 Z5.000000

(End cutting path id: path60973)


(Start cutting path id: path60967)
(Change tool to Default tool)

G00 Z5.000000
G00 X69.835500 Y-182.915000

G01 Z-0.125000 F100.0(Penetrate)
G01 X74.488500 Y-178.262000 Z-0.125000 F400.000000
G01 X75.859900 Y-177.452000 Z-0.125000
G01 X76.408000 Y-177.290000 Z-0.125000
G01 X76.491800 Y-177.333000 Z-0.125000
G01 X76.389300 Y-177.484000 Z-0.125000
G01 X69.235400 Y-184.638000 Z-0.125000
G01 X68.847400 Y-185.201000 Z-0.125000
G01 X68.583100 Y-185.852000 Z-0.125000
G01 X68.529300 Y-186.291000 Z-0.125000
G01 X68.772800 Y-186.223000 Z-0.125000
G01 X77.945500 Y-177.050000 Z-0.125000
G01 X78.471400 Y-176.700000 Z-0.125000
G01 X79.039100 Y-176.518000 Z-0.125000
G01 X79.396300 Y-176.547000 Z-0.125000
G01 X79.290800 Y-176.828000 Z-0.125000
G01 X68.445400 Y-187.673000 Z-0.125000
G01 X68.104700 Y-188.189000 Z-0.125000
G01 X67.944600 Y-188.735000 Z-0.125000
G01 X67.994900 Y-189.071000 Z-0.125000
G01 X68.285700 Y-188.955000 Z-0.125000
G01 X80.530700 Y-176.710000 Z-0.125000
G01 X81.024200 Y-176.392000 Z-0.125000
G01 X81.520600 Y-176.282000 Z-0.125000
G01 X81.806500 Y-176.382000 Z-0.125000
G01 X81.668500 Y-176.695000 Z-0.125000
G01 X68.240900 Y-190.123000 Z-0.125000
G01 X67.925200 Y-190.614000 Z-0.125000
G01 X67.820000 Y-191.105000 Z-0.125000
G01 X67.925200 Y-191.385000 Z-0.125000
G01 X68.240900 Y-191.245000 Z-0.125000
G01 X82.791100 Y-176.695000 Z-0.125000
G01 X83.282200 Y-176.379000 Z-0.125000
G01 X83.773300 Y-176.274000 Z-0.125000
G01 X84.053900 Y-176.379000 Z-0.125000
G01 X83.913600 Y-176.695000 Z-0.125000
G01 X68.240900 Y-192.368000 Z-0.125000
G01 X67.925200 Y-192.859000 Z-0.125000
G01 X67.820000 Y-193.350000 Z-0.125000
G01 X67.925200 Y-193.631000 Z-0.125000
G01 X68.240900 Y-193.490000 Z-0.125000
G01 X85.036100 Y-176.695000 Z-0.125000
G01 X85.527300 Y-176.379000 Z-0.125000
G01 X86.018400 Y-176.274000 Z-0.125000
G01 X86.299000 Y-176.379000 Z-0.125000
G01 X86.158700 Y-176.695000 Z-0.125000
G01 X68.240900 Y-194.613000 Z-0.125000
G01 X67.925200 Y-195.104000 Z-0.125000
G01 X67.820000 Y-195.595000 Z-0.125000
G01 X67.925200 Y-195.876000 Z-0.125000
G01 X68.240900 Y-195.735000 Z-0.125000
G01 X87.281200 Y-176.695000 Z-0.125000
G01 X87.772300 Y-176.379000 Z-0.125000
G01 X88.263400 Y-176.274000 Z-0.125000
G01 X88.544100 Y-176.379000 Z-0.125000
G01 X88.403700 Y-176.695000 Z-0.125000
G01 X68.240900 Y-196.858000 Z-0.125000
G01 X67.925200 Y-197.349000 Z-0.125000
G01 X67.820000 Y-197.840000 Z-0.125000
G01 X67.925200 Y-198.121000 Z-0.125000
G01 X68.240900 Y-197.980000 Z-0.125000
G01 X89.526300 Y-176.695000 Z-0.125000
G01 X90.017400 Y-176.379000 Z-0.125000
G01 X90.508500 Y-176.274000 Z-0.125000
G01 X90.789100 Y-176.379000 Z-0.125000
G01 X90.648800 Y-176.695000 Z-0.125000
G01 X81.509600 Y-185.834000 Z-0.125000
G01 X81.378000 Y-186.141000 Z-0.125000
G01 X81.677800 Y-186.227000 Z-0.125000
G01 X82.188100 Y-186.103000 Z-0.125000
G01 X82.688000 Y-185.778000 Z-0.125000
G01 X91.771300 Y-176.695000 Z-0.125000
G01 X92.262400 Y-176.379000 Z-0.125000
G01 X92.753600 Y-176.274000 Z-0.125000
G01 X93.034200 Y-176.379000 Z-0.125000
G01 X92.893900 Y-176.695000 Z-0.125000
G01 X83.810500 Y-185.778000 Z-0.125000
G01 X83.670200 Y-186.094000 Z-0.125000
G01 X83.950800 Y-186.199000 Z-0.125000
G01 X84.441900 Y-186.094000 Z-0.125000
G01 X84.933000 Y-185.778000 Z-0.125000
G01 X94.016400 Y-176.695000 Z-0.125000
G01 X94.507500 Y-176.379000 Z-0.125000
G01 X94.998600 Y-176.274000 Z-0.125000
G01 X95.279300 Y-176.379000 Z-0.125000
G01 X95.138900 Y-176.695000 Z-0.125000
G01 X86.055600 Y-185.778000 Z-0.125000
G01 X85.915200 Y-186.094000 Z-0.125000
G01 X86.195900 Y-186.199000 Z-0.125000
G01 X86.687000 Y-186.094000 Z-0.125000
G01 X87.178100 Y-185.778000 Z-0.125000
G01 X96.261500 Y-176.695000 Z-0.125000
G01 X96.752600 Y-176.379000 Z-0.125000
G01 X97.243700 Y-176.274000 Z-0.125000
G01 X97.524300 Y-176.379000 Z-0.125000
G01 X97.384000 Y-176.695000 Z-0.125000
G01 X88.300600 Y-185.778000 Z-0.125000
G01 X88.160300 Y-186.094000 Z-0.125000
G01 X88.440900 Y-186.199000 Z-0.125000
G01 X88.932000 Y-186.094000 Z-0.125000
G01 X89.423200 Y-185.778000 Z-0.125000
G01 X98.506500 Y-176.695000 Z-0.125000
G01 X98.997600 Y-176.379000 Z-0.125000
G01 X99.488700 Y-176.274000 Z-0.125000
G01 X99.769400 Y-176.379000 Z-0.125000
G01 X99.629100 Y-176.695000 Z-0.125000
G01 X90.545700 Y-185.778000 Z-0.125000
G01 X90.405400 Y-186.094000 Z-0.125000
G01 X90.686000 Y-186.199000 Z-0.125000
G01 X91.177100 Y-186.094000 Z-0.125000
G01 X91.668200 Y-185.778000 Z-0.125000
G01 X100.725000 Y-176.722000 Z-0.125000
G01 X101.200000 Y-176.422000 Z-0.125000
G01 X101.657000 Y-176.351000 Z-0.125000
G01 X101.903000 Y-176.491000 Z-0.125000
G01 X101.747000 Y-176.823000 Z-0.125000
G01 X92.790800 Y-185.778000 Z-0.125000
G01 X92.650400 Y-186.094000 Z-0.125000
G01 X92.931100 Y-186.199000 Z-0.125000
G01 X93.422200 Y-186.094000 Z-0.125000
G01 X93.913300 Y-185.778000 Z-0.125000
G01 X102.711000 Y-176.980000 Z-0.125000
G01 X103.170000 Y-176.697000 Z-0.125000
G01 X103.590000 Y-176.663000 Z-0.125000
G01 X103.800000 Y-176.839000 Z-0.125000
G01 X103.627000 Y-177.187000 Z-0.125000
G01 X95.035800 Y-185.778000 Z-0.125000
G01 X94.895500 Y-186.094000 Z-0.125000
G01 X95.176100 Y-186.199000 Z-0.125000
G01 X95.667200 Y-186.094000 Z-0.125000
G01 X96.158300 Y-185.778000 Z-0.125000
G01 X104.511000 Y-177.425000 Z-0.125000
G01 X104.959000 Y-177.154000 Z-0.125000
G01 X105.353000 Y-177.145000 Z-0.125000
G01 X105.537000 Y-177.347000 Z-0.125000
G01 X105.353000 Y-177.706000 Z-0.125000
G01 X97.280900 Y-185.778000 Z-0.125000
G01 X97.140600 Y-186.094000 Z-0.125000
G01 X97.421200 Y-186.199000 Z-0.125000
G01 X97.912300 Y-186.094000 Z-0.125000
G01 X98.403400 Y-185.778000 Z-0.125000
G01 X106.150000 Y-178.032000 Z-0.125000
G01 X106.584000 Y-177.773000 Z-0.125000
G01 X106.949000 Y-177.794000 Z-0.125000
G01 X107.104000 Y-178.025000 Z-0.125000
G01 X106.906000 Y-178.398000 Z-0.125000
G01 X99.525900 Y-185.778000 Z-0.125000
G01 X99.385600 Y-186.094000 Z-0.125000
G01 X99.666300 Y-186.199000 Z-0.125000
G01 X100.157000 Y-186.094000 Z-0.125000
G01 X100.648000 Y-185.778000 Z-0.125000
G01 X107.622000 Y-178.805000 Z-0.125000
G01 X108.044000 Y-178.558000 Z-0.125000
G01 X108.383000 Y-178.605000 Z-0.125000
G01 X108.511000 Y-178.863000 Z-0.125000
G01 X108.302000 Y-179.248000 Z-0.125000
G01 X101.702000 Y-185.847000 Z-0.125000
G01 X101.527000 Y-186.198000 Z-0.125000
G01 X101.730000 Y-186.380000 Z-0.125000
G01 X102.144000 Y-186.352000 Z-0.125000
G01 X102.600000 Y-186.072000 Z-0.125000
G01 X108.951000 Y-179.721000 Z-0.125000
G01 X109.363000 Y-179.484000 Z-0.125000
G01 X109.681000 Y-179.552000 Z-0.125000
G01 X109.789000 Y-179.830000 Z-0.125000
G01 X109.570000 Y-180.225000 Z-0.125000
G01 X103.358000 Y-186.437000 Z-0.125000
G01 X103.138000 Y-186.832000 Z-0.125000
G01 X103.245000 Y-187.111000 Z-0.125000
G01 X103.561000 Y-187.180000 Z-0.125000
G01 X103.973000 Y-186.944000 Z-0.125000
G01 X110.151000 Y-180.766000 Z-0.125000
G01 X110.552000 Y-180.541000 Z-0.125000
G01 X110.844000 Y-180.634000 Z-0.125000
G01 X110.926000 Y-180.939000 Z-0.125000
G01 X110.695000 Y-181.345000 Z-0.125000
G01 X104.455000 Y-187.584000 Z-0.125000
G01 X104.192000 Y-188.023000 Z-0.125000
G01 X104.202000 Y-188.399000 Z-0.125000
G01 X104.422000 Y-188.564000 Z-0.125000
G01 X104.791000 Y-188.372000 Z-0.125000
G01 X111.204000 Y-181.958000 Z-0.125000
G01 X111.595000 Y-181.743000 Z-0.125000
G01 X111.864000 Y-181.860000 Z-0.125000
G01 X111.922000 Y-182.187000 Z-0.125000
G01 X111.681000 Y-182.603000 Z-0.125000
G01 X104.970000 Y-189.315000 Z-0.125000
G01 X104.659000 Y-189.801000 Z-0.125000
G01 X104.565000 Y-190.280000 Z-0.125000
G01 X104.682000 Y-190.550000 Z-0.125000
G01 X105.003000 Y-190.404000 Z-0.125000
G01 X112.126000 Y-183.281000 Z-0.125000
G01 X112.507000 Y-183.076000 Z-0.125000
G01 X112.754000 Y-183.214000 Z-0.125000
G01 X112.791000 Y-183.563000 Z-0.125000
G01 X112.540000 Y-183.990000 Z-0.125000
G01 X105.003000 Y-191.527000 Z-0.125000
G01 X104.687000 Y-192.018000 Z-0.125000
G01 X104.582000 Y-192.509000 Z-0.125000
G01 X104.687000 Y-192.790000 Z-0.125000
G01 X105.003000 Y-192.649000 Z-0.125000
G01 X112.918000 Y-184.734000 Z-0.125000
G01 X113.285000 Y-184.543000 Z-0.125000
G01 X113.502000 Y-184.711000 Z-0.125000
G01 X113.510000 Y-185.090000 Z-0.125000
G01 X113.245000 Y-185.529000 Z-0.125000
G01 X105.003000 Y-193.772000 Z-0.125000
G01 X104.687000 Y-194.263000 Z-0.125000
G01 X104.582000 Y-194.754000 Z-0.125000
G01 X104.687000 Y-195.035000 Z-0.125000
G01 X105.003000 Y-194.894000 Z-0.125000
G01 X113.521000 Y-186.376000 Z-0.125000
G01 X113.872000 Y-186.201000 Z-0.125000
G01 X114.054000 Y-186.405000 Z-0.125000
G01 X114.025000 Y-186.819000 Z-0.125000
G01 X113.744000 Y-187.275000 Z-0.125000
G01 X105.003000 Y-196.017000 Z-0.125000
G01 X104.687000 Y-196.508000 Z-0.125000
G01 X104.582000 Y-196.999000 Z-0.125000
G01 X104.687000 Y-197.280000 Z-0.125000
G01 X105.003000 Y-197.140000 Z-0.125000
G01 X113.910000 Y-188.232000 Z-0.125000
G01 X114.244000 Y-188.074000 Z-0.125000
G01 X114.387000 Y-188.316000 Z-0.125000
G01 X114.321000 Y-188.769000 Z-0.125000
G01 X114.023000 Y-189.242000 Z-0.125000
G01 X105.003000 Y-198.262000 Z-0.125000
G01 X104.687000 Y-198.753000 Z-0.125000
G01 X104.582000 Y-199.244000 Z-0.125000
G01 X104.687000 Y-199.525000 Z-0.125000
G01 X105.003000 Y-199.385000 Z-0.125000
G01 X114.079000 Y-190.308000 Z-0.125000
G01 X114.396000 Y-190.167000 Z-0.125000
G01 X114.504000 Y-190.445000 Z-0.125000
G01 X114.401000 Y-190.934000 Z-0.125000
G01 X114.086000 Y-191.424000 Z-0.125000
G01 X105.003000 Y-200.507000 Z-0.125000
G01 X104.687000 Y-200.998000 Z-0.125000
G01 X104.582000 Y-201.489000 Z-0.125000
G01 X104.687000 Y-201.770000 Z-0.125000
G01 X105.003000 Y-201.630000 Z-0.125000
G01 X114.086000 Y-192.546000 Z-0.125000
G01 X114.402000 Y-192.406000 Z-0.125000
G01 X114.507000 Y-192.687000 Z-0.125000
G01 X114.402000 Y-193.178000 Z-0.125000
G01 X114.086000 Y-193.669000 Z-0.125000
G01 X105.003000 Y-202.752000 Z-0.125000
G01 X104.687000 Y-203.244000 Z-0.125000
G01 X104.581000 Y-203.735000 Z-0.125000
G01 X104.686000 Y-204.016000 Z-0.125000
G01 X105.001000 Y-203.876000 Z-0.125000
G01 X114.086000 Y-194.791000 Z-0.125000
G01 X114.402000 Y-194.651000 Z-0.125000
G01 X114.507000 Y-194.932000 Z-0.125000
G01 X114.402000 Y-195.423000 Z-0.125000
G01 X114.086000 Y-195.914000 Z-0.125000
G01 X104.440000 Y-205.560000 Z-0.125000
G00 Z5.000000

(End cutting path id: path60967)


(Start cutting path id: path60968)
(Change tool to Default tool)

G00 Z5.000000
G00 X77.801900 Y-189.542000

G01 Z-0.125000 F100.0(Penetrate)
G01 X68.240600 Y-199.103000 Z-0.125000 F400.000000
G01 X67.924900 Y-199.594000 Z-0.125000
G01 X67.819700 Y-200.085000 Z-0.125000
G01 X67.924900 Y-200.366000 Z-0.125000
G01 X68.240600 Y-200.225000 Z-0.125000
G01 X77.324000 Y-191.142000 Z-0.125000
G01 X77.639700 Y-191.002000 Z-0.125000
G01 X77.745000 Y-191.282000 Z-0.125000
G01 X77.639700 Y-191.774000 Z-0.125000
G01 X77.324000 Y-192.265000 Z-0.125000
G01 X68.240600 Y-201.348000 Z-0.125000
G01 X67.924900 Y-201.839000 Z-0.125000
G01 X67.819700 Y-202.330000 Z-0.125000
G01 X67.924900 Y-202.611000 Z-0.125000
G01 X68.240600 Y-202.471000 Z-0.125000
G01 X77.324000 Y-193.387000 Z-0.125000
G01 X77.639700 Y-193.247000 Z-0.125000
G01 X77.745000 Y-193.527000 Z-0.125000
G01 X77.639700 Y-194.019000 Z-0.125000
G01 X77.324000 Y-194.510000 Z-0.125000
G01 X68.240600 Y-203.593000 Z-0.125000
G01 X67.928600 Y-204.080000 Z-0.125000
G01 X67.831400 Y-204.564000 Z-0.125000
G01 X67.944700 Y-204.836000 Z-0.125000
G01 X68.264100 Y-204.692000 Z-0.125000
G01 X77.324000 Y-195.632000 Z-0.125000
G01 X77.639700 Y-195.492000 Z-0.125000
G01 X77.745000 Y-195.773000 Z-0.125000
G01 X77.639700 Y-196.264000 Z-0.125000
G01 X77.324000 Y-196.755000 Z-0.125000
G01 X68.342200 Y-205.737000 Z-0.125000
G01 X68.047900 Y-206.206000 Z-0.125000
G01 X67.989900 Y-206.650000 Z-0.125000
G01 X68.142400 Y-206.884000 Z-0.125000
G01 X68.479600 Y-206.722000 Z-0.125000
G01 X77.324000 Y-197.877000 Z-0.125000
G01 X77.639700 Y-197.737000 Z-0.125000
G01 X77.745000 Y-198.018000 Z-0.125000
G01 X77.639700 Y-198.509000 Z-0.125000
G01 X77.324000 Y-199.000000 Z-0.125000
G01 X68.672400 Y-207.651000 Z-0.125000
G01 X68.394800 Y-208.104000 Z-0.125000
G01 X68.373400 Y-208.512000 Z-0.125000
G01 X68.562400 Y-208.709000 Z-0.125000
G01 X68.916200 Y-208.530000 Z-0.125000
G01 X77.324000 Y-200.122000 Z-0.125000
G01 X77.639700 Y-199.982000 Z-0.125000
G01 X77.745000 Y-200.263000 Z-0.125000
G01 X77.639700 Y-200.754000 Z-0.125000
G01 X77.324000 Y-201.245000 Z-0.125000
G01 X69.210300 Y-209.359000 Z-0.125000
G01 X68.946300 Y-209.798000 Z-0.125000
G01 X68.954900 Y-210.175000 Z-0.125000
G01 X69.174000 Y-210.342000 Z-0.125000
G01 X69.541500 Y-210.150000 Z-0.125000
G01 X77.324000 Y-202.367000 Z-0.125000
G01 X77.639700 Y-202.227000 Z-0.125000
G01 X77.745000 Y-202.508000 Z-0.125000
G01 X77.639700 Y-202.999000 Z-0.125000
G01 X77.324000 Y-203.490000 Z-0.125000
G01 X69.909100 Y-210.905000 Z-0.125000
G01 X69.657100 Y-211.332000 Z-0.125000
G01 X69.692100 Y-211.683000 Z-0.125000
G01 X69.937600 Y-211.824000 Z-0.125000
G01 X70.317000 Y-211.619000 Z-0.125000
G01 X77.324000 Y-204.612000 Z-0.125000
G01 X77.652800 Y-204.459000 Z-0.125000
G01 X77.786600 Y-204.711000 Z-0.125000
G01 X77.710100 Y-205.174000 Z-0.125000
G01 X77.407400 Y-205.652000 Z-0.125000
G01 X70.764400 Y-212.295000 Z-0.125000
G01 X70.524900 Y-212.710000 Z-0.125000
G01 X70.587200 Y-213.033000 Z-0.125000
G01 X70.860000 Y-213.146000 Z-0.125000
G01 X71.251900 Y-212.930000 Z-0.125000
G01 X77.629700 Y-206.552000 Z-0.125000
G01 X78.003800 Y-206.353000 Z-0.125000
G01 X78.237600 Y-206.505000 Z-0.125000
G01 X78.261000 Y-206.868000 Z-0.125000
G01 X78.003700 Y-207.300000 Z-0.125000
G01 X71.775600 Y-213.529000 Z-0.125000
G01 X71.547400 Y-213.932000 Z-0.125000
G01 X71.634800 Y-214.231000 Z-0.125000
G01 X71.932700 Y-214.319000 Z-0.125000
G01 X72.335900 Y-214.091000 Z-0.125000
G01 X78.518700 Y-207.908000 Z-0.125000
G01 X78.937700 Y-207.664000 Z-0.125000
G01 X79.270300 Y-207.718000 Z-0.125000
G01 X79.392300 Y-207.981000 Z-0.125000
G01 X79.179900 Y-208.369000 Z-0.125000
G01 X72.932200 Y-214.617000 Z-0.125000
G01 X72.716100 Y-215.008000 Z-0.125000
G01 X72.829900 Y-215.281000 Z-0.125000
G01 X73.154200 Y-215.342000 Z-0.125000
G01 X73.569500 Y-215.102000 Z-0.125000
G01 X79.989600 Y-208.682000 Z-0.125000
G01 X80.459500 Y-208.388000 Z-0.125000
G01 X80.903700 Y-208.329000 Z-0.125000
G01 X81.137600 Y-208.481000 Z-0.125000
G01 X80.975900 Y-208.818000 Z-0.125000
G01 X74.241500 Y-215.553000 Z-0.125000
G01 X74.035800 Y-215.934000 Z-0.125000
G01 X74.172600 Y-216.183000 Z-0.125000
G01 X74.519900 Y-216.221000 Z-0.125000
G01 X74.945700 Y-215.971000 Z-0.125000
G01 X82.045200 Y-208.871000 Z-0.125000
G01 X82.536400 Y-208.556000 Z-0.125000
G01 X83.027500 Y-208.451000 Z-0.125000
G01 X83.308100 Y-208.556000 Z-0.125000
G01 X83.167800 Y-208.871000 Z-0.125000
G01 X75.683400 Y-216.356000 Z-0.125000
G01 X75.488300 Y-216.726000 Z-0.125000
G01 X75.648200 Y-216.952000 Z-0.125000
G01 X76.018600 Y-216.968000 Z-0.125000
G01 X76.454900 Y-216.707000 Z-0.125000
G01 X84.290300 Y-208.871000 Z-0.125000
G01 X84.781400 Y-208.556000 Z-0.125000
G01 X85.272500 Y-208.451000 Z-0.125000
G01 X85.553200 Y-208.556000 Z-0.125000
G01 X85.412800 Y-208.871000 Z-0.125000
G01 X77.257500 Y-217.027000 Z-0.125000
G01 X77.073000 Y-217.387000 Z-0.125000
G01 X77.256400 Y-217.589000 Z-0.125000
G01 X77.650300 Y-217.581000 Z-0.125000
G01 X78.097300 Y-217.310000 Z-0.125000
G01 X86.535400 Y-208.871000 Z-0.125000
G01 X87.026500 Y-208.556000 Z-0.125000
G01 X87.517600 Y-208.451000 Z-0.125000
G01 X87.798200 Y-208.556000 Z-0.125000
G01 X87.657900 Y-208.871000 Z-0.125000
G01 X78.977900 Y-217.552000 Z-0.125000
G01 X78.808300 Y-217.896000 Z-0.125000
G01 X79.024700 Y-218.066000 Z-0.125000
G01 X79.451500 Y-218.025000 Z-0.125000
G01 X79.913400 Y-217.739000 Z-0.125000
G01 X88.780400 Y-208.871000 Z-0.125000
G01 X89.271500 Y-208.556000 Z-0.125000
G01 X89.762700 Y-208.451000 Z-0.125000
G01 X90.043300 Y-208.556000 Z-0.125000
G01 X89.903000 Y-208.871000 Z-0.125000
G01 X80.901400 Y-217.873000 Z-0.125000
G01 X80.749700 Y-218.200000 Z-0.125000
G01 X81.005300 Y-218.330000 Z-0.125000
G01 X81.471300 Y-218.250000 Z-0.125000
G01 X81.951000 Y-217.946000 Z-0.125000
G01 X91.025500 Y-208.872000 Z-0.125000
G01 X91.516600 Y-208.556000 Z-0.125000
G01 X92.007700 Y-208.451000 Z-0.125000
G01 X92.288400 Y-208.556000 Z-0.125000
G01 X92.148000 Y-208.872000 Z-0.125000
G01 X83.064600 Y-217.955000 Z-0.125000
G01 X82.924300 Y-218.271000 Z-0.125000
G01 X83.205000 Y-218.376000 Z-0.125000
G01 X83.696100 Y-218.271000 Z-0.125000
G01 X84.187200 Y-217.955000 Z-0.125000
G01 X93.270600 Y-208.872000 Z-0.125000
G01 X93.761700 Y-208.556000 Z-0.125000
G01 X94.252800 Y-208.451000 Z-0.125000
G01 X94.533400 Y-208.556000 Z-0.125000
G01 X94.393100 Y-208.872000 Z-0.125000
G01 X85.309700 Y-217.955000 Z-0.125000
G01 X85.169400 Y-218.271000 Z-0.125000
G01 X85.450000 Y-218.376000 Z-0.125000
G01 X85.941100 Y-218.271000 Z-0.125000
G01 X86.432200 Y-217.955000 Z-0.125000
G01 X95.515600 Y-208.872000 Z-0.125000
G01 X96.006700 Y-208.556000 Z-0.125000
G01 X96.497800 Y-208.451000 Z-0.125000
G01 X96.778500 Y-208.556000 Z-0.125000
G01 X96.638200 Y-208.872000 Z-0.125000
G01 X87.554800 Y-217.955000 Z-0.125000
G01 X87.414500 Y-218.271000 Z-0.125000
G01 X87.695100 Y-218.376000 Z-0.125000
G01 X88.186200 Y-218.271000 Z-0.125000
G01 X88.677300 Y-217.955000 Z-0.125000
G01 X97.760700 Y-208.872000 Z-0.125000
G01 X98.251800 Y-208.556000 Z-0.125000
G01 X98.742900 Y-208.451000 Z-0.125000
G01 X99.023500 Y-208.556000 Z-0.125000
G01 X98.883200 Y-208.872000 Z-0.125000
G01 X89.799800 Y-217.955000 Z-0.125000
G01 X89.659500 Y-218.271000 Z-0.125000
G01 X89.940200 Y-218.376000 Z-0.125000
G01 X90.431300 Y-218.271000 Z-0.125000
G01 X90.922400 Y-217.955000 Z-0.125000
G01 X100.037000 Y-208.841000 Z-0.125000
G01 X100.546000 Y-208.507000 Z-0.125000
G01 X101.077000 Y-208.362000 Z-0.125000
G01 X101.398000 Y-208.427000 Z-0.125000
G01 X101.275000 Y-208.724000 Z-0.125000
G01 X92.044900 Y-217.955000 Z-0.125000
G01 X91.904600 Y-218.271000 Z-0.125000
G01 X92.185200 Y-218.376000 Z-0.125000
G01 X92.676300 Y-218.271000 Z-0.125000
G01 X93.167400 Y-217.955000 Z-0.125000
G01 X114.086000 Y-197.036000 Z-0.125000
G01 X114.402000 Y-196.896000 Z-0.125000
G01 X114.507000 Y-197.177000 Z-0.125000
G01 X114.402000 Y-197.668000 Z-0.125000
G01 X114.086000 Y-198.159000 Z-0.125000
G01 X94.290000 Y-217.955000 Z-0.125000
G01 X94.149700 Y-218.271000 Z-0.125000
G01 X94.430300 Y-218.376000 Z-0.125000
G01 X94.921400 Y-218.271000 Z-0.125000
G01 X95.412500 Y-217.955000 Z-0.125000
G01 X114.086000 Y-199.281000 Z-0.125000
G01 X114.402000 Y-199.141000 Z-0.125000
G01 X114.507000 Y-199.422000 Z-0.125000
G01 X114.402000 Y-199.913000 Z-0.125000
G01 X114.086000 Y-200.404000 Z-0.125000
G01 X96.535300 Y-217.955000 Z-0.125000
G01 X96.395000 Y-218.271000 Z-0.125000
G01 X96.675600 Y-218.376000 Z-0.125000
G01 X97.166700 Y-218.271000 Z-0.125000
G01 X97.657800 Y-217.955000 Z-0.125000
G01 X114.086000 Y-201.526000 Z-0.125000
G01 X114.402000 Y-201.386000 Z-0.125000
G01 X114.507000 Y-201.667000 Z-0.125000
G01 X114.402000 Y-202.158000 Z-0.125000
G01 X114.086000 Y-202.649000 Z-0.125000
G01 X98.780400 Y-217.955000 Z-0.125000
G01 X98.640100 Y-218.271000 Z-0.125000
G01 X98.920700 Y-218.376000 Z-0.125000
G01 X99.411800 Y-218.271000 Z-0.125000
G01 X99.902900 Y-217.955000 Z-0.125000
G01 X114.086000 Y-203.772000 Z-0.125000
G01 X114.401000 Y-203.632000 Z-0.125000
G01 X114.506000 Y-203.913000 Z-0.125000
G01 X114.399000 Y-204.406000 Z-0.125000
G01 X114.083000 Y-204.897000 Z-0.125000
G01 X101.031000 Y-217.950000 Z-0.125000
G01 X100.903000 Y-218.253000 Z-0.125000
G01 X101.210000 Y-218.331000 Z-0.125000
G01 X101.729000 Y-218.199000 Z-0.125000
G01 X102.232000 Y-217.871000 Z-0.125000
G01 X114.036000 Y-206.066000 Z-0.125000
G01 X114.331000 Y-205.947000 Z-0.125000
G01 X114.389000 Y-206.275000 Z-0.125000
G01 X114.237000 Y-206.813000 Z-0.125000
G01 X113.900000 Y-207.326000 Z-0.125000
G01 X103.557000 Y-217.668000 Z-0.125000
G01 X103.472000 Y-217.929000 Z-0.125000
G01 X103.875000 Y-217.912000 Z-0.125000
G01 X104.488000 Y-217.684000 Z-0.125000
G01 X105.035000 Y-217.313000 Z-0.125000
G01 X113.631000 Y-208.717000 Z-0.125000
G01 X113.872000 Y-208.652000 Z-0.125000
G01 X113.812000 Y-209.098000 Z-0.125000
G01 X113.541000 Y-209.754000 Z-0.125000
G01 X113.150000 Y-210.320000 Z-0.125000
G01 X106.288000 Y-217.183000 Z-0.125000
G00 Z5.000000

(End cutting path id: path60968)


(Start cutting path id: path60969)
(Change tool to Default tool)

G00 Z5.000000
G00 X108.618000 Y-215.975000

G01 Z-0.125000 F100.0(Penetrate)
G01 X112.333000 Y-212.260000 Z-0.125000 F400.000000
G00 Z5.000000

(End cutting path id: path60969)


(Start cutting path id: path60970)
(Change tool to Default tool)

G00 Z5.000000
G00 X67.687800 Y-204.203000

G01 Z-0.125000 F100.0(Penetrate)
G01 X67.854300 Y-206.702000 Z-0.125000 F400.000000
G01 X68.354000 Y-208.945000 Z-0.125000
G01 X69.128100 Y-210.905000 Z-0.125000
G01 X70.117700 Y-212.629000 Z-0.125000
G01 X71.303200 Y-214.089000 Z-0.125000
G01 X72.665100 Y-215.334000 Z-0.125000
G01 X74.154400 Y-216.333000 Z-0.125000
G01 X75.722100 Y-217.136000 Z-0.125000
G01 X77.309300 Y-217.754000 Z-0.125000
G01 X78.935800 Y-218.195000 Z-0.125000
G01 X81.992800 Y-218.508000 Z-0.125000
G01 X100.374000 Y-218.508000 Z-0.125000
G01 X102.588000 Y-218.322000 Z-0.125000
G01 X104.998000 Y-217.763000 Z-0.125000
G01 X107.418000 Y-216.784000 Z-0.125000
G01 X109.662000 Y-215.334000 Z-0.125000
G01 X111.612000 Y-213.364000 Z-0.125000
G01 X113.229000 Y-210.905000 Z-0.125000
G01 X113.846000 Y-209.457000 Z-0.125000
G01 X114.287000 Y-207.858000 Z-0.125000
G01 X114.551000 Y-206.106000 Z-0.125000
G01 X114.640000 Y-204.203000 Z-0.125000
G01 X114.640000 Y-190.408000 Z-0.125000
G01 X114.551000 Y-188.524000 Z-0.125000
G01 X114.287000 Y-186.792000 Z-0.125000
G01 X113.846000 Y-185.212000 Z-0.125000
G01 X113.229000 Y-183.784000 Z-0.125000
G01 X111.612000 Y-181.305000 Z-0.125000
G01 X110.679000 Y-180.264000 Z-0.125000
G01 X109.662000 Y-179.355000 Z-0.125000
G01 X107.418000 Y-177.876000 Z-0.125000
G01 X104.998000 Y-176.886000 Z-0.125000
G01 X102.588000 Y-176.328000 Z-0.125000
G01 X100.374000 Y-176.142000 Z-0.125000
G01 X81.992700 Y-176.142000 Z-0.125000
G01 X80.106600 Y-176.230000 Z-0.125000
G01 X78.367400 Y-176.494000 Z-0.125000
G01 X76.775300 Y-176.935000 Z-0.125000
G01 X75.330100 Y-177.553000 Z-0.125000
G01 X72.851200 Y-179.150000 Z-0.125000
G01 X71.810200 Y-180.088000 Z-0.125000
G01 X70.901400 Y-181.119000 Z-0.125000
G01 X69.451300 Y-183.333000 Z-0.125000
G01 X68.471500 Y-185.744000 Z-0.125000
G01 X67.883600 Y-188.164000 Z-0.125000
G01 X67.687700 Y-190.408000 Z-0.125000
G01 X67.687800 Y-204.203000 Z-0.125000
G00 Z5.000000

(End cutting path id: path60970)


(Start cutting path id: path60971)
(Change tool to Default tool)

G00 Z5.000000
G00 X77.877600 Y-190.486000

G01 Z-0.125000 F100.0(Penetrate)
G01 X77.943800 Y-189.496000 Z-0.125000 F400.000000
G01 X78.142200 Y-188.644000 Z-0.125000
G01 X78.472900 Y-187.929000 Z-0.125000
G01 X78.935800 Y-187.351000 Z-0.125000
G01 X79.523700 Y-186.905000 Z-0.125000
G01 X80.229100 Y-186.586000 Z-0.125000
G01 X81.992800 Y-186.332000 Z-0.125000
G01 X100.295000 Y-186.332000 Z-0.125000
G01 X102.088000 Y-186.596000 Z-0.125000
G01 X102.801000 Y-186.927000 Z-0.125000
G01 X103.391000 Y-187.390000 Z-0.125000
G01 X103.854000 Y-187.960000 Z-0.125000
G01 X104.185000 Y-188.654000 Z-0.125000
G01 X104.450000 Y-190.408000 Z-0.125000
G01 X104.450000 Y-204.203000 Z-0.125000
G01 X104.185000 Y-205.967000 Z-0.125000
G01 X103.854000 Y-206.672000 Z-0.125000
G01 X103.391000 Y-207.260000 Z-0.125000
G01 X102.801000 Y-207.723000 Z-0.125000
G01 X102.088000 Y-208.054000 Z-0.125000
G01 X100.295000 Y-208.318000 Z-0.125000
G01 X81.992700 Y-208.318000 Z-0.125000
G01 X80.180100 Y-208.054000 Z-0.125000
G01 X79.472200 Y-207.723000 Z-0.125000
G01 X78.896500 Y-207.260000 Z-0.125000
G01 X78.450700 Y-206.672000 Z-0.125000
G01 X78.132300 Y-205.967000 Z-0.125000
G01 X77.877500 Y-204.203000 Z-0.125000
G01 X77.877600 Y-190.486000 Z-0.125000
G00 Z5.000000

(End cutting path id: path60971)


(Start cutting path id: path60964)
(Change tool to Default tool)

G00 Z5.000000
G00 X117.199000 Y-158.809000

G01 Z-0.125000 F100.0(Penetrate)
G01 X117.422000 Y-158.586000 Z-0.125000 F400.000000
G01 X117.764000 Y-158.419000 Z-0.125000
G01 X118.206000 Y-158.363000 Z-0.125000
G01 X118.536000 Y-158.419000 Z-0.125000
G01 X118.544000 Y-158.586000 Z-0.125000
G01 X117.620000 Y-159.511000 Z-0.125000
G01 X117.304000 Y-160.002000 Z-0.125000
G01 X117.199000 Y-160.493000 Z-0.125000
G01 X117.304000 Y-160.773000 Z-0.125000
G01 X117.620000 Y-160.633000 Z-0.125000
G01 X119.469000 Y-158.784000 Z-0.125000
G01 X119.960000 Y-158.469000 Z-0.125000
G01 X120.451000 Y-158.363000 Z-0.125000
G01 X120.732000 Y-158.469000 Z-0.125000
G01 X120.591000 Y-158.784000 Z-0.125000
G01 X117.620000 Y-161.756000 Z-0.125000
G01 X117.304000 Y-162.247000 Z-0.125000
G01 X117.199000 Y-162.738000 Z-0.125000
G01 X117.304000 Y-163.018000 Z-0.125000
G01 X117.620000 Y-162.878000 Z-0.125000
G01 X121.714000 Y-158.784000 Z-0.125000
G01 X122.205000 Y-158.469000 Z-0.125000
G01 X122.696000 Y-158.363000 Z-0.125000
G01 X122.977000 Y-158.469000 Z-0.125000
G01 X122.836000 Y-158.784000 Z-0.125000
G01 X117.620000 Y-164.001000 Z-0.125000
G01 X117.304000 Y-164.492000 Z-0.125000
G01 X117.199000 Y-164.983000 Z-0.125000
G01 X117.304000 Y-165.264000 Z-0.125000
G01 X117.620000 Y-165.123000 Z-0.125000
G01 X123.959000 Y-158.784000 Z-0.125000
G01 X124.450000 Y-158.469000 Z-0.125000
G01 X124.941000 Y-158.363000 Z-0.125000
G01 X125.222000 Y-158.469000 Z-0.125000
G01 X125.081000 Y-158.784000 Z-0.125000
G01 X117.620000 Y-166.246000 Z-0.125000
G01 X117.304000 Y-166.737000 Z-0.125000
G01 X117.199000 Y-167.228000 Z-0.125000
G01 X117.304000 Y-167.509000 Z-0.125000
G01 X117.620000 Y-167.368000 Z-0.125000
G01 X126.204000 Y-158.784000 Z-0.125000
G01 X126.598000 Y-158.566000 Z-0.125000
G01 X126.875000 Y-158.675000 Z-0.125000
G01 X126.941000 Y-158.994000 Z-0.125000
G01 X126.704000 Y-159.407000 Z-0.125000
G01 X117.620000 Y-168.491000 Z-0.125000
G01 X117.304000 Y-168.982000 Z-0.125000
G01 X117.199000 Y-169.473000 Z-0.125000
G01 X117.304000 Y-169.754000 Z-0.125000
G01 X117.620000 Y-169.613000 Z-0.125000
G01 X126.704000 Y-160.530000 Z-0.125000
G01 X127.019000 Y-160.390000 Z-0.125000
G01 X127.124000 Y-160.670000 Z-0.125000
G01 X127.019000 Y-161.161000 Z-0.125000
G01 X126.704000 Y-161.653000 Z-0.125000
G01 X117.620000 Y-170.736000 Z-0.125000
G01 X117.304000 Y-171.227000 Z-0.125000
G01 X117.199000 Y-171.718000 Z-0.125000
G01 X117.304000 Y-171.999000 Z-0.125000
G01 X117.620000 Y-171.858000 Z-0.125000
G01 X126.704000 Y-162.775000 Z-0.125000
G01 X127.019000 Y-162.635000 Z-0.125000
G01 X127.124000 Y-162.915000 Z-0.125000
G01 X127.019000 Y-163.406000 Z-0.125000
G01 X126.704000 Y-163.898000 Z-0.125000
G01 X117.620000 Y-172.981000 Z-0.125000
G01 X117.304000 Y-173.472000 Z-0.125000
G01 X117.199000 Y-173.963000 Z-0.125000
G01 X117.304000 Y-174.244000 Z-0.125000
G01 X117.620000 Y-174.103000 Z-0.125000
G01 X126.704000 Y-165.020000 Z-0.125000
G01 X127.019000 Y-164.880000 Z-0.125000
G01 X127.124000 Y-165.160000 Z-0.125000
G01 X127.019000 Y-165.652000 Z-0.125000
G01 X126.704000 Y-166.143000 Z-0.125000
G01 X117.620000 Y-175.226000 Z-0.125000
G01 X117.304000 Y-175.717000 Z-0.125000
G01 X117.199000 Y-176.208000 Z-0.125000
G01 X117.304000 Y-176.489000 Z-0.125000
G01 X117.620000 Y-176.349000 Z-0.125000
G01 X126.704000 Y-167.265000 Z-0.125000
G01 X127.019000 Y-167.125000 Z-0.125000
G01 X127.124000 Y-167.405000 Z-0.125000
G01 X127.019000 Y-167.897000 Z-0.125000
G01 X126.704000 Y-168.388000 Z-0.125000
G01 X117.620000 Y-177.471000 Z-0.125000
G01 X117.304000 Y-177.962000 Z-0.125000
G01 X117.199000 Y-178.453000 Z-0.125000
G01 X117.304000 Y-178.734000 Z-0.125000
G01 X117.620000 Y-178.594000 Z-0.125000
G01 X126.704000 Y-169.510000 Z-0.125000
G01 X127.019000 Y-169.370000 Z-0.125000
G01 X127.124000 Y-169.651000 Z-0.125000
G01 X127.019000 Y-170.142000 Z-0.125000
G01 X126.704000 Y-170.633000 Z-0.125000
G01 X117.620000 Y-179.716000 Z-0.125000
G01 X117.304000 Y-180.207000 Z-0.125000
G01 X117.199000 Y-180.698000 Z-0.125000
G01 X117.304000 Y-180.979000 Z-0.125000
G01 X117.620000 Y-180.839000 Z-0.125000
G01 X126.704000 Y-171.755000 Z-0.125000
G01 X127.019000 Y-171.615000 Z-0.125000
G01 X127.124000 Y-171.896000 Z-0.125000
G01 X127.019000 Y-172.387000 Z-0.125000
G01 X126.704000 Y-172.878000 Z-0.125000
G01 X117.620000 Y-181.961000 Z-0.125000
G01 X117.304000 Y-182.452000 Z-0.125000
G01 X117.199000 Y-182.943000 Z-0.125000
G01 X117.304000 Y-183.224000 Z-0.125000
G01 X117.620000 Y-183.084000 Z-0.125000
G01 X126.704000 Y-174.000000 Z-0.125000
G01 X127.019000 Y-173.860000 Z-0.125000
G01 X127.124000 Y-174.141000 Z-0.125000
G01 X127.019000 Y-174.632000 Z-0.125000
G01 X126.704000 Y-175.123000 Z-0.125000
G01 X117.620000 Y-184.206000 Z-0.125000
G01 X117.304000 Y-184.697000 Z-0.125000
G01 X117.199000 Y-185.188000 Z-0.125000
G01 X117.304000 Y-185.469000 Z-0.125000
G01 X117.620000 Y-185.329000 Z-0.125000
G01 X126.704000 Y-176.245000 Z-0.125000
G01 X127.019000 Y-176.105000 Z-0.125000
G01 X127.124000 Y-176.386000 Z-0.125000
G01 X127.019000 Y-176.877000 Z-0.125000
G01 X126.704000 Y-177.368000 Z-0.125000
G01 X117.620000 Y-186.451000 Z-0.125000
G01 X117.304000 Y-186.942000 Z-0.125000
G01 X117.199000 Y-187.434000 Z-0.125000
G01 X117.304000 Y-187.714000 Z-0.125000
G01 X117.620000 Y-187.574000 Z-0.125000
G01 X126.704000 Y-178.490000 Z-0.125000
G01 X127.019000 Y-178.350000 Z-0.125000
G01 X127.124000 Y-178.631000 Z-0.125000
G01 X127.019000 Y-179.122000 Z-0.125000
G01 X126.704000 Y-179.613000 Z-0.125000
G01 X117.620000 Y-188.696000 Z-0.125000
G01 X117.304000 Y-189.188000 Z-0.125000
G01 X117.199000 Y-189.679000 Z-0.125000
G01 X117.304000 Y-189.959000 Z-0.125000
G01 X117.620000 Y-189.819000 Z-0.125000
G01 X126.704000 Y-180.736000 Z-0.125000
G01 X127.019000 Y-180.595000 Z-0.125000
G01 X127.124000 Y-180.876000 Z-0.125000
G01 X127.019000 Y-181.367000 Z-0.125000
G01 X126.704000 Y-181.858000 Z-0.125000
G01 X117.620000 Y-190.941000 Z-0.125000
G01 X117.304000 Y-191.433000 Z-0.125000
G01 X117.199000 Y-191.924000 Z-0.125000
G01 X117.304000 Y-192.204000 Z-0.125000
G01 X117.620000 Y-192.064000 Z-0.125000
G01 X126.704000 Y-182.981000 Z-0.125000
G01 X127.019000 Y-182.840000 Z-0.125000
G01 X127.124000 Y-183.121000 Z-0.125000
G01 X127.019000 Y-183.612000 Z-0.125000
G01 X126.704000 Y-184.103000 Z-0.125000
G01 X117.620000 Y-193.187000 Z-0.125000
G01 X117.304000 Y-193.678000 Z-0.125000
G01 X117.199000 Y-194.169000 Z-0.125000
G01 X117.304000 Y-194.449000 Z-0.125000
G01 X117.620000 Y-194.309000 Z-0.125000
G01 X126.704000 Y-185.226000 Z-0.125000
G01 X127.019000 Y-185.085000 Z-0.125000
G01 X127.124000 Y-185.366000 Z-0.125000
G01 X127.019000 Y-185.857000 Z-0.125000
G01 X126.704000 Y-186.348000 Z-0.125000
G01 X117.620000 Y-195.432000 Z-0.125000
G01 X117.304000 Y-195.923000 Z-0.125000
G01 X117.199000 Y-196.414000 Z-0.125000
G01 X117.304000 Y-196.694000 Z-0.125000
G01 X117.620000 Y-196.554000 Z-0.125000
G01 X126.704000 Y-187.471000 Z-0.125000
G01 X127.019000 Y-187.330000 Z-0.125000
G01 X127.124000 Y-187.611000 Z-0.125000
G01 X127.019000 Y-188.102000 Z-0.125000
G01 X126.704000 Y-188.593000 Z-0.125000
G01 X117.620000 Y-197.677000 Z-0.125000
G01 X117.304000 Y-198.168000 Z-0.125000
G01 X117.199000 Y-198.659000 Z-0.125000
G01 X117.304000 Y-198.940000 Z-0.125000
G01 X117.620000 Y-198.799000 Z-0.125000
G01 X126.704000 Y-189.716000 Z-0.125000
G01 X127.019000 Y-189.575000 Z-0.125000
G01 X127.124000 Y-189.856000 Z-0.125000
G01 X127.019000 Y-190.347000 Z-0.125000
G01 X126.704000 Y-190.838000 Z-0.125000
G01 X117.620000 Y-199.922000 Z-0.125000
G01 X117.304000 Y-200.413000 Z-0.125000
G01 X117.199000 Y-200.904000 Z-0.125000
G01 X117.304000 Y-201.185000 Z-0.125000
G01 X117.620000 Y-201.044000 Z-0.125000
G01 X126.704000 Y-191.961000 Z-0.125000
G01 X127.019000 Y-191.821000 Z-0.125000
G01 X127.124000 Y-192.101000 Z-0.125000
G01 X127.019000 Y-192.592000 Z-0.125000
G01 X126.704000 Y-193.083000 Z-0.125000
G01 X117.620000 Y-202.167000 Z-0.125000
G01 X117.304000 Y-202.658000 Z-0.125000
G01 X117.199000 Y-203.149000 Z-0.125000
G01 X117.304000 Y-203.430000 Z-0.125000
G01 X117.620000 Y-203.289000 Z-0.125000
G01 X126.704000 Y-194.206000 Z-0.125000
G01 X127.019000 Y-194.066000 Z-0.125000
G01 X127.124000 Y-194.346000 Z-0.125000
G01 X127.019000 Y-194.837000 Z-0.125000
G01 X126.704000 Y-195.328000 Z-0.125000
G01 X117.629000 Y-204.403000 Z-0.125000
G01 X117.324000 Y-204.883000 Z-0.125000
G01 X117.242000 Y-205.352000 Z-0.125000
G01 X117.370000 Y-205.610000 Z-0.125000
G01 X117.696000 Y-205.459000 Z-0.125000
G01 X126.703000 Y-196.451000 Z-0.125000
G01 X127.019000 Y-196.311000 Z-0.125000
G01 X127.124000 Y-196.591000 Z-0.125000
G01 X127.019000 Y-197.082000 Z-0.125000
G01 X126.703000 Y-197.574000 Z-0.125000
G01 X117.817000 Y-206.460000 Z-0.125000
G01 X117.529000 Y-206.924000 Z-0.125000
G01 X117.484000 Y-207.355000 Z-0.125000
G01 X117.649000 Y-207.575000 Z-0.125000
G01 X117.992000 Y-207.407000 Z-0.125000
G01 X126.703000 Y-198.696000 Z-0.125000
G01 X127.019000 Y-198.556000 Z-0.125000
G01 X127.124000 Y-198.836000 Z-0.125000
G01 X127.019000 Y-199.327000 Z-0.125000
G01 X126.703000 Y-199.819000 Z-0.125000
G01 X118.226000 Y-208.297000 Z-0.125000
G01 X117.954000 Y-208.744000 Z-0.125000
G01 X117.945000 Y-209.138000 Z-0.125000
G01 X118.147000 Y-209.322000 Z-0.125000
G01 X118.507000 Y-209.138000 Z-0.125000
G01 X126.703000 Y-200.941000 Z-0.125000
G01 X127.019000 Y-200.801000 Z-0.125000
G01 X127.124000 Y-201.081000 Z-0.125000
G01 X127.019000 Y-201.573000 Z-0.125000
G01 X126.703000 Y-202.064000 Z-0.125000
G01 X118.826000 Y-209.941000 Z-0.125000
G01 X118.566000 Y-210.376000 Z-0.125000
G01 X118.585000 Y-210.743000 Z-0.125000
G01 X118.814000 Y-210.900000 Z-0.125000
G01 X119.186000 Y-210.704000 Z-0.125000
G01 X126.703000 Y-203.186000 Z-0.125000
G01 X127.019000 Y-203.046000 Z-0.125000
G01 X127.124000 Y-203.327000 Z-0.125000
G01 X127.019000 Y-203.818000 Z-0.125000
G01 X126.703000 Y-204.309000 Z-0.125000
G01 X119.583000 Y-211.430000 Z-0.125000
G01 X119.335000 Y-211.853000 Z-0.125000
G01 X119.378000 Y-212.195000 Z-0.125000
G01 X119.632000 Y-212.327000 Z-0.125000
G01 X120.016000 Y-212.119000 Z-0.125000
G01 X126.752000 Y-205.382000 Z-0.125000
G01 X127.103000 Y-205.207000 Z-0.125000
G01 X127.285000 Y-205.411000 Z-0.125000
G01 X127.256000 Y-205.825000 Z-0.125000
G01 X126.976000 Y-206.282000 Z-0.125000
G01 X120.504000 Y-212.753000 Z-0.125000
G01 X120.270000 Y-213.163000 Z-0.125000
G01 X120.343000 Y-213.475000 Z-0.125000
G01 X120.627000 Y-213.577000 Z-0.125000
G01 X121.024000 Y-213.356000 Z-0.125000
G01 X127.346000 Y-207.034000 Z-0.125000
G01 X127.739000 Y-206.816000 Z-0.125000
G01 X128.015000 Y-206.926000 Z-0.125000
G01 X128.081000 Y-207.246000 Z-0.125000
G01 X127.843000 Y-207.659000 Z-0.125000
G01 X121.576000 Y-213.926000 Z-0.125000
G01 X121.352000 Y-214.326000 Z-0.125000
G01 X121.449000 Y-214.615000 Z-0.125000
G01 X121.756000 Y-214.693000 Z-0.125000
G01 X122.164000 Y-214.461000 Z-0.125000
G01 X128.460000 Y-208.165000 Z-0.125000
G01 X128.891000 Y-207.909000 Z-0.125000
G01 X129.249000 Y-207.937000 Z-0.125000
G01 X129.396000 Y-208.176000 Z-0.125000
G01 X129.196000 Y-208.552000 Z-0.125000
G01 X122.789000 Y-214.958000 Z-0.125000
G01 X122.577000 Y-215.346000 Z-0.125000
G01 X122.699000 Y-215.610000 Z-0.125000
G01 X123.032000 Y-215.663000 Z-0.125000
G01 X123.451000 Y-215.419000 Z-0.125000
G01 X130.071000 Y-208.799000 Z-0.125000
G01 X130.551000 Y-208.495000 Z-0.125000
G01 X131.017000 Y-208.414000 Z-0.125000
G01 X131.273000 Y-208.544000 Z-0.125000
G01 X131.121000 Y-208.871000 Z-0.125000
G01 X124.142000 Y-215.851000 Z-0.125000
G01 X123.939000 Y-216.229000 Z-0.125000
G01 X124.082000 Y-216.471000 Z-0.125000
G01 X124.436000 Y-216.503000 Z-0.125000
G01 X124.865000 Y-216.250000 Z-0.125000
G01 X132.244000 Y-208.871000 Z-0.125000
G01 X132.735000 Y-208.556000 Z-0.125000
G01 X133.226000 Y-208.451000 Z-0.125000
G01 X133.506000 Y-208.556000 Z-0.125000
G01 X133.366000 Y-208.871000 Z-0.125000
G01 X125.616000 Y-216.622000 Z-0.125000
G01 X125.425000 Y-216.988000 Z-0.125000
G01 X125.595000 Y-217.203000 Z-0.125000
G01 X125.976000 Y-217.208000 Z-0.125000
G01 X126.417000 Y-216.943000 Z-0.125000
G01 X134.489000 Y-208.871000 Z-0.125000
G01 X134.980000 Y-208.556000 Z-0.125000
G01 X135.471000 Y-208.451000 Z-0.125000
G01 X135.751000 Y-208.556000 Z-0.125000
G01 X135.611000 Y-208.871000 Z-0.125000
G01 X127.250000 Y-217.232000 Z-0.125000
G01 X127.070000 Y-217.588000 Z-0.125000
G01 X127.263000 Y-217.781000 Z-0.125000
G01 X127.667000 Y-217.763000 Z-0.125000
G01 X128.118000 Y-217.487000 Z-0.125000
G01 X136.734000 Y-208.871000 Z-0.125000
G01 X137.225000 Y-208.556000 Z-0.125000
G01 X137.716000 Y-208.451000 Z-0.125000
G01 X137.996000 Y-208.556000 Z-0.125000
G01 X137.856000 Y-208.871000 Z-0.125000
G01 X129.034000 Y-217.694000 Z-0.125000
G01 X128.870000 Y-218.033000 Z-0.125000
G01 X129.098000 Y-218.191000 Z-0.125000
G01 X129.537000 Y-218.138000 Z-0.125000
G01 X130.004000 Y-217.846000 Z-0.125000
G01 X138.979000 Y-208.871000 Z-0.125000
G01 X139.470000 Y-208.556000 Z-0.125000
G01 X139.961000 Y-208.451000 Z-0.125000
G01 X140.242000 Y-208.556000 Z-0.125000
G01 X140.101000 Y-208.871000 Z-0.125000
G01 X131.039000 Y-217.934000 Z-0.125000
G01 X130.895000 Y-218.253000 Z-0.125000
G01 X131.169000 Y-218.365000 Z-0.125000
G01 X131.653000 Y-218.267000 Z-0.125000
G01 X132.140000 Y-217.955000 Z-0.125000
G01 X141.224000 Y-208.871000 Z-0.125000
G01 X141.715000 Y-208.556000 Z-0.125000
G01 X142.206000 Y-208.451000 Z-0.125000
G01 X142.487000 Y-208.556000 Z-0.125000
G01 X142.346000 Y-208.871000 Z-0.125000
G01 X133.263000 Y-217.955000 Z-0.125000
G01 X133.123000 Y-218.271000 Z-0.125000
G01 X133.403000 Y-218.376000 Z-0.125000
G01 X133.894000 Y-218.271000 Z-0.125000
G01 X134.385000 Y-217.955000 Z-0.125000
G01 X143.469000 Y-208.871000 Z-0.125000
G01 X143.960000 Y-208.556000 Z-0.125000
G01 X144.451000 Y-208.451000 Z-0.125000
G01 X144.732000 Y-208.556000 Z-0.125000
G01 X144.591000 Y-208.871000 Z-0.125000
G01 X135.508000 Y-217.955000 Z-0.125000
G01 X135.368000 Y-218.271000 Z-0.125000
G01 X135.648000 Y-218.376000 Z-0.125000
G01 X136.139000 Y-218.271000 Z-0.125000
G01 X136.630000 Y-217.955000 Z-0.125000
G01 X145.714000 Y-208.871000 Z-0.125000
G01 X146.205000 Y-208.556000 Z-0.125000
G01 X146.696000 Y-208.451000 Z-0.125000
G01 X146.977000 Y-208.556000 Z-0.125000
G01 X146.836000 Y-208.871000 Z-0.125000
G01 X137.753000 Y-217.955000 Z-0.125000
G01 X137.613000 Y-218.271000 Z-0.125000
G01 X137.893000 Y-218.376000 Z-0.125000
G01 X138.384000 Y-218.271000 Z-0.125000
G01 X138.876000 Y-217.955000 Z-0.125000
G01 X147.959000 Y-208.871000 Z-0.125000
G01 X148.450000 Y-208.556000 Z-0.125000
G01 X148.941000 Y-208.451000 Z-0.125000
G01 X149.222000 Y-208.556000 Z-0.125000
G01 X149.081000 Y-208.871000 Z-0.125000
G01 X139.998000 Y-217.955000 Z-0.125000
G01 X139.858000 Y-218.271000 Z-0.125000
G01 X140.138000 Y-218.376000 Z-0.125000
G01 X140.630000 Y-218.271000 Z-0.125000
G01 X141.121000 Y-217.955000 Z-0.125000
G01 X150.702000 Y-208.374000 Z-0.125000
G00 Z5.000000

(End cutting path id: path60964)


(Start cutting path id: path60965)
(Change tool to Default tool)

G00 Z5.000000
G00 X132.287000 Y-176.274000

G01 Z-0.125000 F100.0(Penetrate)
G01 X131.896000 Y-176.666000 Z-0.125000 F400.000000
G01 X131.602000 Y-177.135000 Z-0.125000
G01 X131.504000 Y-177.619000 Z-0.125000
G01 X131.602000 Y-177.907000 Z-0.125000
G01 X131.896000 Y-177.788000 Z-0.125000
G01 X132.989000 Y-176.695000 Z-0.125000
G01 X133.480000 Y-176.379000 Z-0.125000
G01 X133.971000 Y-176.274000 Z-0.125000
G01 X134.252000 Y-176.379000 Z-0.125000
G01 X134.112000 Y-176.695000 Z-0.125000
G01 X131.925000 Y-178.881000 Z-0.125000
G01 X131.609000 Y-179.373000 Z-0.125000
G01 X131.504000 Y-179.864000 Z-0.125000
G01 X131.609000 Y-180.144000 Z-0.125000
G01 X131.925000 Y-180.004000 Z-0.125000
G01 X135.234000 Y-176.695000 Z-0.125000
G01 X135.725000 Y-176.379000 Z-0.125000
G01 X136.216000 Y-176.274000 Z-0.125000
G01 X136.497000 Y-176.379000 Z-0.125000
G01 X136.357000 Y-176.695000 Z-0.125000
G01 X131.925000 Y-181.127000 Z-0.125000
G01 X131.609000 Y-181.618000 Z-0.125000
G01 X131.504000 Y-182.109000 Z-0.125000
G01 X131.609000 Y-182.389000 Z-0.125000
G01 X131.925000 Y-182.249000 Z-0.125000
G01 X137.479000 Y-176.695000 Z-0.125000
G01 X137.970000 Y-176.379000 Z-0.125000
G01 X138.461000 Y-176.274000 Z-0.125000
G01 X138.742000 Y-176.379000 Z-0.125000
G01 X138.602000 Y-176.695000 Z-0.125000
G01 X131.925000 Y-183.372000 Z-0.125000
G01 X131.609000 Y-183.863000 Z-0.125000
G01 X131.504000 Y-184.354000 Z-0.125000
G01 X131.609000 Y-184.634000 Z-0.125000
G01 X131.925000 Y-184.494000 Z-0.125000
G01 X139.724000 Y-176.695000 Z-0.125000
G01 X140.215000 Y-176.379000 Z-0.125000
G01 X140.706000 Y-176.274000 Z-0.125000
G01 X140.987000 Y-176.379000 Z-0.125000
G01 X140.847000 Y-176.695000 Z-0.125000
G01 X131.925000 Y-185.617000 Z-0.125000
G01 X131.760000 Y-185.958000 Z-0.125000
G01 X131.985000 Y-186.118000 Z-0.125000
G01 X132.420000 Y-186.069000 Z-0.125000
G01 X132.886000 Y-185.778000 Z-0.125000
G01 X141.969000 Y-176.695000 Z-0.125000
G01 X142.460000 Y-176.379000 Z-0.125000
G01 X142.952000 Y-176.274000 Z-0.125000
G01 X143.232000 Y-176.379000 Z-0.125000
G01 X143.092000 Y-176.695000 Z-0.125000
G01 X134.008000 Y-185.778000 Z-0.125000
G01 X133.868000 Y-186.094000 Z-0.125000
G01 X134.149000 Y-186.199000 Z-0.125000
G01 X134.640000 Y-186.094000 Z-0.125000
G01 X135.131000 Y-185.778000 Z-0.125000
G01 X144.214000 Y-176.695000 Z-0.125000
G01 X144.705000 Y-176.379000 Z-0.125000
G01 X145.197000 Y-176.274000 Z-0.125000
G01 X145.477000 Y-176.379000 Z-0.125000
G01 X145.337000 Y-176.695000 Z-0.125000
G01 X136.254000 Y-185.778000 Z-0.125000
G01 X136.113000 Y-186.094000 Z-0.125000
G01 X136.394000 Y-186.199000 Z-0.125000
G01 X136.885000 Y-186.094000 Z-0.125000
G01 X137.376000 Y-185.778000 Z-0.125000
G01 X146.459000 Y-176.695000 Z-0.125000
G01 X146.951000 Y-176.379000 Z-0.125000
G01 X147.442000 Y-176.274000 Z-0.125000
G01 X147.722000 Y-176.379000 Z-0.125000
G01 X147.582000 Y-176.695000 Z-0.125000
G01 X138.499000 Y-185.778000 Z-0.125000
G01 X138.358000 Y-186.094000 Z-0.125000
G01 X138.639000 Y-186.199000 Z-0.125000
G01 X139.130000 Y-186.094000 Z-0.125000
G01 X139.621000 Y-185.778000 Z-0.125000
G01 X148.705000 Y-176.695000 Z-0.125000
G01 X149.194000 Y-176.381000 Z-0.125000
G01 X149.681000 Y-176.280000 Z-0.125000
G01 X149.958000 Y-176.389000 Z-0.125000
G01 X149.816000 Y-176.706000 Z-0.125000
G01 X140.744000 Y-185.778000 Z-0.125000
G01 X140.603000 Y-186.094000 Z-0.125000
G01 X140.884000 Y-186.199000 Z-0.125000
G01 X141.375000 Y-186.094000 Z-0.125000
G01 X141.866000 Y-185.778000 Z-0.125000
G01 X150.856000 Y-176.789000 Z-0.125000
G01 X151.324000 Y-176.496000 Z-0.125000
G01 X151.763000 Y-176.442000 Z-0.125000
G01 X151.993000 Y-176.599000 Z-0.125000
G01 X151.829000 Y-176.938000 Z-0.125000
G01 X142.989000 Y-185.778000 Z-0.125000
G01 X142.848000 Y-186.094000 Z-0.125000
G01 X143.129000 Y-186.199000 Z-0.125000
G01 X143.620000 Y-186.094000 Z-0.125000
G01 X144.111000 Y-185.778000 Z-0.125000
G01 X152.761000 Y-177.129000 Z-0.125000
G01 X153.215000 Y-176.850000 Z-0.125000
G01 X153.626000 Y-176.825000 Z-0.125000
G01 X153.826000 Y-177.010000 Z-0.125000
G01 X153.650000 Y-177.363000 Z-0.125000
G01 X145.234000 Y-185.778000 Z-0.125000
G01 X145.093000 Y-186.094000 Z-0.125000
G01 X145.374000 Y-186.199000 Z-0.125000
G01 X145.865000 Y-186.094000 Z-0.125000
G01 X146.356000 Y-185.778000 Z-0.125000
G01 X154.493000 Y-177.642000 Z-0.125000
G01 X154.934000 Y-177.377000 Z-0.125000
G01 X155.315000 Y-177.381000 Z-0.125000
G01 X155.485000 Y-177.597000 Z-0.125000
G01 X155.295000 Y-177.962000 Z-0.125000
G01 X147.479000 Y-185.778000 Z-0.125000
G01 X147.339000 Y-186.094000 Z-0.125000
G01 X147.619000 Y-186.199000 Z-0.125000
G01 X148.110000 Y-186.094000 Z-0.125000
G01 X148.601000 Y-185.778000 Z-0.125000
G01 X156.064000 Y-178.316000 Z-0.125000
G01 X156.494000 Y-178.061000 Z-0.125000
G01 X156.851000 Y-178.090000 Z-0.125000
G01 X156.998000 Y-178.329000 Z-0.125000
G01 X156.796000 Y-178.706000 Z-0.125000
G01 X149.724000 Y-185.778000 Z-0.125000
G01 X149.578000 Y-186.100000 Z-0.125000
G01 X149.846000 Y-186.218000 Z-0.125000
G01 X150.325000 Y-186.125000 Z-0.125000
G01 X150.810000 Y-185.815000 Z-0.125000
G01 X157.493000 Y-179.132000 Z-0.125000
G01 X157.912000 Y-178.888000 Z-0.125000
G01 X158.246000 Y-178.941000 Z-0.125000
G01 X158.368000 Y-179.204000 Z-0.125000
G01 X158.156000 Y-179.591000 Z-0.125000
G01 X151.730000 Y-186.017000 Z-0.125000
G01 X151.534000 Y-186.388000 Z-0.125000
G01 X151.693000 Y-186.615000 Z-0.125000
G01 X152.063000 Y-186.632000 Z-0.125000
G01 X152.499000 Y-186.371000 Z-0.125000
G01 X158.790000 Y-180.080000 Z-0.125000
G01 X159.200000 Y-179.845000 Z-0.125000
G01 X159.512000 Y-179.920000 Z-0.125000
G01 X159.613000 Y-180.204000 Z-0.125000
G01 X159.391000 Y-180.602000 Z-0.125000
G01 X153.140000 Y-186.853000 Z-0.125000
G01 X152.907000 Y-187.261000 Z-0.125000
G01 X152.984000 Y-187.570000 Z-0.125000
G01 X153.271000 Y-187.669000 Z-0.125000
G01 X153.669000 Y-187.446000 Z-0.125000
G01 X159.951000 Y-181.164000 Z-0.125000
G01 X160.348000 Y-180.942000 Z-0.125000
G01 X160.632000 Y-181.044000 Z-0.125000
G01 X160.706000 Y-181.356000 Z-0.125000
G01 X160.472000 Y-181.766000 Z-0.125000
G01 X154.064000 Y-188.174000 Z-0.125000
G01 X153.786000 Y-188.627000 Z-0.125000
G01 X153.765000 Y-189.034000 Z-0.125000
G01 X153.954000 Y-189.230000 Z-0.125000
G01 X154.308000 Y-189.052000 Z-0.125000
G01 X160.953000 Y-182.407000 Z-0.125000
G01 X161.339000 Y-182.196000 Z-0.125000
G01 X161.599000 Y-182.323000 Z-0.125000
G01 X161.648000 Y-182.659000 Z-0.125000
G01 X161.402000 Y-183.080000 Z-0.125000
G01 X154.382000 Y-190.101000 Z-0.125000
G01 X154.066000 Y-190.592000 Z-0.125000
G01 X153.961000 Y-191.083000 Z-0.125000
G01 X154.066000 Y-191.363000 Z-0.125000
G01 X154.382000 Y-191.223000 Z-0.125000
G01 X161.814000 Y-183.791000 Z-0.125000
G01 X162.187000 Y-183.593000 Z-0.125000
G01 X162.419000 Y-183.747000 Z-0.125000
G01 X162.440000 Y-184.112000 Z-0.125000
G01 X162.182000 Y-184.546000 Z-0.125000
G01 X154.382000 Y-192.346000 Z-0.125000
G01 X154.066000 Y-192.837000 Z-0.125000
G01 X153.961000 Y-193.328000 Z-0.125000
G01 X154.066000 Y-193.609000 Z-0.125000
G01 X154.382000 Y-193.468000 Z-0.125000
G01 X162.512000 Y-185.338000 Z-0.125000
G01 X162.874000 Y-185.152000 Z-0.125000
G01 X163.080000 Y-185.331000 Z-0.125000
G01 X163.076000 Y-185.722000 Z-0.125000
G01 X162.806000 Y-186.167000 Z-0.125000
G01 X154.382000 Y-194.591000 Z-0.125000
G01 X154.066000 Y-195.082000 Z-0.125000
G01 X153.961000 Y-195.573000 Z-0.125000
G01 X154.066000 Y-195.854000 Z-0.125000
G01 X154.382000 Y-195.713000 Z-0.125000
G01 X163.049000 Y-187.046000 Z-0.125000
G01 X163.394000 Y-186.876000 Z-0.125000
G01 X163.565000 Y-187.092000 Z-0.125000
G01 X163.525000 Y-187.518000 Z-0.125000
G01 X163.239000 Y-187.979000 Z-0.125000
G01 X154.382000 Y-196.836000 Z-0.125000
G01 X154.066000 Y-197.327000 Z-0.125000
G01 X153.961000 Y-197.818000 Z-0.125000
G01 X154.066000 Y-198.099000 Z-0.125000
G01 X154.382000 Y-197.958000 Z-0.125000
G01 X163.374000 Y-188.966000 Z-0.125000
G01 X163.701000 Y-188.814000 Z-0.125000
G01 X163.831000 Y-189.070000 Z-0.125000
G01 X163.751000 Y-189.536000 Z-0.125000
G01 X163.447000 Y-190.016000 Z-0.125000
G01 X154.382000 Y-199.081000 Z-0.125000
G01 X154.066000 Y-199.572000 Z-0.125000
G01 X153.961000 Y-200.063000 Z-0.125000
G01 X154.066000 Y-200.344000 Z-0.125000
G01 X154.382000 Y-200.203000 Z-0.125000
G01 X163.465000 Y-191.120000 Z-0.125000
G01 X163.781000 Y-190.980000 Z-0.125000
G01 X163.886000 Y-191.260000 Z-0.125000
G01 X163.781000 Y-191.751000 Z-0.125000
G01 X163.465000 Y-192.243000 Z-0.125000
G01 X154.382000 Y-201.326000 Z-0.125000
G01 X154.066000 Y-201.817000 Z-0.125000
G01 X153.961000 Y-202.308000 Z-0.125000
G01 X154.066000 Y-202.589000 Z-0.125000
G01 X154.382000 Y-202.448000 Z-0.125000
G01 X163.465000 Y-193.365000 Z-0.125000
G01 X163.781000 Y-193.225000 Z-0.125000
G01 X163.886000 Y-193.505000 Z-0.125000
G01 X163.781000 Y-193.997000 Z-0.125000
G01 X163.465000 Y-194.488000 Z-0.125000
G01 X154.382000 Y-203.571000 Z-0.125000
G01 X154.050000 Y-204.078000 Z-0.125000
G01 X153.910000 Y-204.604000 Z-0.125000
G01 X153.980000 Y-204.920000 Z-0.125000
G01 X154.280000 Y-204.796000 Z-0.125000
G01 X163.465000 Y-195.610000 Z-0.125000
G01 X163.781000 Y-195.470000 Z-0.125000
G01 X163.886000 Y-195.750000 Z-0.125000
G01 X163.781000 Y-196.242000 Z-0.125000
G01 X163.465000 Y-196.733000 Z-0.125000
G01 X142.243000 Y-217.955000 Z-0.125000
G01 X142.103000 Y-218.271000 Z-0.125000
G01 X142.383000 Y-218.376000 Z-0.125000
G01 X142.875000 Y-218.271000 Z-0.125000
G01 X143.366000 Y-217.955000 Z-0.125000
G01 X163.465000 Y-197.855000 Z-0.125000
G01 X163.781000 Y-197.715000 Z-0.125000
G01 X163.886000 Y-197.996000 Z-0.125000
G01 X163.781000 Y-198.487000 Z-0.125000
G01 X163.465000 Y-198.978000 Z-0.125000
G01 X144.488000 Y-217.955000 Z-0.125000
G01 X144.348000 Y-218.271000 Z-0.125000
G01 X144.628000 Y-218.376000 Z-0.125000
G01 X145.120000 Y-218.271000 Z-0.125000
G01 X145.611000 Y-217.955000 Z-0.125000
G01 X163.465000 Y-200.100000 Z-0.125000
G01 X163.781000 Y-199.960000 Z-0.125000
G01 X163.886000 Y-200.241000 Z-0.125000
G01 X163.781000 Y-200.732000 Z-0.125000
G01 X163.465000 Y-201.223000 Z-0.125000
G01 X146.733000 Y-217.955000 Z-0.125000
G01 X146.593000 Y-218.271000 Z-0.125000
G01 X146.874000 Y-218.376000 Z-0.125000
G01 X147.365000 Y-218.271000 Z-0.125000
G01 X147.856000 Y-217.955000 Z-0.125000
G01 X163.465000 Y-202.345000 Z-0.125000
G01 X163.781000 Y-202.205000 Z-0.125000
G01 X163.886000 Y-202.486000 Z-0.125000
G01 X163.781000 Y-202.977000 Z-0.125000
G01 X163.465000 Y-203.468000 Z-0.125000
G01 X148.978000 Y-217.955000 Z-0.125000
G01 X148.838000 Y-218.271000 Z-0.125000
G01 X149.119000 Y-218.376000 Z-0.125000
G01 X149.610000 Y-218.271000 Z-0.125000
G01 X150.101000 Y-217.955000 Z-0.125000
G01 X163.465000 Y-204.590000 Z-0.125000
G01 X163.773000 Y-204.458000 Z-0.125000
G01 X163.860000 Y-204.757000 Z-0.125000
G01 X163.737000 Y-205.266000 Z-0.125000
G01 X163.413000 Y-205.765000 Z-0.125000
G01 X151.255000 Y-217.923000 Z-0.125000
G01 X151.133000 Y-218.221000 Z-0.125000
G01 X151.453000 Y-218.286000 Z-0.125000
G01 X151.984000 Y-218.142000 Z-0.125000
G01 X152.493000 Y-217.808000 Z-0.125000
G01 X163.232000 Y-207.069000 Z-0.125000
G01 X163.499000 Y-206.977000 Z-0.125000
G01 X163.499000 Y-207.363000 Z-0.125000
G01 X163.288000 Y-207.960000 Z-0.125000
G01 X162.924000 Y-208.499000 Z-0.125000
G01 X153.857000 Y-217.567000 Z-0.125000
G01 X153.789000 Y-217.809000 Z-0.125000
G01 X154.231000 Y-217.754000 Z-0.125000
G01 X154.883000 Y-217.488000 Z-0.125000
G01 X155.447000 Y-217.099000 Z-0.125000
G01 X162.400000 Y-210.146000 Z-0.125000
G01 X162.547000 Y-210.048000 Z-0.125000
G01 X162.580000 Y-210.142000 Z-0.125000
