%
(Header)
(Generated by gcodetools from Inkscape.)
(Using default header. To add your own header create file "header" in the output dir.)
M3
(Header end.)
G21 (All units in mm)

(Start cutting path id: path2195)
(Change tool to Default tool)

G00 Z5.000000
G00 X79.692900 Y48.026000

G01 Z-0.125000 F100.0(Penetrate)
G01 X78.555200 Y47.871000 Z-0.125000 F400.000000
G01 X77.524500 Y47.373000 Z-0.125000
G01 X76.722500 Y46.574000 Z-0.125000
G01 X76.271100 Y45.516000 Z-0.125000
G01 X76.148000 Y44.422000 Z-0.125000
G01 X76.377600 Y43.354000 Z-0.125000
G01 X76.930400 Y42.415000 Z-0.125000
G01 X77.776900 Y41.709000 Z-0.125000
G01 X80.157800 Y40.277000 Z-0.125000
G01 X81.302600 Y39.503000 Z-0.125000
G01 X82.257400 Y38.508000 Z-0.125000
G01 X82.481000 Y37.949000 Z-0.125000
G01 X82.541100 Y37.357000 Z-0.125000
G01 X82.229800 Y36.210000 Z-0.125000
G01 X81.887900 Y35.725000 Z-0.125000
G01 X81.441600 Y35.345000 Z-0.125000
G01 X80.905500 Y35.104000 Z-0.125000
G01 X80.294500 Y35.038000 Z-0.125000
G01 X79.360700 Y35.226000 Z-0.125000
G01 X78.575800 Y35.749000 Z-0.125000
G01 X77.967200 Y36.496000 Z-0.125000
G01 X77.562100 Y37.358000 Z-0.125000
G01 X75.884300 Y36.981000 Z-0.125000
G01 X76.480200 Y35.746000 Z-0.125000
G01 X77.388600 Y34.716000 Z-0.125000
G01 X78.550500 Y34.026000 Z-0.125000
G01 X79.906400 Y33.813000 Z-0.125000
G01 X81.200400 Y33.896000 Z-0.125000
G01 X82.442900 Y34.311000 Z-0.125000
G01 X83.464400 Y35.076000 Z-0.125000
G01 X83.839200 Y35.596000 Z-0.125000
G01 X84.095100 Y36.210000 Z-0.125000
G01 X84.234800 Y37.642000 Z-0.125000
G01 X83.972400 Y39.045000 Z-0.125000
G01 X83.511100 Y39.765000 Z-0.125000
G01 X82.940500 Y40.368000 Z-0.125000
G01 X81.576600 Y41.337000 Z-0.125000
G01 X80.091800 Y42.175000 Z-0.125000
G01 X78.696800 Y43.106000 Z-0.125000
G01 X78.075500 Y43.914000 Z-0.125000
G01 X77.927800 Y44.916000 Z-0.125000
G01 X78.243900 Y45.870000 Z-0.125000
G01 X78.572700 Y46.252000 Z-0.125000
G01 X79.013700 Y46.532000 Z-0.125000
G01 X79.937100 Y46.783000 Z-0.125000
G01 X80.862500 Y46.625000 Z-0.125000
G01 X81.668800 Y46.127000 Z-0.125000
G01 X82.234900 Y45.357000 Z-0.125000
G01 X82.377400 Y45.046000 Z-0.125000
G01 X82.614100 Y44.967000 Z-0.125000
G01 X83.243700 Y45.129000 Z-0.125000
G01 X83.832000 Y45.325000 Z-0.125000
G01 X83.950400 Y45.529000 Z-0.125000
G01 X83.787100 Y45.846000 Z-0.125000
G01 X83.171600 Y46.784000 Z-0.125000
G01 X82.308000 Y47.481000 Z-0.125000
G01 X81.285300 Y47.907000 Z-0.125000
G01 X80.192500 Y48.028000 Z-0.125000
G01 X79.692900 Y48.026000 Z-0.125000
G01 X79.692900 Y48.026000 Z-0.125000
G00 Z5.000000

(End cutting path id: path2195)


(Start cutting path id: path2195)
(Change tool to Default tool)

G00 Z5.000000
G00 X79.683200 Y48.289000

G01 Z-0.125000 F100.0(Penetrate)
G01 X78.613000 Y48.153000 Z-0.125000 F400.000000
G01 X77.614200 Y47.754000 Z-0.125000
G01 X76.785100 Y47.092000 Z-0.125000
G01 X76.224200 Y46.168000 Z-0.125000
G01 X75.903700 Y44.964000 Z-0.125000
G01 X75.979700 Y43.723000 Z-0.125000
G01 X76.457800 Y42.590000 Z-0.125000
G01 X77.344000 Y41.710000 Z-0.125000
G01 X78.476700 Y40.934000 Z-0.125000
G01 X79.675300 Y40.248000 Z-0.125000
G01 X80.839400 Y39.520000 Z-0.125000
G01 X81.868700 Y38.617000 Z-0.125000
G01 X82.133400 Y38.152000 Z-0.125000
G01 X82.258500 Y37.638000 Z-0.125000
G01 X82.124800 Y36.594000 Z-0.125000
G01 X81.537500 Y35.738000 Z-0.125000
G01 X81.095600 Y35.460000 Z-0.125000
G01 X80.566300 Y35.325000 Z-0.125000
G01 X79.572300 Y35.423000 Z-0.125000
G01 X78.747400 Y35.949000 Z-0.125000
G01 X78.127200 Y36.746000 Z-0.125000
G01 X77.747600 Y37.658000 Z-0.125000
G01 X75.530800 Y37.203000 Z-0.125000
G01 X76.029300 Y36.004000 Z-0.125000
G01 X76.772100 Y34.935000 Z-0.125000
G01 X77.753200 Y34.109000 Z-0.125000
G01 X78.966400 Y33.637000 Z-0.125000
G01 X80.426300 Y33.551000 Z-0.125000
G01 X81.893300 Y33.799000 Z-0.125000
G01 X83.185200 Y34.451000 Z-0.125000
G01 X83.708500 Y34.950000 Z-0.125000
G01 X84.119700 Y35.577000 Z-0.125000
G01 X84.402300 Y36.311000 Z-0.125000
G01 X84.493200 Y37.092000 Z-0.125000
G01 X84.407800 Y38.676000 Z-0.125000
G01 X84.091500 Y39.397000 Z-0.125000
G01 X83.656300 Y40.020000 Z-0.125000
G01 X82.522800 Y41.038000 Z-0.125000
G01 X79.860500 Y42.626000 Z-0.125000
G01 X79.197200 Y43.037000 Z-0.125000
G01 X78.610300 Y43.572000 Z-0.125000
G01 X78.237100 Y44.232000 Z-0.125000
G01 X78.214400 Y45.016000 Z-0.125000
G01 X78.350600 Y45.531000 Z-0.125000
G01 X78.637100 Y45.944000 Z-0.125000
G01 X79.512500 Y46.441000 Z-0.125000
G01 X80.544400 Y46.462000 Z-0.125000
G01 X81.026500 Y46.280000 Z-0.125000
G01 X81.436700 Y45.964000 Z-0.125000
G01 X81.953800 Y45.324000 Z-0.125000
G01 X82.300400 Y44.574000 Z-0.125000
G01 X83.313400 Y44.873000 Z-0.125000
G01 X84.275000 Y45.237000 Z-0.125000
G01 X83.984700 Y46.056000 Z-0.125000
G01 X83.504100 Y46.793000 Z-0.125000
G01 X82.877700 Y47.417000 Z-0.125000
G01 X82.150000 Y47.897000 Z-0.125000
G01 X80.939400 Y48.230000 Z-0.125000
G01 X79.683200 Y48.289000 Z-0.125000
G01 X79.683200 Y48.289000 Z-0.125000
G00 Z5.000000

(End cutting path id: path2195)


(Start cutting path id: path2195)
(Change tool to Default tool)

G00 Z5.000000
G00 X87.849200 Y42.410000

G01 Z-0.125000 F100.0(Penetrate)
G01 X87.914100 Y36.415000 Z-0.125000 F400.000000
G01 X88.346500 Y35.431000 Z-0.125000
G01 X89.020500 Y34.605000 Z-0.125000
G01 X89.891100 Y33.996000 Z-0.125000
G01 X90.913300 Y33.666000 Z-0.125000
G01 X92.992400 Y33.562000 Z-0.125000
G01 X94.022300 Y33.725000 Z-0.125000
G01 X95.001500 Y34.070000 Z-0.125000
G01 X95.919300 Y34.737000 Z-0.125000
G01 X96.541500 Y35.666000 Z-0.125000
G01 X96.876800 Y36.751000 Z-0.125000
G01 X96.934200 Y37.884000 Z-0.125000
G01 X96.968300 Y48.103000 Z-0.125000
G01 X94.720300 Y48.103000 Z-0.125000
G01 X94.726000 Y42.735000 Z-0.125000
G01 X94.628700 Y37.369000 Z-0.125000
G01 X94.406900 Y36.505000 Z-0.125000
G01 X93.808200 Y35.872000 Z-0.125000
G01 X92.986300 Y35.520000 Z-0.125000
G01 X92.095400 Y35.498000 Z-0.125000
G01 X91.415600 Y35.625000 Z-0.125000
G01 X90.823800 Y35.974000 Z-0.125000
G01 X90.374900 Y36.492000 Z-0.125000
G01 X90.124100 Y37.123000 Z-0.125000
G01 X90.073800 Y48.103000 Z-0.125000
G01 X87.823800 Y48.103000 Z-0.125000
G01 X87.849200 Y42.410000 Z-0.125000
G01 X87.849200 Y42.410000 Z-0.125000
G00 Z5.000000

(End cutting path id: path2195)


(Start cutting path id: path2195)
(Change tool to Default tool)

G00 Z5.000000
G00 X88.112900 Y42.412000

G01 Z-0.125000 F100.0(Penetrate)
G01 X88.117600 Y39.338000 Z-0.125000 F400.000000
G01 X88.237000 Y36.277000 Z-0.125000
G01 X88.773100 Y35.265000 Z-0.125000
G01 X89.599200 Y34.487000 Z-0.125000
G01 X90.624800 Y33.994000 Z-0.125000
G01 X91.759400 Y33.832000 Z-0.125000
G01 X93.073600 Y33.834000 Z-0.125000
G01 X94.384100 Y34.107000 Z-0.125000
G01 X95.518400 Y34.731000 Z-0.125000
G01 X95.965700 Y35.199000 Z-0.125000
G01 X96.304300 Y35.785000 Z-0.125000
G01 X96.616900 Y36.875000 Z-0.125000
G01 X96.693300 Y38.005000 Z-0.125000
G01 X96.695300 Y40.285000 Z-0.125000
G01 X96.704600 Y47.840000 Z-0.125000
G01 X95.780800 Y47.853000 Z-0.125000
G01 X94.983700 Y47.740000 Z-0.125000
G01 X94.991500 Y42.310000 Z-0.125000
G01 X94.838600 Y36.888000 Z-0.125000
G01 X94.384300 Y36.024000 Z-0.125000
G01 X93.608000 Y35.461000 Z-0.125000
G01 X92.658600 Y35.207000 Z-0.125000
G01 X91.685100 Y35.272000 Z-0.125000
G01 X90.865800 Y35.612000 Z-0.125000
G01 X90.240000 Y36.231000 Z-0.125000
G01 X89.879800 Y37.032000 Z-0.125000
G01 X89.857200 Y37.921000 Z-0.125000
G01 X89.812000 Y47.840000 Z-0.125000
G01 X88.887200 Y47.853000 Z-0.125000
G01 X88.089800 Y47.740000 Z-0.125000
G01 X88.112800 Y42.412000 Z-0.125000
G01 X88.112900 Y42.412000 Z-0.125000
G00 Z5.000000

(End cutting path id: path2195)


(Start cutting path id: path2195)
(Change tool to Default tool)

G00 Z5.000000
G00 X91.140000 Y33.344000

G01 Z-0.125000 F100.0(Penetrate)
G01 X89.997600 Y33.668000 Z-0.125000 F400.000000
G01 X89.077700 Y34.193000 Z-0.125000
G01 X88.362800 Y34.933000 Z-0.125000
G01 X87.835500 Y35.903000 Z-0.125000
G01 X87.613700 Y36.452000 Z-0.125000
G01 X87.586300 Y42.409000 Z-0.125000
G01 X87.559000 Y48.367000 Z-0.125000
G01 X88.947200 Y48.367000 Z-0.125000
G01 X90.335400 Y48.367000 Z-0.125000
G01 X90.362300 Y42.696000 Z-0.125000
G01 X90.389100 Y37.026000 Z-0.125000
G01 X90.649000 Y36.584000 Z-0.125000
G01 X91.251300 Y35.986000 Z-0.125000
G01 X92.221900 Y35.753000 Z-0.125000
G01 X93.131100 Y35.830000 Z-0.125000
G01 X93.841600 Y36.232000 Z-0.125000
G01 X94.193800 Y36.648000 Z-0.125000
G01 X94.376700 Y37.501000 Z-0.125000
G01 X94.456500 Y42.929000 Z-0.125000
G01 X94.456500 Y48.367000 Z-0.125000
G01 X95.844200 Y48.367000 Z-0.125000
G01 X97.231900 Y48.367000 Z-0.125000
G01 X97.230500 Y42.696000 Z-0.125000
G01 X97.202300 Y37.995000 Z-0.125000
G01 X97.087400 Y36.425000 Z-0.125000
G01 X96.719900 Y35.410000 Z-0.125000
G01 X96.140400 Y34.589000 Z-0.125000
G01 X95.345800 Y33.959000 Z-0.125000
G01 X94.333500 Y33.517000 Z-0.125000
G01 X92.761100 Y33.298000 Z-0.125000
G01 X91.140100 Y33.344000 Z-0.125000
G01 X91.140000 Y33.344000 Z-0.125000
G00 Z5.000000

(End cutting path id: path2195)


(Start cutting path id: path2195)
(Change tool to Default tool)

G00 Z5.000000
G00 X90.905900 Y24.392000

G01 Z-0.125000 F100.0(Penetrate)
G01 X87.630900 Y19.202000 Z-0.125000 F400.000000
G01 X86.621300 Y19.202000 Z-0.125000
G01 X89.899900 Y24.392000 Z-0.125000
G01 X90.905900 Y24.392000 Z-0.125000
G00 Z5.000000

(End cutting path id: path2195)


(Start cutting path id: path2195)
(Change tool to Default tool)

G00 Z5.000000
G00 X95.639100 Y21.819000

G01 Z-0.125000 F100.0(Penetrate)
G01 X95.570400 Y21.395000 Z-0.125000 F400.000000
G01 X95.346000 Y20.976000 Z-0.125000
G01 X94.944300 Y20.654000 Z-0.125000
G01 X94.343600 Y20.523000 Z-0.125000
G01 X92.646500 Y20.523000 Z-0.125000
G01 X92.646500 Y21.417000 Z-0.125000
G01 X94.343600 Y21.417000 Z-0.125000
G01 X94.640400 Y21.533000 Z-0.125000
G01 X94.745300 Y21.826000 Z-0.125000
G01 X94.625900 Y22.116000 Z-0.125000
G01 X94.343600 Y22.220000 Z-0.125000
G01 X92.646500 Y22.220000 Z-0.125000
G01 X92.349700 Y22.101000 Z-0.125000
G01 X92.244800 Y21.812000 Z-0.125000
G01 X92.244800 Y20.498000 Z-0.125000
G01 X92.360600 Y20.205000 Z-0.125000
G01 X92.653700 Y20.100000 Z-0.125000
G01 X94.343600 Y20.100000 Z-0.125000
G01 X94.343600 Y19.202000 Z-0.125000
G01 X92.646500 Y19.202000 Z-0.125000
G01 X92.223100 Y19.271000 Z-0.125000
G01 X91.803300 Y19.492000 Z-0.125000
G01 X91.481200 Y19.894000 Z-0.125000
G01 X91.351000 Y20.498000 Z-0.125000
G01 X91.351000 Y21.819000 Z-0.125000
G01 X91.419700 Y22.239000 Z-0.125000
G01 X91.640400 Y22.658000 Z-0.125000
G01 X92.042100 Y22.984000 Z-0.125000
G01 X92.646500 Y23.114000 Z-0.125000
G01 X94.343600 Y23.114000 Z-0.125000
G01 X94.763400 Y23.046000 Z-0.125000
G01 X95.183200 Y22.821000 Z-0.125000
G01 X95.508900 Y22.420000 Z-0.125000
G01 X95.639100 Y21.819000 Z-0.125000
G01 X95.639100 Y21.819000 Z-0.125000
G00 Z5.000000

(End cutting path id: path2195)


(Start cutting path id: path2195)
(Change tool to Default tool)

G00 Z5.000000
G00 X100.941000 Y23.114000

G01 Z-0.125000 F100.0(Penetrate)
G01 X100.568000 Y22.137000 Z-0.125000 F400.000000
G01 X100.076000 Y21.218000 Z-0.125000
G01 X99.456900 Y20.411000 Z-0.125000
G01 X98.700600 Y19.771000 Z-0.125000
G01 X97.799500 Y19.347000 Z-0.125000
G01 X96.746500 Y19.195000 Z-0.125000
G01 X96.561900 Y19.231000 Z-0.125000
G01 X96.409900 Y19.329000 Z-0.125000
G01 X96.308600 Y19.477000 Z-0.125000
G01 X96.272400 Y19.662000 Z-0.125000
G01 X96.272400 Y23.114000 Z-0.125000
G01 X97.213300 Y23.114000 Z-0.125000
G01 X97.213300 Y20.172000 Z-0.125000
G01 X97.871900 Y20.321000 Z-0.125000
G01 X98.472600 Y20.711000 Z-0.125000
G01 X98.993700 Y21.269000 Z-0.125000
G01 X99.424300 Y21.906000 Z-0.125000
G01 X99.742800 Y22.550000 Z-0.125000
G01 X99.941800 Y23.114000 Z-0.125000
G01 X100.941000 Y23.114000 Z-0.125000
G00 Z5.000000

(End cutting path id: path2195)


(Start cutting path id: path2195)
(Change tool to Default tool)

G00 Z5.000000
G00 X105.486000 Y21.819000

G01 Z-0.125000 F100.0(Penetrate)
G01 X105.417000 Y21.395000 Z-0.125000 F400.000000
G01 X105.193000 Y20.976000 Z-0.125000
G01 X104.791000 Y20.654000 Z-0.125000
G01 X104.190000 Y20.523000 Z-0.125000
G01 X102.493000 Y20.523000 Z-0.125000
G01 X102.493000 Y21.417000 Z-0.125000
G01 X104.190000 Y21.417000 Z-0.125000
G01 X104.487000 Y21.533000 Z-0.125000
G01 X104.592000 Y21.826000 Z-0.125000
G01 X104.472000 Y22.116000 Z-0.125000
G01 X104.190000 Y22.220000 Z-0.125000
G01 X102.493000 Y22.220000 Z-0.125000
G01 X102.196000 Y22.101000 Z-0.125000
G01 X102.091000 Y21.812000 Z-0.125000
G01 X102.091000 Y20.498000 Z-0.125000
G01 X102.207000 Y20.205000 Z-0.125000
G01 X102.500000 Y20.100000 Z-0.125000
G01 X104.190000 Y20.100000 Z-0.125000
G01 X104.190000 Y19.202000 Z-0.125000
G01 X102.493000 Y19.202000 Z-0.125000
G01 X102.070000 Y19.271000 Z-0.125000
G01 X101.650000 Y19.492000 Z-0.125000
G01 X101.328000 Y19.894000 Z-0.125000
G01 X101.197000 Y20.498000 Z-0.125000
G01 X101.197000 Y21.819000 Z-0.125000
G01 X101.266000 Y22.239000 Z-0.125000
G01 X101.487000 Y22.658000 Z-0.125000
G01 X101.889000 Y22.984000 Z-0.125000
G01 X102.493000 Y23.114000 Z-0.125000
G01 X104.190000 Y23.114000 Z-0.125000
G01 X104.610000 Y23.046000 Z-0.125000
G01 X105.030000 Y22.821000 Z-0.125000
G01 X105.355000 Y22.420000 Z-0.125000
G01 X105.486000 Y21.819000 Z-0.125000
G01 X105.486000 Y21.819000 Z-0.125000
G00 Z5.000000

(End cutting path id: path2195)


(Start cutting path id: path2195)
(Change tool to Default tool)

G00 Z5.000000
G00 X109.825000 Y22.825000

G01 Z-0.125000 F100.0(Penetrate)
G01 X109.854000 Y22.553000 Z-0.125000 F400.000000
G01 X109.730000 Y22.315000 Z-0.125000
G01 X107.556000 Y20.143000 Z-0.125000
G01 X109.817000 Y20.143000 Z-0.125000
G01 X109.817000 Y19.202000 Z-0.125000
G01 X106.423000 Y19.202000 Z-0.125000
G01 X106.159000 Y19.282000 Z-0.125000
G01 X105.985000 Y19.492000 Z-0.125000
G01 X105.956000 Y19.763000 Z-0.125000
G01 X106.090000 Y20.009000 Z-0.125000
G01 X108.254000 Y22.173000 Z-0.125000
G01 X105.992000 Y22.173000 Z-0.125000
G01 X105.992000 Y23.114000 Z-0.125000
G01 X109.394000 Y23.114000 Z-0.125000
G01 X109.651000 Y23.038000 Z-0.125000
G01 X109.825000 Y22.825000 Z-0.125000
G01 X109.825000 Y22.825000 Z-0.125000
G00 Z5.000000

(End cutting path id: path2195)


(Start cutting path id: path2195)
(Change tool to Default tool)

G00 Z5.000000
G00 X113.874000 Y21.790000

G01 Z-0.125000 F100.0(Penetrate)
G01 X113.776000 Y22.079000 Z-0.125000 F400.000000
G01 X113.494000 Y22.173000 Z-0.125000
G01 X111.804000 Y22.173000 Z-0.125000
G01 X111.518000 Y22.076000 Z-0.125000
G01 X111.420000 Y21.797000 Z-0.125000
G01 X111.420000 Y20.523000 Z-0.125000
G01 X111.518000 Y20.241000 Z-0.125000
G01 X111.804000 Y20.143000 Z-0.125000
G01 X113.494000 Y20.143000 Z-0.125000
G01 X113.780000 Y20.241000 Z-0.125000
G01 X113.874000 Y20.523000 Z-0.125000
G01 X113.874000 Y21.790000 Z-0.125000
G00 Z5.000000

(End cutting path id: path2195)


(Start cutting path id: path2195)
(Change tool to Default tool)

G00 Z5.000000
G00 X114.815000 Y20.523000

G01 Z-0.125000 F100.0(Penetrate)
G01 X114.753000 Y20.085000 Z-0.125000 F400.000000
G01 X114.590000 Y19.745000 Z-0.125000
G01 X114.355000 Y19.496000 Z-0.125000
G01 X114.073000 Y19.329000 Z-0.125000
G01 X113.776000 Y19.231000 Z-0.125000
G01 X113.494000 Y19.202000 Z-0.125000
G01 X111.797000 Y19.202000 Z-0.125000
G01 X111.370000 Y19.271000 Z-0.125000
G01 X110.939000 Y19.496000 Z-0.125000
G01 X110.610000 Y19.905000 Z-0.125000
G01 X110.480000 Y20.523000 Z-0.125000
G01 X110.480000 Y21.797000 Z-0.125000
G01 X110.610000 Y22.409000 Z-0.125000
G01 X110.939000 Y22.818000 Z-0.125000
G01 X111.370000 Y23.046000 Z-0.125000
G01 X111.797000 Y23.114000 Z-0.125000
G01 X113.494000 Y23.114000 Z-0.125000
G01 X114.109000 Y22.984000 Z-0.125000
G01 X114.518000 Y22.655000 Z-0.125000
G01 X114.742000 Y22.228000 Z-0.125000
G01 X114.815000 Y21.797000 Z-0.125000
G01 X114.815000 Y20.523000 Z-0.125000
G00 Z5.000000

(End cutting path id: path2195)


(Start cutting path id: path2195)
(Change tool to Default tool)

G00 Z5.000000
G00 X119.038000 Y22.173000

G01 Z-0.125000 F100.0(Penetrate)
G01 X116.921000 Y22.173000 Z-0.125000 F400.000000
G01 X116.631000 Y22.076000 Z-0.125000
G01 X116.534000 Y21.797000 Z-0.125000
G01 X116.534000 Y19.202000 Z-0.125000
G01 X115.593000 Y19.202000 Z-0.125000
G01 X115.593000 Y21.797000 Z-0.125000
G01 X115.654000 Y22.231000 Z-0.125000
G01 X115.817000 Y22.568000 Z-0.125000
G01 X116.056000 Y22.818000 Z-0.125000
G01 X116.335000 Y22.988000 Z-0.125000
G01 X116.631000 Y23.082000 Z-0.125000
G01 X116.914000 Y23.114000 Z-0.125000
G01 X119.038000 Y23.114000 Z-0.125000
G01 X119.038000 Y22.173000 Z-0.125000
G00 Z5.000000

(End cutting path id: path2195)


(Start cutting path id: path2195)
(Change tool to Default tool)

G00 Z5.000000
G00 X123.029000 Y21.374000

G01 Z-0.125000 F100.0(Penetrate)
G01 X119.635000 Y21.374000 Z-0.125000 F400.000000
G01 X119.635000 Y22.220000 Z-0.125000
G01 X123.029000 Y22.220000 Z-0.125000
G01 X123.029000 Y21.374000 Z-0.125000
G00 Z5.000000

(End cutting path id: path2195)


(Start cutting path id: path2195)
(Change tool to Default tool)

G00 Z5.000000
G00 X124.846000 Y19.202000

G01 Z-0.125000 F100.0(Penetrate)
G01 X123.905000 Y19.202000 Z-0.125000 F400.000000
G01 X123.905000 Y23.114000 Z-0.125000
G01 X124.846000 Y23.114000 Z-0.125000
G01 X124.846000 Y19.202000 Z-0.125000
G00 Z5.000000

(End cutting path id: path2195)


(Start cutting path id: path2195)
(Change tool to Default tool)

G00 Z5.000000
G00 X124.846000 Y23.918000

G01 Z-0.125000 F100.0(Penetrate)
G01 X123.905000 Y23.918000 Z-0.125000 F400.000000
G01 X123.905000 Y24.768000 Z-0.125000
G01 X124.846000 Y24.768000 Z-0.125000
G01 X124.846000 Y23.918000 Z-0.125000
G00 Z5.000000

(End cutting path id: path2195)


(Start cutting path id: path2195)
(Change tool to Default tool)

G00 Z5.000000
G00 X130.082000 Y19.202000

G01 Z-0.125000 F100.0(Penetrate)
G01 X129.141000 Y19.202000 Z-0.125000 F400.000000
G01 X129.141000 Y21.374000 Z-0.125000
G01 X129.076000 Y21.703000 Z-0.125000
G01 X128.906000 Y21.956000 Z-0.125000
G01 X128.649000 Y22.116000 Z-0.125000
G01 X128.334000 Y22.173000 Z-0.125000
G01 X126.688000 Y22.173000 Z-0.125000
G01 X126.688000 Y19.202000 Z-0.125000
G01 X125.747000 Y19.202000 Z-0.125000
G01 X125.747000 Y22.647000 Z-0.125000
G01 X125.783000 Y22.828000 Z-0.125000
G01 X125.884000 Y22.977000 Z-0.125000
G01 X126.036000 Y23.078000 Z-0.125000
G01 X126.221000 Y23.114000 Z-0.125000
G01 X128.342000 Y23.114000 Z-0.125000
G01 X128.714000 Y23.075000 Z-0.125000
G01 X129.105000 Y22.944000 Z-0.125000
G01 X129.474000 Y22.720000 Z-0.125000
G01 X129.785000 Y22.391000 Z-0.125000
G01 X130.003000 Y21.945000 Z-0.125000
G01 X130.082000 Y21.374000 Z-0.125000
G01 X130.082000 Y19.202000 Z-0.125000
G00 Z5.000000

(End cutting path id: path2195)


(Start cutting path id: path2195)
(Change tool to Default tool)

G00 Z5.000000
G00 X134.696000 Y19.202000

G01 Z-0.125000 F100.0(Penetrate)
G01 X132.145000 Y19.202000 Z-0.125000 F400.000000
G01 X131.718000 Y19.271000 Z-0.125000
G01 X131.287000 Y19.496000 Z-0.125000
G01 X130.958000 Y19.905000 Z-0.125000
G01 X130.828000 Y20.523000 Z-0.125000
G01 X130.828000 Y21.797000 Z-0.125000
G01 X130.856000 Y22.079000 Z-0.125000
G01 X130.954000 Y22.373000 Z-0.125000
G01 X131.121000 Y22.655000 Z-0.125000
G01 X131.370000 Y22.890000 Z-0.125000
G01 X131.710000 Y23.053000 Z-0.125000
G01 X132.145000 Y23.114000 Z-0.125000
G01 X134.696000 Y23.114000 Z-0.125000
G01 X134.696000 Y22.173000 Z-0.125000
G01 X132.145000 Y22.173000 Z-0.125000
G01 X131.862000 Y22.079000 Z-0.125000
G01 X131.768000 Y21.790000 Z-0.125000
G01 X131.768000 Y20.523000 Z-0.125000
G01 X131.866000 Y20.241000 Z-0.125000
G01 X132.152000 Y20.143000 Z-0.125000
G01 X134.696000 Y20.143000 Z-0.125000
G01 X134.696000 Y19.202000 Z-0.125000
G00 Z5.000000

(End cutting path id: path2195)


(Start cutting path id: path2195)
(Change tool to Default tool)

G00 Z5.000000
G00 X134.461000 Y36.487000

G01 Z-0.125000 F100.0(Penetrate)
G01 X134.461000 Y39.538000 Z-0.125000 F400.000000
G01 X132.490000 Y43.833000 Z-0.125000
G01 X130.469000 Y48.250000 Z-0.125000
G01 X130.735000 Y48.342000 Z-0.125000
G01 X131.926000 Y48.345000 Z-0.125000
G01 X133.433000 Y48.319000 Z-0.125000
G01 X134.424000 Y45.926000 Z-0.125000
G01 X135.808000 Y42.629000 Z-0.125000
G01 X135.967000 Y42.396000 Z-0.125000
G01 X136.042000 Y42.542000 Z-0.125000
G01 X137.283000 Y45.568000 Z-0.125000
G01 X138.410000 Y48.367000 Z-0.125000
G01 X139.881000 Y48.367000 Z-0.125000
G01 X141.351000 Y48.310000 Z-0.125000
G01 X139.342000 Y43.903000 Z-0.125000
G01 X137.332000 Y39.552000 Z-0.125000
G01 X137.332000 Y36.495000 Z-0.125000
G01 X137.332000 Y33.437000 Z-0.125000
G01 X135.896000 Y33.437000 Z-0.125000
G01 X134.461000 Y33.437000 Z-0.125000
G01 X134.461000 Y36.487000 Z-0.125000
G00 Z5.000000

(End cutting path id: path2195)


(Start cutting path id: path2195)
(Change tool to Default tool)

G00 Z5.000000
G00 X137.775000 Y45.367000

G01 Z-0.125000 F100.0(Penetrate)
G01 X137.044000 Y43.561000 Z-0.125000 F400.000000
G01 X136.228000 Y41.791000 Z-0.125000
G01 X135.662000 Y41.991000 Z-0.125000
G01 X135.308000 Y42.442000 Z-0.125000
G01 X134.834000 Y43.553000 Z-0.125000
G01 X133.078000 Y47.799000 Z-0.125000
G01 X131.246000 Y47.820000 Z-0.125000
G01 X134.988000 Y39.537000 Z-0.125000
G01 X134.988000 Y33.965000 Z-0.125000
G01 X136.804000 Y33.965000 Z-0.125000
G01 X136.851000 Y39.776000 Z-0.125000
G01 X140.550000 Y47.826000 Z-0.125000
G01 X138.769000 Y47.840000 Z-0.125000
G01 X137.775000 Y45.367000 Z-0.125000
G01 X137.775000 Y45.367000 Z-0.125000
G00 Z5.000000

(End cutting path id: path2195)


(Start cutting path id: path2195)
(Change tool to Default tool)

G00 Z5.000000
G00 X137.529000 Y45.467000

G01 Z-0.125000 F100.0(Penetrate)
G01 X136.843000 Y43.763000 Z-0.125000 F400.000000
G01 X136.087000 Y42.096000 Z-0.125000
G01 X135.701000 Y42.302000 Z-0.125000
G01 X135.473000 Y42.691000 Z-0.125000
G01 X135.117000 Y43.562000 Z-0.125000
G01 X133.255000 Y48.059000 Z-0.125000
G01 X130.836000 Y48.080000 Z-0.125000
G01 X134.724000 Y39.537000 Z-0.125000
G01 X134.724000 Y33.701000 Z-0.125000
G01 X137.068000 Y33.701000 Z-0.125000
G01 X137.091000 Y39.664000 Z-0.125000
G01 X140.959000 Y48.082000 Z-0.125000
G01 X138.589000 Y48.103000 Z-0.125000
G01 X137.529000 Y45.467000 Z-0.125000
G01 X137.529000 Y45.467000 Z-0.125000
G00 Z5.000000

(End cutting path id: path2195)


(Start cutting path id: path2195)
(Change tool to Default tool)

G00 Z5.000000
G00 X124.365000 Y40.902000

G01 Z-0.125000 F100.0(Penetrate)
G01 X124.365000 Y33.965000 Z-0.125000 F400.000000
G01 X130.775000 Y33.965000 Z-0.125000
G01 X130.807000 Y34.914000 Z-0.125000
G01 X130.741000 Y35.306000 Z-0.125000
G01 X130.375000 Y35.399000 Z-0.125000
G01 X126.181000 Y35.399000 Z-0.125000
G01 X126.181000 Y47.840000 Z-0.125000
G01 X124.365000 Y47.840000 Z-0.125000
G01 X124.365000 Y40.902000 Z-0.125000
G01 X124.365000 Y40.902000 Z-0.125000
G00 Z5.000000

(End cutting path id: path2195)


(Start cutting path id: path2195)
(Change tool to Default tool)

G00 Z5.000000
G00 X124.101000 Y40.902000

G01 Z-0.125000 F100.0(Penetrate)
G01 X124.101000 Y33.701000 Z-0.125000 F400.000000
G01 X131.039000 Y33.701000 Z-0.125000
G01 X131.039000 Y35.662000 Z-0.125000
G01 X126.445000 Y35.662000 Z-0.125000
G01 X126.445000 Y48.103000 Z-0.125000
G01 X124.101000 Y48.103000 Z-0.125000
G01 X124.101000 Y40.902000 Z-0.125000
G01 X124.101000 Y40.902000 Z-0.125000
G00 Z5.000000

(End cutting path id: path2195)


(Start cutting path id: path2195)
(Change tool to Default tool)

G00 Z5.000000
G00 X123.838000 Y40.902000

G01 Z-0.125000 F100.0(Penetrate)
G01 X123.838000 Y48.367000 Z-0.125000 F400.000000
G01 X125.273000 Y48.367000 Z-0.125000
G01 X126.709000 Y48.367000 Z-0.125000
G01 X126.709000 Y42.146000 Z-0.125000
G01 X126.709000 Y35.925000 Z-0.125000
G01 X129.006000 Y35.925000 Z-0.125000
G01 X131.302000 Y35.925000 Z-0.125000
G01 X131.302000 Y34.681000 Z-0.125000
G01 X131.302000 Y33.437000 Z-0.125000
G01 X127.570000 Y33.437000 Z-0.125000
G01 X123.838000 Y33.437000 Z-0.125000
G01 X123.838000 Y40.902000 Z-0.125000
G00 Z5.000000

(End cutting path id: path2195)


(Start cutting path id: path2195)
(Change tool to Default tool)

G00 Z5.000000
G00 X117.186000 Y41.870000

G01 Z-0.125000 F100.0(Penetrate)
G01 X117.774000 Y42.135000 Z-0.125000 F400.000000
G01 X118.188000 Y42.559000 Z-0.125000
G01 X118.435000 Y43.150000 Z-0.125000
G01 X118.518000 Y43.918000 Z-0.125000
G01 X118.296000 Y45.066000 Z-0.125000
G01 X118.014000 Y45.477000 Z-0.125000
G01 X117.617000 Y45.782000 Z-0.125000
G01 X117.060000 Y45.986000 Z-0.125000
G01 X116.014000 Y46.055000 Z-0.125000
G01 X114.841000 Y46.090000 Z-0.125000
G01 X114.841000 Y43.927000 Z-0.125000
G01 X114.841000 Y41.763000 Z-0.125000
G01 X115.822000 Y41.764000 Z-0.125000
G01 X117.186000 Y41.870000 Z-0.125000
G01 X117.186000 Y41.870000 Z-0.125000
G00 Z5.000000

(End cutting path id: path2195)


(Start cutting path id: path2195)
(Change tool to Default tool)

G00 Z5.000000
G00 X112.498000 Y40.902000

G01 Z-0.125000 F100.0(Penetrate)
G01 X112.498000 Y33.965000 Z-0.125000 F400.000000
G01 X114.314000 Y33.965000 Z-0.125000
G01 X114.314000 Y39.945000 Z-0.125000
G01 X117.203000 Y40.080000 Z-0.125000
G01 X118.589000 Y40.388000 Z-0.125000
G01 X119.223000 Y40.698000 Z-0.125000
G01 X119.802000 Y41.149000 Z-0.125000
G01 X120.302000 Y41.832000 Z-0.125000
G01 X120.640000 Y42.617000 Z-0.125000
G01 X120.813000 Y43.463000 Z-0.125000
G01 X120.821000 Y44.328000 Z-0.125000
G01 X120.660000 Y45.171000 Z-0.125000
G01 X120.329000 Y45.951000 Z-0.125000
G01 X119.826000 Y46.626000 Z-0.125000
G01 X119.149000 Y47.156000 Z-0.125000
G01 X117.714000 Y47.671000 Z-0.125000
G01 X116.201000 Y47.832000 Z-0.125000
G01 X113.132000 Y47.839000 Z-0.125000
G01 X112.657000 Y47.856000 Z-0.125000
G01 X112.492000 Y47.562000 Z-0.125000
G01 X112.498000 Y46.640000 Z-0.125000
G01 X112.498000 Y40.902000 Z-0.125000
G01 X112.498000 Y40.902000 Z-0.125000
G00 Z5.000000

(End cutting path id: path2195)


(Start cutting path id: path2195)
(Change tool to Default tool)

G00 Z5.000000
G00 X112.234000 Y40.902000

G01 Z-0.125000 F100.0(Penetrate)
G01 X112.234000 Y33.701000 Z-0.125000 F400.000000
G01 X114.578000 Y33.701000 Z-0.125000
G01 X114.578000 Y39.693000 Z-0.125000
G01 X117.443000 Y39.843000 Z-0.125000
G01 X118.810000 Y40.182000 Z-0.125000
G01 X119.432000 Y40.506000 Z-0.125000
G01 X119.996000 Y40.968000 Z-0.125000
G01 X120.774000 Y42.188000 Z-0.125000
G01 X121.089000 Y43.612000 Z-0.125000
G01 X120.955000 Y45.072000 Z-0.125000
G01 X120.384000 Y46.402000 Z-0.125000
G01 X119.384000 Y47.327000 Z-0.125000
G01 X118.146000 Y47.847000 Z-0.125000
G01 X116.790000 Y48.066000 Z-0.125000
G01 X115.432000 Y48.087000 Z-0.125000
G01 X112.234000 Y48.103000 Z-0.125000
G01 X112.234000 Y40.902000 Z-0.125000
G01 X112.234000 Y40.902000 Z-0.125000
G00 Z5.000000

(End cutting path id: path2195)


(Start cutting path id: path2195)
(Change tool to Default tool)

G00 Z5.000000
G00 X111.970000 Y40.902000

G01 Z-0.125000 F100.0(Penetrate)
G01 X111.970000 Y48.367000 Z-0.125000 F400.000000
G01 X114.435000 Y48.366000 Z-0.125000
G01 X117.473000 Y48.272000 Z-0.125000
G01 X119.150000 Y47.759000 Z-0.125000
G01 X120.363000 Y46.852000 Z-0.125000
G01 X120.792000 Y46.256000 Z-0.125000
G01 X121.101000 Y45.567000 Z-0.125000
G01 X121.349000 Y43.917000 Z-0.125000
G01 X121.208000 Y42.662000 Z-0.125000
G01 X120.792000 Y41.585000 Z-0.125000
G01 X120.116000 Y40.711000 Z-0.125000
G01 X119.192000 Y40.062000 Z-0.125000
G01 X117.999000 Y39.663000 Z-0.125000
G01 X116.253000 Y39.495000 Z-0.125000
G01 X114.841000 Y39.440000 Z-0.125000
G01 X114.841000 Y36.439000 Z-0.125000
G01 X114.841000 Y33.437000 Z-0.125000
G01 X113.406000 Y33.437000 Z-0.125000
G01 X111.970000 Y33.437000 Z-0.125000
G01 X111.970000 Y40.902000 Z-0.125000
G00 Z5.000000

(End cutting path id: path2195)


(Start cutting path id: path2195)
(Change tool to Default tool)

G00 Z5.000000
G00 X106.127000 Y42.051000

G01 Z-0.125000 F100.0(Penetrate)
G01 X106.531000 Y42.361000 Z-0.125000 F400.000000
G01 X106.814000 Y42.774000 Z-0.125000
G01 X107.031000 Y43.929000 Z-0.125000
G01 X106.804000 Y45.074000 Z-0.125000
G01 X106.524000 Y45.479000 Z-0.125000
G01 X106.127000 Y45.782000 Z-0.125000
G01 X105.576000 Y45.986000 Z-0.125000
G01 X104.529000 Y46.055000 Z-0.125000
G01 X103.357000 Y46.090000 Z-0.125000
G01 X103.357000 Y43.917000 Z-0.125000
G01 X103.357000 Y41.744000 Z-0.125000
G01 X104.529000 Y41.778000 Z-0.125000
G01 X105.576000 Y41.847000 Z-0.125000
G01 X106.127000 Y42.051000 Z-0.125000
G01 X106.127000 Y42.051000 Z-0.125000
G00 Z5.000000

(End cutting path id: path2195)


(Start cutting path id: path2195)
(Change tool to Default tool)

G00 Z5.000000
G00 X103.365000 Y46.354000

G01 Z-0.125000 F100.0(Penetrate)
G01 X105.267000 Y46.291000 Z-0.125000 F400.000000
G01 X106.161000 Y46.061000 Z-0.125000
G01 X106.882000 Y45.457000 Z-0.125000
G01 X107.244000 Y44.515000 Z-0.125000
G01 X107.283000 Y43.478000 Z-0.125000
G01 X106.962000 Y42.520000 Z-0.125000
G01 X106.242000 Y41.813000 Z-0.125000
G01 X105.488000 Y41.572000 Z-0.125000
G01 X104.695000 Y41.506000 Z-0.125000
G01 X103.093000 Y41.473000 Z-0.125000
G01 X103.093000 Y46.364000 Z-0.125000
G01 X103.365000 Y46.354000 Z-0.125000
G01 X103.365000 Y46.354000 Z-0.125000
G00 Z5.000000

(End cutting path id: path2195)


(Start cutting path id: path2195)
(Change tool to Default tool)

G00 Z5.000000
G00 X103.103000 Y46.627000

G01 Z-0.125000 F100.0(Penetrate)
G01 X105.228000 Y46.559000 Z-0.125000 F400.000000
G01 X106.232000 Y46.313000 Z-0.125000
G01 X107.055000 Y45.663000 Z-0.125000
G01 X107.522000 Y44.499000 Z-0.125000
G01 X107.503000 Y43.219000 Z-0.125000
G01 X107.306000 Y42.621000 Z-0.125000
G01 X106.980000 Y42.097000 Z-0.125000
G01 X106.523000 Y41.680000 Z-0.125000
G01 X105.933000 Y41.406000 Z-0.125000
G01 X104.389000 Y41.240000 Z-0.125000
G01 X102.830000 Y41.188000 Z-0.125000
G01 X102.830000 Y46.637000 Z-0.125000
G01 X103.103000 Y46.627000 Z-0.125000
G01 X103.103000 Y46.627000 Z-0.125000
G00 Z5.000000

(End cutting path id: path2195)


(Start cutting path id: path2195)
(Change tool to Default tool)

G00 Z5.000000
G00 X101.013000 Y40.910000

G01 Z-0.125000 F100.0(Penetrate)
G01 X101.013000 Y33.965000 Z-0.125000 F400.000000
G01 X102.830000 Y33.965000 Z-0.125000
G01 X102.830000 Y39.996000 Z-0.125000
G01 X104.317000 Y39.993000 Z-0.125000
G01 X105.830000 Y40.086000 Z-0.125000
G01 X107.254000 Y40.463000 Z-0.125000
G01 X107.897000 Y40.818000 Z-0.125000
G01 X108.476000 Y41.314000 Z-0.125000
G01 X109.106000 Y42.505000 Z-0.125000
G01 X109.323000 Y43.847000 Z-0.125000
G01 X109.137000 Y45.196000 Z-0.125000
G01 X108.558000 Y46.410000 Z-0.125000
G01 X107.630000 Y47.182000 Z-0.125000
G01 X106.532000 Y47.614000 Z-0.125000
G01 X105.345000 Y47.793000 Z-0.125000
G01 X104.148000 Y47.804000 Z-0.125000
G01 X101.013000 Y47.848000 Z-0.125000
G01 X101.013000 Y40.910000 Z-0.125000
G01 X101.013000 Y40.910000 Z-0.125000
G00 Z5.000000

(End cutting path id: path2195)


(Start cutting path id: path2195)
(Change tool to Default tool)

G00 Z5.000000
G00 X100.750000 Y40.910000

G01 Z-0.125000 F100.0(Penetrate)
G01 X100.750000 Y33.701000 Z-0.125000 F400.000000
G01 X103.093000 Y33.701000 Z-0.125000
G01 X103.093000 Y39.730000 Z-0.125000
G01 X104.583000 Y39.733000 Z-0.125000
G01 X106.095000 Y39.859000 Z-0.125000
G01 X107.510000 Y40.281000 Z-0.125000
G01 X108.142000 Y40.656000 Z-0.125000
G01 X108.705000 Y41.170000 Z-0.125000
G01 X109.309000 Y42.252000 Z-0.125000
G01 X109.564000 Y43.469000 Z-0.125000
G01 X109.509000 Y44.723000 Z-0.125000
G01 X109.179000 Y45.916000 Z-0.125000
G01 X108.383000 Y46.974000 Z-0.125000
G01 X107.266000 Y47.652000 Z-0.125000
G01 X105.974000 Y47.999000 Z-0.125000
G01 X104.653000 Y48.060000 Z-0.125000
G01 X100.750000 Y48.115000 Z-0.125000
G01 X100.750000 Y40.910000 Z-0.125000
G01 X100.750000 Y40.910000 Z-0.125000
G00 Z5.000000

(End cutting path id: path2195)


(Start cutting path id: path2195)
(Change tool to Default tool)

G00 Z5.000000
G00 X100.486000 Y40.911000

G01 Z-0.125000 F100.0(Penetrate)
G01 X100.486000 Y48.384000 Z-0.125000 F400.000000
G01 X103.333000 Y48.346000 Z-0.125000
G01 X105.901000 Y48.278000 Z-0.125000
G01 X106.946000 Y48.052000 Z-0.125000
G01 X107.895000 Y47.644000 Z-0.125000
G01 X108.639000 Y47.111000 Z-0.125000
G01 X109.200000 Y46.433000 Z-0.125000
G01 X109.598000 Y45.591000 Z-0.125000
G01 X109.830000 Y43.917000 Z-0.125000
G01 X109.598000 Y42.242000 Z-0.125000
G01 X108.914000 Y41.007000 Z-0.125000
G01 X107.835000 Y40.143000 Z-0.125000
G01 X106.335000 Y39.634000 Z-0.125000
G01 X104.386000 Y39.467000 Z-0.125000
G01 X103.357000 Y39.466000 Z-0.125000
G01 X103.357000 Y36.452000 Z-0.125000
G01 X103.357000 Y33.437000 Z-0.125000
G01 X101.921000 Y33.437000 Z-0.125000
G01 X100.486000 Y33.437000 Z-0.125000
G01 X100.486000 Y40.911000 Z-0.125000
G00 Z5.000000

(End cutting path id: path2195)


(Start cutting path id: path2195)
(Change tool to Default tool)

G00 Z5.000000
G00 X114.587000 Y46.627000

G01 Z-0.125000 F100.0(Penetrate)
G01 X116.666000 Y46.563000 Z-0.125000 F400.000000
G01 X117.655000 Y46.341000 Z-0.125000
G01 X118.486000 Y45.738000 Z-0.125000
G01 X118.984000 Y44.613000 Z-0.125000
G01 X119.019000 Y43.353000 Z-0.125000
G01 X118.565000 Y42.216000 Z-0.125000
G01 X118.145000 Y41.775000 Z-0.125000
G01 X117.593000 Y41.461000 Z-0.125000
G01 X116.791000 Y41.273000 Z-0.125000
G01 X115.969000 Y41.233000 Z-0.125000
G01 X114.314000 Y41.227000 Z-0.125000
G01 X114.314000 Y46.637000 Z-0.125000
G01 X114.587000 Y46.627000 Z-0.125000
G01 X114.587000 Y46.627000 Z-0.125000
G00 Z5.000000

(End cutting path id: path2195)


(Start cutting path id: path2195)
(Change tool to Default tool)

G00 Z5.000000
G00 X114.849000 Y46.354000

G01 Z-0.125000 F100.0(Penetrate)
G01 X116.756000 Y46.290000 Z-0.125000 F400.000000
G01 X117.652000 Y46.059000 Z-0.125000
G01 X118.375000 Y45.454000 Z-0.125000
G01 X118.709000 Y44.617000 Z-0.125000
G01 X118.790000 Y43.697000 Z-0.125000
G01 X118.593000 Y42.808000 Z-0.125000
G01 X118.095000 Y42.059000 Z-0.125000
G01 X117.297000 Y41.640000 Z-0.125000
G01 X116.407000 Y41.505000 Z-0.125000
G01 X114.578000 Y41.500000 Z-0.125000
G01 X114.578000 Y46.364000 Z-0.125000
G01 X114.849000 Y46.354000 Z-0.125000
G01 X114.849000 Y46.354000 Z-0.125000
G00 Z5.000000

(End cutting path id: path2195)


(Start cutting path id: path2195)
(Change tool to Default tool)

G00 Z5.000000
G00 X86.323200 Y67.276600

G01 Z-0.125000 F100.0(Penetrate)
G01 X85.624700 Y66.080700 Z-0.125000 F400.000000
G01 X84.365300 Y65.081700 Z-0.125000
G01 X82.989400 Y64.581100 Z-0.125000
G01 X82.026300 Y64.581100 Z-0.125000
G01 X81.730000 Y65.081700 Z-0.125000
G01 X82.132200 Y66.345300 Z-0.125000
G01 X83.127000 Y67.848100 Z-0.125000
G01 X84.259400 Y68.779500 Z-0.125000
G01 X84.989700 Y69.149900 Z-0.125000
G01 X85.730500 Y69.044100 Z-0.125000
G01 X86.323200 Y68.578400 Z-0.125000
G01 X86.492500 Y63.847700 Z-0.125000
G01 X86.365500 Y62.249600 Z-0.125000
G01 X85.995100 Y61.244200 Z-0.125000
G01 X85.529400 Y60.577400 Z-0.125000
G01 X85.095500 Y60.217600 Z-0.125000
G01 X84.524000 Y60.111800 Z-0.125000
G01 X84.090100 Y60.080000 Z-0.125000
G01 X82.894200 Y60.111800 Z-0.125000
G00 Z5.000000

(End cutting path id: path2195)


(Start cutting path id: path2195)
(Change tool to Default tool)

G00 Z5.000000
G00 X77.835400 Y67.446000

G01 Z-0.125000 F100.0(Penetrate)
G01 X77.232100 Y66.112500 Z-0.125000 F400.000000
G01 X76.258500 Y65.214000 Z-0.125000
G01 X75.560000 Y64.815000 Z-0.125000
G01 X74.893200 Y64.581100 Z-0.125000
G01 X73.961900 Y64.681600 Z-0.125000
G01 X73.464500 Y65.013900 Z-0.125000
G01 X73.326900 Y66.049000 Z-0.125000
G01 X73.834900 Y67.086100 Z-0.125000
G01 X74.491000 Y68.081000 Z-0.125000
G01 X75.560000 Y68.811200 Z-0.125000
G01 X76.364300 Y69.181600 Z-0.125000
G01 X76.967500 Y69.181600 Z-0.125000
G01 X77.697800 Y69.044100 Z-0.125000
G01 X77.835400 Y68.546600 Z-0.125000
G01 X77.962400 Y64.547700 Z-0.125000
G00 Z5.000000

(End cutting path id: path2195)


(Start cutting path id: path2195)
(Change tool to Default tool)

G00 Z5.000000
G00 X79.962600 Y69.245100

G01 Z-0.125000 F100.0(Penetrate)
G01 X80.057800 Y64.981100 Z-0.125000 F400.000000
G01 X80.258900 Y64.781100 Z-0.125000
G00 Z5.000000

(End cutting path id: path2195)


(Start cutting path id: path2195)
(Change tool to Default tool)

G00 Z5.000000
G00 X79.698000 Y71.245400

G01 Z-0.125000 F100.0(Penetrate)
G01 X79.888500 Y71.245400 Z-0.125000 F400.000000
G00 Z5.000000

(End cutting path id: path2195)


(Start cutting path id: path2195)
(Change tool to Default tool)

G00 Z5.000000
G00 X87.258700 Y69.276900

G01 Z-0.125000 F100.0(Penetrate)
G01 X87.291500 Y64.714400 Z-0.125000 F400.000000
G01 X87.258700 Y67.943400 Z-0.125000
G01 X88.492700 Y68.747700 Z-0.125000
G01 X89.688700 Y69.319200 Z-0.125000
G01 X90.461200 Y69.382700 Z-0.125000
G01 X91.022200 Y69.319200 Z-0.125000
G01 X91.392600 Y68.917100 Z-0.125000
G01 X91.657200 Y67.752900 Z-0.125000
G01 X91.625400 Y64.614400 Z-0.125000
G00 Z5.000000

(End cutting path id: path2195)


(Start cutting path id: path2195)
(Change tool to Default tool)

G00 Z5.000000
G00 X91.636100 Y82.273000

G01 Z-0.125000 F100.0(Penetrate)
G01 X91.297400 Y82.611600 Z-0.125000 F400.000000
G01 X90.302600 Y82.611600 Z-0.125000
G01 X89.170200 Y82.378800 Z-0.125000
G01 X88.133000 Y81.839000 Z-0.125000
G01 X87.699100 Y81.140500 Z-0.125000
G01 X87.699100 Y80.378500 Z-0.125000
G01 X88.133000 Y80.039900 Z-0.125000
G01 X89.096100 Y80.039900 Z-0.125000
G01 X90.133300 Y80.241000 Z-0.125000
G01 X90.800000 Y80.209200 Z-0.125000
G01 X91.329200 Y80.008100 Z-0.125000
G01 X91.667800 Y79.711800 Z-0.125000
G01 X91.572600 Y79.214400 Z-0.125000
G01 X90.535400 Y78.410000 Z-0.125000
G01 X89.201900 Y78.043900 Z-0.125000
G01 X88.429300 Y77.743300 Z-0.125000
G01 X88.101300 Y77.776600 Z-0.125000
G00 Z5.000000

(End cutting path id: path2195)


(Start cutting path id: path2195)
(Change tool to Default tool)

G00 Z5.000000
G00 X92.694400 Y82.611600

G01 Z-0.125000 F100.0(Penetrate)
G01 X92.429800 Y81.077000 Z-0.125000 F400.000000
G01 X92.334600 Y79.309600 Z-0.125000
G01 X92.736700 Y78.276700 Z-0.125000
G01 X93.562200 Y77.843300 Z-0.125000
G01 X94.969800 Y77.943300 Z-0.125000
G01 X95.763600 Y78.442900 Z-0.125000
G01 X96.197500 Y78.643900 Z-0.125000
G01 X96.631400 Y79.246100 Z-0.125000
G01 X96.938300 Y79.881100 Z-0.125000
G01 X96.694900 Y82.738600 Z-0.125000
G01 X97.033600 Y77.876700 Z-0.125000
G00 Z5.000000

(End cutting path id: path2195)


(Start cutting path id: path2195)
(Change tool to Default tool)

G00 Z5.000000
G00 X98.102400 Y84.844700

G01 Z-0.125000 F100.0(Penetrate)
G01 X98.165900 Y78.176200 Z-0.125000 F400.000000
G01 X98.663300 Y77.977200 Z-0.125000
G01 X99.531200 Y78.143300 Z-0.125000
G01 X100.833000 Y78.676700 Z-0.125000
G01 X102.431000 Y79.944600 Z-0.125000
G01 X103.066000 Y81.045300 Z-0.125000
G01 X103.299000 Y81.913100 Z-0.125000
G01 X103.098000 Y82.378800 Z-0.125000
G01 X102.600000 Y82.579900 Z-0.125000
G01 X101.436000 Y82.474000 Z-0.125000
G01 X100.399000 Y81.775500 Z-0.125000
G01 X99.266600 Y80.981800 Z-0.125000
G01 X98.240000 Y79.510700 Z-0.125000
G00 Z5.000000

(End cutting path id: path2195)


(Start cutting path id: path2195)
(Change tool to Default tool)

G00 Z5.000000
G00 X108.104000 Y82.272900

G01 Z-0.125000 F100.0(Penetrate)
G01 X107.765000 Y82.611600 Z-0.125000 F400.000000
G01 X106.770000 Y82.611600 Z-0.125000
G01 X105.638000 Y82.378800 Z-0.125000
G01 X104.601000 Y81.839000 Z-0.125000
G01 X104.167000 Y81.140500 Z-0.125000
G01 X104.167000 Y80.378500 Z-0.125000
G01 X104.601000 Y80.039900 Z-0.125000
G01 X105.564000 Y80.039900 Z-0.125000
G01 X106.601000 Y80.241000 Z-0.125000
G01 X107.268000 Y80.209200 Z-0.125000
G01 X107.797000 Y80.008100 Z-0.125000
G01 X108.135000 Y79.711800 Z-0.125000
G01 X108.040000 Y79.214400 Z-0.125000
G01 X107.003000 Y78.410000 Z-0.125000
G01 X105.670000 Y78.043900 Z-0.125000
G01 X104.897000 Y77.743300 Z-0.125000
G01 X104.569000 Y77.776600 Z-0.125000
G00 Z5.000000

(End cutting path id: path2195)


(Start cutting path id: path2195)
(Change tool to Default tool)

G00 Z5.000000
G00 X113.406000 Y82.146000

G01 Z-0.125000 F100.0(Penetrate)
G01 X113.067000 Y82.442300 Z-0.125000 F400.000000
G01 X112.072000 Y82.548100 Z-0.125000
G01 X111.003000 Y82.146000 Z-0.125000
G01 X110.104000 Y81.479200 Z-0.125000
G01 X109.130000 Y80.209200 Z-0.125000
G01 X108.834000 Y78.875700 Z-0.125000
G01 X109.469000 Y78.109500 Z-0.125000
G01 X110.771000 Y77.710000 Z-0.125000
G01 X112.168000 Y77.776600 Z-0.125000
G01 X113.162000 Y78.010000 Z-0.125000
G01 X114.231000 Y78.577300 Z-0.125000
G00 Z5.000000

(End cutting path id: path2195)


(Start cutting path id: path2195)
(Change tool to Default tool)

G00 Z5.000000
G00 X115.470000 Y82.706900

G01 Z-0.125000 F100.0(Penetrate)
G01 X115.343000 Y77.910500 Z-0.125000 F400.000000
G01 X115.671000 Y80.611400 Z-0.125000
G01 X116.475000 Y81.648500 Z-0.125000
G01 X117.502000 Y82.241200 Z-0.125000
G01 X118.338000 Y82.579900 Z-0.125000
G01 X118.708000 Y82.611600 Z-0.125000
G01 X119.809000 Y82.505800 Z-0.125000
G01 X119.936000 Y82.410500 Z-0.125000
G00 Z5.000000

(End cutting path id: path2195)


(Start cutting path id: path2195)
(Change tool to Default tool)

G00 Z5.000000
G00 X121.809000 Y82.474000

G01 Z-0.125000 F100.0(Penetrate)
G01 X121.905000 Y78.210000 Z-0.125000 F400.000000
G01 X122.106000 Y78.010000 Z-0.125000
G00 Z5.000000

(End cutting path id: path2195)


(Start cutting path id: path2195)
(Change tool to Default tool)

G00 Z5.000000
G00 X121.545000 Y84.474300

G01 Z-0.125000 F100.0(Penetrate)
G01 X121.735000 Y84.474300 Z-0.125000 F400.000000
G00 Z5.000000

(End cutting path id: path2195)


(Start cutting path id: path2195)
(Change tool to Default tool)

G00 Z5.000000
G00 X123.841000 Y84.844700

G01 Z-0.125000 F100.0(Penetrate)
G01 X123.905000 Y78.176200 Z-0.125000 F400.000000
G01 X124.402000 Y77.977200 Z-0.125000
G01 X125.270000 Y78.143400 Z-0.125000
G01 X126.572000 Y78.676700 Z-0.125000
G01 X128.170000 Y79.944600 Z-0.125000
G01 X128.805000 Y81.045300 Z-0.125000
G01 X129.038000 Y81.913100 Z-0.125000
G01 X128.837000 Y82.378800 Z-0.125000
G01 X128.339000 Y82.579900 Z-0.125000
G01 X127.175000 Y82.474000 Z-0.125000
G01 X126.138000 Y81.775500 Z-0.125000
G01 X125.005000 Y80.981800 Z-0.125000
G01 X123.979000 Y79.510700 Z-0.125000
G00 Z5.000000

(End cutting path id: path2195)


(Start cutting path id: path2195)
(Change tool to Default tool)

G00 Z5.000000
G00 X130.709000 Y82.474000

G01 Z-0.125000 F100.0(Penetrate)
G01 X130.804000 Y78.210000 Z-0.125000 F400.000000
G01 X131.006000 Y78.010000 Z-0.125000
G00 Z5.000000

(End cutting path id: path2195)


(Start cutting path id: path2195)
(Change tool to Default tool)

G00 Z5.000000
G00 X132.174000 Y82.505800

G01 Z-0.125000 F100.0(Penetrate)
G01 X132.207000 Y77.943300 Z-0.125000 F400.000000
G01 X132.174000 Y81.172300 Z-0.125000
G01 X133.408000 Y81.976600 Z-0.125000
G01 X134.604000 Y82.548100 Z-0.125000
G01 X135.376000 Y82.611600 Z-0.125000
G01 X135.937000 Y82.548100 Z-0.125000
G01 X136.308000 Y82.146000 Z-0.125000
G01 X136.572000 Y80.981800 Z-0.125000
G01 X136.541000 Y77.843300 Z-0.125000
G00 Z5.000000

(End cutting path id: path2195)


(Start cutting path id: path2195)
(Change tool to Default tool)

G00 Z5.000000
G00 X142.203000 Y80.505500

G01 Z-0.125000 F100.0(Penetrate)
G01 X141.504000 Y79.309600 Z-0.125000 F400.000000
G01 X140.245000 Y78.310600 Z-0.125000
G01 X138.869000 Y77.810000 Z-0.125000
G01 X137.906000 Y77.810000 Z-0.125000
G01 X137.610000 Y78.310600 Z-0.125000
G01 X138.012000 Y79.574200 Z-0.125000
G01 X139.007000 Y81.077000 Z-0.125000
G01 X140.139000 Y82.008400 Z-0.125000
G01 X140.869000 Y82.378800 Z-0.125000
G01 X141.610000 Y82.273000 Z-0.125000
G01 X142.203000 Y81.807300 Z-0.125000
G01 X142.372000 Y77.076600 Z-0.125000
G01 X142.245000 Y75.478500 Z-0.125000
G01 X141.875000 Y74.473100 Z-0.125000
G01 X141.409000 Y73.806300 Z-0.125000
G01 X140.975000 Y73.446500 Z-0.125000
G01 X140.404000 Y73.340600 Z-0.125000
G01 X139.970000 Y73.308900 Z-0.125000
G01 X138.774000 Y73.340600 Z-0.125000
G00 Z5.000000

(End cutting path id: path2195)


(Start cutting path id: path2195)
(Change tool to Default tool)

G00 Z5.000000
G00 X130.445000 Y84.474300

G01 Z-0.125000 F100.0(Penetrate)
G01 X130.635000 Y84.474300 Z-0.125000 F400.000000
G00 Z5.000000

(End cutting path id: path2195)


(Start cutting path id: path2195)
(Change tool to Default tool)

G00 Z5.000000
G00 X131.597000 Y108.185400

G01 Z-0.125000 F100.0(Penetrate)
G01 X121.797000 Y108.185400 Z-0.125000 F400.000000
G01 X121.018000 Y108.072300 Z-0.125000
G01 X120.456000 Y107.733100 Z-0.125000
G01 X120.117000 Y107.192800 Z-0.125000
G01 X120.004000 Y106.443100 Z-0.125000
G01 X120.004000 Y94.431600 Z-0.125000
G01 X115.648000 Y94.431600 Z-0.125000
G01 X115.648000 Y106.443100 Z-0.125000
G01 X115.720000 Y107.506900 Z-0.125000
G01 X115.933000 Y108.453400 Z-0.125000
G01 X116.687000 Y110.011400 Z-0.125000
G01 X117.793000 Y111.167300 Z-0.125000
G01 X119.083000 Y111.954700 Z-0.125000
G01 X120.456000 Y112.390300 Z-0.125000
G01 X121.763000 Y112.541000 Z-0.125000
G01 X131.597000 Y112.541000 Z-0.125000
G01 X131.597000 Y108.185400 Z-0.125000
G00 Z5.000000

(End cutting path id: path2195)


(Start cutting path id: path2195)
(Change tool to Default tool)

G00 Z5.000000
G00 X120.051000 Y107.281200

G01 Z-0.125000 F100.0(Penetrate)
G01 X116.061000 Y103.291700 Z-0.125000 F400.000000
G01 X115.781000 Y102.636900 Z-0.125000
G01 X115.851000 Y102.449800 Z-0.125000
G01 X116.061000 Y102.543400 Z-0.125000
G01 X119.600000 Y106.082000 Z-0.125000
G01 X119.809000 Y106.174100 Z-0.125000
G01 X119.876000 Y105.984000 Z-0.125000
G01 X119.591000 Y105.324800 Z-0.125000
G01 X116.061000 Y101.795000 Z-0.125000
G01 X115.780000 Y101.140200 Z-0.125000
G01 X115.851000 Y100.953100 Z-0.125000
G01 X116.061000 Y101.046700 Z-0.125000
G01 X119.591000 Y104.576500 Z-0.125000
G01 X119.801000 Y104.670000 Z-0.125000
G01 X119.872000 Y104.482900 Z-0.125000
G01 X119.591000 Y103.828100 Z-0.125000
G01 X116.061000 Y100.298300 Z-0.125000
G01 X115.780000 Y99.643500 Z-0.125000
G01 X115.851000 Y99.456400 Z-0.125000
G01 X116.061000 Y99.550000 Z-0.125000
G01 X119.591000 Y103.079800 Z-0.125000
G01 X119.801000 Y103.173300 Z-0.125000
G01 X119.872000 Y102.986200 Z-0.125000
G01 X119.591000 Y102.331400 Z-0.125000
G01 X116.061000 Y98.801600 Z-0.125000
G01 X115.780000 Y98.146800 Z-0.125000
G01 X115.851000 Y97.959700 Z-0.125000
G01 X116.061000 Y98.053200 Z-0.125000
G01 X119.591000 Y101.583100 Z-0.125000
G01 X119.801000 Y101.676600 Z-0.125000
G01 X119.872000 Y101.489500 Z-0.125000
G01 X119.591000 Y100.834700 Z-0.125000
G01 X116.061000 Y97.304900 Z-0.125000
G01 X115.780000 Y96.650100 Z-0.125000
G01 X115.851000 Y96.463000 Z-0.125000
G01 X116.061000 Y96.556500 Z-0.125000
G01 X119.591000 Y100.086300 Z-0.125000
G01 X119.801000 Y100.179900 Z-0.125000
G01 X119.872000 Y99.992800 Z-0.125000
G01 X119.591000 Y99.338000 Z-0.125000
G01 X116.061000 Y95.808200 Z-0.125000
G01 X115.780000 Y95.153400 Z-0.125000
G01 X115.851000 Y94.966300 Z-0.125000
G01 X116.061000 Y95.059800 Z-0.125000
G01 X119.591000 Y98.589600 Z-0.125000
G01 X119.801000 Y98.683200 Z-0.125000
G01 X119.872000 Y98.496100 Z-0.125000
G01 X119.591000 Y97.841300 Z-0.125000
G01 X116.594000 Y94.844500 Z-0.125000
G01 X116.501000 Y94.634000 Z-0.125000
G01 X116.688000 Y94.563800 Z-0.125000
G01 X117.342000 Y94.844500 Z-0.125000
G01 X119.591000 Y97.092900 Z-0.125000
G01 X119.801000 Y97.186500 Z-0.125000
G01 X119.872000 Y96.999400 Z-0.125000
G01 X119.591000 Y96.344600 Z-0.125000
G01 X118.091000 Y94.844500 Z-0.125000
G01 X117.997000 Y94.634000 Z-0.125000
G01 X118.184000 Y94.563800 Z-0.125000
G01 X118.839000 Y94.844500 Z-0.125000
G01 X119.591000 Y95.596200 Z-0.125000
G01 X119.801000 Y95.689800 Z-0.125000
G01 X119.872000 Y95.502700 Z-0.125000
G01 X119.591000 Y94.847900 Z-0.125000
G01 X119.307000 Y94.563800 Z-0.125000
G00 Z5.000000

(End cutting path id: path2195)


(Start cutting path id: path2195)
(Change tool to Default tool)

G00 Z5.000000
G00 X112.047000 Y100.546200

G01 Z-0.125000 F100.0(Penetrate)
G01 X111.975000 Y99.478300 Z-0.125000 F400.000000
G01 X111.762000 Y98.519200 Z-0.125000
G01 X111.008000 Y96.944400 Z-0.125000
G01 X109.919000 Y95.788500 Z-0.125000
G01 X108.612000 Y95.017900 Z-0.125000
G01 X107.239000 Y94.565600 Z-0.125000
G01 X105.932000 Y94.431600 Z-0.125000
G01 X98.075000 Y94.431600 Z-0.125000
G01 X96.098200 Y94.749800 Z-0.125000
G01 X95.063700 Y95.168700 Z-0.125000
G01 X94.104600 Y95.788500 Z-0.125000
G01 X93.271200 Y96.630300 Z-0.125000
G01 X92.580100 Y97.681500 Z-0.125000
G01 X92.127800 Y98.984100 Z-0.125000
G01 X91.977000 Y100.546200 Z-0.125000
G01 X91.977000 Y106.443100 Z-0.125000
G01 X92.127800 Y107.988500 Z-0.125000
G01 X92.580100 Y109.274300 Z-0.125000
G01 X93.271200 Y110.333900 Z-0.125000
G01 X94.104600 Y111.167300 Z-0.125000
G01 X95.063700 Y111.799700 Z-0.125000
G01 X96.098200 Y112.222700 Z-0.125000
G01 X98.075000 Y112.541000 Z-0.125000
G01 X105.932000 Y112.541000 Z-0.125000
G01 X107.482000 Y112.390300 Z-0.125000
G01 X108.780000 Y111.938000 Z-0.125000
G01 X109.839000 Y111.255300 Z-0.125000
G01 X110.673000 Y110.413500 Z-0.125000
G01 X111.293000 Y109.467000 Z-0.125000
G01 X111.712000 Y108.436700 Z-0.125000
G01 X111.963000 Y107.402200 Z-0.125000
G01 X112.047000 Y106.443100 Z-0.125000
G01 X112.047000 Y100.546200 Z-0.125000
G00 Z5.000000

(End cutting path id: path2195)


(Start cutting path id: path2195)
(Change tool to Default tool)

G00 Z5.000000
G00 X107.691000 Y106.409600

G01 Z-0.125000 F100.0(Penetrate)
G01 X107.578000 Y107.197000 Z-0.125000 F400.000000
G01 X107.239000 Y107.749800 Z-0.125000
G01 X106.686000 Y108.076500 Z-0.125000
G01 X105.932000 Y108.185400 Z-0.125000
G01 X98.108500 Y108.185400 Z-0.125000
G01 X97.342000 Y108.072300 Z-0.125000
G01 X96.785000 Y107.733100 Z-0.125000
G01 X96.445800 Y107.192800 Z-0.125000
G01 X96.332700 Y106.443100 Z-0.125000
G01 X96.332700 Y100.546200 Z-0.125000
G01 X96.445800 Y99.792400 Z-0.125000
G01 X96.785000 Y99.239500 Z-0.125000
G01 X97.342000 Y98.900300 Z-0.125000
G01 X98.108500 Y98.787200 Z-0.125000
G01 X105.932000 Y98.787200 Z-0.125000
G01 X106.707000 Y98.900300 Z-0.125000
G01 X107.255000 Y99.239500 Z-0.125000
G01 X107.582000 Y99.792400 Z-0.125000
G01 X107.691000 Y100.546200 Z-0.125000
G01 X107.691000 Y106.409600 Z-0.125000
G00 Z5.000000

(End cutting path id: path2195)


(Start cutting path id: path2195)
(Change tool to Default tool)

G00 Z5.000000
G00 X97.880100 Y108.309500

G01 Z-0.125000 F100.0(Penetrate)
G01 X101.699000 Y112.128100 Z-0.125000 F400.000000
G01 X102.354000 Y112.408800 Z-0.125000
G01 X102.541000 Y112.338600 Z-0.125000
G01 X102.447000 Y112.128100 Z-0.125000
G01 X98.917300 Y108.598300 Z-0.125000
G01 X98.823700 Y108.387800 Z-0.125000
G01 X99.010800 Y108.317700 Z-0.125000
G01 X99.665600 Y108.598300 Z-0.125000
G01 X103.195000 Y112.128100 Z-0.125000
G01 X103.850000 Y112.408800 Z-0.125000
G01 X104.037000 Y112.338600 Z-0.125000
G01 X103.944000 Y112.128100 Z-0.125000
G01 X100.414000 Y108.598300 Z-0.125000
G01 X100.320000 Y108.387800 Z-0.125000
G01 X100.508000 Y108.317700 Z-0.125000
G01 X101.162000 Y108.598300 Z-0.125000
G01 X104.692000 Y112.128100 Z-0.125000
G01 X105.347000 Y112.408800 Z-0.125000
G01 X105.534000 Y112.338600 Z-0.125000
G01 X105.441000 Y112.128100 Z-0.125000
G01 X101.911000 Y108.598300 Z-0.125000
G01 X101.817000 Y108.387800 Z-0.125000
G01 X102.004000 Y108.317700 Z-0.125000
G01 X102.659000 Y108.598300 Z-0.125000
G01 X106.171000 Y112.110600 Z-0.125000
G01 X106.488000 Y112.309900 Z-0.125000
G01 X106.790000 Y112.355500 Z-0.125000
G01 X106.953000 Y112.260800 Z-0.125000
G01 X106.848000 Y112.039100 Z-0.125000
G01 X103.407000 Y108.598300 Z-0.125000
G01 X103.314000 Y108.387800 Z-0.125000
G01 X103.501000 Y108.317700 Z-0.125000
G01 X104.156000 Y108.598300 Z-0.125000
G01 X107.469000 Y111.911300 Z-0.125000
G01 X107.767000 Y112.092300 Z-0.125000
G01 X108.029000 Y112.097500 Z-0.125000
G01 X108.151000 Y111.962500 Z-0.125000
G01 X108.028000 Y111.722500 Z-0.125000
G01 X104.904000 Y108.598300 Z-0.125000
G01 X104.811000 Y108.387800 Z-0.125000
G01 X104.998000 Y108.317700 Z-0.125000
G01 X105.652000 Y108.598300 Z-0.125000
G01 X108.539000 Y111.485000 Z-0.125000
G01 X108.823000 Y111.652100 Z-0.125000
G01 X109.055000 Y111.627000 Z-0.125000
G01 X109.147000 Y111.461600 Z-0.125000
G01 X109.010000 Y111.207800 Z-0.125000
G01 X106.395000 Y108.592400 Z-0.125000
G01 X106.283000 Y108.363900 Z-0.125000
G01 X106.431000 Y108.254200 Z-0.125000
G01 X106.719000 Y108.284700 Z-0.125000
G01 X107.028000 Y108.477200 Z-0.125000
G01 X109.446000 Y110.894700 Z-0.125000
G01 X109.718000 Y111.050300 Z-0.125000
G01 X109.925000 Y111.000000 Z-0.125000
G01 X109.992000 Y110.809300 Z-0.125000
G01 X109.843000 Y110.544000 Z-0.125000
G01 X107.511000 Y108.211700 Z-0.125000
G01 X107.354000 Y107.938000 Z-0.125000
G01 X107.402000 Y107.728700 Z-0.125000
G01 X107.590000 Y107.659700 Z-0.125000
G01 X107.855000 Y107.806900 Z-0.125000
G01 X110.202000 Y110.154600 Z-0.125000
G01 X110.463000 Y110.298700 Z-0.125000
G01 X110.645000 Y110.222800 Z-0.125000
G01 X110.686000 Y110.006500 Z-0.125000
G01 X110.526000 Y109.729700 Z-0.125000
G01 X108.051000 Y107.255400 Z-0.125000
G01 X107.849000 Y106.936200 Z-0.125000
G01 X107.797000 Y106.626900 Z-0.125000
G01 X107.885000 Y106.457800 Z-0.125000
G01 X108.104000 Y106.559600 Z-0.125000
G01 X110.814000 Y109.269900 Z-0.125000
G01 X111.064000 Y109.402400 Z-0.125000
G01 X111.219000 Y109.301000 Z-0.125000
G01 X111.235000 Y109.059300 Z-0.125000
G01 X111.064000 Y108.770900 Z-0.125000
G01 X108.104000 Y105.811200 Z-0.125000
G01 X107.823000 Y105.156400 Z-0.125000
G01 X107.893000 Y104.969300 Z-0.125000
G01 X108.104000 Y105.062900 Z-0.125000
G01 X111.269000 Y108.227700 Z-0.125000
G01 X111.505000 Y108.347400 Z-0.125000
G01 X111.633000 Y108.217900 Z-0.125000
G01 X111.621000 Y107.948100 Z-0.125000
G01 X111.436000 Y107.646900 Z-0.125000
G01 X108.104000 Y104.314500 Z-0.125000
G01 X107.823000 Y103.659700 Z-0.125000
G01 X107.893000 Y103.472600 Z-0.125000
G01 X108.104000 Y103.566200 Z-0.125000
G01 X111.571000 Y107.033400 Z-0.125000
G01 X111.791000 Y107.136400 Z-0.125000
G01 X111.882000 Y106.970000 Z-0.125000
G01 X111.833000 Y106.663400 Z-0.125000
G01 X111.631000 Y106.345400 Z-0.125000
G01 X108.104000 Y102.817800 Z-0.125000
G01 X107.823000 Y102.163000 Z-0.125000
G01 X107.893000 Y101.975900 Z-0.125000
G01 X108.104000 Y102.069500 Z-0.125000
G01 X111.634000 Y105.599300 Z-0.125000
G01 X111.844000 Y105.692800 Z-0.125000
G01 X111.914000 Y105.505700 Z-0.125000
G01 X111.634000 Y104.850900 Z-0.125000
G01 X108.104000 Y101.321100 Z-0.125000
G01 X107.794000 Y100.637100 Z-0.125000
G01 X107.844000 Y100.429900 Z-0.125000
G01 X108.045000 Y100.514300 Z-0.125000
G01 X111.634000 Y104.102600 Z-0.125000
G01 X111.844000 Y104.196100 Z-0.125000
G01 X111.914000 Y104.009000 Z-0.125000
G01 X111.634000 Y103.354200 Z-0.125000
G01 X103.124000 Y94.844500 Z-0.125000
G01 X103.030000 Y94.634000 Z-0.125000
G01 X103.217000 Y94.563800 Z-0.125000
G01 X103.872000 Y94.844500 Z-0.125000
G01 X111.634000 Y102.605800 Z-0.125000
G01 X111.844000 Y102.699400 Z-0.125000
G01 X111.914000 Y102.512300 Z-0.125000
G01 X111.634000 Y101.857500 Z-0.125000
G01 X104.621000 Y94.844500 Z-0.125000
G01 X104.527000 Y94.634000 Z-0.125000
G01 X104.714000 Y94.563800 Z-0.125000
G01 X105.369000 Y94.844500 Z-0.125000
G01 X111.634000 Y101.109100 Z-0.125000
G01 X111.844000 Y101.202700 Z-0.125000
G01 X111.914000 Y101.015600 Z-0.125000
G01 X111.634000 Y100.360800 Z-0.125000
G01 X106.117000 Y94.844500 Z-0.125000
G01 X106.030000 Y94.640000 Z-0.125000
G01 X106.230000 Y94.582900 Z-0.125000
G01 X106.904000 Y94.882600 Z-0.125000
G01 X111.648000 Y99.627200 Z-0.125000
G01 X111.831000 Y99.692900 Z-0.125000
G01 X111.840000 Y99.444400 Z-0.125000
G01 X111.470000 Y98.700400 Z-0.125000
G01 X107.826000 Y95.056800 Z-0.125000
G01 X107.792000 Y94.905900 Z-0.125000
G01 X108.110000 Y94.966700 Z-0.125000
G01 X108.956000 Y95.437800 Z-0.125000
G01 X111.513000 Y97.995100 Z-0.125000
G00 Z5.000000

(End cutting path id: path2195)


(Start cutting path id: path2195)
(Change tool to Default tool)

G00 Z5.000000
G00 X118.046000 Y111.263400

G01 Z-0.125000 F100.0(Penetrate)
G01 X116.975000 Y110.192400 Z-0.125000 F400.000000
G01 X116.377000 Y109.219800 Z-0.125000
G01 X116.228000 Y108.814200 Z-0.125000
G01 X116.340000 Y108.808500 Z-0.125000
G01 X119.237000 Y111.706300 Z-0.125000
G01 X120.036000 Y112.130500 Z-0.125000
G01 X120.322000 Y112.159100 Z-0.125000
G01 X120.273000 Y111.993500 Z-0.125000
G01 X116.139000 Y107.859200 Z-0.125000
G01 X115.822000 Y107.168300 Z-0.125000
G01 X115.867000 Y106.956300 Z-0.125000
G01 X116.066000 Y107.038600 Z-0.125000
G01 X121.146000 Y112.117700 Z-0.125000
G01 X121.806000 Y112.403600 Z-0.125000
G01 X121.996000 Y112.337000 Z-0.125000
G01 X121.904000 Y112.128100 Z-0.125000
G01 X116.061000 Y106.285100 Z-0.125000
G01 X115.781000 Y105.630300 Z-0.125000
G01 X115.851000 Y105.443200 Z-0.125000
G01 X116.061000 Y105.536800 Z-0.125000
G01 X122.653000 Y112.128100 Z-0.125000
G01 X123.307000 Y112.408800 Z-0.125000
G01 X123.495000 Y112.338600 Z-0.125000
G01 X123.401000 Y112.128100 Z-0.125000
G01 X116.061000 Y104.788400 Z-0.125000
G01 X115.781000 Y104.133600 Z-0.125000
G01 X115.851000 Y103.946500 Z-0.125000
G01 X116.061000 Y104.040100 Z-0.125000
G01 X124.149000 Y112.128100 Z-0.125000
G01 X124.804000 Y112.408800 Z-0.125000
G01 X124.991000 Y112.338600 Z-0.125000
G01 X124.898000 Y112.128100 Z-0.125000
G01 X121.080000 Y108.310200 Z-0.125000
G01 X121.031000 Y108.144900 Z-0.125000
G01 X121.318000 Y108.174300 Z-0.125000
G01 X122.118000 Y108.599700 Z-0.125000
G01 X125.646000 Y112.128100 Z-0.125000
G01 X126.301000 Y112.408800 Z-0.125000
G01 X126.488000 Y112.338600 Z-0.125000
G01 X126.394000 Y112.128100 Z-0.125000
G01 X122.865000 Y108.598300 Z-0.125000
G01 X122.771000 Y108.387800 Z-0.125000
G01 X122.958000 Y108.317700 Z-0.125000
G01 X123.613000 Y108.598300 Z-0.125000
G01 X127.143000 Y112.128100 Z-0.125000
G01 X127.798000 Y112.408800 Z-0.125000
G01 X127.985000 Y112.338600 Z-0.125000
G01 X127.891000 Y112.128100 Z-0.125000
G01 X124.361000 Y108.598300 Z-0.125000
G01 X124.268000 Y108.387800 Z-0.125000
G01 X124.455000 Y108.317700 Z-0.125000
G01 X125.110000 Y108.598300 Z-0.125000
G01 X128.639000 Y112.128100 Z-0.125000
G01 X129.294000 Y112.408800 Z-0.125000
G01 X129.481000 Y112.338600 Z-0.125000
G01 X129.388000 Y112.128100 Z-0.125000
G01 X125.858000 Y108.598300 Z-0.125000
G01 X125.764000 Y108.387800 Z-0.125000
G01 X125.952000 Y108.317700 Z-0.125000
G01 X126.606000 Y108.598300 Z-0.125000
G01 X130.136000 Y112.128100 Z-0.125000
G01 X130.791000 Y112.408800 Z-0.125000
G01 X130.978000 Y112.338600 Z-0.125000
G01 X130.885000 Y112.128100 Z-0.125000
G01 X127.355000 Y108.598300 Z-0.125000
G01 X127.261000 Y108.387800 Z-0.125000
G01 X127.448000 Y108.317700 Z-0.125000
G01 X128.103000 Y108.598300 Z-0.125000
G01 X131.184000 Y111.679100 Z-0.125000
G01 X131.394000 Y111.772700 Z-0.125000
G01 X131.465000 Y111.585600 Z-0.125000
G01 X131.184000 Y110.930800 Z-0.125000
G01 X128.851000 Y108.598300 Z-0.125000
G01 X128.758000 Y108.387800 Z-0.125000
G01 X128.945000 Y108.317700 Z-0.125000
G01 X129.600000 Y108.598300 Z-0.125000
G01 X131.184000 Y110.182400 Z-0.125000
G01 X131.394000 Y110.275900 Z-0.125000
G01 X131.465000 Y110.088900 Z-0.125000
G01 X131.184000 Y109.434000 Z-0.125000
G01 X130.348000 Y108.598300 Z-0.125000
G01 X130.255000 Y108.387800 Z-0.125000
G01 X130.442000 Y108.317700 Z-0.125000
G01 X131.096000 Y108.598300 Z-0.125000
G01 X131.464000 Y108.966300 Z-0.125000
G00 Z5.000000

(End cutting path id: path2195)


(Start cutting path id: path2195)
(Change tool to Default tool)

G00 Z5.000000
G00 X115.146000 Y129.883600

G01 Z-0.125000 F100.0(Penetrate)
G01 X113.803000 Y129.883600 Z-0.125000 F400.000000
G01 X113.803000 Y133.588800 Z-0.125000
G01 X113.668000 Y133.986700 Z-0.125000
G01 X113.265000 Y134.126200 Z-0.125000
G01 X110.841000 Y134.126200 Z-0.125000
G01 X110.841000 Y135.469800 Z-0.125000
G01 X113.265000 Y135.469800 Z-0.125000
G01 X113.668000 Y135.423300 Z-0.125000
G01 X114.087000 Y135.288900 Z-0.125000
G01 X114.490000 Y135.046000 Z-0.125000
G01 X114.826000 Y134.689500 Z-0.125000
G01 X115.058000 Y134.208900 Z-0.125000
G01 X115.146000 Y133.588800 Z-0.125000
G01 X115.146000 Y129.883600 Z-0.125000
G00 Z5.000000

(End cutting path id: path2195)


(Start cutting path id: path2195)
(Change tool to Default tool)

G00 Z5.000000
G00 X110.299000 Y129.883600

G01 Z-0.125000 F100.0(Penetrate)
G01 X108.955000 Y129.883600 Z-0.125000 F400.000000
G01 X108.955000 Y137.831400 Z-0.125000
G01 X110.299000 Y137.831400 Z-0.125000
G01 X110.299000 Y129.883600 Z-0.125000
G00 Z5.000000

(End cutting path id: path2195)


(Start cutting path id: path2195)
(Change tool to Default tool)

G00 Z5.000000
G00 X108.051000 Y134.126200

G01 Z-0.125000 F100.0(Penetrate)
G01 X105.705000 Y134.126200 Z-0.125000 F400.000000
G01 X105.705000 Y129.883600 Z-0.125000
G01 X104.346000 Y129.883600 Z-0.125000
G01 X104.346000 Y134.126200 Z-0.125000
G01 X102.599000 Y134.126200 Z-0.125000
G01 X102.599000 Y135.469800 Z-0.125000
G01 X104.346000 Y135.469800 Z-0.125000
G01 X104.346000 Y137.294000 Z-0.125000
G01 X105.705000 Y137.294000 Z-0.125000
G01 X105.705000 Y135.469800 Z-0.125000
G01 X108.051000 Y135.469800 Z-0.125000
G01 X108.051000 Y134.126200 Z-0.125000
G00 Z5.000000

(End cutting path id: path2195)


(Start cutting path id: path2195)
(Change tool to Default tool)

G00 Z5.000000
G00 X101.684000 Y136.617000

G01 Z-0.125000 F100.0(Penetrate)
G01 X100.341000 Y136.617000 Z-0.125000 F400.000000
G01 X100.341000 Y137.831400 Z-0.125000
G01 X101.684000 Y137.831400 Z-0.125000
G01 X101.684000 Y136.617000 Z-0.125000
G00 Z5.000000

(End cutting path id: path2195)


(Start cutting path id: path2195)
(Change tool to Default tool)

G00 Z5.000000
G00 X99.855100 Y135.469800

G01 Z-0.125000 F100.0(Penetrate)
G01 X99.162600 Y134.053900 Z-0.125000 F400.000000
G01 X98.382300 Y132.741300 Z-0.125000
G01 X97.555500 Y131.594100 Z-0.125000
G01 X96.713200 Y130.689700 Z-0.125000
G01 X95.901900 Y130.095500 Z-0.125000
G01 X95.157700 Y129.883600 Z-0.125000
G01 X94.889000 Y129.935300 Z-0.125000
G01 X94.672000 Y130.074800 Z-0.125000
G01 X94.527300 Y130.291800 Z-0.125000
G01 X94.475600 Y130.560500 Z-0.125000
G01 X94.475600 Y133.066800 Z-0.125000
G01 X91.809100 Y130.085100 Z-0.125000
G01 X91.581700 Y129.930100 Z-0.125000
G01 X91.333700 Y129.883600 Z-0.125000
G01 X91.070100 Y129.935300 Z-0.125000
G01 X90.858200 Y130.074800 Z-0.125000
G01 X90.708400 Y130.291800 Z-0.125000
G01 X90.656700 Y130.560500 Z-0.125000
G01 X90.656700 Y135.469800 Z-0.125000
G01 X92.000300 Y135.469800 Z-0.125000
G01 X92.000300 Y132.286500 Z-0.125000
G01 X94.677100 Y135.278600 Z-0.125000
G01 X95.018200 Y135.459500 Z-0.125000
G01 X95.410900 Y135.418100 Z-0.125000
G01 X95.710600 Y135.170100 Z-0.125000
G01 X95.824300 Y134.803200 Z-0.125000
G01 X95.824300 Y131.609600 Z-0.125000
G01 X96.609800 Y132.493200 Z-0.125000
G01 X97.260900 Y133.449200 Z-0.125000
G01 X97.829400 Y134.451800 Z-0.125000
G01 X98.351300 Y135.469800 Z-0.125000
G01 X99.855100 Y135.469800 Z-0.125000
G00 Z5.000000

(End cutting path id: path2195)


(Start cutting path id: path2195)
(Change tool to Default tool)

G00 Z5.000000
G00 X101.684000 Y129.883600

G01 Z-0.125000 F100.0(Penetrate)
G01 X100.341000 Y129.883600 Z-0.125000 F400.000000
G01 X100.341000 Y135.469800 Z-0.125000
G01 X101.684000 Y135.469800 Z-0.125000
G01 X101.684000 Y129.883600 Z-0.125000
G00 Z5.000000

(End cutting path id: path2195)


(Start cutting path id: path2195)
(Change tool to Default tool)

G00 Z5.000000
G00 X86.414100 Y134.126200

G01 Z-0.125000 F100.0(Penetrate)
G01 X84.068000 Y134.126200 Z-0.125000 F400.000000
G01 X84.068000 Y129.883600 Z-0.125000
G01 X82.708800 Y129.883600 Z-0.125000
G01 X82.708800 Y134.126200 Z-0.125000
G01 X80.962100 Y134.126200 Z-0.125000
G01 X80.962100 Y135.469800 Z-0.125000
G01 X82.708800 Y135.469800 Z-0.125000
G01 X82.708800 Y137.294000 Z-0.125000
G01 X84.067900 Y137.294000 Z-0.125000
G01 X84.067900 Y135.469800 Z-0.125000
G01 X86.414000 Y135.469800 Z-0.125000
G01 X86.414100 Y134.126200 Z-0.125000
G00 Z5.000000

(End cutting path id: path2195)


(Start cutting path id: path2195)
(Change tool to Default tool)

G00 Z5.000000
G00 X80.357600 Y135.469800

G01 Z-0.125000 F100.0(Penetrate)
G01 X77.944400 Y132.834300 Z-0.125000 F400.000000
G01 X80.662500 Y129.883600 Z-0.125000
G01 X78.812500 Y129.883600 Z-0.125000
G01 X77.024500 Y131.831800 Z-0.125000
G01 X75.236500 Y129.883600 Z-0.125000
G01 X73.381300 Y129.883600 Z-0.125000
G01 X76.094300 Y132.844600 Z-0.125000
G01 X73.691400 Y135.469800 Z-0.125000
G01 X75.531100 Y135.469800 Z-0.125000
G01 X77.014200 Y133.852300 Z-0.125000
G01 X78.507600 Y135.469800 Z-0.125000
G01 X80.357600 Y135.469800 Z-0.125000
G00 Z5.000000

(End cutting path id: path2195)


(Start cutting path id: path2195)
(Change tool to Default tool)

G00 Z5.000000
G00 X73.288300 Y133.619800

G01 Z-0.125000 F100.0(Penetrate)
G01 X73.190100 Y133.015200 Z-0.125000 F400.000000
G01 X72.869700 Y132.415700 Z-0.125000
G01 X72.296100 Y131.955800 Z-0.125000
G01 X71.438300 Y131.769800 Z-0.125000
G01 X69.014700 Y131.769800 Z-0.125000
G01 X69.014700 Y133.046200 Z-0.125000
G01 X71.438300 Y133.046200 Z-0.125000
G01 X71.862100 Y133.211500 Z-0.125000
G01 X72.011900 Y133.630100 Z-0.125000
G01 X71.841400 Y134.043500 Z-0.125000
G01 X71.438300 Y134.193400 Z-0.125000
G01 X69.014700 Y134.193400 Z-0.125000
G01 X68.590900 Y134.022800 Z-0.125000
G01 X68.441100 Y133.609400 Z-0.125000
G01 X68.441100 Y131.733600 Z-0.125000
G01 X68.606400 Y131.315000 Z-0.125000
G01 X69.025000 Y131.165200 Z-0.125000
G01 X71.438300 Y131.165200 Z-0.125000
G01 X71.438300 Y129.883600 Z-0.125000
G01 X69.014700 Y129.883600 Z-0.125000
G01 X68.410100 Y129.981800 Z-0.125000
G01 X67.810600 Y130.297000 Z-0.125000
G01 X67.350700 Y130.870600 Z-0.125000
G01 X67.164700 Y131.733600 Z-0.125000
G01 X67.164700 Y133.619800 Z-0.125000
G01 X67.262900 Y134.219200 Z-0.125000
G01 X67.578100 Y134.818700 Z-0.125000
G01 X68.151700 Y135.283700 Z-0.125000
G01 X69.014700 Y135.469800 Z-0.125000
G01 X71.438300 Y135.469800 Z-0.125000
G01 X72.037800 Y135.371600 Z-0.125000
G01 X72.637200 Y135.051200 Z-0.125000
G01 X73.102300 Y134.477600 Z-0.125000
G01 X73.288300 Y133.619800 Z-0.125000
G01 X73.288300 Y133.619800 Z-0.125000
G00 Z5.000000

(End cutting path id: path2195)


(Start cutting path id: path2195)
(Change tool to Default tool)

G00 Z5.000000
G00 X67.030300 Y135.950400

G01 Z-0.125000 F100.0(Penetrate)
G01 X64.069300 Y135.950400 Z-0.125000 F400.000000
G01 X64.069300 Y129.883600 Z-0.125000
G01 X62.725700 Y129.883600 Z-0.125000
G01 X62.725700 Y135.950400 Z-0.125000
G01 X59.759500 Y135.950400 Z-0.125000
G01 X59.759500 Y137.294000 Z-0.125000
G01 X67.030300 Y137.294000 Z-0.125000
G01 X67.030300 Y135.950400 Z-0.125000
G00 Z5.000000

(End cutting path id: path2195)


(Start cutting path id: path2195)
(Change tool to Default tool)

G00 Z5.000000
G00 X55.625400 Y129.346100

G01 Z-0.125000 F100.0(Penetrate)
G01 X55.537500 Y128.726000 Z-0.125000 F400.000000
G01 X55.305000 Y128.240300 Z-0.125000
G01 X54.969100 Y127.883700 Z-0.125000
G01 X54.566000 Y127.640800 Z-0.125000
G01 X54.142300 Y127.506500 Z-0.125000
G01 X53.739200 Y127.460000 Z-0.125000
G01 X51.315600 Y127.460000 Z-0.125000
G01 X51.315600 Y128.803500 Z-0.125000
G01 X53.739200 Y128.803500 Z-0.125000
G01 X54.147400 Y128.943100 Z-0.125000
G01 X54.281800 Y129.346100 Z-0.125000
G01 X54.281800 Y133.588800 Z-0.125000
G01 X54.147400 Y133.986700 Z-0.125000
G01 X53.739200 Y134.126200 Z-0.125000
G01 X51.315600 Y134.126200 Z-0.125000
G01 X50.922800 Y133.971200 Z-0.125000
G01 X50.778100 Y133.588800 Z-0.125000
G01 X50.778100 Y131.769800 Z-0.125000
G01 X50.917700 Y131.366700 Z-0.125000
G01 X51.325900 Y131.227200 Z-0.125000
G01 X53.739200 Y131.227200 Z-0.125000
G01 X53.739200 Y129.883600 Z-0.125000
G01 X51.315600 Y129.883600 Z-0.125000
G01 X50.912500 Y129.924900 Z-0.125000
G01 X50.488800 Y130.064500 Z-0.125000
G01 X50.090800 Y130.302200 Z-0.125000
G01 X49.755000 Y130.658700 Z-0.125000
G01 X49.522400 Y131.144500 Z-0.125000
G01 X49.434600 Y131.769800 Z-0.125000
G01 X49.434600 Y133.588800 Z-0.125000
G01 X49.475900 Y133.991800 Z-0.125000
G01 X49.615400 Y134.410400 Z-0.125000
G01 X49.853100 Y134.813500 Z-0.125000
G01 X50.209700 Y135.149400 Z-0.125000
G01 X50.695500 Y135.381900 Z-0.125000
G01 X51.315600 Y135.469800 Z-0.125000
G01 X53.739200 Y135.469800 Z-0.125000
G01 X54.142300 Y135.423300 Z-0.125000
G01 X54.566000 Y135.288900 Z-0.125000
G01 X54.969100 Y135.046000 Z-0.125000
G01 X55.305000 Y134.689500 Z-0.125000
G01 X55.537500 Y134.208900 Z-0.125000
G01 X55.625400 Y133.588800 Z-0.125000
G01 X55.625400 Y129.346100 Z-0.125000
G00 Z5.000000

(End cutting path id: path2195)


(Start cutting path id: path2195)
(Change tool to Default tool)

G00 Z5.000000
G00 X48.370000 Y129.883600

G01 Z-0.125000 F100.0(Penetrate)
G01 X47.026400 Y129.883600 Z-0.125000 F400.000000
G01 X47.026400 Y132.984200 Z-0.125000
G01 X46.933400 Y133.454400 Z-0.125000
G01 X46.690500 Y133.816100 Z-0.125000
G01 X46.323600 Y134.043500 Z-0.125000
G01 X45.874100 Y134.126200 Z-0.125000
G01 X43.522800 Y134.126200 Z-0.125000
G01 X43.522800 Y129.883600 Z-0.125000
G01 X42.179100 Y129.883600 Z-0.125000
G01 X42.179100 Y134.803200 Z-0.125000
G01 X42.230800 Y135.061500 Z-0.125000
G01 X42.375400 Y135.273400 Z-0.125000
G01 X42.592500 Y135.418100 Z-0.125000
G01 X42.856000 Y135.469800 Z-0.125000
G01 X45.884300 Y135.469800 Z-0.125000
G01 X46.416500 Y135.412900 Z-0.125000
G01 X46.974600 Y135.226900 Z-0.125000
G01 X47.501700 Y134.906500 Z-0.125000
G01 X47.946100 Y134.436300 Z-0.125000
G01 X48.256200 Y133.800600 Z-0.125000
G01 X48.369900 Y132.984200 Z-0.125000
G01 X48.370000 Y129.883600 Z-0.125000
G00 Z5.000000

(End cutting path id: path2195)


(Start cutting path id: path2195)
(Change tool to Default tool)

G00 Z5.000000
G00 X40.892500 Y129.883600

G01 Z-0.125000 F100.0(Penetrate)
G01 X39.548900 Y129.883600 Z-0.125000 F400.000000
G01 X39.548900 Y135.469800 Z-0.125000
G01 X40.892500 Y135.469800 Z-0.125000
G01 X40.892500 Y129.883600 Z-0.125000
G00 Z5.000000

(End cutting path id: path2195)


(Start cutting path id: path2195)
(Change tool to Default tool)

G00 Z5.000000
G00 X39.063100 Y135.469800

G01 Z-0.125000 F100.0(Penetrate)
G01 X38.370700 Y134.053900 Z-0.125000 F400.000000
G01 X37.590400 Y132.741300 Z-0.125000
G01 X36.763500 Y131.594100 Z-0.125000
G01 X35.921200 Y130.689700 Z-0.125000
G01 X35.109900 Y130.095500 Z-0.125000
G01 X34.365800 Y129.883600 Z-0.125000
G01 X34.097000 Y129.935300 Z-0.125000
G01 X33.880000 Y130.074800 Z-0.125000
G01 X33.735300 Y130.291800 Z-0.125000
G01 X33.683600 Y130.560500 Z-0.125000
G01 X33.683600 Y133.066800 Z-0.125000
G01 X31.017100 Y130.085100 Z-0.125000
G01 X30.789800 Y129.930100 Z-0.125000
G01 X30.541700 Y129.883600 Z-0.125000
G01 X30.278200 Y129.935300 Z-0.125000
G01 X30.066300 Y130.074800 Z-0.125000
G01 X29.916400 Y130.291800 Z-0.125000
G01 X29.864700 Y130.560500 Z-0.125000
G01 X29.864700 Y135.469800 Z-0.125000
G01 X31.208300 Y135.469800 Z-0.125000
G01 X31.208300 Y132.286500 Z-0.125000
G01 X33.885200 Y135.278600 Z-0.125000
G01 X34.226200 Y135.459500 Z-0.125000
G01 X34.619000 Y135.418100 Z-0.125000
G01 X34.918700 Y135.170100 Z-0.125000
G01 X35.032400 Y134.803200 Z-0.125000
G01 X35.032400 Y131.609600 Z-0.125000
G01 X35.817900 Y132.493200 Z-0.125000
G01 X36.469000 Y133.449200 Z-0.125000
G01 X37.037400 Y134.451800 Z-0.125000
G01 X37.559300 Y135.469800 Z-0.125000
G01 X39.063100 Y135.469800 Z-0.125000
G00 Z5.000000

(End cutting path id: path2195)


(Start cutting path id: path2195)
(Change tool to Default tool)

G00 Z5.000000
G00 X40.892500 Y136.617000

G01 Z-0.125000 F100.0(Penetrate)
G01 X39.548800 Y136.617000 Z-0.125000 F400.000000
G01 X39.548800 Y137.831400 Z-0.125000
G01 X40.892300 Y137.831400 Z-0.125000
G01 X40.892500 Y136.617000 Z-0.125000
G00 Z5.000000

(End cutting path id: path2195)


(Start cutting path id: path2195)
(Change tool to Default tool)

G00 Z5.000000
G00 X28.717500 Y131.733600

G01 Z-0.125000 F100.0(Penetrate)
G01 X28.619400 Y131.129000 Z-0.125000 F400.000000
G01 X28.299000 Y130.529500 Z-0.125000
G01 X27.725400 Y130.069600 Z-0.125000
G01 X26.867500 Y129.883600 Z-0.125000
G01 X24.443800 Y129.883600 Z-0.125000
G01 X23.839200 Y129.981800 Z-0.125000
G01 X23.239700 Y130.297000 Z-0.125000
G01 X22.779800 Y130.870600 Z-0.125000
G01 X22.593800 Y131.733600 Z-0.125000
G01 X22.692000 Y132.338200 Z-0.125000
G01 X23.007200 Y132.937600 Z-0.125000
G01 X23.580800 Y133.402700 Z-0.125000
G01 X24.443800 Y133.588800 Z-0.125000
G01 X26.867400 Y133.588800 Z-0.125000
G01 X26.867400 Y132.307200 Z-0.125000
G01 X24.443800 Y132.307200 Z-0.125000
G01 X24.020000 Y132.136700 Z-0.125000
G01 X23.870200 Y131.723300 Z-0.125000
G01 X24.040700 Y131.309800 Z-0.125000
G01 X24.454100 Y131.165200 Z-0.125000
G01 X26.867400 Y131.165200 Z-0.125000
G01 X27.291100 Y131.330500 Z-0.125000
G01 X27.441000 Y131.743900 Z-0.125000
G01 X27.441000 Y133.619800 Z-0.125000
G01 X27.275600 Y134.038400 Z-0.125000
G01 X26.867400 Y134.193400 Z-0.125000
G01 X23.916700 Y134.193400 Z-0.125000
G01 X23.916700 Y135.469800 Z-0.125000
G01 X26.867400 Y135.469800 Z-0.125000
G01 X27.466800 Y135.371600 Z-0.125000
G01 X28.066300 Y135.051200 Z-0.125000
G01 X28.531400 Y134.477600 Z-0.125000
G01 X28.717400 Y133.619800 Z-0.125000
G01 X28.717500 Y131.733600 Z-0.125000
G00 Z5.000000

(End cutting path id: path2195)


(Start cutting path id: path2195)
(Change tool to Default tool)

G00 Z5.000000
G00 X22.500900 Y134.126200

G01 Z-0.125000 F100.0(Penetrate)
G01 X19.477700 Y134.126200 Z-0.125000 F400.000000
G01 X19.064300 Y133.986700 Z-0.125000
G01 X18.924800 Y133.588800 Z-0.125000
G01 X18.924800 Y129.883600 Z-0.125000
G01 X17.581200 Y129.883600 Z-0.125000
G01 X17.581200 Y133.588800 Z-0.125000
G01 X17.669000 Y134.208900 Z-0.125000
G01 X17.901600 Y134.689500 Z-0.125000
G01 X18.242600 Y135.046000 Z-0.125000
G01 X18.640500 Y135.288900 Z-0.125000
G01 X19.064300 Y135.423300 Z-0.125000
G01 X19.467400 Y135.469800 Z-0.125000
G01 X22.500800 Y135.469800 Z-0.125000
G01 X22.500900 Y134.126200 Z-0.125000
G00 Z5.000000

(End cutting path id: path2195)


(Start cutting path id: path2195)
(Change tool to Default tool)

G00 Z5.000000
G00 X16.470300 Y132.984200

G01 Z-0.125000 F100.0(Penetrate)
G01 X16.232600 Y131.738800 Z-0.125000 F400.000000
G01 X15.586600 Y130.756900 Z-0.125000
G01 X14.604800 Y130.116100 Z-0.125000
G01 X13.369700 Y129.883600 Z-0.125000
G01 X9.741890 Y129.883600 Z-0.125000
G01 X9.473170 Y129.935300 Z-0.125000
G01 X9.256130 Y130.074800 Z-0.125000
G01 X9.116600 Y130.291800 Z-0.125000
G01 X9.064930 Y130.560500 Z-0.125000
G01 X9.064930 Y136.617000 Z-0.125000
G01 X9.116600 Y136.880500 Z-0.125000
G01 X9.256130 Y137.097600 Z-0.125000
G01 X9.473170 Y137.242300 Z-0.125000
G01 X9.741890 Y137.294000 Z-0.125000
G01 X13.369600 Y137.294000 Z-0.125000
G01 X14.604600 Y137.061400 Z-0.125000
G01 X15.586500 Y136.415500 Z-0.125000
G01 X16.232400 Y135.433600 Z-0.125000
G01 X16.470100 Y134.193400 Z-0.125000
G01 X16.470300 Y132.984200 Z-0.125000
G00 Z5.000000

(End cutting path id: path2195)


(Start cutting path id: path2195)
(Change tool to Default tool)

G00 Z5.000000
G00 X15.126700 Y134.193400

G01 Z-0.125000 F100.0(Penetrate)
G01 X14.997500 Y134.911700 Z-0.125000 F400.000000
G01 X14.640900 Y135.464600 Z-0.125000
G01 X14.082800 Y135.821200 Z-0.125000
G01 X13.369700 Y135.950400 Z-0.125000
G01 X10.408500 Y135.950400 Z-0.125000
G01 X10.408500 Y131.227200 Z-0.125000
G01 X13.369600 Y131.227200 Z-0.125000
G01 X14.082700 Y131.351200 Z-0.125000
G01 X14.640800 Y131.707800 Z-0.125000
G01 X14.997400 Y132.260700 Z-0.125000
G01 X15.126600 Y132.984200 Z-0.125000
G01 X15.126700 Y134.193400 Z-0.125000
G00 Z5.000000

(End cutting path id: path2195)


(Start cutting path id: path2195)
(Change tool to Default tool)

G00 Z5.000000
G00 X21.832200 Y118.322400

G01 Z-0.125000 F100.0(Penetrate)
G01 X21.292200 Y117.782400 Z-0.125000 F400.000000
G01 X21.011600 Y117.127600 Z-0.125000
G01 X21.081700 Y116.940500 Z-0.125000
G01 X21.292200 Y117.034000 Z-0.125000
G01 X22.299900 Y118.041800 Z-0.125000
G01 X22.954800 Y118.322400 Z-0.125000
G01 X23.141800 Y118.252200 Z-0.125000
G01 X23.048300 Y118.041800 Z-0.125000
G01 X21.292200 Y116.285700 Z-0.125000
G01 X21.011600 Y115.630900 Z-0.125000
G01 X21.081700 Y115.443800 Z-0.125000
G01 X21.292200 Y115.537300 Z-0.125000
G01 X23.796700 Y118.041800 Z-0.125000
G01 X24.451500 Y118.322400 Z-0.125000
G01 X24.638600 Y118.252200 Z-0.125000
G01 X24.545000 Y118.041800 Z-0.125000
G01 X21.292200 Y114.789000 Z-0.125000
G01 X21.155400 Y114.535200 Z-0.125000
G01 X21.247200 Y114.369800 Z-0.125000
G01 X21.479400 Y114.344800 Z-0.125000
G01 X21.763600 Y114.512000 Z-0.125000
G01 X25.293400 Y118.041800 Z-0.125000
G01 X25.948200 Y118.322400 Z-0.125000
G01 X26.135300 Y118.252200 Z-0.125000
G01 X26.041700 Y118.041800 Z-0.125000
G01 X22.511900 Y114.512000 Z-0.125000
G01 X22.418400 Y114.301500 Z-0.125000
G01 X22.605500 Y114.231300 Z-0.125000
G01 X23.260300 Y114.512000 Z-0.125000
G01 X26.790100 Y118.041800 Z-0.125000
G01 X27.444900 Y118.322400 Z-0.125000
G01 X27.632000 Y118.252200 Z-0.125000
G01 X27.538400 Y118.041800 Z-0.125000
G01 X24.008600 Y114.512000 Z-0.125000
G01 X23.915100 Y114.301500 Z-0.125000
G01 X24.102200 Y114.231300 Z-0.125000
G01 X24.757000 Y114.512000 Z-0.125000
G01 X28.286800 Y118.041800 Z-0.125000
G01 X28.941600 Y118.322400 Z-0.125000
G01 X29.128700 Y118.252200 Z-0.125000
G01 X29.035100 Y118.041800 Z-0.125000
G01 X25.505300 Y114.512000 Z-0.125000
G01 X25.411800 Y114.301500 Z-0.125000
G01 X25.598900 Y114.231300 Z-0.125000
G01 X26.253700 Y114.512000 Z-0.125000
G01 X29.783500 Y118.041800 Z-0.125000
G01 X30.438300 Y118.322400 Z-0.125000
G01 X30.625400 Y118.252200 Z-0.125000
G01 X30.531800 Y118.041800 Z-0.125000
G01 X27.002000 Y114.512000 Z-0.125000
G01 X26.908500 Y114.301500 Z-0.125000
G01 X27.095600 Y114.231300 Z-0.125000
G01 X27.750400 Y114.512000 Z-0.125000
G01 X31.280200 Y118.041800 Z-0.125000
G01 X31.935000 Y118.322400 Z-0.125000
G01 X32.122100 Y118.252200 Z-0.125000
G01 X32.028600 Y118.041800 Z-0.125000
G01 X28.498700 Y114.512000 Z-0.125000
G01 X28.405200 Y114.301500 Z-0.125000
G01 X28.592300 Y114.231300 Z-0.125000
G01 X29.247100 Y114.512000 Z-0.125000
G01 X32.776900 Y118.041800 Z-0.125000
G01 X33.431700 Y118.322400 Z-0.125000
G01 X33.618800 Y118.252200 Z-0.125000
G01 X33.525300 Y118.041800 Z-0.125000
G01 X29.995500 Y114.512000 Z-0.125000
G01 X29.901900 Y114.301500 Z-0.125000
G01 X30.089000 Y114.231300 Z-0.125000
G01 X30.743800 Y114.512000 Z-0.125000
G01 X34.273600 Y118.041800 Z-0.125000
G01 X34.928400 Y118.322400 Z-0.125000
G01 X35.115500 Y118.252200 Z-0.125000
G01 X35.022000 Y118.041800 Z-0.125000
G01 X30.908200 Y113.927900 Z-0.125000
G01 X30.627500 Y113.273100 Z-0.125000
G01 X30.697700 Y113.086000 Z-0.125000
G01 X30.908200 Y113.179600 Z-0.125000
G01 X35.770300 Y118.041800 Z-0.125000
G01 X36.425100 Y118.322400 Z-0.125000
G01 X36.612200 Y118.252200 Z-0.125000
G01 X36.518700 Y118.041800 Z-0.125000
G01 X30.908200 Y112.431200 Z-0.125000
G01 X30.627500 Y111.776400 Z-0.125000
G01 X30.697700 Y111.589300 Z-0.125000
G01 X30.908200 Y111.682900 Z-0.125000
G01 X37.267000 Y118.041800 Z-0.125000
G01 X37.921900 Y118.322400 Z-0.125000
G01 X38.108900 Y118.252200 Z-0.125000
G01 X38.015400 Y118.041800 Z-0.125000
G01 X30.908200 Y110.934500 Z-0.125000
G01 X30.627500 Y110.279700 Z-0.125000
G01 X30.697700 Y110.092600 Z-0.125000
G01 X30.908200 Y110.186200 Z-0.125000
G01 X38.763800 Y118.041800 Z-0.125000
G01 X39.418600 Y118.322400 Z-0.125000
G01 X39.605700 Y118.252200 Z-0.125000
G01 X39.512100 Y118.041800 Z-0.125000
G01 X35.982300 Y114.512000 Z-0.125000
G01 X35.888800 Y114.301500 Z-0.125000
G01 X36.075800 Y114.231300 Z-0.125000
G01 X36.730600 Y114.512000 Z-0.125000
G01 X40.260500 Y118.041800 Z-0.125000
G01 X40.915300 Y118.322400 Z-0.125000
G01 X41.102400 Y118.252200 Z-0.125000
G01 X41.008800 Y118.041800 Z-0.125000
G01 X37.479000 Y114.512000 Z-0.125000
G01 X37.385500 Y114.301500 Z-0.125000
G01 X37.572500 Y114.231300 Z-0.125000
G01 X38.227400 Y114.512000 Z-0.125000
G01 X41.757200 Y118.041800 Z-0.125000
G01 X42.412000 Y118.322400 Z-0.125000
G01 X42.599100 Y118.252200 Z-0.125000
G01 X42.505500 Y118.041800 Z-0.125000
G01 X38.975700 Y114.512000 Z-0.125000
G01 X38.882200 Y114.301500 Z-0.125000
G01 X39.069300 Y114.231300 Z-0.125000
G01 X39.724100 Y114.512000 Z-0.125000
G01 X43.253900 Y118.041800 Z-0.125000
G01 X43.908700 Y118.322400 Z-0.125000
G01 X44.095800 Y118.252200 Z-0.125000
G01 X44.002200 Y118.041800 Z-0.125000
G01 X40.472400 Y114.512000 Z-0.125000
G01 X40.378900 Y114.301500 Z-0.125000
G01 X40.566000 Y114.231300 Z-0.125000
G01 X41.220800 Y114.512000 Z-0.125000
G01 X44.037200 Y117.328400 Z-0.125000
G01 X44.247700 Y117.421900 Z-0.125000
G01 X44.317800 Y117.234800 Z-0.125000
G01 X44.037200 Y116.580000 Z-0.125000
G01 X41.969100 Y114.512000 Z-0.125000
G01 X41.875600 Y114.301500 Z-0.125000
G01 X42.062700 Y114.231300 Z-0.125000
G01 X42.717500 Y114.512000 Z-0.125000
G01 X44.037200 Y115.831600 Z-0.125000
G01 X44.247700 Y115.925200 Z-0.125000
G01 X44.317800 Y115.738100 Z-0.125000
G01 X44.037200 Y115.083300 Z-0.125000
G01 X43.377300 Y114.423400 Z-0.125000
G01 X43.350200 Y114.279400 Z-0.125000
G01 X43.559400 Y114.231300 Z-0.125000
G01 X44.125700 Y114.423400 Z-0.125000
G01 X44.317800 Y114.615600 Z-0.125000
G00 Z5.000000

(End cutting path id: path2195)


(Start cutting path id: path2195)
(Change tool to Default tool)

G00 Z5.000000
G00 X44.450100 Y114.099000

G01 Z-0.125000 F100.0(Penetrate)
G01 X34.850900 Y114.099000 Z-0.125000 F400.000000
G01 X34.850900 Y94.431600 Z-0.125000
G01 X30.495200 Y94.431600 Z-0.125000
G01 X30.495200 Y114.099000 Z-0.125000
G01 X20.879300 Y114.099000 Z-0.125000
G01 X20.879300 Y118.454700 Z-0.125000
G01 X44.450100 Y118.454700 Z-0.125000
G01 X44.450100 Y114.099000 Z-0.125000
G00 Z5.000000

(End cutting path id: path2195)


(Start cutting path id: path2195)
(Change tool to Default tool)

G00 Z5.000000
G00 X48.213600 Y111.776200

G01 Z-0.125000 F100.0(Penetrate)
G01 X45.762200 Y109.324800 Z-0.125000 F400.000000
G01 X45.325900 Y108.514300 Z-0.125000
G01 X45.289000 Y108.220100 Z-0.125000
G01 X45.450800 Y108.265000 Z-0.125000
G01 X49.163600 Y111.977900 Z-0.125000
G01 X49.871800 Y112.311800 Z-0.125000
G01 X50.095500 Y112.278300 Z-0.125000
G01 X50.018600 Y112.084500 Z-0.125000
G01 X45.326900 Y107.392700 Z-0.125000
G01 X45.032100 Y106.723800 Z-0.125000
G01 X45.092500 Y106.527000 Z-0.125000
G01 X45.298600 Y106.616100 Z-0.125000
G01 X50.810600 Y112.128100 Z-0.125000
G01 X51.465400 Y112.408800 Z-0.125000
G01 X51.652500 Y112.338600 Z-0.125000
G01 X51.559000 Y112.128100 Z-0.125000
G01 X45.298600 Y105.867700 Z-0.125000
G01 X45.018000 Y105.212900 Z-0.125000
G01 X45.088100 Y105.025800 Z-0.125000
G01 X45.298600 Y105.119400 Z-0.125000
G01 X52.307300 Y112.128100 Z-0.125000
G01 X52.962100 Y112.408800 Z-0.125000
G01 X53.149200 Y112.338600 Z-0.125000
G01 X53.055700 Y112.128100 Z-0.125000
G01 X45.298600 Y104.371000 Z-0.125000
G01 X45.018000 Y103.716200 Z-0.125000
G01 X45.088100 Y103.529100 Z-0.125000
G01 X45.298600 Y103.622700 Z-0.125000
G01 X53.804000 Y112.128100 Z-0.125000
G01 X54.458800 Y112.408800 Z-0.125000
G01 X54.645900 Y112.338600 Z-0.125000
G01 X54.552400 Y112.128100 Z-0.125000
G01 X50.972800 Y108.548500 Z-0.125000
G01 X50.887000 Y108.345800 Z-0.125000
G01 X51.091200 Y108.292800 Z-0.125000
G01 X51.770900 Y108.598300 Z-0.125000
G01 X55.300700 Y112.128100 Z-0.125000
G01 X55.955600 Y112.408800 Z-0.125000
G01 X56.142600 Y112.338600 Z-0.125000
G01 X56.049100 Y112.128100 Z-0.125000
G01 X52.519300 Y108.598300 Z-0.125000
G01 X52.425700 Y108.387800 Z-0.125000
G01 X52.612800 Y108.317700 Z-0.125000
G01 X53.267600 Y108.598300 Z-0.125000
G01 X56.797400 Y112.128100 Z-0.125000
G01 X57.452300 Y112.408800 Z-0.125000
G01 X57.639300 Y112.338600 Z-0.125000
G01 X57.545800 Y112.128100 Z-0.125000
G01 X54.016000 Y108.598300 Z-0.125000
G01 X53.922400 Y108.387800 Z-0.125000
G01 X54.109500 Y108.317700 Z-0.125000
G01 X54.764300 Y108.598300 Z-0.125000
G01 X58.294200 Y112.128100 Z-0.125000
G01 X58.942000 Y112.401800 Z-0.125000
G01 X59.124300 Y112.326900 Z-0.125000
G01 X59.028600 Y112.114200 Z-0.125000
G01 X55.512700 Y108.598300 Z-0.125000
G01 X55.419200 Y108.387800 Z-0.125000
G01 X55.606200 Y108.317700 Z-0.125000
G01 X56.261100 Y108.598300 Z-0.125000
G01 X59.710300 Y112.047600 Z-0.125000
G01 X60.017700 Y112.238100 Z-0.125000
G01 X60.301100 Y112.264200 Z-0.125000
G01 X60.444200 Y112.150100 Z-0.125000
G01 X60.330700 Y111.919600 Z-0.125000
G01 X57.009400 Y108.598300 Z-0.125000
G01 X56.915900 Y108.387800 Z-0.125000
G01 X57.103000 Y108.317700 Z-0.125000
G01 X57.757800 Y108.598300 Z-0.125000
G01 X60.897300 Y111.737900 Z-0.125000
G01 X61.188200 Y111.911900 Z-0.125000
G01 X61.435400 Y111.901700 Z-0.125000
G01 X61.542200 Y111.751300 Z-0.125000
G01 X61.412200 Y111.504400 Z-0.125000
G01 X58.506100 Y108.598300 Z-0.125000
G01 X58.411900 Y108.387200 Z-0.125000
G01 X58.597600 Y108.315600 Z-0.125000
G01 X59.250300 Y108.594100 Z-0.125000
G01 X61.886200 Y111.230100 Z-0.125000
G01 X62.165000 Y111.391800 Z-0.125000
G01 X62.385200 Y111.354900 Z-0.125000
G01 X62.465200 Y111.177600 Z-0.125000
G01 X62.322900 Y110.918400 Z-0.125000
G01 X59.893800 Y108.489200 Z-0.125000
G01 X59.760900 Y108.239400 Z-0.125000
G01 X59.861300 Y108.082600 Z-0.125000
G01 X60.102000 Y108.066000 Z-0.125000
G01 X60.390000 Y108.237100 Z-0.125000
G01 X62.723700 Y110.570800 Z-0.125000
G01 X62.990800 Y110.720900 Z-0.125000
G01 X63.185400 Y110.658300 Z-0.125000
G01 X63.239800 Y110.455400 Z-0.125000
G01 X63.085900 Y110.184600 Z-0.125000
G01 X60.744000 Y107.842700 Z-0.125000
G01 X60.565900 Y107.547700 Z-0.125000
G01 X60.567000 Y107.291600 Z-0.125000
G01 X60.708500 Y107.175800 Z-0.125000
G01 X60.951300 Y107.301700 Z-0.125000
G01 X63.411800 Y109.762200 Z-0.125000
G01 X63.667800 Y109.901200 Z-0.125000
G01 X63.838100 Y109.814300 Z-0.125000
G01 X63.868100 Y109.587000 Z-0.125000
G01 X63.703100 Y109.305200 Z-0.125000
G01 X61.012500 Y106.614500 Z-0.125000
G01 X60.731800 Y105.959700 Z-0.125000
G01 X60.802000 Y105.772600 Z-0.125000
G01 X61.012500 Y105.866200 Z-0.125000
G01 X63.955500 Y108.809100 Z-0.125000
G01 X64.198500 Y108.935200 Z-0.125000
G01 X64.340300 Y108.819800 Z-0.125000
G01 X64.341800 Y108.564000 Z-0.125000
G01 X64.163900 Y108.269200 Z-0.125000
G01 X61.012500 Y105.117800 Z-0.125000
G01 X60.731800 Y104.463000 Z-0.125000
G01 X60.802000 Y104.275900 Z-0.125000
G01 X61.012500 Y104.369400 Z-0.125000
G01 X64.333500 Y107.690400 Z-0.125000
G01 X64.564500 Y107.804600 Z-0.125000
G01 X64.680000 Y107.662700 Z-0.125000
G01 X64.655100 Y107.380600 Z-0.125000
G01 X64.465200 Y107.073800 Z-0.125000
G01 X61.012500 Y103.621100 Z-0.125000
G01 X60.731800 Y102.966300 Z-0.125000
G01 X60.802000 Y102.779200 Z-0.125000
G01 X61.012500 Y102.872700 Z-0.125000
G01 X64.536600 Y106.396900 Z-0.125000
G01 X64.748000 Y106.491300 Z-0.125000
G01 X64.820100 Y106.306200 Z-0.125000
G01 X64.542200 Y105.654200 Z-0.125000
G01 X61.012400 Y102.124400 Z-0.125000
G01 X60.731800 Y101.469600 Z-0.125000
G01 X60.802000 Y101.282500 Z-0.125000
G01 X61.012400 Y101.376000 Z-0.125000
G01 X64.542200 Y104.905800 Z-0.125000
G01 X64.752700 Y104.999400 Z-0.125000
G01 X64.822900 Y104.812300 Z-0.125000
G01 X64.542200 Y104.157500 Z-0.125000
G01 X60.726000 Y100.341200 Z-0.125000
G00 Z5.000000

(End cutting path id: path2195)


(Start cutting path id: path2195)
(Change tool to Default tool)

G00 Z5.000000
G00 X64.955200 Y100.546200

G01 Z-0.125000 F100.0(Penetrate)
G01 X64.884000 Y99.478300 Z-0.125000 F400.000000
G01 X64.670400 Y98.519200 Z-0.125000
G01 X63.916500 Y96.944400 Z-0.125000
G01 X62.827600 Y95.788500 Z-0.125000
G01 X61.520900 Y95.017900 Z-0.125000
G01 X60.147200 Y94.565600 Z-0.125000
G01 X58.840500 Y94.431600 Z-0.125000
G01 X50.983600 Y94.431600 Z-0.125000
G01 X49.006800 Y94.749800 Z-0.125000
G01 X47.972300 Y95.168700 Z-0.125000
G01 X47.013200 Y95.788500 Z-0.125000
G01 X46.179800 Y96.630300 Z-0.125000
G01 X45.488800 Y97.681500 Z-0.125000
G01 X45.036400 Y98.984100 Z-0.125000
G01 X44.885700 Y100.546200 Z-0.125000
G01 X44.885700 Y106.443100 Z-0.125000
G01 X45.036400 Y107.988500 Z-0.125000
G01 X45.488800 Y109.274300 Z-0.125000
G01 X46.179800 Y110.333900 Z-0.125000
G01 X47.013200 Y111.167300 Z-0.125000
G01 X47.972300 Y111.799700 Z-0.125000
G01 X49.006800 Y112.222700 Z-0.125000
G01 X50.983600 Y112.541000 Z-0.125000
G01 X58.840500 Y112.541000 Z-0.125000
G01 X60.390100 Y112.390300 Z-0.125000
G01 X61.688500 Y111.938000 Z-0.125000
G01 X62.748100 Y111.255300 Z-0.125000
G01 X63.581500 Y110.413500 Z-0.125000
G01 X64.201300 Y109.467000 Z-0.125000
G01 X64.620200 Y108.436700 Z-0.125000
G01 X64.871400 Y107.402200 Z-0.125000
G01 X64.955200 Y106.443100 Z-0.125000
G01 X64.955200 Y100.546200 Z-0.125000
G00 Z5.000000

(End cutting path id: path2195)


(Start cutting path id: path2195)
(Change tool to Default tool)

G00 Z5.000000
G00 X60.599500 Y106.409600

G01 Z-0.125000 F100.0(Penetrate)
G01 X60.486500 Y107.197000 Z-0.125000 F400.000000
G01 X60.147200 Y107.749800 Z-0.125000
G01 X59.594400 Y108.076500 Z-0.125000
G01 X58.840500 Y108.185400 Z-0.125000
G01 X51.017100 Y108.185400 Z-0.125000
G01 X50.250700 Y108.072300 Z-0.125000
G01 X49.693600 Y107.733100 Z-0.125000
G01 X49.354400 Y107.192800 Z-0.125000
G01 X49.241300 Y106.443100 Z-0.125000
G01 X49.241300 Y100.546200 Z-0.125000
G01 X49.354400 Y99.792400 Z-0.125000
G01 X49.693600 Y99.239500 Z-0.125000
G01 X50.250700 Y98.900300 Z-0.125000
G01 X51.017100 Y98.787200 Z-0.125000
G01 X58.840500 Y98.787200 Z-0.125000
G01 X59.615300 Y98.900300 Z-0.125000
G01 X60.164000 Y99.239500 Z-0.125000
G01 X60.490700 Y99.792400 Z-0.125000
G01 X60.599500 Y100.546200 Z-0.125000
G01 X60.599500 Y106.409600 Z-0.125000
G00 Z5.000000

(End cutting path id: path2195)


(Start cutting path id: path2195)
(Change tool to Default tool)

G00 Z5.000000
G00 X49.175200 Y106.751000

G01 Z-0.125000 F100.0(Penetrate)
G01 X45.298500 Y102.874300 Z-0.125000 F400.000000
G01 X45.017900 Y102.219500 Z-0.125000
G01 X45.088100 Y102.032400 Z-0.125000
G01 X45.298500 Y102.125900 Z-0.125000
G01 X48.828400 Y105.655800 Z-0.125000
G01 X49.038800 Y105.749300 Z-0.125000
G01 X49.109000 Y105.562200 Z-0.125000
G01 X48.828400 Y104.907400 Z-0.125000
G01 X45.298500 Y101.377600 Z-0.125000
G01 X45.020100 Y100.725000 Z-0.125000
G01 X45.091800 Y100.539400 Z-0.125000
G01 X45.302900 Y100.633700 Z-0.125000
G01 X48.828400 Y104.159100 Z-0.125000
G01 X49.038900 Y104.252600 Z-0.125000
G01 X49.109000 Y104.065500 Z-0.125000
G01 X48.828400 Y103.410700 Z-0.125000
G01 X45.347600 Y99.929900 Z-0.125000
G01 X45.152900 Y99.618300 Z-0.125000
G01 X45.117600 Y99.325700 Z-0.125000
G01 X45.222500 Y99.173400 Z-0.125000
G01 X45.448800 Y99.282800 Z-0.125000
G01 X48.828400 Y102.662400 Z-0.125000
G01 X49.038900 Y102.755900 Z-0.125000
G01 X49.109000 Y102.568800 Z-0.125000
G01 X48.828400 Y101.914000 Z-0.125000
G01 X45.608800 Y98.694400 Z-0.125000
G01 X45.431800 Y98.400400 Z-0.125000
G01 X45.435100 Y98.146600 Z-0.125000
G01 X45.578800 Y98.033000 Z-0.125000
G01 X45.822700 Y98.160000 Z-0.125000
G01 X48.828400 Y101.165700 Z-0.125000
G01 X49.038900 Y101.259200 Z-0.125000
G01 X49.109000 Y101.072100 Z-0.125000
G01 X48.828400 Y100.417300 Z-0.125000
G01 X46.087100 Y97.676000 Z-0.125000
G01 X45.923300 Y97.395300 Z-0.125000
G01 X45.955800 Y97.170500 Z-0.125000
G01 X46.128600 Y97.086100 Z-0.125000
G01 X46.385700 Y97.226300 Z-0.125000
G01 X48.881600 Y99.722200 Z-0.125000
G01 X49.123600 Y99.847300 Z-0.125000
G01 X49.263200 Y99.729500 Z-0.125000
G01 X49.262400 Y99.471500 Z-0.125000
G01 X49.083500 Y99.175700 Z-0.125000
G01 X46.718700 Y96.810900 Z-0.125000
G01 X46.565600 Y96.540900 Z-0.125000
G01 X46.621700 Y96.339700 Z-0.125000
G01 X46.818200 Y96.278900 Z-0.125000
G01 X47.086000 Y96.429900 Z-0.125000
G01 X49.426400 Y98.770200 Z-0.125000
G01 X49.711700 Y98.938600 Z-0.125000
G01 X49.946400 Y98.916100 Z-0.125000
G01 X50.040800 Y98.753300 Z-0.125000
G01 X49.905200 Y98.500700 Z-0.125000
G01 X47.491300 Y96.086800 Z-0.125000
G01 X47.350400 Y95.828900 Z-0.125000
G01 X47.433200 Y95.654500 Z-0.125000
G01 X47.656300 Y95.620400 Z-0.125000
G01 X47.936400 Y95.783500 Z-0.125000
G01 X50.533900 Y98.381000 Z-0.125000
G01 X51.185300 Y98.658300 Z-0.125000
G01 X51.370100 Y98.585800 Z-0.125000
G01 X51.275500 Y98.374300 Z-0.125000
G01 X48.417200 Y95.516000 Z-0.125000
G01 X48.288200 Y95.270100 Z-0.125000
G01 X48.397300 Y95.121900 Z-0.125000
G01 X48.646700 Y95.114000 Z-0.125000
G01 X48.938600 Y95.289100 Z-0.125000
G01 X52.023900 Y98.374300 Z-0.125000
G01 X52.678700 Y98.654900 Z-0.125000
G01 X52.865800 Y98.584800 Z-0.125000
G01 X52.772200 Y98.374300 Z-0.125000
G01 X49.504700 Y95.106800 Z-0.125000
G01 X49.388700 Y94.873900 Z-0.125000
G01 X49.526400 Y94.754300 Z-0.125000
G01 X49.804300 Y94.775000 Z-0.125000
G01 X50.109300 Y94.963000 Z-0.125000
G01 X53.520600 Y98.374300 Z-0.125000
G01 X54.175400 Y98.654900 Z-0.125000
G01 X54.362500 Y98.584800 Z-0.125000
G01 X54.268900 Y98.374300 Z-0.125000
G01 X50.763700 Y94.869000 Z-0.125000
G01 X50.666300 Y94.654700 Z-0.125000
G01 X50.844900 Y94.576100 Z-0.125000
G01 X51.163900 Y94.637800 Z-0.125000
G01 X51.487500 Y94.844500 Z-0.125000
G01 X55.017300 Y98.374300 Z-0.125000
G01 X55.672100 Y98.654900 Z-0.125000
G01 X55.859200 Y98.584800 Z-0.125000
G01 X55.765600 Y98.374300 Z-0.125000
G01 X52.235800 Y94.844500 Z-0.125000
G01 X52.142300 Y94.634000 Z-0.125000
G01 X52.329400 Y94.563800 Z-0.125000
G01 X52.984200 Y94.844500 Z-0.125000
G01 X56.514000 Y98.374300 Z-0.125000
G01 X57.168800 Y98.654900 Z-0.125000
G01 X57.355900 Y98.584800 Z-0.125000
G01 X57.262300 Y98.374300 Z-0.125000
G01 X53.732500 Y94.844500 Z-0.125000
G01 X53.639000 Y94.634000 Z-0.125000
G01 X53.826100 Y94.563800 Z-0.125000
G01 X54.480900 Y94.844500 Z-0.125000
G01 X58.010700 Y98.374300 Z-0.125000
G01 X58.668100 Y98.657500 Z-0.125000
G01 X58.857000 Y98.589200 Z-0.125000
G01 X58.764300 Y98.379500 Z-0.125000
G01 X55.229200 Y94.844500 Z-0.125000
G01 X55.135700 Y94.634000 Z-0.125000
G01 X55.322800 Y94.563800 Z-0.125000
G01 X55.977600 Y94.844500 Z-0.125000
G01 X64.542300 Y103.409100 Z-0.125000
G01 X64.752800 Y103.502700 Z-0.125000
G01 X64.822900 Y103.315600 Z-0.125000
G01 X64.542300 Y102.660800 Z-0.125000
G01 X56.726000 Y94.844500 Z-0.125000
G01 X56.632400 Y94.634000 Z-0.125000
G01 X56.819500 Y94.563800 Z-0.125000
G01 X57.474300 Y94.844500 Z-0.125000
G01 X64.542300 Y101.912400 Z-0.125000
G01 X64.752800 Y102.006000 Z-0.125000
G01 X64.822900 Y101.818900 Z-0.125000
G01 X64.542300 Y101.164100 Z-0.125000
G01 X58.222700 Y94.844500 Z-0.125000
G01 X58.129100 Y94.634000 Z-0.125000
G01 X58.316200 Y94.563800 Z-0.125000
G01 X58.971000 Y94.844500 Z-0.125000
G01 X64.542300 Y100.415700 Z-0.125000
G01 X64.749400 Y100.505900 Z-0.125000
G01 X64.812200 Y100.311400 Z-0.125000
G01 X64.520800 Y99.645900 Z-0.125000
G01 X59.752900 Y94.878000 Z-0.125000
G01 X59.684600 Y94.692700 Z-0.125000
G01 X59.927100 Y94.678000 Z-0.125000
G01 X60.662500 Y95.039200 Z-0.125000
G01 X64.392500 Y98.769200 Z-0.125000
G01 X64.558400 Y98.818200 Z-0.125000
G01 X64.530500 Y98.533100 Z-0.125000
G01 X64.107400 Y97.735700 Z-0.125000
G01 X61.541600 Y95.170000 Z-0.125000
G00 Z5.000000

(End cutting path id: path2195)


(Start cutting path id: path2195)
(Change tool to Default tool)

G00 Z5.000000
G00 X56.690000 Y82.611600

G01 Z-0.125000 F100.0(Penetrate)
G01 X56.425400 Y81.077000 Z-0.125000 F400.000000
G01 X56.330200 Y79.309600 Z-0.125000
G01 X56.732300 Y78.276700 Z-0.125000
G01 X57.557800 Y77.843300 Z-0.125000
G01 X58.965400 Y77.943300 Z-0.125000
G01 X59.759200 Y78.442900 Z-0.125000
G01 X60.193100 Y78.643900 Z-0.125000
G01 X60.627000 Y79.246100 Z-0.125000
G01 X60.933900 Y79.881100 Z-0.125000
G01 X60.690500 Y82.738600 Z-0.125000
G01 X61.029200 Y77.876700 Z-0.125000
G00 Z5.000000

(End cutting path id: path2195)


(Start cutting path id: path2195)
(Change tool to Default tool)

G00 Z5.000000
G00 X59.028800 Y69.414500

G01 Z-0.125000 F100.0(Penetrate)
G01 X59.092300 Y64.547700 Z-0.125000 F400.000000
G01 X59.494400 Y67.879900 Z-0.125000
G01 X60.161200 Y68.885300 Z-0.125000
G01 X61.325300 Y69.382700 Z-0.125000
G01 X62.023800 Y69.414500 Z-0.125000
G01 X62.489500 Y69.118100 Z-0.125000
G01 X62.859900 Y68.218600 Z-0.125000
G01 X62.722300 Y64.547700 Z-0.125000
G01 X63.092700 Y67.943400 Z-0.125000
G01 X63.897100 Y68.853600 Z-0.125000
G01 X65.029500 Y69.382700 Z-0.125000
G01 X65.992600 Y69.382700 Z-0.125000
G01 X66.595800 Y69.118100 Z-0.125000
G01 X66.722800 Y68.282100 Z-0.125000
G01 X66.765200 Y66.715700 Z-0.125000
G01 X66.828700 Y64.647800 Z-0.125000
G00 Z5.000000

(End cutting path id: path2195)


(Start cutting path id: path2195)
(Change tool to Default tool)

G00 Z5.000000
G00 X67.823500 Y69.181600

G01 Z-0.125000 F100.0(Penetrate)
G01 X67.887000 Y60.513900 Z-0.125000 F400.000000
G01 X67.855300 Y68.514900 Z-0.125000
G01 X69.061800 Y69.181600 Z-0.125000
G01 X70.427000 Y69.478000 Z-0.125000
G01 X71.961600 Y69.245100 Z-0.125000
G01 X72.459000 Y68.514900 Z-0.125000
G01 X72.363800 Y67.382500 Z-0.125000
G01 X71.887500 Y66.609900 Z-0.125000
G01 X70.924400 Y65.784400 Z-0.125000
G01 X69.929600 Y65.280600 Z-0.125000
G01 X67.929400 Y64.781100 Z-0.125000
G00 Z5.000000

(End cutting path id: path2195)


(Start cutting path id: path2195)
(Change tool to Default tool)

G00 Z5.000000
G00 X57.769400 Y67.446000

G01 Z-0.125000 F100.0(Penetrate)
G01 X57.166100 Y66.112500 Z-0.125000 F400.000000
G01 X56.192400 Y65.214000 Z-0.125000
G01 X55.494000 Y64.815000 Z-0.125000
G01 X54.827200 Y64.581100 Z-0.125000
G01 X53.895900 Y64.681600 Z-0.125000
G01 X53.398500 Y65.013900 Z-0.125000
G01 X53.260900 Y66.049000 Z-0.125000
G01 X53.768900 Y67.086100 Z-0.125000
G01 X54.425000 Y68.081000 Z-0.125000
G01 X55.494000 Y68.811200 Z-0.125000
G01 X56.298300 Y69.181600 Z-0.125000
G01 X56.901500 Y69.181600 Z-0.125000
G01 X57.631800 Y69.044100 Z-0.125000
G01 X57.769400 Y68.546600 Z-0.125000
G01 X57.896400 Y64.547700 Z-0.125000
G00 Z5.000000

(End cutting path id: path2195)


(Start cutting path id: path2195)
(Change tool to Default tool)

G00 Z5.000000
G00 X51.398300 Y68.917100

G01 Z-0.125000 F100.0(Penetrate)
G01 X51.059600 Y69.213400 Z-0.125000 F400.000000
G01 X50.064800 Y69.319200 Z-0.125000
G01 X48.995900 Y68.917100 Z-0.125000
G01 X48.096300 Y68.250300 Z-0.125000
G01 X47.122600 Y66.980300 Z-0.125000
G01 X46.826300 Y65.646800 Z-0.125000
G01 X47.461300 Y64.880600 Z-0.125000
G01 X48.763000 Y64.481100 Z-0.125000
G01 X50.160000 Y64.547700 Z-0.125000
G01 X51.154800 Y64.781100 Z-0.125000
G01 X52.223800 Y65.348400 Z-0.125000
G00 Z5.000000

(End cutting path id: path2195)


(Start cutting path id: path2195)
(Change tool to Default tool)

G00 Z5.000000
G00 X37.555300 Y69.478000

G01 Z-0.125000 F100.0(Penetrate)
G01 X37.428300 Y64.681600 Z-0.125000 F400.000000
G01 X37.756300 Y67.382500 Z-0.125000
G01 X38.560700 Y68.419600 Z-0.125000
G01 X39.587300 Y69.012300 Z-0.125000
G01 X40.423300 Y69.351000 Z-0.125000
G01 X40.793700 Y69.382700 Z-0.125000
G01 X41.894400 Y69.276900 Z-0.125000
G01 X42.021400 Y69.181600 Z-0.125000
G00 Z5.000000

(End cutting path id: path2195)


(Start cutting path id: path2195)
(Change tool to Default tool)

G00 Z5.000000
G00 X32.316600 Y69.382700

G01 Z-0.125000 F100.0(Penetrate)
G01 X32.052000 Y67.848100 Z-0.125000 F400.000000
G01 X31.956700 Y66.080700 Z-0.125000
G01 X32.358900 Y65.047800 Z-0.125000
G01 X33.184400 Y64.614400 Z-0.125000
G01 X34.592000 Y64.714400 Z-0.125000
G01 X35.385700 Y65.214000 Z-0.125000
G01 X35.819600 Y65.415000 Z-0.125000
G01 X36.253500 Y66.017200 Z-0.125000
G01 X36.560500 Y66.652200 Z-0.125000
G01 X36.317000 Y69.509700 Z-0.125000
G01 X36.655700 Y64.647800 Z-0.125000
G00 Z5.000000

(End cutting path id: path2195)


(Start cutting path id: path2195)
(Change tool to Default tool)

G00 Z5.000000
G00 X28.686400 Y69.478000

G01 Z-0.125000 F100.0(Penetrate)
G01 X27.352900 Y68.885300 Z-0.125000 F400.000000
G01 X26.654400 Y67.879900 Z-0.125000
G01 X26.188800 Y66.885100 Z-0.125000
G01 X26.421600 Y65.548400 Z-0.125000
G01 X26.855500 Y64.815000 Z-0.125000
G01 X28.263100 Y64.581100 Z-0.125000
G01 X29.427300 Y64.880600 Z-0.125000
G01 X30.623200 Y65.646800 Z-0.125000
G01 X31.289900 Y66.885100 Z-0.125000
G01 X31.057100 Y68.419600 Z-0.125000
G01 X30.527900 Y69.012300 Z-0.125000
G01 X29.924700 Y69.382700 Z-0.125000
G01 X28.686400 Y69.478000 Z-0.125000
G00 Z5.000000

(End cutting path id: path2195)


(Start cutting path id: path2195)
(Change tool to Default tool)

G00 Z5.000000
G00 X18.822800 Y69.478000

