%
(Header)
(Generated by gcodetools from Inkscape.)
(Using default header. To add your own header create file "header" in the output dir.)
M3
(Header end.)
G21 (All units in mm)

(Start cutting path id: path7441)
(Change tool to Default tool)

G00 Z5.000000
G00 X79.683600 Y44.986000

G01 Z-0.125000 F100.0(Penetrate)
G01 X78.486000 Y44.796000 Z-0.125000 F400.000000
G01 X77.403900 Y44.236000 Z-0.125000
G01 X76.600700 Y43.353000 Z-0.125000
G01 X76.239700 Y42.194000 Z-0.125000
G01 X76.225000 Y41.201000 Z-0.125000
G01 X76.521000 Y40.256000 Z-0.125000
G01 X77.071900 Y39.440000 Z-0.125000
G01 X77.822300 Y38.834000 Z-0.125000
G01 X80.251400 Y37.396000 Z-0.125000
G01 X81.376200 Y36.556000 Z-0.125000
G01 X82.208300 Y35.419000 Z-0.125000
G01 X82.327400 Y34.843000 Z-0.125000
G01 X82.271200 Y34.270000 Z-0.125000
G01 X81.731400 Y33.256000 Z-0.125000
G01 X80.785700 Y32.618000 Z-0.125000
G01 X80.222100 Y32.515000 Z-0.125000
G01 X79.630900 Y32.595000 Z-0.125000
G01 X78.899400 Y32.871000 Z-0.125000
G01 X78.312500 Y33.377000 Z-0.125000
G01 X77.868700 Y34.032000 Z-0.125000
G01 X77.566400 Y34.752000 Z-0.125000
G01 X75.941400 Y34.388000 Z-0.125000
G01 X76.546400 Y33.136000 Z-0.125000
G01 X77.502000 Y32.117000 Z-0.125000
G01 X78.718000 Y31.471000 Z-0.125000
G01 X79.395500 Y31.331000 Z-0.125000
G01 X80.104300 Y31.337000 Z-0.125000
G01 X81.334100 Y31.465000 Z-0.125000
G01 X82.480400 Y31.943000 Z-0.125000
G01 X83.387200 Y32.753000 Z-0.125000
G01 X83.898300 Y33.881000 Z-0.125000
G01 X84.004000 Y35.096000 Z-0.125000
G01 X83.703000 Y36.266000 Z-0.125000
G01 X83.057200 Y37.295000 Z-0.125000
G01 X82.128300 Y38.084000 Z-0.125000
G01 X79.909000 Y39.386000 Z-0.125000
G01 X78.854300 Y40.102000 Z-0.125000
G01 X78.021500 Y41.062000 Z-0.125000
G01 X77.888400 Y41.592000 Z-0.125000
G01 X77.923600 Y42.121000 Z-0.125000
G01 X78.403700 Y43.064000 Z-0.125000
G01 X79.271400 Y43.669000 Z-0.125000
G01 X79.791200 Y43.775000 Z-0.125000
G01 X80.336500 Y43.713000 Z-0.125000
G01 X80.963300 Y43.478000 Z-0.125000
G01 X81.487600 Y43.068000 Z-0.125000
G01 X82.244100 Y41.961000 Z-0.125000
G01 X83.075400 Y42.183000 Z-0.125000
G01 X83.466900 Y42.314000 Z-0.125000
G01 X83.674400 Y42.538000 Z-0.125000
G01 X83.042000 Y43.634000 Z-0.125000
G01 X82.098700 Y44.433000 Z-0.125000
G01 X80.945600 Y44.897000 Z-0.125000
G01 X79.683600 Y44.986000 Z-0.125000
G01 X79.683600 Y44.986000 Z-0.125000
G00 Z5.000000

(End cutting path id: path7441)


(Start cutting path id: path7441)
(Change tool to Default tool)

G00 Z5.000000
G00 X79.669900 Y45.250000

G01 Z-0.125000 F100.0(Penetrate)
G01 X78.472100 Y45.063000 Z-0.125000 F400.000000
G01 X77.370300 Y44.546000 Z-0.125000
G01 X76.512900 Y43.718000 Z-0.125000
G01 X76.048500 Y42.596000 Z-0.125000
G01 X75.937300 Y41.534000 Z-0.125000
G01 X76.129100 Y40.492000 Z-0.125000
G01 X76.617200 Y39.560000 Z-0.125000
G01 X77.395500 Y38.828000 Z-0.125000
G01 X78.564900 Y38.047000 Z-0.125000
G01 X79.808800 Y37.353000 Z-0.125000
G01 X80.969300 Y36.566000 Z-0.125000
G01 X81.888700 Y35.507000 Z-0.125000
G01 X82.040600 Y35.017000 Z-0.125000
G01 X82.042100 Y34.513000 Z-0.125000
G01 X81.666300 Y33.581000 Z-0.125000
G01 X80.905500 Y32.944000 Z-0.125000
G01 X80.425900 Y32.808000 Z-0.125000
G01 X79.904100 Y32.832000 Z-0.125000
G01 X79.106700 Y33.055000 Z-0.125000
G01 X78.487200 Y33.579000 Z-0.125000
G01 X78.036100 Y34.286000 Z-0.125000
G01 X77.744100 Y35.060000 Z-0.125000
G01 X75.605500 Y34.582000 Z-0.125000
G01 X76.191800 Y33.206000 Z-0.125000
G01 X77.155000 Y32.052000 Z-0.125000
G01 X78.416900 Y31.287000 Z-0.125000
G01 X79.135200 Y31.102000 Z-0.125000
G01 X79.898800 Y31.078000 Z-0.125000
G01 X81.130000 Y31.159000 Z-0.125000
G01 X82.312000 Y31.541000 Z-0.125000
G01 X83.305900 Y32.242000 Z-0.125000
G01 X83.972500 Y33.280000 Z-0.125000
G01 X84.272700 Y34.577000 Z-0.125000
G01 X84.124500 Y35.889000 Z-0.125000
G01 X83.563800 Y37.084000 Z-0.125000
G01 X82.626200 Y38.030000 Z-0.125000
G01 X81.568400 Y38.766000 Z-0.125000
G01 X80.432400 Y39.397000 Z-0.125000
G01 X79.333200 Y40.070000 Z-0.125000
G01 X78.385900 Y40.934000 Z-0.125000
G01 X78.196700 Y41.368000 Z-0.125000
G01 X78.153400 Y41.820000 Z-0.125000
G01 X78.435800 Y42.680000 Z-0.125000
G01 X79.095800 Y43.305000 Z-0.125000
G01 X79.996100 Y43.488000 Z-0.125000
G01 X80.715600 Y43.313000 Z-0.125000
G01 X81.299500 Y42.885000 Z-0.125000
G01 X81.758100 Y42.299000 Z-0.125000
G01 X82.101600 Y41.646000 Z-0.125000
G01 X84.052700 Y42.236000 Z-0.125000
G01 X83.580000 Y43.331000 Z-0.125000
G01 X82.818600 Y44.238000 Z-0.125000
G01 X81.830900 Y44.885000 Z-0.125000
G01 X80.679100 Y45.202000 Z-0.125000
G01 X79.669900 Y45.250000 Z-0.125000
G01 X79.669900 Y45.250000 Z-0.125000
G00 Z5.000000

(End cutting path id: path7441)


(Start cutting path id: path7441)
(Change tool to Default tool)

G00 Z5.000000
G00 X87.328100 Y39.706000

G01 Z-0.125000 F100.0(Penetrate)
G01 X87.339600 Y36.758000 Z-0.125000 F400.000000
G01 X87.484400 Y33.818000 Z-0.125000
G01 X87.834000 Y32.921000 Z-0.125000
G01 X88.411400 Y32.167000 Z-0.125000
G01 X89.169500 Y31.590000 Z-0.125000
G01 X90.061000 Y31.228000 Z-0.125000
G01 X91.956100 Y31.073000 Z-0.125000
G01 X93.835800 Y31.368000 Z-0.125000
G01 X94.840000 Y31.919000 Z-0.125000
G01 X95.575600 Y32.772000 Z-0.125000
G01 X96.020300 Y33.822000 Z-0.125000
G01 X96.151600 Y34.959000 Z-0.125000
G01 X96.227500 Y39.984000 Z-0.125000
G01 X96.224600 Y45.011000 Z-0.125000
G01 X94.005900 Y45.011000 Z-0.125000
G01 X93.987600 Y39.788000 Z-0.125000
G01 X93.881900 Y34.568000 Z-0.125000
G01 X93.681000 Y33.936000 Z-0.125000
G01 X93.282500 Y33.452000 Z-0.125000
G01 X92.742000 Y33.121000 Z-0.125000
G01 X92.115300 Y32.947000 Z-0.125000
G01 X91.458100 Y32.934000 Z-0.125000
G01 X90.825900 Y33.088000 Z-0.125000
G01 X90.274400 Y33.412000 Z-0.125000
G01 X89.859400 Y33.911000 Z-0.125000
G01 X89.617400 Y34.698000 Z-0.125000
G01 X89.555600 Y35.524000 Z-0.125000
G01 X89.545100 Y37.193000 Z-0.125000
G01 X89.531200 Y45.011000 Z-0.125000
G01 X87.300800 Y45.011000 Z-0.125000
G01 X87.328100 Y39.706000 Z-0.125000
G01 X87.328100 Y39.706000 Z-0.125000
G00 Z5.000000

(End cutting path id: path7441)


(Start cutting path id: path7441)
(Change tool to Default tool)

G00 Z5.000000
G00 X87.591800 Y39.708000

G01 Z-0.125000 F100.0(Penetrate)
G01 X87.598100 Y36.621000 Z-0.125000 F400.000000
G01 X87.642900 Y35.080000 Z-0.125000
G01 X87.836200 Y33.556000 Z-0.125000
G01 X88.402600 Y32.559000 Z-0.125000
G01 X89.279300 Y31.845000 Z-0.125000
G01 X90.348000 Y31.430000 Z-0.125000
G01 X91.490200 Y31.329000 Z-0.125000
G01 X92.584400 Y31.383000 Z-0.125000
G01 X93.670700 Y31.609000 Z-0.125000
G01 X94.633100 Y32.093000 Z-0.125000
G01 X95.355500 Y32.919000 Z-0.125000
G01 X95.779100 Y33.996000 Z-0.125000
G01 X95.914700 Y35.142000 Z-0.125000
G01 X95.949200 Y37.474000 Z-0.125000
G01 X95.960900 Y44.747000 Z-0.125000
G01 X94.991500 Y44.770000 Z-0.125000
G01 X94.538300 Y44.750000 Z-0.125000
G01 X94.266200 Y44.547000 Z-0.125000
G01 X94.252000 Y39.435000 Z-0.125000
G01 X94.109400 Y34.328000 Z-0.125000
G01 X93.809800 Y33.642000 Z-0.125000
G01 X93.302600 Y33.135000 Z-0.125000
G01 X92.652600 Y32.808000 Z-0.125000
G01 X91.924400 Y32.666000 Z-0.125000
G01 X91.182900 Y32.712000 Z-0.125000
G01 X90.492700 Y32.951000 Z-0.125000
G01 X89.918600 Y33.384000 Z-0.125000
G01 X89.525400 Y34.017000 Z-0.125000
G01 X89.322200 Y35.018000 Z-0.125000
G01 X89.281100 Y36.040000 Z-0.125000
G01 X89.278100 Y38.093000 Z-0.125000
G01 X89.267600 Y44.747000 Z-0.125000
G01 X88.353200 Y44.761000 Z-0.125000
G01 X87.566900 Y44.647000 Z-0.125000
G01 X87.591800 Y39.708000 Z-0.125000
G01 X87.591800 Y39.708000 Z-0.125000
G00 Z5.000000

(End cutting path id: path7441)


(Start cutting path id: path7441)
(Change tool to Default tool)

G00 Z5.000000
G00 X90.311500 Y30.889000

G01 Z-0.125000 F100.0(Penetrate)
G01 X89.243600 Y31.268000 Z-0.125000 F400.000000
G01 X88.336000 Y31.846000 Z-0.125000
G01 X87.736500 Y32.573000 Z-0.125000
G01 X87.287300 Y33.565000 Z-0.125000
G01 X87.116000 Y34.821000 Z-0.125000
G01 X87.064100 Y39.705000 Z-0.125000
G01 X87.034800 Y45.276000 Z-0.125000
G01 X88.414900 Y45.276000 Z-0.125000
G01 X89.794900 Y45.276000 Z-0.125000
G01 X89.794900 Y40.145000 Z-0.125000
G01 X89.895400 Y34.547000 Z-0.125000
G01 X90.190600 Y33.889000 Z-0.125000
G01 X90.717800 Y33.431000 Z-0.125000
G01 X91.419400 Y33.205000 Z-0.125000
G01 X92.237700 Y33.242000 Z-0.125000
G01 X93.020300 Y33.563000 Z-0.125000
G01 X93.497300 Y34.172000 Z-0.125000
G01 X93.669600 Y35.249000 Z-0.125000
G01 X93.718400 Y39.935000 Z-0.125000
G01 X93.744800 Y45.276000 Z-0.125000
G01 X95.116800 Y45.276000 Z-0.125000
G01 X96.488800 Y45.276000 Z-0.125000
G01 X96.488800 Y40.193000 Z-0.125000
G01 X96.424600 Y35.065000 Z-0.125000
G01 X96.311000 Y33.940000 Z-0.125000
G01 X96.113700 Y33.225000 Z-0.125000
G01 X95.736100 Y32.499000 Z-0.125000
G01 X95.205800 Y31.887000 Z-0.125000
G01 X94.535500 Y31.399000 Z-0.125000
G01 X93.737900 Y31.048000 Z-0.125000
G01 X92.055700 Y30.826000 Z-0.125000
G01 X90.311500 Y30.889000 Z-0.125000
G01 X90.311500 Y30.889000 Z-0.125000
G00 Z5.000000

(End cutting path id: path7441)


(Start cutting path id: path7441)
(Change tool to Default tool)

G00 Z5.000000
G00 X91.623400 Y21.740000

G01 Z-0.125000 F100.0(Penetrate)
G01 X88.082200 Y16.128000 Z-0.125000 F400.000000
G01 X86.990500 Y16.128000 Z-0.125000
G01 X90.535600 Y21.740000 Z-0.125000
G01 X91.623400 Y21.740000 Z-0.125000
G00 Z5.000000

(End cutting path id: path7441)


(Start cutting path id: path7441)
(Change tool to Default tool)

G00 Z5.000000
G00 X96.741600 Y18.958000

G01 Z-0.125000 F100.0(Penetrate)
G01 X96.667200 Y18.500000 Z-0.125000 F400.000000
G01 X96.424600 Y18.046000 Z-0.125000
G01 X95.990300 Y17.698000 Z-0.125000
G01 X95.340700 Y17.557000 Z-0.125000
G01 X93.505600 Y17.557000 Z-0.125000
G01 X93.505600 Y18.523000 Z-0.125000
G01 X95.340700 Y18.523000 Z-0.125000
G01 X95.661600 Y18.648000 Z-0.125000
G01 X95.775100 Y18.965000 Z-0.125000
G01 X95.645900 Y19.278000 Z-0.125000
G01 X95.340700 Y19.392000 Z-0.125000
G01 X93.505600 Y19.392000 Z-0.125000
G01 X93.184700 Y19.263000 Z-0.125000
G01 X93.071200 Y18.950000 Z-0.125000
G01 X93.071200 Y17.529000 Z-0.125000
G01 X93.196400 Y17.212000 Z-0.125000
G01 X93.513400 Y17.099000 Z-0.125000
G01 X95.340700 Y17.099000 Z-0.125000
G01 X95.340700 Y16.128000 Z-0.125000
G01 X93.505600 Y16.128000 Z-0.125000
G01 X93.047700 Y16.203000 Z-0.125000
G01 X92.593800 Y16.442000 Z-0.125000
G01 X92.245600 Y16.876000 Z-0.125000
G01 X92.104700 Y17.529000 Z-0.125000
G01 X92.104700 Y18.958000 Z-0.125000
G01 X92.179100 Y19.411000 Z-0.125000
G01 X92.417800 Y19.865000 Z-0.125000
G01 X92.852100 Y20.218000 Z-0.125000
G01 X93.505600 Y20.358000 Z-0.125000
G01 X95.340700 Y20.358000 Z-0.125000
G01 X95.794600 Y20.284000 Z-0.125000
G01 X96.248500 Y20.041000 Z-0.125000
G01 X96.600700 Y19.607000 Z-0.125000
G01 X96.741600 Y18.958000 Z-0.125000
G01 X96.741600 Y18.958000 Z-0.125000
G00 Z5.000000

(End cutting path id: path7441)


(Start cutting path id: path7441)
(Change tool to Default tool)

G00 Z5.000000
G00 X102.474000 Y20.358000

G01 Z-0.125000 F100.0(Penetrate)
G01 X102.071000 Y19.302000 Z-0.125000 F400.000000
G01 X101.539000 Y18.308000 Z-0.125000
G01 X100.870000 Y17.435000 Z-0.125000
G01 X100.052000 Y16.743000 Z-0.125000
G01 X99.077600 Y16.285000 Z-0.125000
G01 X97.939000 Y16.121000 Z-0.125000
G01 X97.739400 Y16.160000 Z-0.125000
G01 X97.575000 Y16.265000 Z-0.125000
G01 X97.465500 Y16.426000 Z-0.125000
G01 X97.426400 Y16.625000 Z-0.125000
G01 X97.426400 Y20.358000 Z-0.125000
G01 X98.443700 Y20.358000 Z-0.125000
G01 X98.443700 Y17.177000 Z-0.125000
G01 X99.155900 Y17.338000 Z-0.125000
G01 X99.805400 Y17.760000 Z-0.125000
G01 X100.369000 Y18.363000 Z-0.125000
G01 X100.835000 Y19.051000 Z-0.125000
G01 X101.179000 Y19.748000 Z-0.125000
G01 X101.394000 Y20.358000 Z-0.125000
G01 X102.474000 Y20.358000 Z-0.125000
G00 Z5.000000

(End cutting path id: path7441)


(Start cutting path id: path7441)
(Change tool to Default tool)

G00 Z5.000000
G00 X107.389000 Y18.958000

G01 Z-0.125000 F100.0(Penetrate)
G01 X107.314000 Y18.500000 Z-0.125000 F400.000000
G01 X107.072000 Y18.046000 Z-0.125000
G01 X106.637000 Y17.698000 Z-0.125000
G01 X105.988000 Y17.557000 Z-0.125000
G01 X104.153000 Y17.557000 Z-0.125000
G01 X104.153000 Y18.523000 Z-0.125000
G01 X105.988000 Y18.523000 Z-0.125000
G01 X106.309000 Y18.648000 Z-0.125000
G01 X106.422000 Y18.965000 Z-0.125000
G01 X106.293000 Y19.278000 Z-0.125000
G01 X105.988000 Y19.392000 Z-0.125000
G01 X104.153000 Y19.392000 Z-0.125000
G01 X103.832000 Y19.263000 Z-0.125000
G01 X103.718000 Y18.950000 Z-0.125000
G01 X103.718000 Y17.529000 Z-0.125000
G01 X103.844000 Y17.212000 Z-0.125000
G01 X104.161000 Y17.099000 Z-0.125000
G01 X105.988000 Y17.099000 Z-0.125000
G01 X105.988000 Y16.128000 Z-0.125000
G01 X104.153000 Y16.128000 Z-0.125000
G01 X103.695000 Y16.203000 Z-0.125000
G01 X103.241000 Y16.442000 Z-0.125000
G01 X102.893000 Y16.876000 Z-0.125000
G01 X102.752000 Y17.529000 Z-0.125000
G01 X102.752000 Y18.958000 Z-0.125000
G01 X102.826000 Y19.411000 Z-0.125000
G01 X103.065000 Y19.865000 Z-0.125000
G01 X103.499000 Y20.218000 Z-0.125000
G01 X104.153000 Y20.358000 Z-0.125000
G01 X105.988000 Y20.358000 Z-0.125000
G01 X106.442000 Y20.284000 Z-0.125000
G01 X106.896000 Y20.041000 Z-0.125000
G01 X107.248000 Y19.607000 Z-0.125000
G01 X107.389000 Y18.958000 Z-0.125000
G01 X107.389000 Y18.958000 Z-0.125000
G00 Z5.000000

(End cutting path id: path7441)


(Start cutting path id: path7441)
(Change tool to Default tool)

G00 Z5.000000
G00 X112.080000 Y20.045000

G01 Z-0.125000 F100.0(Penetrate)
G01 X112.112000 Y19.752000 Z-0.125000 F400.000000
G01 X111.979000 Y19.494000 Z-0.125000
G01 X109.627000 Y17.146000 Z-0.125000
G01 X112.073000 Y17.146000 Z-0.125000
G01 X112.073000 Y16.128000 Z-0.125000
G01 X108.402000 Y16.128000 Z-0.125000
G01 X108.117000 Y16.215000 Z-0.125000
G01 X107.929000 Y16.441000 Z-0.125000
G01 X107.897000 Y16.735000 Z-0.125000
G01 X108.042000 Y17.001000 Z-0.125000
G01 X110.382000 Y19.341000 Z-0.125000
G01 X107.937000 Y19.341000 Z-0.125000
G01 X107.937000 Y20.358000 Z-0.125000
G01 X111.615000 Y20.358000 Z-0.125000
G01 X111.893000 Y20.276000 Z-0.125000
G01 X112.080000 Y20.045000 Z-0.125000
G01 X112.080000 Y20.045000 Z-0.125000
G00 Z5.000000

(End cutting path id: path7441)


(Start cutting path id: path7441)
(Change tool to Default tool)

G00 Z5.000000
G00 X116.459000 Y18.926000

G01 Z-0.125000 F100.0(Penetrate)
G01 X116.353000 Y19.239000 Z-0.125000 F400.000000
G01 X116.048000 Y19.341000 Z-0.125000
G01 X114.221000 Y19.341000 Z-0.125000
G01 X113.912000 Y19.235000 Z-0.125000
G01 X113.806000 Y18.934000 Z-0.125000
G01 X113.806000 Y17.557000 Z-0.125000
G01 X113.912000 Y17.251000 Z-0.125000
G01 X114.221000 Y17.146000 Z-0.125000
G01 X116.048000 Y17.146000 Z-0.125000
G01 X116.357000 Y17.251000 Z-0.125000
G01 X116.459000 Y17.557000 Z-0.125000
G01 X116.459000 Y18.926000 Z-0.125000
G00 Z5.000000

(End cutting path id: path7441)


(Start cutting path id: path7441)
(Change tool to Default tool)

G00 Z5.000000
G00 X117.476000 Y17.557000

G01 Z-0.125000 F100.0(Penetrate)
G01 X117.410000 Y17.083000 Z-0.125000 F400.000000
G01 X117.234000 Y16.715000 Z-0.125000
G01 X116.979000 Y16.445000 Z-0.125000
G01 X116.674000 Y16.265000 Z-0.125000
G01 X116.353000 Y16.160000 Z-0.125000
G01 X116.048000 Y16.128000 Z-0.125000
G01 X114.213000 Y16.128000 Z-0.125000
G01 X113.751000 Y16.203000 Z-0.125000
G01 X113.286000 Y16.445000 Z-0.125000
G01 X112.930000 Y16.888000 Z-0.125000
G01 X112.789000 Y17.557000 Z-0.125000
G01 X112.789000 Y18.934000 Z-0.125000
G01 X112.930000 Y19.595000 Z-0.125000
G01 X113.286000 Y20.038000 Z-0.125000
G01 X113.751000 Y20.284000 Z-0.125000
G01 X114.213000 Y20.358000 Z-0.125000
G01 X116.048000 Y20.358000 Z-0.125000
G01 X116.713000 Y20.218000 Z-0.125000
G01 X117.156000 Y19.861000 Z-0.125000
G01 X117.398000 Y19.400000 Z-0.125000
G01 X117.476000 Y18.934000 Z-0.125000
G01 X117.476000 Y17.557000 Z-0.125000
G00 Z5.000000

(End cutting path id: path7441)


(Start cutting path id: path7441)
(Change tool to Default tool)

G00 Z5.000000
G00 X122.043000 Y19.341000

G01 Z-0.125000 F100.0(Penetrate)
G01 X119.754000 Y19.341000 Z-0.125000 F400.000000
G01 X119.441000 Y19.235000 Z-0.125000
G01 X119.335000 Y18.934000 Z-0.125000
G01 X119.335000 Y16.128000 Z-0.125000
G01 X118.318000 Y16.128000 Z-0.125000
G01 X118.318000 Y18.934000 Z-0.125000
G01 X118.384000 Y19.404000 Z-0.125000
G01 X118.560000 Y19.767000 Z-0.125000
G01 X118.818000 Y20.037000 Z-0.125000
G01 X119.120000 Y20.221000 Z-0.125000
G01 X119.441000 Y20.323000 Z-0.125000
G01 X119.746000 Y20.358000 Z-0.125000
G01 X122.043000 Y20.358000 Z-0.125000
G01 X122.043000 Y19.341000 Z-0.125000
G00 Z5.000000

(End cutting path id: path7441)


(Start cutting path id: path7441)
(Change tool to Default tool)

G00 Z5.000000
G00 X126.359000 Y18.476000

G01 Z-0.125000 F100.0(Penetrate)
G01 X122.688000 Y18.476000 Z-0.125000 F400.000000
G01 X122.688000 Y19.392000 Z-0.125000
G01 X126.359000 Y19.392000 Z-0.125000
G01 X126.359000 Y18.476000 Z-0.125000
G00 Z5.000000

(End cutting path id: path7441)


(Start cutting path id: path7441)
(Change tool to Default tool)

G00 Z5.000000
G00 X128.323000 Y16.128000

G01 Z-0.125000 F100.0(Penetrate)
G01 X127.306000 Y16.128000 Z-0.125000 F400.000000
G01 X127.306000 Y20.358000 Z-0.125000
G01 X128.323000 Y20.358000 Z-0.125000
G01 X128.323000 Y16.128000 Z-0.125000
G00 Z5.000000

(End cutting path id: path7441)


(Start cutting path id: path7441)
(Change tool to Default tool)

G00 Z5.000000
G00 X128.323000 Y21.227000

G01 Z-0.125000 F100.0(Penetrate)
G01 X127.306000 Y21.227000 Z-0.125000 F400.000000
G01 X127.306000 Y22.147000 Z-0.125000
G01 X128.323000 Y22.147000 Z-0.125000
G01 X128.323000 Y21.227000 Z-0.125000
G00 Z5.000000

(End cutting path id: path7441)


(Start cutting path id: path7441)
(Change tool to Default tool)

G00 Z5.000000
G00 X133.985000 Y16.128000

G01 Z-0.125000 F100.0(Penetrate)
G01 X132.968000 Y16.128000 Z-0.125000 F400.000000
G01 X132.968000 Y18.476000 Z-0.125000
G01 X132.897000 Y18.832000 Z-0.125000
G01 X132.713000 Y19.106000 Z-0.125000
G01 X132.436000 Y19.278000 Z-0.125000
G01 X132.095000 Y19.341000 Z-0.125000
G01 X130.315000 Y19.341000 Z-0.125000
G01 X130.315000 Y16.128000 Z-0.125000
G01 X129.297000 Y16.128000 Z-0.125000
G01 X129.297000 Y19.854000 Z-0.125000
G01 X129.337000 Y20.049000 Z-0.125000
G01 X129.446000 Y20.210000 Z-0.125000
G01 X129.610000 Y20.319000 Z-0.125000
G01 X129.810000 Y20.358000 Z-0.125000
G01 X132.103000 Y20.358000 Z-0.125000
G01 X132.506000 Y20.315000 Z-0.125000
G01 X132.929000 Y20.174000 Z-0.125000
G01 X133.328000 Y19.932000 Z-0.125000
G01 X133.664000 Y19.576000 Z-0.125000
G01 X133.899000 Y19.094000 Z-0.125000
G01 X133.985000 Y18.476000 Z-0.125000
G01 X133.985000 Y16.128000 Z-0.125000
G00 Z5.000000

(End cutting path id: path7441)


(Start cutting path id: path7441)
(Change tool to Default tool)

G00 Z5.000000
G00 X138.974000 Y16.128000

G01 Z-0.125000 F100.0(Penetrate)
G01 X136.216000 Y16.128000 Z-0.125000 F400.000000
G01 X135.754000 Y16.203000 Z-0.125000
G01 X135.288000 Y16.445000 Z-0.125000
G01 X134.932000 Y16.888000 Z-0.125000
G01 X134.791000 Y17.557000 Z-0.125000
G01 X134.791000 Y18.934000 Z-0.125000
G01 X134.822000 Y19.239000 Z-0.125000
G01 X134.928000 Y19.556000 Z-0.125000
G01 X135.108000 Y19.861000 Z-0.125000
G01 X135.378000 Y20.116000 Z-0.125000
G01 X135.746000 Y20.292000 Z-0.125000
G01 X136.216000 Y20.358000 Z-0.125000
G01 X138.974000 Y20.358000 Z-0.125000
G01 X138.974000 Y19.341000 Z-0.125000
G01 X136.216000 Y19.341000 Z-0.125000
G01 X135.910000 Y19.239000 Z-0.125000
G01 X135.809000 Y18.926000 Z-0.125000
G01 X135.809000 Y17.557000 Z-0.125000
G01 X135.914000 Y17.251000 Z-0.125000
G01 X136.223000 Y17.146000 Z-0.125000
G01 X138.974000 Y17.146000 Z-0.125000
G01 X138.974000 Y16.128000 Z-0.125000
G00 Z5.000000

(End cutting path id: path7441)


(Start cutting path id: path7441)
(Change tool to Default tool)

G00 Z5.000000
G00 X132.067000 Y33.858000

G01 Z-0.125000 F100.0(Penetrate)
G01 X132.067000 Y36.745000 Z-0.125000 F400.000000
G01 X130.141000 Y40.949000 Z-0.125000
G01 X128.216000 Y45.214000 Z-0.125000
G01 X129.660000 Y45.275000 Z-0.125000
G01 X131.104000 Y45.274000 Z-0.125000
G01 X132.268000 Y42.455000 Z-0.125000
G01 X133.499000 Y39.653000 Z-0.125000
G01 X134.678000 Y42.450000 Z-0.125000
G01 X135.790000 Y45.230000 Z-0.125000
G01 X137.272000 Y45.255000 Z-0.125000
G01 X138.755000 Y45.280000 Z-0.125000
G01 X138.403000 Y44.522000 Z-0.125000
G01 X136.435000 Y40.262000 Z-0.125000
G01 X134.818000 Y36.761000 Z-0.125000
G01 X134.818000 Y33.866000 Z-0.125000
G01 X134.818000 Y30.971000 Z-0.125000
G01 X133.443000 Y30.971000 Z-0.125000
G01 X132.067000 Y30.971000 Z-0.125000
G01 X132.067000 Y33.858000 Z-0.125000
G00 Z5.000000

(End cutting path id: path7441)


(Start cutting path id: path7441)
(Change tool to Default tool)

G00 Z5.000000
G00 X122.416000 Y38.122000

G01 Z-0.125000 F100.0(Penetrate)
G01 X122.416000 Y31.497000 Z-0.125000 F400.000000
G01 X128.514000 Y31.497000 Z-0.125000
G01 X128.540000 Y32.438000 Z-0.125000
G01 X128.436000 Y32.792000 Z-0.125000
G01 X128.014000 Y32.828000 Z-0.125000
G01 X124.113000 Y32.828000 Z-0.125000
G01 X124.113000 Y44.747000 Z-0.125000
G01 X123.142000 Y44.770000 Z-0.125000
G01 X122.688000 Y44.750000 Z-0.125000
G01 X122.416000 Y44.547000 Z-0.125000
G01 X122.416000 Y38.122000 Z-0.125000
G01 X122.416000 Y38.122000 Z-0.125000
G00 Z5.000000

(End cutting path id: path7441)


(Start cutting path id: path7441)
(Change tool to Default tool)

G00 Z5.000000
G00 X122.152000 Y38.122000

G01 Z-0.125000 F100.0(Penetrate)
G01 X122.152000 Y31.234000 Z-0.125000 F400.000000
G01 X128.777000 Y31.234000 Z-0.125000
G01 X128.777000 Y33.091000 Z-0.125000
G01 X124.377000 Y33.091000 Z-0.125000
G01 X124.377000 Y45.011000 Z-0.125000
G01 X122.152000 Y45.011000 Z-0.125000
G01 X122.152000 Y38.122000 Z-0.125000
G01 X122.152000 Y38.122000 Z-0.125000
G00 Z5.000000

(End cutting path id: path7441)


(Start cutting path id: path7441)
(Change tool to Default tool)

G00 Z5.000000
G00 X121.889000 Y38.124000

G01 Z-0.125000 F100.0(Penetrate)
G01 X121.889000 Y45.276000 Z-0.125000 F400.000000
G01 X123.264000 Y45.276000 Z-0.125000
G01 X124.640000 Y45.276000 Z-0.125000
G01 X124.640000 Y39.316000 Z-0.125000
G01 X124.640000 Y33.355000 Z-0.125000
G01 X126.840000 Y33.355000 Z-0.125000
G01 X129.041000 Y33.355000 Z-0.125000
G01 X129.041000 Y32.163000 Z-0.125000
G01 X129.041000 Y30.971000 Z-0.125000
G01 X125.465000 Y30.971000 Z-0.125000
G01 X121.889000 Y30.971000 Z-0.125000
G01 X121.889000 Y38.124000 Z-0.125000
G00 Z5.000000

(End cutting path id: path7441)


(Start cutting path id: path7441)
(Change tool to Default tool)

G00 Z5.000000
G00 X115.376000 Y39.049000

G01 Z-0.125000 F100.0(Penetrate)
G01 X115.975000 Y39.282000 Z-0.125000 F400.000000
G01 X116.404000 Y39.689000 Z-0.125000
G01 X116.663000 Y40.266000 Z-0.125000
G01 X116.750000 Y41.012000 Z-0.125000
G01 X116.683000 Y41.676000 Z-0.125000
G01 X116.483000 Y42.214000 Z-0.125000
G01 X116.155000 Y42.623000 Z-0.125000
G01 X115.699000 Y42.896000 Z-0.125000
G01 X114.347000 Y43.052000 Z-0.125000
G01 X113.269000 Y43.100000 Z-0.125000
G01 X113.269000 Y41.024000 Z-0.125000
G01 X113.269000 Y38.949000 Z-0.125000
G01 X114.090000 Y38.949000 Z-0.125000
G01 X115.376000 Y39.049000 Z-0.125000
G01 X115.376000 Y39.049000 Z-0.125000
G00 Z5.000000

(End cutting path id: path7441)


(Start cutting path id: path7441)
(Change tool to Default tool)

G00 Z5.000000
G00 X111.045000 Y38.122000

G01 Z-0.125000 F100.0(Penetrate)
G01 X111.045000 Y31.497000 Z-0.125000 F400.000000
G01 X112.016000 Y31.475000 Z-0.125000
G01 X112.470000 Y31.495000 Z-0.125000
G01 X112.742000 Y31.697000 Z-0.125000
G01 X112.742000 Y37.275000 Z-0.125000
G01 X115.600000 Y37.342000 Z-0.125000
G01 X116.961000 Y37.676000 Z-0.125000
G01 X117.576000 Y38.005000 Z-0.125000
G01 X118.128000 Y38.475000 Z-0.125000
G01 X118.730000 Y39.459000 Z-0.125000
G01 X118.974000 Y40.591000 Z-0.125000
G01 X118.915000 Y41.764000 Z-0.125000
G01 X118.607000 Y42.873000 Z-0.125000
G01 X117.813000 Y43.833000 Z-0.125000
G01 X116.737000 Y44.424000 Z-0.125000
G01 X115.510000 Y44.705000 Z-0.125000
G01 X114.265000 Y44.736000 Z-0.125000
G01 X111.045000 Y44.747000 Z-0.125000
G01 X111.045000 Y38.122000 Z-0.125000
G01 X111.045000 Y38.122000 Z-0.125000
G00 Z5.000000

(End cutting path id: path7441)


(Start cutting path id: path7441)
(Change tool to Default tool)

G00 Z5.000000
G00 X110.781000 Y38.122000

G01 Z-0.125000 F100.0(Penetrate)
G01 X110.781000 Y31.234000 Z-0.125000 F400.000000
G01 X113.006000 Y31.234000 Z-0.125000
G01 X113.006000 Y37.011000 Z-0.125000
G01 X114.454000 Y37.011000 Z-0.125000
G01 X115.927000 Y37.122000 Z-0.125000
G01 X117.298000 Y37.530000 Z-0.125000
G01 X117.906000 Y37.905000 Z-0.125000
G01 X118.441000 Y38.424000 Z-0.125000
G01 X118.974000 Y39.337000 Z-0.125000
G01 X119.213000 Y40.366000 Z-0.125000
G01 X119.220000 Y41.439000 Z-0.125000
G01 X119.057000 Y42.484000 Z-0.125000
G01 X118.414000 Y43.626000 Z-0.125000
G01 X117.403000 Y44.419000 Z-0.125000
G01 X116.172000 Y44.872000 Z-0.125000
G01 X114.870000 Y44.990000 Z-0.125000
G01 X110.781000 Y45.011000 Z-0.125000
G01 X110.781000 Y38.122000 Z-0.125000
G01 X110.781000 Y38.122000 Z-0.125000
G00 Z5.000000

(End cutting path id: path7441)


(Start cutting path id: path7441)
(Change tool to Default tool)

G00 Z5.000000
G00 X110.518000 Y38.124000

G01 Z-0.125000 F100.0(Penetrate)
G01 X110.518000 Y45.276000 Z-0.125000 F400.000000
G01 X113.045000 Y45.276000 Z-0.125000
G01 X116.231000 Y45.128000 Z-0.125000
G01 X117.223000 Y44.813000 Z-0.125000
G01 X118.031000 Y44.353000 Z-0.125000
G01 X118.668000 Y43.738000 Z-0.125000
G01 X119.142000 Y42.961000 Z-0.125000
G01 X119.402000 Y42.247000 Z-0.125000
G01 X119.487000 Y41.328000 Z-0.125000
G01 X119.465000 Y40.278000 Z-0.125000
G01 X119.292000 Y39.409000 Z-0.125000
G01 X118.952000 Y38.671000 Z-0.125000
G01 X118.430000 Y38.015000 Z-0.125000
G01 X117.714000 Y37.447000 Z-0.125000
G01 X116.832000 Y37.054000 Z-0.125000
G01 X115.751000 Y36.825000 Z-0.125000
G01 X114.438000 Y36.750000 Z-0.125000
G01 X113.269000 Y36.748000 Z-0.125000
G01 X113.269000 Y33.859000 Z-0.125000
G01 X113.269000 Y30.971000 Z-0.125000
G01 X111.894000 Y30.971000 Z-0.125000
G01 X110.518000 Y30.971000 Z-0.125000
G01 X110.518000 Y38.124000 Z-0.125000
G00 Z5.000000

(End cutting path id: path7441)


(Start cutting path id: path7441)
(Change tool to Default tool)

G00 Z5.000000
G00 X113.281000 Y43.365000

G01 Z-0.125000 F100.0(Penetrate)
G01 X115.031000 Y43.283000 Z-0.125000 F400.000000
G01 X115.863000 Y43.094000 Z-0.125000
G01 X116.553000 Y42.583000 Z-0.125000
G01 X116.941000 Y41.696000 Z-0.125000
G01 X117.015000 Y40.701000 Z-0.125000
G01 X116.743000 Y39.763000 Z-0.125000
G01 X116.094000 Y39.046000 Z-0.125000
G01 X115.358000 Y38.782000 Z-0.125000
G01 X114.581000 Y38.693000 Z-0.125000
G01 X113.006000 Y38.685000 Z-0.125000
G01 X113.006000 Y43.378000 Z-0.125000
G01 X113.281000 Y43.364000 Z-0.125000
G01 X113.281000 Y43.365000 Z-0.125000
G00 Z5.000000

(End cutting path id: path7441)


(Start cutting path id: path7441)
(Change tool to Default tool)

G00 Z5.000000
G00 X113.020000 Y43.642000

G01 Z-0.125000 F100.0(Penetrate)
G01 X115.032000 Y43.547000 Z-0.125000 F400.000000
G01 X115.987000 Y43.323000 Z-0.125000
G01 X116.777000 Y42.722000 Z-0.125000
G01 X117.232000 Y41.620000 Z-0.125000
G01 X117.238000 Y40.403000 Z-0.125000
G01 X116.770000 Y39.323000 Z-0.125000
G01 X116.350000 Y38.913000 Z-0.125000
G01 X115.803000 Y38.630000 Z-0.125000
G01 X114.284000 Y38.424000 Z-0.125000
G01 X112.742000 Y38.415000 Z-0.125000
G01 X112.742000 Y43.656000 Z-0.125000
G01 X113.020000 Y43.642000 Z-0.125000
G01 X113.020000 Y43.642000 Z-0.125000
G00 Z5.000000

(End cutting path id: path7441)


(Start cutting path id: path7441)
(Change tool to Default tool)

G00 Z5.000000
G00 X104.373000 Y39.049000

G01 Z-0.125000 F100.0(Penetrate)
G01 X104.971000 Y39.282000 Z-0.125000 F400.000000
G01 X105.401000 Y39.689000 Z-0.125000
G01 X105.660000 Y40.266000 Z-0.125000
G01 X105.746000 Y41.012000 Z-0.125000
G01 X105.679000 Y41.676000 Z-0.125000
G01 X105.480000 Y42.214000 Z-0.125000
G01 X105.151000 Y42.623000 Z-0.125000
G01 X104.696000 Y42.896000 Z-0.125000
G01 X103.343000 Y43.052000 Z-0.125000
G01 X102.266000 Y43.100000 Z-0.125000
G01 X102.266000 Y41.024000 Z-0.125000
G01 X102.266000 Y38.949000 Z-0.125000
G01 X103.086000 Y38.949000 Z-0.125000
G01 X104.373000 Y39.049000 Z-0.125000
G01 X104.373000 Y39.049000 Z-0.125000
G00 Z5.000000

(End cutting path id: path7441)


(Start cutting path id: path7441)
(Change tool to Default tool)

G00 Z5.000000
G00 X100.043000 Y38.130000

G01 Z-0.125000 F100.0(Penetrate)
G01 X100.043000 Y31.498000 Z-0.125000 F400.000000
G01 X101.013000 Y31.475000 Z-0.125000
G01 X101.467000 Y31.495000 Z-0.125000
G01 X101.738000 Y31.698000 Z-0.125000
G01 X101.738000 Y37.277000 Z-0.125000
G01 X104.589000 Y37.339000 Z-0.125000
G01 X105.949000 Y37.671000 Z-0.125000
G01 X106.563000 Y37.997000 Z-0.125000
G01 X107.116000 Y38.464000 Z-0.125000
G01 X107.757000 Y39.596000 Z-0.125000
G01 X107.981000 Y40.887000 Z-0.125000
G01 X107.813000 Y42.195000 Z-0.125000
G01 X107.273000 Y43.378000 Z-0.125000
G01 X106.397000 Y44.126000 Z-0.125000
G01 X105.354000 Y44.545000 Z-0.125000
G01 X104.224000 Y44.716000 Z-0.125000
G01 X103.084000 Y44.718000 Z-0.125000
G01 X100.043000 Y44.753000 Z-0.125000
G01 X100.043000 Y38.130000 Z-0.125000
G01 X100.043000 Y38.130000 Z-0.125000
G00 Z5.000000

(End cutting path id: path7441)


(Start cutting path id: path7441)
(Change tool to Default tool)

G00 Z5.000000
G00 X99.779300 Y38.130000

G01 Z-0.125000 F100.0(Penetrate)
G01 X99.779300 Y31.234000 Z-0.125000 F400.000000
G01 X102.002000 Y31.234000 Z-0.125000
G01 X102.002000 Y37.011000 Z-0.125000
G01 X103.446000 Y37.009000 Z-0.125000
G01 X104.913000 Y37.118000 Z-0.125000
G01 X106.280000 Y37.522000 Z-0.125000
G01 X106.888000 Y37.893000 Z-0.125000
G01 X107.426000 Y38.406000 Z-0.125000
G01 X107.999000 Y39.465000 Z-0.125000
G01 X108.230000 Y40.652000 Z-0.125000
G01 X108.155000 Y41.871000 Z-0.125000
G01 X107.811000 Y43.027000 Z-0.125000
G01 X107.051000 Y43.988000 Z-0.125000
G01 X106.009000 Y44.610000 Z-0.125000
G01 X104.812000 Y44.928000 Z-0.125000
G01 X103.589000 Y44.976000 Z-0.125000
G01 X99.779300 Y45.021000 Z-0.125000
G01 X99.779300 Y38.130000 Z-0.125000
G01 X99.779300 Y38.130000 Z-0.125000
G00 Z5.000000

(End cutting path id: path7441)


(Start cutting path id: path7441)
(Change tool to Default tool)

G00 Z5.000000
G00 X99.514800 Y38.130000

G01 Z-0.125000 F100.0(Penetrate)
G01 X99.514800 Y45.288000 Z-0.125000 F400.000000
G01 X102.289000 Y45.257000 Z-0.125000
G01 X104.807000 Y45.198000 Z-0.125000
G01 X105.804000 Y44.969000 Z-0.125000
G01 X106.943000 Y44.408000 Z-0.125000
G01 X107.760000 Y43.619000 Z-0.125000
G01 X108.269000 Y42.587000 Z-0.125000
G01 X108.481000 Y41.295000 Z-0.125000
G01 X108.452000 Y40.248000 Z-0.125000
G01 X108.256000 Y39.349000 Z-0.125000
G01 X107.887000 Y38.582000 Z-0.125000
G01 X107.341000 Y37.933000 Z-0.125000
G01 X106.617000 Y37.395000 Z-0.125000
G01 X105.756000 Y37.028000 Z-0.125000
G01 X104.712000 Y36.818000 Z-0.125000
G01 X103.435000 Y36.750000 Z-0.125000
G01 X102.266000 Y36.748000 Z-0.125000
G01 X102.266000 Y33.859000 Z-0.125000
G01 X102.266000 Y30.971000 Z-0.125000
G01 X100.890000 Y30.971000 Z-0.125000
G01 X99.514800 Y30.971000 Z-0.125000
G01 X99.514800 Y38.130000 Z-0.125000
G00 Z5.000000

(End cutting path id: path7441)


(Start cutting path id: path7441)
(Change tool to Default tool)

G00 Z5.000000
G00 X102.277000 Y43.365000

G01 Z-0.125000 F100.0(Penetrate)
G01 X104.028000 Y43.282000 Z-0.125000 F400.000000
G01 X104.860000 Y43.094000 Z-0.125000
G01 X105.551000 Y42.583000 Z-0.125000
G01 X105.937000 Y41.696000 Z-0.125000
G01 X106.011000 Y40.700000 Z-0.125000
G01 X105.739000 Y39.762000 Z-0.125000
G01 X105.090000 Y39.046000 Z-0.125000
G01 X104.354000 Y38.782000 Z-0.125000
G01 X103.577000 Y38.693000 Z-0.125000
G01 X102.002000 Y38.685000 Z-0.125000
G01 X102.002000 Y43.378000 Z-0.125000
G01 X102.277000 Y43.364000 Z-0.125000
G01 X102.277000 Y43.365000 Z-0.125000
G00 Z5.000000

(End cutting path id: path7441)


(Start cutting path id: path7441)
(Change tool to Default tool)

G00 Z5.000000
G00 X102.016000 Y43.642000

G01 Z-0.125000 F100.0(Penetrate)
G01 X104.030000 Y43.546000 Z-0.125000 F400.000000
G01 X104.987000 Y43.322000 Z-0.125000
G01 X105.777000 Y42.720000 Z-0.125000
G01 X106.229000 Y41.617000 Z-0.125000
G01 X106.234000 Y40.402000 Z-0.125000
G01 X105.765000 Y39.322000 Z-0.125000
G01 X105.346000 Y38.912000 Z-0.125000
G01 X104.799000 Y38.630000 Z-0.125000
G01 X103.280000 Y38.424000 Z-0.125000
G01 X101.738000 Y38.415000 Z-0.125000
G01 X101.738000 Y43.656000 Z-0.125000
G01 X102.016000 Y43.642000 Z-0.125000
G01 X102.016000 Y43.642000 Z-0.125000
G00 Z5.000000

(End cutting path id: path7441)


(Start cutting path id: path7441)
(Change tool to Default tool)

G00 Z5.000000
G00 X85.608700 Y62.004600

G01 Z-0.125000 F100.0(Penetrate)
G01 X84.910200 Y60.808700 Z-0.125000 F400.000000
G01 X83.650800 Y59.809600 Z-0.125000
G01 X82.275000 Y59.309100 Z-0.125000
G01 X81.311900 Y59.309100 Z-0.125000
G01 X81.015600 Y59.809600 Z-0.125000
G01 X81.417800 Y61.073300 Z-0.125000
G01 X82.412600 Y62.576100 Z-0.125000
G01 X83.545000 Y63.507500 Z-0.125000
G01 X84.275200 Y63.877900 Z-0.125000
G01 X85.016100 Y63.772000 Z-0.125000
G01 X85.608700 Y63.306400 Z-0.125000
G01 X85.778100 Y58.575600 Z-0.125000
G01 X85.651100 Y56.977600 Z-0.125000
G01 X85.280700 Y55.972100 Z-0.125000
G01 X84.815000 Y55.305400 Z-0.125000
G01 X84.381100 Y54.945600 Z-0.125000
G01 X83.809600 Y54.839700 Z-0.125000
G01 X83.375700 Y54.808000 Z-0.125000
G01 X82.179700 Y54.839700 Z-0.125000
G00 Z5.000000

(End cutting path id: path7441)


(Start cutting path id: path7441)
(Change tool to Default tool)

G00 Z5.000000
G00 X77.120900 Y62.174000

G01 Z-0.125000 F100.0(Penetrate)
G01 X76.517700 Y60.840500 Z-0.125000 F400.000000
G01 X75.544000 Y59.941900 Z-0.125000
G01 X74.845500 Y59.543000 Z-0.125000
G01 X74.178800 Y59.309100 Z-0.125000
G01 X73.247400 Y59.409600 Z-0.125000
G01 X72.750000 Y59.741900 Z-0.125000
G01 X72.612400 Y60.777000 Z-0.125000
G01 X73.120400 Y61.814100 Z-0.125000
G01 X73.776600 Y62.809000 Z-0.125000
G01 X74.845500 Y63.539200 Z-0.125000
G01 X75.649900 Y63.909600 Z-0.125000
G01 X76.253100 Y63.909600 Z-0.125000
G01 X76.983400 Y63.772000 Z-0.125000
G01 X77.120900 Y63.274600 Z-0.125000
G01 X77.247900 Y59.275700 Z-0.125000
G00 Z5.000000

(End cutting path id: path7441)


(Start cutting path id: path7441)
(Change tool to Default tool)

G00 Z5.000000
G00 X79.248200 Y63.973100

G01 Z-0.125000 F100.0(Penetrate)
G01 X79.343400 Y59.709100 Z-0.125000 F400.000000
G01 X79.544500 Y59.509100 Z-0.125000
G00 Z5.000000

(End cutting path id: path7441)


(Start cutting path id: path7441)
(Change tool to Default tool)

G00 Z5.000000
G00 X78.983600 Y65.973400

G01 Z-0.125000 F100.0(Penetrate)
G01 X79.174100 Y65.973400 Z-0.125000 F400.000000
G00 Z5.000000

(End cutting path id: path7441)


(Start cutting path id: path7441)
(Change tool to Default tool)

G00 Z5.000000
G00 X86.544300 Y64.004900

G01 Z-0.125000 F100.0(Penetrate)
G01 X86.577100 Y59.442400 Z-0.125000 F400.000000
G01 X86.544300 Y62.671400 Z-0.125000
G01 X87.778300 Y63.475700 Z-0.125000
G01 X88.974200 Y64.047200 Z-0.125000
G01 X89.746800 Y64.110700 Z-0.125000
G01 X90.307700 Y64.047200 Z-0.125000
G01 X90.678100 Y63.645000 Z-0.125000
G01 X90.942700 Y62.480900 Z-0.125000
G01 X90.911000 Y59.342400 Z-0.125000
G00 Z5.000000

(End cutting path id: path7441)


(Start cutting path id: path7441)
(Change tool to Default tool)

G00 Z5.000000
G00 X90.921600 Y77.001100

G01 Z-0.125000 F100.0(Penetrate)
G01 X90.583000 Y77.339800 Z-0.125000 F400.000000
G01 X89.588100 Y77.339800 Z-0.125000
G01 X88.455700 Y77.107000 Z-0.125000
G01 X87.418600 Y76.567200 Z-0.125000
G01 X86.984600 Y75.868700 Z-0.125000
G01 X86.984600 Y75.106700 Z-0.125000
G01 X87.418600 Y74.768100 Z-0.125000
G01 X88.381600 Y74.768100 Z-0.125000
G01 X89.418800 Y74.969100 Z-0.125000
G01 X90.085600 Y74.937400 Z-0.125000
G01 X90.614700 Y74.736300 Z-0.125000
G01 X90.953400 Y74.440000 Z-0.125000
G01 X90.858100 Y73.942600 Z-0.125000
G01 X89.821000 Y73.138200 Z-0.125000
G01 X88.487500 Y72.772100 Z-0.125000
G01 X87.714900 Y72.471500 Z-0.125000
G01 X87.386800 Y72.504800 Z-0.125000
G00 Z5.000000

(End cutting path id: path7441)


(Start cutting path id: path7441)
(Change tool to Default tool)

G00 Z5.000000
G00 X91.979900 Y77.339800

G01 Z-0.125000 F100.0(Penetrate)
G01 X91.715400 Y75.805200 Z-0.125000 F400.000000
G01 X91.620100 Y74.037800 Z-0.125000
G01 X92.022300 Y73.004900 Z-0.125000
G01 X92.847800 Y72.571500 Z-0.125000
G01 X94.255400 Y72.671500 Z-0.125000
G01 X95.049100 Y73.171000 Z-0.125000
G01 X95.483000 Y73.372100 Z-0.125000
G01 X95.916900 Y73.974300 Z-0.125000
G01 X96.223900 Y74.609300 Z-0.125000
G01 X95.980400 Y77.466800 Z-0.125000
G01 X96.319100 Y72.604800 Z-0.125000
G00 Z5.000000

(End cutting path id: path7441)


(Start cutting path id: path7441)
(Change tool to Default tool)

G00 Z5.000000
G00 X97.388000 Y79.572900

G01 Z-0.125000 F100.0(Penetrate)
G01 X97.451500 Y72.904300 Z-0.125000 F400.000000
G01 X97.948900 Y72.705400 Z-0.125000
G01 X98.816700 Y72.871500 Z-0.125000
G01 X100.118000 Y73.404900 Z-0.125000
G01 X101.717000 Y74.672800 Z-0.125000
G01 X102.352000 Y75.773500 Z-0.125000
G01 X102.584000 Y76.641300 Z-0.125000
G01 X102.383000 Y77.107000 Z-0.125000
G01 X101.886000 Y77.308100 Z-0.125000
G01 X100.722000 Y77.202200 Z-0.125000
G01 X99.684600 Y76.503700 Z-0.125000
G01 X98.552100 Y75.710000 Z-0.125000
G01 X97.525600 Y74.238900 Z-0.125000
G00 Z5.000000

(End cutting path id: path7441)


(Start cutting path id: path7441)
(Change tool to Default tool)

G00 Z5.000000
G00 X107.389000 Y77.001100

G01 Z-0.125000 F100.0(Penetrate)
G01 X107.051000 Y77.339800 Z-0.125000 F400.000000
G01 X106.056000 Y77.339800 Z-0.125000
G01 X104.923000 Y77.107000 Z-0.125000
G01 X103.886000 Y76.567200 Z-0.125000
G01 X103.452000 Y75.868700 Z-0.125000
G01 X103.452000 Y75.106700 Z-0.125000
G01 X103.886000 Y74.768100 Z-0.125000
G01 X104.849000 Y74.768100 Z-0.125000
G01 X105.886000 Y74.969100 Z-0.125000
G01 X106.553000 Y74.937400 Z-0.125000
G01 X107.082000 Y74.736300 Z-0.125000
G01 X107.421000 Y74.440000 Z-0.125000
G01 X107.326000 Y73.942600 Z-0.125000
G01 X106.289000 Y73.138200 Z-0.125000
G01 X104.955000 Y72.772100 Z-0.125000
G01 X104.182000 Y72.471500 Z-0.125000
G01 X103.854000 Y72.504800 Z-0.125000
G00 Z5.000000

(End cutting path id: path7441)


(Start cutting path id: path7441)
(Change tool to Default tool)

G00 Z5.000000
G00 X112.691000 Y76.874100

G01 Z-0.125000 F100.0(Penetrate)
G01 X112.353000 Y77.170500 Z-0.125000 F400.000000
G01 X111.358000 Y77.276300 Z-0.125000
G01 X110.289000 Y76.874100 Z-0.125000
G01 X109.389000 Y76.207400 Z-0.125000
G01 X108.416000 Y74.937400 Z-0.125000
G01 X108.119000 Y73.603900 Z-0.125000
G01 X108.754000 Y72.837700 Z-0.125000
G01 X110.056000 Y72.438100 Z-0.125000
G01 X111.453000 Y72.504800 Z-0.125000
G01 X112.448000 Y72.738200 Z-0.125000
G01 X113.517000 Y73.305400 Z-0.125000
G00 Z5.000000

(End cutting path id: path7441)


(Start cutting path id: path7441)
(Change tool to Default tool)

G00 Z5.000000
G00 X114.756000 Y77.435000

G01 Z-0.125000 F100.0(Penetrate)
G01 X114.629000 Y72.638700 Z-0.125000 F400.000000
G01 X114.957000 Y75.339600 Z-0.125000
G01 X115.761000 Y76.376700 Z-0.125000
G01 X116.787000 Y76.969400 Z-0.125000
G01 X117.624000 Y77.308000 Z-0.125000
G01 X117.994000 Y77.339800 Z-0.125000
G01 X119.095000 Y77.234000 Z-0.125000
G01 X119.222000 Y77.138700 Z-0.125000
G00 Z5.000000

(End cutting path id: path7441)


(Start cutting path id: path7441)
(Change tool to Default tool)

G00 Z5.000000
G00 X121.095000 Y77.202200

G01 Z-0.125000 F100.0(Penetrate)
G01 X121.190000 Y72.938200 Z-0.125000 F400.000000
G01 X121.391000 Y72.738200 Z-0.125000
G00 Z5.000000

(End cutting path id: path7441)


(Start cutting path id: path7441)
(Change tool to Default tool)

G00 Z5.000000
G00 X120.830000 Y79.202500

G01 Z-0.125000 F100.0(Penetrate)
G01 X121.021000 Y79.202500 Z-0.125000 F400.000000
G00 Z5.000000

(End cutting path id: path7441)


(Start cutting path id: path7441)
(Change tool to Default tool)

G00 Z5.000000
G00 X123.127000 Y79.572900

G01 Z-0.125000 F100.0(Penetrate)
G01 X123.190000 Y72.904300 Z-0.125000 F400.000000
G01 X123.688000 Y72.705400 Z-0.125000
G01 X124.556000 Y72.871500 Z-0.125000
G01 X125.857000 Y73.404900 Z-0.125000
G01 X127.455000 Y74.672800 Z-0.125000
G01 X128.090000 Y75.773500 Z-0.125000
G01 X128.323000 Y76.641300 Z-0.125000
G01 X128.122000 Y77.107000 Z-0.125000
G01 X127.625000 Y77.308000 Z-0.125000
G01 X126.461000 Y77.202200 Z-0.125000
G01 X125.423000 Y76.503700 Z-0.125000
G01 X124.291000 Y75.710000 Z-0.125000
G01 X123.264000 Y74.238900 Z-0.125000
G00 Z5.000000

(End cutting path id: path7441)


(Start cutting path id: path7441)
(Change tool to Default tool)

G00 Z5.000000
G00 X129.995000 Y77.202200

G01 Z-0.125000 F100.0(Penetrate)
G01 X130.090000 Y72.938200 Z-0.125000 F400.000000
G01 X130.291000 Y72.738200 Z-0.125000
G00 Z5.000000

(End cutting path id: path7441)


(Start cutting path id: path7441)
(Change tool to Default tool)

G00 Z5.000000
G00 X131.459000 Y77.234000

G01 Z-0.125000 F100.0(Penetrate)
G01 X131.492000 Y72.671500 Z-0.125000 F400.000000
G01 X131.459000 Y75.900500 Z-0.125000
G01 X132.694000 Y76.704800 Z-0.125000
G01 X133.889000 Y77.276300 Z-0.125000
G01 X134.662000 Y77.339800 Z-0.125000
G01 X135.223000 Y77.276300 Z-0.125000
G01 X135.593000 Y76.874100 Z-0.125000
G01 X135.858000 Y75.710000 Z-0.125000
G01 X135.826000 Y72.571500 Z-0.125000
G00 Z5.000000

(End cutting path id: path7441)


(Start cutting path id: path7441)
(Change tool to Default tool)

G00 Z5.000000
G00 X141.488000 Y75.233700

G01 Z-0.125000 F100.0(Penetrate)
G01 X140.790000 Y74.037800 Z-0.125000 F400.000000
G01 X139.530000 Y73.038700 Z-0.125000
G01 X138.155000 Y72.538200 Z-0.125000
G01 X137.192000 Y72.538200 Z-0.125000
G01 X136.895000 Y73.038700 Z-0.125000
G01 X137.297000 Y74.302400 Z-0.125000
G01 X138.292000 Y75.805200 Z-0.125000
G01 X139.425000 Y76.736600 Z-0.125000
G01 X140.155000 Y77.107000 Z-0.125000
G01 X140.896000 Y77.001100 Z-0.125000
G01 X141.488000 Y76.535500 Z-0.125000
G01 X141.658000 Y71.804700 Z-0.125000
G01 X141.531000 Y70.206700 Z-0.125000
G01 X141.160000 Y69.201200 Z-0.125000
G01 X140.695000 Y68.534500 Z-0.125000
G01 X140.261000 Y68.174700 Z-0.125000
G01 X139.689000 Y68.068800 Z-0.125000
G01 X139.255000 Y68.037100 Z-0.125000
G01 X138.059000 Y68.068800 Z-0.125000
G00 Z5.000000

(End cutting path id: path7441)


(Start cutting path id: path7441)
(Change tool to Default tool)

G00 Z5.000000
G00 X129.730000 Y79.202500

G01 Z-0.125000 F100.0(Penetrate)
G01 X129.921000 Y79.202500 Z-0.125000 F400.000000
G00 Z5.000000

(End cutting path id: path7441)


(Start cutting path id: path7441)
(Change tool to Default tool)

G00 Z5.000000
G00 X130.041000 Y105.096200

G01 Z-0.125000 F100.0(Penetrate)
G01 X120.509000 Y105.096200 Z-0.125000 F400.000000
G01 X119.752000 Y104.986200 Z-0.125000
G01 X119.206000 Y104.656300 Z-0.125000
G01 X118.876000 Y104.130800 Z-0.125000
G01 X118.766000 Y103.401700 Z-0.125000
G01 X118.766000 Y91.719500 Z-0.125000
G01 X114.530000 Y91.719500 Z-0.125000
G01 X114.530000 Y103.401700 Z-0.125000
G01 X114.599000 Y104.436300 Z-0.125000
G01 X114.807000 Y105.356900 Z-0.125000
G01 X115.540000 Y106.872200 Z-0.125000
G01 X116.615000 Y107.996400 Z-0.125000
G01 X117.870000 Y108.762200 Z-0.125000
G01 X119.206000 Y109.185800 Z-0.125000
G01 X120.477000 Y109.332400 Z-0.125000
G01 X130.041000 Y109.332400 Z-0.125000
G01 X130.041000 Y105.096200 Z-0.125000
G00 Z5.000000

(End cutting path id: path7441)


(Start cutting path id: path7441)
(Change tool to Default tool)

G00 Z5.000000
G00 X118.643000 Y103.636100

G01 Z-0.125000 F100.0(Penetrate)
G01 X114.943000 Y99.935400 Z-0.125000 F400.000000
G01 X114.662000 Y99.280600 Z-0.125000
G01 X114.732000 Y99.093500 Z-0.125000
G01 X114.943000 Y99.187000 Z-0.125000
G01 X118.353000 Y102.597400 Z-0.125000
G01 X118.564000 Y102.691000 Z-0.125000
G01 X118.634000 Y102.503900 Z-0.125000
G01 X118.353000 Y101.849100 Z-0.125000
G01 X114.943000 Y98.438700 Z-0.125000
G01 X114.662000 Y97.783900 Z-0.125000
G01 X114.732000 Y97.596800 Z-0.125000
G01 X114.943000 Y97.690300 Z-0.125000
G01 X118.353000 Y101.100700 Z-0.125000
G01 X118.564000 Y101.194200 Z-0.125000
G01 X118.634000 Y101.007200 Z-0.125000
G01 X118.353000 Y100.352300 Z-0.125000
G01 X114.943000 Y96.942000 Z-0.125000
G01 X114.662000 Y96.287100 Z-0.125000
G01 X114.732000 Y96.100100 Z-0.125000
G01 X114.943000 Y96.193600 Z-0.125000
G01 X118.353000 Y99.604000 Z-0.125000
G01 X118.564000 Y99.697500 Z-0.125000
G01 X118.634000 Y99.510400 Z-0.125000
G01 X118.353000 Y98.855600 Z-0.125000
G01 X114.943000 Y95.445200 Z-0.125000
G01 X114.662000 Y94.790400 Z-0.125000
G01 X114.732000 Y94.603300 Z-0.125000
G01 X114.943000 Y94.696900 Z-0.125000
G01 X118.353000 Y98.107300 Z-0.125000
G01 X118.564000 Y98.200800 Z-0.125000
G01 X118.634000 Y98.013700 Z-0.125000
G01 X118.353000 Y97.358900 Z-0.125000
G01 X114.943000 Y93.948500 Z-0.125000
G01 X114.662000 Y93.293700 Z-0.125000
G01 X114.732000 Y93.106600 Z-0.125000
G01 X114.943000 Y93.200200 Z-0.125000
G01 X118.353000 Y96.610600 Z-0.125000
G01 X118.564000 Y96.704100 Z-0.125000
G01 X118.634000 Y96.517000 Z-0.125000
G01 X118.353000 Y95.862200 Z-0.125000
G01 X114.943000 Y92.451800 Z-0.125000
G01 X114.799000 Y92.191400 Z-0.125000
G01 X114.877000 Y92.011500 Z-0.125000
G01 X115.094000 Y91.971800 Z-0.125000
G01 X115.372000 Y92.132400 Z-0.125000
G01 X118.353000 Y95.113900 Z-0.125000
G01 X118.564000 Y95.207400 Z-0.125000
G01 X118.634000 Y95.020300 Z-0.125000
G01 X118.353000 Y94.365500 Z-0.125000
G01 X116.120000 Y92.132400 Z-0.125000
G01 X116.026000 Y91.921900 Z-0.125000
G01 X116.214000 Y91.851800 Z-0.125000
G01 X116.868000 Y92.132400 Z-0.125000
G01 X118.353000 Y93.617100 Z-0.125000
G01 X118.564000 Y93.710700 Z-0.125000
G01 X118.634000 Y93.523600 Z-0.125000
G01 X118.353000 Y92.868800 Z-0.125000
G01 X117.611000 Y92.126400 Z-0.125000
G01 X117.522000 Y91.920400 Z-0.125000
G01 X117.710000 Y91.851800 Z-0.125000
G01 X118.359000 Y92.126400 Z-0.125000
G01 X118.634000 Y92.401100 Z-0.125000
G00 Z5.000000

(End cutting path id: path7441)


(Start cutting path id: path7441)
(Change tool to Default tool)

G00 Z5.000000
G00 X111.027000 Y97.666500

G01 Z-0.125000 F100.0(Penetrate)
G01 X110.957000 Y96.627800 Z-0.125000 F400.000000
G01 X110.750000 Y95.695000 Z-0.125000
G01 X110.017000 Y94.163500 Z-0.125000
G01 X108.957000 Y93.039200 Z-0.125000
G01 X107.687000 Y92.289700 Z-0.125000
G01 X106.351000 Y91.849800 Z-0.125000
G01 X105.080000 Y91.719500 Z-0.125000
G01 X97.438200 Y91.719500 Z-0.125000
G01 X95.515600 Y92.029000 Z-0.125000
G01 X94.509500 Y92.436400 Z-0.125000
G01 X93.576700 Y93.039200 Z-0.125000
G01 X92.766100 Y93.858000 Z-0.125000
G01 X92.094000 Y94.880400 Z-0.125000
G01 X91.654100 Y96.147200 Z-0.125000
G01 X91.507500 Y97.666500 Z-0.125000
G01 X91.507500 Y103.401700 Z-0.125000
G01 X91.654100 Y104.904800 Z-0.125000
G01 X92.094000 Y106.155300 Z-0.125000
G01 X92.766100 Y107.185800 Z-0.125000
G01 X93.576700 Y107.996400 Z-0.125000
G01 X94.509500 Y108.611500 Z-0.125000
G01 X95.515600 Y109.022900 Z-0.125000
G01 X97.438200 Y109.332400 Z-0.125000
G01 X105.080000 Y109.332400 Z-0.125000
G01 X106.587000 Y109.185800 Z-0.125000
G01 X107.850000 Y108.745900 Z-0.125000
G01 X108.880000 Y108.081900 Z-0.125000
G01 X109.691000 Y107.263200 Z-0.125000
G01 X110.294000 Y106.342600 Z-0.125000
G01 X110.701000 Y105.340600 Z-0.125000
G01 X111.027000 Y103.401700 Z-0.125000
G01 X111.027000 Y97.666500 Z-0.125000
G00 Z5.000000

(End cutting path id: path7441)


(Start cutting path id: path7441)
(Change tool to Default tool)

G00 Z5.000000
G00 X106.790000 Y103.369100

G01 Z-0.125000 F100.0(Penetrate)
G01 X106.681000 Y104.134900 Z-0.125000 F400.000000
G01 X106.351000 Y104.672600 Z-0.125000
G01 X105.813000 Y104.990300 Z-0.125000
G01 X105.080000 Y105.096200 Z-0.125000
G01 X97.470800 Y105.096200 Z-0.125000
G01 X96.725400 Y104.986200 Z-0.125000
G01 X96.183600 Y104.656300 Z-0.125000
G01 X95.853700 Y104.130800 Z-0.125000
G01 X95.743700 Y103.401700 Z-0.125000
G01 X95.743700 Y97.666500 Z-0.125000
G01 X95.853700 Y96.933300 Z-0.125000
G01 X96.183600 Y96.395600 Z-0.125000
G01 X96.725400 Y96.065700 Z-0.125000
G01 X97.470800 Y95.955700 Z-0.125000
G01 X105.080000 Y95.955700 Z-0.125000
G01 X105.833000 Y96.065700 Z-0.125000
G01 X106.367000 Y96.395600 Z-0.125000
G01 X106.685000 Y96.933300 Z-0.125000
G01 X106.790000 Y97.666500 Z-0.125000
G01 X106.790000 Y103.369100 Z-0.125000
G00 Z5.000000

(End cutting path id: path7441)


(Start cutting path id: path7441)
(Change tool to Default tool)

G00 Z5.000000
G00 X95.693500 Y103.885100

G01 Z-0.125000 F100.0(Penetrate)
G01 X91.920400 Y100.112000 Z-0.125000 F400.000000
G01 X91.639800 Y99.457200 Z-0.125000
G01 X91.709900 Y99.270100 Z-0.125000
G01 X91.920400 Y99.363700 Z-0.125000
G01 X95.330800 Y102.774100 Z-0.125000
G01 X95.541300 Y102.867600 Z-0.125000
G01 X95.611400 Y102.680500 Z-0.125000
G01 X95.330800 Y102.025700 Z-0.125000
G01 X91.920400 Y98.615300 Z-0.125000
G01 X91.640700 Y97.961400 Z-0.125000
G01 X91.711400 Y97.775000 Z-0.125000
G01 X91.922200 Y97.868800 Z-0.125000
G01 X95.330800 Y101.277400 Z-0.125000
G01 X95.541200 Y101.370900 Z-0.125000
G01 X95.611400 Y101.183800 Z-0.125000
G01 X95.330800 Y100.529000 Z-0.125000
G01 X91.958000 Y97.156200 Z-0.125000
G01 X91.762300 Y96.843600 Z-0.125000
G01 X91.724700 Y96.548800 Z-0.125000
G01 X91.827400 Y96.394300 Z-0.125000
G01 X92.052700 Y96.502600 Z-0.125000
G01 X95.330800 Y99.780700 Z-0.125000
G01 X95.541200 Y99.874200 Z-0.125000
G01 X95.611400 Y99.687100 Z-0.125000
G01 X95.330800 Y99.032300 Z-0.125000
G01 X92.210300 Y95.911800 Z-0.125000
G01 X92.032700 Y95.617300 Z-0.125000
G01 X92.034900 Y95.362300 Z-0.125000
G01 X92.177500 Y95.247600 Z-0.125000
G01 X92.420800 Y95.374000 Z-0.125000
G01 X95.330800 Y98.283900 Z-0.125000
G01 X95.541200 Y98.377500 Z-0.125000
G01 X95.611400 Y98.190400 Z-0.125000
G01 X95.330800 Y97.535600 Z-0.125000
G01 X92.684100 Y94.888900 Z-0.125000
G01 X92.520300 Y94.608200 Z-0.125000
G01 X92.552900 Y94.383600 Z-0.125000
G01 X92.725800 Y94.299200 Z-0.125000
G01 X92.983000 Y94.439500 Z-0.125000
G01 X95.385500 Y96.841900 Z-0.125000
G01 X95.628200 Y96.967800 Z-0.125000
G01 X95.769400 Y96.851700 Z-0.125000
G01 X95.770300 Y96.595300 Z-0.125000
G01 X95.592100 Y96.300200 Z-0.125000
G01 X93.316600 Y94.024800 Z-0.125000
G01 X93.163900 Y93.755100 Z-0.125000
G01 X93.220800 Y93.554700 Z-0.125000
G01 X93.418000 Y93.494700 Z-0.125000
G01 X93.686200 Y93.646000 Z-0.125000
G01 X95.943600 Y95.903400 Z-0.125000
G01 X96.231300 Y96.074200 Z-0.125000
G01 X96.471400 Y96.057000 Z-0.125000
G01 X96.571200 Y95.899500 Z-0.125000
G01 X96.437900 Y95.649300 Z-0.125000
G01 X94.095600 Y93.307000 Z-0.125000
G01 X93.955300 Y93.049800 Z-0.125000
G01 X94.039600 Y92.876800 Z-0.125000
G01 X94.264100 Y92.844100 Z-0.125000
G01 X94.544800 Y93.007900 Z-0.125000
G01 X97.103000 Y95.566100 Z-0.125000
G01 X97.426800 Y95.772900 Z-0.125000
G01 X97.746200 Y95.835100 Z-0.125000
G01 X97.925300 Y95.756900 Z-0.125000
G01 X97.828100 Y95.542800 Z-0.125000
G01 X95.031300 Y92.746000 Z-0.125000
G01 X94.903400 Y92.501100 Z-0.125000
G01 X95.014900 Y92.355500 Z-0.125000
G01 X95.266800 Y92.350100 Z-0.125000
G01 X95.559900 Y92.526200 Z-0.125000
G01 X98.576400 Y95.542800 Z-0.125000
G01 X99.231300 Y95.823400 Z-0.125000
G01 X99.418300 Y95.753300 Z-0.125000
G01 X99.324800 Y95.542800 Z-0.125000
G01 X96.134100 Y92.352100 Z-0.125000
G01 X96.020000 Y92.121100 Z-0.125000
G01 X96.161800 Y92.005600 Z-0.125000
G01 X96.444000 Y92.030500 Z-0.125000
G01 X96.750800 Y92.220400 Z-0.125000
G01 X100.073000 Y95.542800 Z-0.125000
G01 X100.728000 Y95.823400 Z-0.125000
G01 X100.915000 Y95.753300 Z-0.125000
G01 X100.822000 Y95.542800 Z-0.125000
G01 X97.421000 Y92.142300 Z-0.125000
G01 X97.325900 Y91.930300 Z-0.125000
G01 X97.509600 Y91.856700 Z-0.125000
G01 X98.159500 Y92.132400 Z-0.125000
G01 X101.570000 Y95.542800 Z-0.125000
G01 X102.225000 Y95.823400 Z-0.125000
G01 X102.412000 Y95.753300 Z-0.125000
G01 X102.318000 Y95.542800 Z-0.125000
G01 X98.907800 Y92.132400 Z-0.125000
G01 X98.814300 Y91.921900 Z-0.125000
G01 X99.001400 Y91.851800 Z-0.125000
G01 X99.656200 Y92.132400 Z-0.125000
G01 X103.067000 Y95.542800 Z-0.125000
G01 X103.721000 Y95.823400 Z-0.125000
G01 X103.908000 Y95.753300 Z-0.125000
G01 X103.815000 Y95.542800 Z-0.125000
G01 X100.405000 Y92.132400 Z-0.125000
G01 X100.311000 Y91.921900 Z-0.125000
G01 X100.498000 Y91.851800 Z-0.125000
G01 X101.153000 Y92.132400 Z-0.125000
G01 X104.563000 Y95.542800 Z-0.125000
G01 X105.292000 Y95.897400 Z-0.125000
G01 X105.530000 Y95.878100 Z-0.125000
G01 X105.460000 Y95.690700 Z-0.125000
G01 X101.901000 Y92.132400 Z-0.125000
G01 X101.808000 Y91.921900 Z-0.125000
G01 X101.995000 Y91.851800 Z-0.125000
G01 X102.650000 Y92.132400 Z-0.125000
G01 X110.614000 Y100.096600 Z-0.125000
G01 X110.824000 Y100.190100 Z-0.125000
G01 X110.894000 Y100.003100 Z-0.125000
G01 X110.614000 Y99.348200 Z-0.125000
G01 X103.398000 Y92.132400 Z-0.125000
G01 X103.304000 Y91.921900 Z-0.125000
G01 X103.492000 Y91.851800 Z-0.125000
G01 X104.146000 Y92.132400 Z-0.125000
G01 X110.614000 Y98.599900 Z-0.125000
G01 X110.824000 Y98.693400 Z-0.125000
G01 X110.894000 Y98.506300 Z-0.125000
G01 X110.614000 Y97.851500 Z-0.125000
G01 X104.895000 Y92.132400 Z-0.125000
G01 X104.802000 Y91.923100 Z-0.125000
G01 X104.992000 Y91.855700 Z-0.125000
G01 X105.651000 Y92.140200 Z-0.125000
G01 X110.609000 Y97.098600 Z-0.125000
G01 X110.808000 Y97.180600 Z-0.125000
G01 X110.853000 Y96.968300 Z-0.125000
G01 X110.536000 Y96.276800 Z-0.125000
G01 X106.501000 Y92.242200 Z-0.125000
G01 X106.454000 Y92.078400 Z-0.125000
G01 X106.744000 Y92.110800 Z-0.125000
G01 X107.548000 Y92.540700 Z-0.125000
G01 X110.346000 Y95.338500 Z-0.125000
G01 X110.460000 Y95.336100 Z-0.125000
G01 X110.320000 Y94.938000 Z-0.125000
G01 X109.732000 Y93.976300 Z-0.125000
G01 X108.712000 Y92.956600 Z-0.125000
G00 Z5.000000

(End cutting path id: path7441)


(Start cutting path id: path7441)
(Change tool to Default tool)

G00 Z5.000000
G00 X117.486000 Y108.465400

G01 Z-0.125000 F100.0(Penetrate)
G01 X115.538000 Y106.517500 Z-0.125000 F400.000000
G01 X115.063000 Y105.668500 Z-0.125000
G01 X115.000000 Y105.347800 Z-0.125000
G01 X115.149000 Y105.380600 Z-0.125000
G01 X118.500000 Y108.731500 Z-0.125000
G01 X119.215000 Y109.071800 Z-0.125000
G01 X119.443000 Y109.042700 Z-0.125000
G01 X119.368000 Y108.850800 Z-0.125000
G01 X114.982000 Y104.464500 Z-0.125000
G01 X114.682000 Y103.790200 Z-0.125000
G01 X114.738000 Y103.589700 Z-0.125000
G01 X114.943000 Y103.677100 Z-0.125000
G01 X120.185000 Y108.919500 Z-0.125000
G01 X120.840000 Y109.200200 Z-0.125000
G01 X121.027000 Y109.130000 Z-0.125000
G01 X120.933000 Y108.919500 Z-0.125000
G01 X114.943000 Y102.928800 Z-0.125000
G01 X114.662000 Y102.274000 Z-0.125000
G01 X114.732000 Y102.086900 Z-0.125000
G01 X114.943000 Y102.180400 Z-0.125000
G01 X121.682000 Y108.919500 Z-0.125000
G01 X122.337000 Y109.200200 Z-0.125000
G01 X122.524000 Y109.130000 Z-0.125000
G01 X122.430000 Y108.919500 Z-0.125000
G01 X114.943000 Y101.432100 Z-0.125000
G01 X114.662000 Y100.777300 Z-0.125000
G01 X114.732000 Y100.590200 Z-0.125000
G01 X114.943000 Y100.683700 Z-0.125000
G01 X123.179000 Y108.919500 Z-0.125000
G01 X123.833000 Y109.200200 Z-0.125000
G01 X124.020000 Y109.130000 Z-0.125000
G01 X123.927000 Y108.919500 Z-0.125000
G01 X120.469000 Y105.461300 Z-0.125000
G01 X120.383000 Y105.258300 Z-0.125000
G01 X120.586000 Y105.204600 Z-0.125000
G01 X121.265000 Y105.509100 Z-0.125000
G01 X124.675000 Y108.919500 Z-0.125000
G01 X125.330000 Y109.200200 Z-0.125000
G01 X125.517000 Y109.130000 Z-0.125000
G01 X125.424000 Y108.919500 Z-0.125000
G01 X122.013000 Y105.509100 Z-0.125000
G01 X121.920000 Y105.298700 Z-0.125000
G01 X122.107000 Y105.228500 Z-0.125000
G01 X122.762000 Y105.509100 Z-0.125000
G01 X126.172000 Y108.919500 Z-0.125000
G01 X126.827000 Y109.200200 Z-0.125000
G01 X127.014000 Y109.130000 Z-0.125000
G01 X126.920000 Y108.919500 Z-0.125000
G01 X123.510000 Y105.509100 Z-0.125000
G01 X123.416000 Y105.298700 Z-0.125000
G01 X123.603000 Y105.228500 Z-0.125000
G01 X124.258000 Y105.509100 Z-0.125000
G01 X127.669000 Y108.919500 Z-0.125000
G01 X128.323000 Y109.200200 Z-0.125000
G01 X128.511000 Y109.130000 Z-0.125000
G01 X128.417000 Y108.919500 Z-0.125000
G01 X125.007000 Y105.509100 Z-0.125000
G01 X124.913000 Y105.298700 Z-0.125000
G01 X125.100000 Y105.228500 Z-0.125000
G01 X125.755000 Y105.509100 Z-0.125000
G01 X129.165000 Y108.919500 Z-0.125000
G01 X129.448000 Y109.085400 Z-0.125000
G01 X129.677000 Y109.057300 Z-0.125000
G01 X129.766000 Y108.888900 Z-0.125000
G01 X129.628000 Y108.633800 Z-0.125000
G01 X126.503000 Y105.509100 Z-0.125000
G01 X126.410000 Y105.298700 Z-0.125000
G01 X126.597000 Y105.228500 Z-0.125000
G01 X127.252000 Y105.509100 Z-0.125000
G01 X129.628000 Y107.885500 Z-0.125000
G01 X129.839000 Y107.979000 Z-0.125000
G01 X129.909000 Y107.791900 Z-0.125000
G01 X129.628000 Y107.137100 Z-0.125000
G01 X128.000000 Y105.509100 Z-0.125000
G01 X127.907000 Y105.298700 Z-0.125000
G01 X128.094000 Y105.228500 Z-0.125000
G01 X128.748000 Y105.509100 Z-0.125000
G01 X129.628000 Y106.388800 Z-0.125000
G01 X129.839000 Y106.482300 Z-0.125000
G01 X129.909000 Y106.295200 Z-0.125000
G01 X129.628000 Y105.640400 Z-0.125000
G01 X129.216000 Y105.228500 Z-0.125000
G00 Z5.000000

(End cutting path id: path7441)


(Start cutting path id: path7441)
(Change tool to Default tool)

G00 Z5.000000
G00 X117.175000 Y127.722500

G01 Z-0.125000 F100.0(Penetrate)
G01 X115.832000 Y127.722500 Z-0.125000 F400.000000
G01 X115.832000 Y131.427700 Z-0.125000
G01 X115.697000 Y131.825600 Z-0.125000
G01 X115.294000 Y131.965100 Z-0.125000
G01 X112.871000 Y131.965100 Z-0.125000
G01 X112.871000 Y133.308700 Z-0.125000
G01 X115.294000 Y133.308700 Z-0.125000
G01 X115.697000 Y133.262200 Z-0.125000
G01 X116.116000 Y133.127800 Z-0.125000
G01 X116.519000 Y132.884900 Z-0.125000
G01 X116.855000 Y132.528400 Z-0.125000
G01 X117.087000 Y132.047800 Z-0.125000
G01 X117.175000 Y131.427700 Z-0.125000
G01 X117.175000 Y127.722500 Z-0.125000
G00 Z5.000000

(End cutting path id: path7441)


(Start cutting path id: path7441)
(Change tool to Default tool)

G00 Z5.000000
G00 X112.328000 Y127.722500

G01 Z-0.125000 F100.0(Penetrate)
G01 X110.984000 Y127.722500 Z-0.125000 F400.000000
G01 X110.984000 Y135.670300 Z-0.125000
G01 X112.328000 Y135.670300 Z-0.125000
G01 X112.328000 Y127.722500 Z-0.125000
G00 Z5.000000

(End cutting path id: path7441)


(Start cutting path id: path7441)
(Change tool to Default tool)

G00 Z5.000000
G00 X110.080000 Y131.965100

G01 Z-0.125000 F100.0(Penetrate)
G01 X107.734000 Y131.965100 Z-0.125000 F400.000000
G01 X107.734000 Y127.722500 Z-0.125000
G01 X106.375000 Y127.722500 Z-0.125000
G01 X106.375000 Y131.965100 Z-0.125000
G01 X104.628000 Y131.965100 Z-0.125000
G01 X104.628000 Y133.308700 Z-0.125000
G01 X106.375000 Y133.308700 Z-0.125000
G01 X106.375000 Y135.132900 Z-0.125000
G01 X107.734000 Y135.132900 Z-0.125000
G01 X107.734000 Y133.308700 Z-0.125000
G01 X110.080000 Y133.308700 Z-0.125000
G01 X110.080000 Y131.965100 Z-0.125000
G00 Z5.000000

(End cutting path id: path7441)


(Start cutting path id: path7441)
(Change tool to Default tool)

G00 Z5.000000
G00 X103.714000 Y134.455900

G01 Z-0.125000 F100.0(Penetrate)
G01 X102.370000 Y134.455900 Z-0.125000 F400.000000
G01 X102.370000 Y135.670300 Z-0.125000
G01 X103.714000 Y135.670300 Z-0.125000
G01 X103.714000 Y134.455900 Z-0.125000
G00 Z5.000000

(End cutting path id: path7441)


(Start cutting path id: path7441)
(Change tool to Default tool)

G00 Z5.000000
G00 X101.884000 Y133.308700

G01 Z-0.125000 F100.0(Penetrate)
G01 X101.192000 Y131.892800 Z-0.125000 F400.000000
G01 X100.412000 Y130.580200 Z-0.125000
G01 X99.584700 Y129.433000 Z-0.125000
G01 X98.742400 Y128.528600 Z-0.125000
G01 X97.931000 Y127.934400 Z-0.125000
G01 X97.186900 Y127.722500 Z-0.125000
G01 X96.918200 Y127.774200 Z-0.125000
G01 X96.701100 Y127.913700 Z-0.125000
G01 X96.556500 Y128.130700 Z-0.125000
G01 X96.504800 Y128.399400 Z-0.125000
G01 X96.504800 Y130.905700 Z-0.125000
G01 X93.838300 Y127.924000 Z-0.125000
G01 X93.610900 Y127.769000 Z-0.125000
G01 X93.362900 Y127.722500 Z-0.125000
G01 X93.099300 Y127.774200 Z-0.125000
G01 X92.887400 Y127.913700 Z-0.125000
G01 X92.737600 Y128.130700 Z-0.125000
G01 X92.685900 Y128.399400 Z-0.125000
G01 X92.685900 Y133.308700 Z-0.125000
G01 X94.029500 Y133.308700 Z-0.125000
G01 X94.029500 Y130.125400 Z-0.125000
G01 X96.706300 Y133.117500 Z-0.125000
G01 X97.047400 Y133.298400 Z-0.125000
G01 X97.440100 Y133.257000 Z-0.125000
G01 X97.739800 Y133.009000 Z-0.125000
G01 X97.853500 Y132.642100 Z-0.125000
G01 X97.853500 Y129.448500 Z-0.125000
G01 X98.639000 Y130.332100 Z-0.125000
G01 X99.290100 Y131.288200 Z-0.125000
G01 X99.858600 Y132.290700 Z-0.125000
G01 X100.380000 Y133.308700 Z-0.125000
G01 X101.884000 Y133.308700 Z-0.125000
G00 Z5.000000

(End cutting path id: path7441)


(Start cutting path id: path7441)
(Change tool to Default tool)

G00 Z5.000000
G00 X103.714000 Y127.722500

G01 Z-0.125000 F100.0(Penetrate)
G01 X102.370000 Y127.722500 Z-0.125000 F400.000000
G01 X102.370000 Y133.308700 Z-0.125000
G01 X103.714000 Y133.308700 Z-0.125000
G01 X103.714000 Y127.722500 Z-0.125000
G00 Z5.000000

(End cutting path id: path7441)


(Start cutting path id: path7441)
(Change tool to Default tool)

G00 Z5.000000
G00 X88.443300 Y131.965100

G01 Z-0.125000 F100.0(Penetrate)
G01 X86.097200 Y131.965100 Z-0.125000 F400.000000
G01 X86.097200 Y127.722500 Z-0.125000
G01 X84.738100 Y127.722500 Z-0.125000
G01 X84.738100 Y131.965100 Z-0.125000
G01 X82.991400 Y131.965100 Z-0.125000
G01 X82.991400 Y133.308700 Z-0.125000
G01 X84.738100 Y133.308700 Z-0.125000
G01 X84.738100 Y135.132900 Z-0.125000
G01 X86.097200 Y135.132900 Z-0.125000
G01 X86.097200 Y133.308700 Z-0.125000
G01 X88.443300 Y133.308700 Z-0.125000
G01 X88.443300 Y131.965100 Z-0.125000
G00 Z5.000000

(End cutting path id: path7441)


(Start cutting path id: path7441)
(Change tool to Default tool)

G00 Z5.000000
G00 X82.386800 Y133.308700

G01 Z-0.125000 F100.0(Penetrate)
G01 X79.973500 Y130.673200 Z-0.125000 F400.000000
G01 X82.691700 Y127.722500 Z-0.125000
G01 X80.841700 Y127.722500 Z-0.125000
G01 X79.053700 Y129.670700 Z-0.125000
G01 X77.265700 Y127.722500 Z-0.125000
G01 X75.410500 Y127.722500 Z-0.125000
G01 X78.123500 Y130.683500 Z-0.125000
G01 X75.720600 Y133.308700 Z-0.125000
G01 X77.560300 Y133.308700 Z-0.125000
G01 X79.043400 Y131.691200 Z-0.125000
G01 X80.536800 Y133.308700 Z-0.125000
G01 X82.386800 Y133.308700 Z-0.125000
G00 Z5.000000

(End cutting path id: path7441)


(Start cutting path id: path7441)
(Change tool to Default tool)

G00 Z5.000000
G00 X75.317500 Y131.458700

G01 Z-0.125000 F100.0(Penetrate)
G01 X75.219300 Y130.854100 Z-0.125000 F400.000000
G01 X74.898900 Y130.254600 Z-0.125000
G01 X74.325300 Y129.794700 Z-0.125000
G01 X73.467500 Y129.608700 Z-0.125000
G01 X71.043900 Y129.608700 Z-0.125000
G01 X71.043900 Y130.885100 Z-0.125000
G01 X73.467500 Y130.885100 Z-0.125000
G01 X73.891200 Y131.050400 Z-0.125000
G01 X74.041100 Y131.469000 Z-0.125000
G01 X73.870600 Y131.882400 Z-0.125000
G01 X73.467500 Y132.032300 Z-0.125000
G01 X71.043900 Y132.032300 Z-0.125000
G01 X70.620100 Y131.861800 Z-0.125000
G01 X70.470300 Y131.448300 Z-0.125000
G01 X70.470300 Y129.572500 Z-0.125000
G01 X70.635600 Y129.153900 Z-0.125000
G01 X71.054200 Y129.004100 Z-0.125000
G01 X73.467500 Y129.004100 Z-0.125000
G01 X73.467500 Y127.722500 Z-0.125000
G01 X71.043900 Y127.722500 Z-0.125000
G01 X70.439300 Y127.820700 Z-0.125000
G01 X69.839800 Y128.135900 Z-0.125000
G01 X69.379900 Y128.709500 Z-0.125000
G01 X69.193900 Y129.572500 Z-0.125000
G01 X69.193900 Y131.458700 Z-0.125000
G01 X69.292100 Y132.058100 Z-0.125000
G01 X69.607300 Y132.657600 Z-0.125000
G01 X70.180900 Y133.122700 Z-0.125000
G01 X71.043900 Y133.308700 Z-0.125000
G01 X73.467500 Y133.308700 Z-0.125000
G01 X74.066900 Y133.210500 Z-0.125000
G01 X74.666400 Y132.890100 Z-0.125000
G01 X75.131500 Y132.316500 Z-0.125000
G01 X75.317500 Y131.458700 Z-0.125000
G01 X75.317500 Y131.458700 Z-0.125000
G00 Z5.000000

(End cutting path id: path7441)


(Start cutting path id: path7441)
(Change tool to Default tool)

G00 Z5.000000
G00 X69.059500 Y133.789300

G01 Z-0.125000 F100.0(Penetrate)
G01 X66.098500 Y133.789300 Z-0.125000 F400.000000
G01 X66.098500 Y127.722500 Z-0.125000
G01 X64.754900 Y127.722500 Z-0.125000
G01 X64.754900 Y133.789300 Z-0.125000
G01 X61.788700 Y133.789300 Z-0.125000
G01 X61.788700 Y135.132900 Z-0.125000
G01 X69.059500 Y135.132900 Z-0.125000
G01 X69.059500 Y133.789300 Z-0.125000
G00 Z5.000000

(End cutting path id: path7441)


(Start cutting path id: path7441)
(Change tool to Default tool)

G00 Z5.000000
G00 X57.654600 Y127.185000

G01 Z-0.125000 F100.0(Penetrate)
G01 X57.566700 Y126.564900 Z-0.125000 F400.000000
G01 X57.334200 Y126.079200 Z-0.125000
G01 X56.998300 Y125.722600 Z-0.125000
G01 X56.595200 Y125.479700 Z-0.125000
G01 X56.171500 Y125.345400 Z-0.125000
G01 X55.768400 Y125.298900 Z-0.125000
G01 X53.344800 Y125.298900 Z-0.125000
G01 X53.344800 Y126.642400 Z-0.125000
G01 X55.768400 Y126.642400 Z-0.125000
G01 X56.176600 Y126.782000 Z-0.125000
G01 X56.311000 Y127.185000 Z-0.125000
G01 X56.311000 Y131.427700 Z-0.125000
G01 X56.176600 Y131.825600 Z-0.125000
G01 X55.768400 Y131.965100 Z-0.125000
G01 X53.344800 Y131.965100 Z-0.125000
G01 X52.952000 Y131.810100 Z-0.125000
G01 X52.807300 Y131.427700 Z-0.125000
G01 X52.807300 Y129.608700 Z-0.125000
G01 X52.946900 Y129.205600 Z-0.125000
G01 X53.355100 Y129.066100 Z-0.125000
G01 X55.768400 Y129.066100 Z-0.125000
G01 X55.768400 Y127.722500 Z-0.125000
G01 X53.344800 Y127.722500 Z-0.125000
G01 X52.941700 Y127.763800 Z-0.125000
G01 X52.517900 Y127.903300 Z-0.125000
G01 X52.120000 Y128.141100 Z-0.125000
G01 X51.784100 Y128.497600 Z-0.125000
G01 X51.551600 Y128.983400 Z-0.125000
G01 X51.463700 Y129.608700 Z-0.125000
G01 X51.463700 Y131.427700 Z-0.125000
G01 X51.505100 Y131.830700 Z-0.125000
G01 X51.644600 Y132.249300 Z-0.125000
G01 X51.882300 Y132.652400 Z-0.125000
G01 X52.238900 Y132.988300 Z-0.125000
G01 X52.724600 Y133.220800 Z-0.125000
G01 X53.344800 Y133.308700 Z-0.125000
G01 X55.768400 Y133.308700 Z-0.125000
G01 X56.171500 Y133.262200 Z-0.125000
G01 X56.595200 Y133.127800 Z-0.125000
G01 X56.998300 Y132.884900 Z-0.125000
G01 X57.334200 Y132.528400 Z-0.125000
G01 X57.566700 Y132.047800 Z-0.125000
G01 X57.654600 Y131.427700 Z-0.125000
G01 X57.654600 Y127.185000 Z-0.125000
G00 Z5.000000

(End cutting path id: path7441)


(Start cutting path id: path7441)
(Change tool to Default tool)

G00 Z5.000000
G00 X50.399200 Y127.722500

G01 Z-0.125000 F100.0(Penetrate)
G01 X49.055600 Y127.722500 Z-0.125000 F400.000000
G01 X49.055600 Y130.823100 Z-0.125000
G01 X48.962600 Y131.293300 Z-0.125000
G01 X48.719700 Y131.655000 Z-0.125000
G01 X48.352800 Y131.882400 Z-0.125000
G01 X47.903200 Y131.965100 Z-0.125000
G01 X45.552000 Y131.965100 Z-0.125000
G01 X45.552000 Y127.722500 Z-0.125000
G01 X44.208400 Y127.722500 Z-0.125000
G01 X44.208400 Y132.642100 Z-0.125000
G01 X44.260100 Y132.900400 Z-0.125000
G01 X44.404800 Y133.112300 Z-0.125000
G01 X44.621800 Y133.257000 Z-0.125000
G01 X44.885400 Y133.308700 Z-0.125000
G01 X47.913600 Y133.308700 Z-0.125000
G01 X48.445800 Y133.251800 Z-0.125000
G01 X49.004000 Y133.065800 Z-0.125000
G01 X49.531100 Y132.745400 Z-0.125000
G01 X49.975500 Y132.275200 Z-0.125000
G01 X50.285500 Y131.639500 Z-0.125000
G01 X50.399200 Y130.823100 Z-0.125000
G01 X50.399200 Y127.722500 Z-0.125000
G00 Z5.000000

(End cutting path id: path7441)


(Start cutting path id: path7441)
(Change tool to Default tool)

G00 Z5.000000
G00 X42.921700 Y127.722500

G01 Z-0.125000 F100.0(Penetrate)
G01 X41.578100 Y127.722500 Z-0.125000 F400.000000
G01 X41.578100 Y133.308700 Z-0.125000
G01 X42.921700 Y133.308700 Z-0.125000
G01 X42.921700 Y127.722500 Z-0.125000
G00 Z5.000000

(End cutting path id: path7441)


(Start cutting path id: path7441)
(Change tool to Default tool)

G00 Z5.000000
G00 X41.092300 Y133.308700

G01 Z-0.125000 F100.0(Penetrate)
G01 X40.399900 Y131.892800 Z-0.125000 F400.000000
G01 X39.619500 Y130.580200 Z-0.125000
G01 X38.792700 Y129.433000 Z-0.125000
G01 X37.950400 Y128.528600 Z-0.125000
G01 X37.139100 Y127.934400 Z-0.125000
G01 X36.394900 Y127.722500 Z-0.125000
G01 X36.126200 Y127.774200 Z-0.125000
G01 X35.909200 Y127.913700 Z-0.125000
G01 X35.764500 Y128.130700 Z-0.125000
G01 X35.712800 Y128.399400 Z-0.125000
G01 X35.712800 Y130.905700 Z-0.125000
G01 X33.046300 Y127.924000 Z-0.125000
G01 X32.818900 Y127.769000 Z-0.125000
G01 X32.570900 Y127.722500 Z-0.125000
G01 X32.307300 Y127.774200 Z-0.125000
G01 X32.095500 Y127.913700 Z-0.125000
G01 X31.945600 Y128.130700 Z-0.125000
G01 X31.893900 Y128.399400 Z-0.125000
G01 X31.893900 Y133.308700 Z-0.125000
G01 X33.237500 Y133.308700 Z-0.125000
G01 X33.237500 Y130.125400 Z-0.125000
G01 X35.914300 Y133.117500 Z-0.125000
G01 X36.255400 Y133.298400 Z-0.125000
G01 X36.648200 Y133.257000 Z-0.125000
G01 X36.947900 Y133.009000 Z-0.125000
G01 X37.061600 Y132.642100 Z-0.125000
G01 X37.061600 Y129.448500 Z-0.125000
G01 X37.847000 Y130.332100 Z-0.125000
G01 X38.498200 Y131.288200 Z-0.125000
G01 X39.066600 Y132.290700 Z-0.125000
G01 X39.588500 Y133.308700 Z-0.125000
G01 X41.092300 Y133.308700 Z-0.125000
G00 Z5.000000

(End cutting path id: path7441)


(Start cutting path id: path7441)
(Change tool to Default tool)

G00 Z5.000000
G00 X42.921700 Y134.455900

G01 Z-0.125000 F100.0(Penetrate)
G01 X41.578100 Y134.455900 Z-0.125000 F400.000000
G01 X41.578100 Y135.670300 Z-0.125000
G01 X42.921700 Y135.670300 Z-0.125000
G01 X42.921700 Y134.455900 Z-0.125000
G00 Z5.000000

(End cutting path id: path7441)


(Start cutting path id: path7441)
(Change tool to Default tool)

G00 Z5.000000
G00 X30.746700 Y129.572500

G01 Z-0.125000 F100.0(Penetrate)
G01 X30.648500 Y128.967900 Z-0.125000 F400.000000
G01 X30.328200 Y128.368400 Z-0.125000
G01 X29.754500 Y127.908500 Z-0.125000
G01 X28.896700 Y127.722500 Z-0.125000
G01 X26.473100 Y127.722500 Z-0.125000
G01 X25.868500 Y127.820700 Z-0.125000
G01 X25.269000 Y128.135900 Z-0.125000
G01 X24.809100 Y128.709500 Z-0.125000
G01 X24.623100 Y129.572500 Z-0.125000
G01 X24.721300 Y130.177100 Z-0.125000
G01 X25.036500 Y130.776600 Z-0.125000
G01 X25.610100 Y131.241600 Z-0.125000
G01 X26.473100 Y131.427700 Z-0.125000
G01 X28.896700 Y131.427700 Z-0.125000
G01 X28.896700 Y130.146100 Z-0.125000
G01 X26.473100 Y130.146100 Z-0.125000
G01 X26.049400 Y129.975600 Z-0.125000
G01 X25.899500 Y129.562200 Z-0.125000
G01 X26.070000 Y129.148700 Z-0.125000
G01 X26.483400 Y129.004100 Z-0.125000
G01 X28.896700 Y129.004100 Z-0.125000
G01 X29.320500 Y129.169400 Z-0.125000
G01 X29.470300 Y129.582800 Z-0.125000
G01 X29.470300 Y131.458700 Z-0.125000
G01 X29.305000 Y131.877300 Z-0.125000
G01 X28.896700 Y132.032300 Z-0.125000
G01 X25.946000 Y132.032300 Z-0.125000
G01 X25.946000 Y133.308700 Z-0.125000
G01 X28.896700 Y133.308700 Z-0.125000
G01 X29.496200 Y133.210500 Z-0.125000
G01 X30.095600 Y132.890100 Z-0.125000
G01 X30.560700 Y132.316500 Z-0.125000
G01 X30.746700 Y131.458700 Z-0.125000
G01 X30.746700 Y129.572500 Z-0.125000
G00 Z5.000000

(End cutting path id: path7441)


(Start cutting path id: path7441)
(Change tool to Default tool)

G00 Z5.000000
G00 X24.530100 Y131.965100

G01 Z-0.125000 F100.0(Penetrate)
G01 X21.507000 Y131.965100 Z-0.125000 F400.000000
G01 X21.093600 Y131.825600 Z-0.125000
G01 X20.954100 Y131.427700 Z-0.125000
G01 X20.954100 Y127.722500 Z-0.125000
G01 X19.610500 Y127.722500 Z-0.125000
G01 X19.610500 Y131.427700 Z-0.125000
G01 X19.698300 Y132.047800 Z-0.125000
G01 X19.930900 Y132.528400 Z-0.125000
G01 X20.271900 Y132.884900 Z-0.125000
G01 X20.669900 Y133.127800 Z-0.125000
G01 X21.093600 Y133.262200 Z-0.125000
G01 X21.496700 Y133.308700 Z-0.125000
G01 X24.530100 Y133.308700 Z-0.125000
G01 X24.530100 Y131.965100 Z-0.125000
G00 Z5.000000

(End cutting path id: path7441)


(Start cutting path id: path7441)
(Change tool to Default tool)

G00 Z5.000000
G00 X18.499500 Y130.823100

G01 Z-0.125000 F100.0(Penetrate)
G01 X18.261700 Y129.577700 Z-0.125000 F400.000000
G01 X17.615800 Y128.595800 Z-0.125000
G01 X16.633900 Y127.955000 Z-0.125000
G01 X15.398900 Y127.722500 Z-0.125000
G01 X11.771200 Y127.722500 Z-0.125000
G01 X11.502500 Y127.774200 Z-0.125000
G01 X11.285400 Y127.913700 Z-0.125000
G01 X11.145900 Y128.130700 Z-0.125000
G01 X11.094200 Y128.399400 Z-0.125000
G01 X11.094200 Y134.455900 Z-0.125000
G01 X11.145900 Y134.719500 Z-0.125000
G01 X11.285400 Y134.936500 Z-0.125000
G01 X11.502500 Y135.081200 Z-0.125000
G01 X11.771200 Y135.132900 Z-0.125000
G01 X15.398900 Y135.132900 Z-0.125000
G01 X16.633900 Y134.900300 Z-0.125000
G01 X17.615800 Y134.254400 Z-0.125000
G01 X18.261700 Y133.272500 Z-0.125000
G01 X18.499500 Y132.032300 Z-0.125000
G01 X18.499500 Y130.823100 Z-0.125000
G00 Z5.000000

(End cutting path id: path7441)


(Start cutting path id: path7441)
(Change tool to Default tool)

G00 Z5.000000
G00 X17.155900 Y132.032300

G01 Z-0.125000 F100.0(Penetrate)
G01 X17.026700 Y132.750600 Z-0.125000 F400.000000
G01 X16.670100 Y133.303500 Z-0.125000
G01 X16.112000 Y133.660100 Z-0.125000
G01 X15.398900 Y133.789300 Z-0.125000
G01 X12.437800 Y133.789300 Z-0.125000
G01 X12.437800 Y129.066100 Z-0.125000
G01 X15.398900 Y129.066100 Z-0.125000
G01 X16.112000 Y129.190100 Z-0.125000
G01 X16.670100 Y129.546700 Z-0.125000
G01 X17.026700 Y130.099600 Z-0.125000
G01 X17.155900 Y130.823100 Z-0.125000
G01 X17.155900 Y132.032300 Z-0.125000
G00 Z5.000000

(End cutting path id: path7441)


(Start cutting path id: path7441)
(Change tool to Default tool)

G00 Z5.000000
G00 X22.944400 Y114.951700

G01 Z-0.125000 F100.0(Penetrate)
G01 X22.717900 Y114.725200 Z-0.125000 F400.000000
G01 X22.491500 Y114.124600 Z-0.125000
G01 X22.548100 Y113.923900 Z-0.125000
G01 X22.717900 Y113.976800 Z-0.125000
G01 X23.412100 Y114.671000 Z-0.125000
G01 X24.066900 Y114.951600 Z-0.125000
G01 X24.254000 Y114.881500 Z-0.125000
G01 X24.160500 Y114.671000 Z-0.125000
G01 X22.772100 Y113.282700 Z-0.125000
G01 X22.491500 Y112.627800 Z-0.125000
G01 X22.561600 Y112.440800 Z-0.125000
G01 X22.772100 Y112.534300 Z-0.125000
G01 X24.908800 Y114.671000 Z-0.125000
G01 X25.563600 Y114.951600 Z-0.125000
G01 X25.750700 Y114.881500 Z-0.125000
G01 X25.657200 Y114.671000 Z-0.125000
G01 X22.772100 Y111.785900 Z-0.125000
G01 X22.596500 Y111.493400 Z-0.125000
G01 X22.603000 Y111.242700 Z-0.125000
G01 X22.749800 Y111.132200 Z-0.125000
G01 X22.995200 Y111.260600 Z-0.125000
G01 X26.405500 Y114.671000 Z-0.125000
G01 X27.060300 Y114.951600 Z-0.125000
G01 X27.247400 Y114.881500 Z-0.125000
G01 X27.153900 Y114.671000 Z-0.125000
G01 X23.743500 Y111.260600 Z-0.125000
G01 X23.650000 Y111.050200 Z-0.125000
G01 X23.837100 Y110.980000 Z-0.125000
G01 X24.491900 Y111.260600 Z-0.125000
G01 X27.902200 Y114.671000 Z-0.125000
G01 X28.557100 Y114.951600 Z-0.125000
G01 X28.744100 Y114.881500 Z-0.125000
G01 X28.650600 Y114.671000 Z-0.125000
G01 X25.240200 Y111.260600 Z-0.125000
G01 X25.146700 Y111.050200 Z-0.125000
G01 X25.333800 Y110.980000 Z-0.125000
G01 X25.988600 Y111.260600 Z-0.125000
G01 X29.399000 Y114.671000 Z-0.125000
G01 X30.053800 Y114.951600 Z-0.125000
G01 X30.240900 Y114.881500 Z-0.125000
G01 X30.147300 Y114.671000 Z-0.125000
G01 X26.736900 Y111.260600 Z-0.125000
G01 X26.643400 Y111.050200 Z-0.125000
G01 X26.830500 Y110.980000 Z-0.125000
G01 X27.485300 Y111.260600 Z-0.125000
G01 X30.895700 Y114.671000 Z-0.125000
G01 X31.550500 Y114.951600 Z-0.125000
G01 X31.737600 Y114.881500 Z-0.125000
G01 X31.644000 Y114.671000 Z-0.125000
G01 X28.233600 Y111.260600 Z-0.125000
G01 X28.140100 Y111.050200 Z-0.125000
G01 X28.327200 Y110.980000 Z-0.125000
G01 X28.982000 Y111.260600 Z-0.125000
G01 X32.392400 Y114.671000 Z-0.125000
G01 X33.047200 Y114.951600 Z-0.125000
G01 X33.234300 Y114.881500 Z-0.125000
G01 X33.140700 Y114.671000 Z-0.125000
G01 X29.730300 Y111.260600 Z-0.125000
G01 X29.636800 Y111.050200 Z-0.125000
G01 X29.823900 Y110.980000 Z-0.125000
G01 X30.478700 Y111.260600 Z-0.125000
G01 X33.889100 Y114.671000 Z-0.125000
G01 X34.543900 Y114.951600 Z-0.125000
G01 X34.731000 Y114.881500 Z-0.125000
G01 X34.637400 Y114.671000 Z-0.125000
G01 X31.227100 Y111.260600 Z-0.125000
G01 X31.133500 Y111.050200 Z-0.125000
G01 X31.320600 Y110.980000 Z-0.125000
G01 X31.975400 Y111.260600 Z-0.125000
G01 X35.385800 Y114.671000 Z-0.125000
G01 X36.040600 Y114.951600 Z-0.125000
G01 X36.227700 Y114.881500 Z-0.125000
G01 X36.134200 Y114.671000 Z-0.125000
G01 X32.124400 Y110.661300 Z-0.125000
G01 X31.843800 Y110.006500 Z-0.125000
G01 X31.913900 Y109.819400 Z-0.125000
G01 X32.124400 Y109.912900 Z-0.125000
G01 X36.882400 Y114.671000 Z-0.125000
G01 X37.537200 Y114.951600 Z-0.125000
G01 X37.724300 Y114.881500 Z-0.125000
G01 X37.630800 Y114.671000 Z-0.125000
G01 X32.124300 Y109.164600 Z-0.125000
G01 X31.843700 Y108.509800 Z-0.125000
G01 X31.913800 Y108.322700 Z-0.125000
G01 X32.124300 Y108.416200 Z-0.125000
G01 X38.379100 Y114.671000 Z-0.125000
G01 X39.033900 Y114.951600 Z-0.125000
G01 X39.221000 Y114.881500 Z-0.125000
G01 X39.127500 Y114.671000 Z-0.125000
G01 X32.124300 Y107.667900 Z-0.125000
G01 X31.843700 Y107.013000 Z-0.125000
G01 X31.913800 Y106.826000 Z-0.125000
G01 X32.124300 Y106.919500 Z-0.125000
G01 X35.534700 Y110.329900 Z-0.125000
G01 X35.745200 Y110.423400 Z-0.125000
G01 X35.815300 Y110.236300 Z-0.125000
G01 X35.534700 Y109.581500 Z-0.125000
G01 X32.124300 Y106.171100 Z-0.125000
G01 X31.843700 Y105.516300 Z-0.125000
G01 X31.913800 Y105.329200 Z-0.125000
G01 X32.124300 Y105.422800 Z-0.125000
G01 X35.534700 Y108.833200 Z-0.125000
G01 X35.745200 Y108.926700 Z-0.125000
G01 X35.815300 Y108.739600 Z-0.125000
G01 X35.534700 Y108.084800 Z-0.125000
G01 X32.124300 Y104.674400 Z-0.125000
G01 X31.843700 Y104.019600 Z-0.125000
G01 X31.913800 Y103.832500 Z-0.125000
G01 X32.124300 Y103.926100 Z-0.125000
G01 X35.534700 Y107.336500 Z-0.125000
G01 X35.745200 Y107.430000 Z-0.125000
G01 X35.815300 Y107.242900 Z-0.125000
G01 X35.534700 Y106.588100 Z-0.125000
G01 X32.124300 Y103.177700 Z-0.125000
G01 X31.843700 Y102.522900 Z-0.125000
G01 X31.913800 Y102.335800 Z-0.125000
G01 X32.124300 Y102.429400 Z-0.125000
G01 X35.534700 Y105.839800 Z-0.125000
G01 X35.745200 Y105.933300 Z-0.125000
G01 X35.815300 Y105.746200 Z-0.125000
G01 X35.534700 Y105.091400 Z-0.125000
G01 X32.124300 Y101.681000 Z-0.125000
G01 X31.843700 Y101.026200 Z-0.125000
G01 X31.913800 Y100.839100 Z-0.125000
G01 X32.124300 Y100.932700 Z-0.125000
G01 X35.534700 Y104.343000 Z-0.125000
G01 X35.745200 Y104.436600 Z-0.125000
G01 X35.815300 Y104.249500 Z-0.125000
G01 X35.534700 Y103.594700 Z-0.125000
G01 X32.124300 Y100.184300 Z-0.125000
G01 X31.843700 Y99.529500 Z-0.125000
G01 X31.913800 Y99.342400 Z-0.125000
G01 X32.124300 Y99.436000 Z-0.125000
G01 X35.534700 Y102.846300 Z-0.125000
G01 X35.745200 Y102.939900 Z-0.125000
G01 X35.815300 Y102.752800 Z-0.125000
G01 X35.534700 Y102.098000 Z-0.125000
G01 X32.124300 Y98.687600 Z-0.125000
G01 X31.843700 Y98.032800 Z-0.125000
G01 X31.913800 Y97.845700 Z-0.125000
G01 X32.124300 Y97.939200 Z-0.125000
G01 X35.534700 Y101.349600 Z-0.125000
G01 X35.745200 Y101.443200 Z-0.125000
G01 X35.815300 Y101.256100 Z-0.125000
G01 X35.534700 Y100.601300 Z-0.125000
G01 X32.124300 Y97.190900 Z-0.125000
G01 X31.843700 Y96.536100 Z-0.125000
G01 X31.913800 Y96.349000 Z-0.125000
G01 X32.124300 Y96.442500 Z-0.125000
G01 X35.534700 Y99.852900 Z-0.125000
G01 X35.745200 Y99.946500 Z-0.125000
G01 X35.815300 Y99.759400 Z-0.125000
G01 X35.534700 Y99.104600 Z-0.125000
G01 X32.124300 Y95.694200 Z-0.125000
G01 X31.843700 Y95.039400 Z-0.125000
G01 X31.913800 Y94.852300 Z-0.125000
G01 X32.124300 Y94.945800 Z-0.125000
G01 X35.534700 Y98.356200 Z-0.125000
G01 X35.745200 Y98.449800 Z-0.125000
G01 X35.815300 Y98.262700 Z-0.125000
G01 X35.534700 Y97.607900 Z-0.125000
G01 X32.124300 Y94.197500 Z-0.125000
G01 X31.843700 Y93.542700 Z-0.125000
G01 X31.913800 Y93.355600 Z-0.125000
G01 X32.124300 Y93.449100 Z-0.125000
G01 X35.534700 Y96.859500 Z-0.125000
G01 X35.745200 Y96.953000 Z-0.125000
G01 X35.815300 Y96.766000 Z-0.125000
G01 X35.534700 Y96.111100 Z-0.125000
G01 X32.124300 Y92.700800 Z-0.125000
G01 X31.942000 Y92.401500 Z-0.125000
G01 X31.933700 Y92.135900 Z-0.125000
G01 X32.065700 Y92.010700 Z-0.125000
G01 X32.304300 Y92.132400 Z-0.125000
G01 X35.534700 Y95.362800 Z-0.125000
G01 X35.745200 Y95.456300 Z-0.125000
G01 X35.815300 Y95.269200 Z-0.125000
G01 X35.534700 Y94.614400 Z-0.125000
G01 X33.052600 Y92.132400 Z-0.125000
G01 X32.959100 Y91.921900 Z-0.125000
G01 X33.146200 Y91.851800 Z-0.125000
G01 X33.801000 Y92.132400 Z-0.125000
G01 X35.534700 Y93.866100 Z-0.125000
G01 X35.745200 Y93.959600 Z-0.125000
G01 X35.815300 Y93.772500 Z-0.125000
G01 X35.534700 Y93.117700 Z-0.125000
G01 X34.549400 Y92.132400 Z-0.125000
G01 X34.455800 Y91.921900 Z-0.125000
G01 X34.642900 Y91.851800 Z-0.125000
G01 X35.297700 Y92.132400 Z-0.125000
G01 X35.815300 Y92.650000 Z-0.125000
G00 Z5.000000

(End cutting path id: path7441)


(Start cutting path id: path7441)
(Change tool to Default tool)

G00 Z5.000000
G00 X34.114700 Y79.604600

G01 Z-0.125000 F100.0(Penetrate)
G01 X34.311600 Y75.572400 Z-0.125000 F400.000000
G01 X34.311600 Y72.604800 Z-0.125000
G01 X34.385600 Y75.075000 Z-0.125000
G01 X35.317000 Y75.868700 Z-0.125000
G01 X37.719400 Y77.466800 Z-0.125000
G01 X34.480900 Y75.202000 Z-0.125000
G01 X35.750900 Y74.270700 Z-0.125000
G01 X38.619000 Y72.705400 Z-0.125000
G00 Z5.000000

(End cutting path id: path7441)


(Start cutting path id: path7441)
(Change tool to Default tool)

G00 Z5.000000
G00 X43.646000 Y76.969400

G01 Z-0.125000 F100.0(Penetrate)
G01 X47.085600 Y72.071400 Z-0.125000 F400.000000
G01 X48.980000 Y77.075200 Z-0.125000
G01 X45.519300 Y67.973600 Z-0.125000
G00 Z5.000000

(End cutting path id: path7441)


(Start cutting path id: path7441)
(Change tool to Default tool)

G00 Z5.000000
G00 X50.683800 Y63.645000

G01 Z-0.125000 F100.0(Penetrate)
G01 X50.345200 Y63.941400 Z-0.125000 F400.000000
G01 X49.350300 Y64.047200 Z-0.125000
G01 X48.281400 Y63.645000 Z-0.125000
G01 X47.381800 Y62.978300 Z-0.125000
G01 X46.408200 Y61.708300 Z-0.125000
G01 X46.111800 Y60.374800 Z-0.125000
G01 X46.746800 Y59.608600 Z-0.125000
G01 X48.048600 Y59.209000 Z-0.125000
G01 X49.445600 Y59.275700 Z-0.125000
G01 X50.440400 Y59.509100 Z-0.125000
G01 X51.509300 Y60.076300 Z-0.125000
G00 Z5.000000

(End cutting path id: path7441)


(Start cutting path id: path7441)
(Change tool to Default tool)

G00 Z5.000000
G00 X57.054900 Y62.174000

G01 Z-0.125000 F100.0(Penetrate)
G01 X56.451700 Y60.840500 Z-0.125000 F400.000000
G01 X55.478000 Y59.941900 Z-0.125000
G01 X54.779500 Y59.543000 Z-0.125000
G01 X54.112800 Y59.309100 Z-0.125000
G01 X53.181400 Y59.409600 Z-0.125000
G01 X52.684000 Y59.741900 Z-0.125000
G01 X52.546400 Y60.777000 Z-0.125000
G01 X53.054400 Y61.814100 Z-0.125000
G01 X53.710600 Y62.809000 Z-0.125000
G01 X54.779500 Y63.539200 Z-0.125000
G01 X55.583900 Y63.909600 Z-0.125000
G01 X56.187100 Y63.909600 Z-0.125000
G01 X56.917400 Y63.772000 Z-0.125000
G01 X57.054900 Y63.274600 Z-0.125000
G01 X57.181900 Y59.275700 Z-0.125000
G00 Z5.000000

(End cutting path id: path7441)


(Start cutting path id: path7441)
(Change tool to Default tool)

G00 Z5.000000
G00 X58.314300 Y64.142500

G01 Z-0.125000 F100.0(Penetrate)
G01 X58.377800 Y59.275700 Z-0.125000 F400.000000
G01 X58.780000 Y62.607900 Z-0.125000
G01 X59.446700 Y63.613300 Z-0.125000
G01 X60.610900 Y64.110700 Z-0.125000
G01 X61.309400 Y64.142500 Z-0.125000
G01 X61.775100 Y63.846100 Z-0.125000
G01 X62.145500 Y62.946500 Z-0.125000
G01 X62.007900 Y59.275700 Z-0.125000
G01 X62.378300 Y62.671400 Z-0.125000
G01 X63.182700 Y63.581500 Z-0.125000
G01 X64.315100 Y64.110700 Z-0.125000
G01 X65.278100 Y64.110700 Z-0.125000
G01 X65.881400 Y63.846100 Z-0.125000
G01 X66.008400 Y63.010000 Z-0.125000
G01 X66.050700 Y61.443700 Z-0.125000
G01 X66.114200 Y59.375700 Z-0.125000
G00 Z5.000000

(End cutting path id: path7441)


(Start cutting path id: path7441)
(Change tool to Default tool)

G00 Z5.000000
G00 X67.109100 Y63.909600

G01 Z-0.125000 F100.0(Penetrate)
G01 X67.172600 Y55.241900 Z-0.125000 F400.000000
G01 X67.140900 Y63.242900 Z-0.125000
G01 X68.347300 Y63.909600 Z-0.125000
G01 X69.712600 Y64.206000 Z-0.125000
G01 X71.247200 Y63.973100 Z-0.125000
G01 X71.744600 Y63.242900 Z-0.125000
G01 X71.649300 Y62.110500 Z-0.125000
G01 X71.173100 Y61.337900 Z-0.125000
G01 X70.210000 Y60.512400 Z-0.125000
G01 X69.215200 Y60.008600 Z-0.125000
G01 X67.214900 Y59.509100 Z-0.125000
G00 Z5.000000

(End cutting path id: path7441)


(Start cutting path id: path7441)
(Change tool to Default tool)

G00 Z5.000000
G00 X62.898400 Y44.767000

G01 Z-0.125000 F100.0(Penetrate)
G01 X62.904300 Y40.119000 Z-0.125000 F400.000000
G01 X63.833100 Y40.093000 Z-0.125000
G01 X64.269100 Y40.109000 Z-0.125000
G01 X64.513500 Y40.319000 Z-0.125000
G01 X64.514500 Y42.175000 Z-0.125000
G01 X64.724600 Y44.015000 Z-0.125000
G01 X70.625000 Y40.336000 Z-0.125000
G01 X70.476400 Y41.597000 Z-0.125000
G01 X70.053300 Y42.813000 Z-0.125000
G01 X69.308200 Y43.814000 Z-0.125000
G01 X68.800100 Y44.181000 Z-0.125000
G01 X68.193700 Y44.430000 Z-0.125000
G01 X66.902300 Y44.665000 Z-0.125000
G01 X65.589600 Y44.720000 Z-0.125000
G01 X62.959000 Y44.772000 Z-0.125000
G01 X62.898400 Y44.767000 Z-0.125000
G00 Z5.000000

(End cutting path id: path7441)


(Start cutting path id: path7441)
(Change tool to Default tool)

G00 Z5.000000
G00 X62.640600 Y42.443000

G01 Z-0.125000 F100.0(Penetrate)
G01 X62.640600 Y39.855000 Z-0.125000 F400.000000
G01 X64.773400 Y39.855000 Z-0.125000
G01 X64.769000 Y41.727000 Z-0.125000
G01 X64.919900 Y43.585000 Z-0.125000
G01 X70.904300 Y39.847000 Z-0.125000
G01 X70.811900 Y41.188000 Z-0.125000
G01 X70.481200 Y42.511000 Z-0.125000
G01 X69.827400 Y43.663000 Z-0.125000
G01 X69.352700 Y44.127000 Z-0.125000
G01 X68.765300 Y44.490000 Z-0.125000
G01 X67.622500 Y44.848000 Z-0.125000
G01 X66.428500 Y44.965000 Z-0.125000
G01 X64.014200 Y45.004000 Z-0.125000
G01 X63.051900 Y45.046000 Z-0.125000
G01 X62.686400 Y44.949000 Z-0.125000
G01 X62.640600 Y44.527000 Z-0.125000
G01 X62.640600 Y42.443000 Z-0.125000
G01 X62.640600 Y42.443000 Z-0.125000
G00 Z5.000000

(End cutting path id: path7441)


(Start cutting path id: path7441)
(Change tool to Default tool)

G00 Z5.000000
G00 X68.108600 Y41.291000

G01 Z-0.125000 F100.0(Penetrate)
G01 X65.105600 Y43.164000 Z-0.125000 F400.000000
G01 X65.036800 Y41.379000 Z-0.125000
G01 X65.036800 Y39.591000 Z-0.125000
G01 X63.707200 Y39.591000 Z-0.125000
G01 X62.377600 Y39.591000 Z-0.125000
G01 X62.377600 Y42.443000 Z-0.125000
G01 X62.377600 Y45.295000 Z-0.125000
G01 X64.922200 Y45.253000 Z-0.125000
G01 X67.628100 Y45.125000 Z-0.125000
G01 X68.989300 Y44.675000 Z-0.125000
G01 X69.647000 Y44.229000 Z-0.125000
G01 X70.199400 Y43.618000 Z-0.125000
G01 X70.634200 Y42.859000 Z-0.125000
G01 X70.939000 Y41.970000 Z-0.125000
G01 X71.143600 Y40.426000 Z-0.125000
G01 X71.125600 Y39.414000 Z-0.125000
G01 X68.108600 Y41.292000 Z-0.125000
G01 X68.108600 Y41.291000 Z-0.125000
G00 Z5.000000

(End cutting path id: path7441)


(Start cutting path id: path7441)
(Change tool to Default tool)

G00 Z5.000000
G00 X62.904300 Y33.943000

G01 Z-0.125000 F100.0(Penetrate)
G01 X62.904300 Y31.494000 Z-0.125000 F400.000000
G01 X65.713300 Y31.521000 Z-0.125000
G01 X67.110800 Y31.605000 Z-0.125000
G01 X68.478100 Y31.887000 Z-0.125000
G01 X69.415200 Y32.528000 Z-0.125000
G01 X70.078300 Y33.435000 Z-0.125000
G01 X70.464300 Y34.505000 Z-0.125000
G01 X70.570300 Y35.632000 Z-0.125000
G01 X70.641000 Y36.062000 Z-0.125000
G01 X70.427300 Y36.062000 Z-0.125000
G01 X69.710900 Y35.614000 Z-0.125000
G01 X64.636700 Y32.466000 Z-0.125000
G01 X64.512900 Y34.432000 Z-0.125000
G01 X64.511700 Y36.404000 Z-0.125000
G01 X63.582700 Y36.429000 Z-0.125000
G01 X63.146900 Y36.413000 Z-0.125000
G01 X62.904300 Y36.204000 Z-0.125000
G01 X62.904300 Y33.943000 Z-0.125000
G01 X62.904300 Y33.943000 Z-0.125000
G00 Z5.000000

(End cutting path id: path7441)


(Start cutting path id: path7441)
(Change tool to Default tool)

G00 Z5.000000
G00 X62.640600 Y33.943000

G01 Z-0.125000 F100.0(Penetrate)
G01 X62.640600 Y31.222000 Z-0.125000 F400.000000
G01 X65.361500 Y31.258000 Z-0.125000
G01 X68.065800 Y31.466000 Z-0.125000
G01 X69.194000 Y31.996000 Z-0.125000
G01 X70.052300 Y32.877000 Z-0.125000
G01 X70.604100 Y33.990000 Z-0.125000
G01 X70.813100 Y35.218000 Z-0.125000
G01 X70.902100 Y36.074000 Z-0.125000
G01 X70.909600 Y36.461000 Z-0.125000
G01 X70.740800 Y36.560000 Z-0.125000
G01 X64.859400 Y32.913000 Z-0.125000
G01 X64.770900 Y34.788000 Z-0.125000
G01 X64.773400 Y36.667000 Z-0.125000
G01 X62.640600 Y36.667000 Z-0.125000
G01 X62.640600 Y33.943000 Z-0.125000
G01 X62.640600 Y33.943000 Z-0.125000
G00 Z5.000000

(End cutting path id: path7441)


(Start cutting path id: path7441)
(Change tool to Default tool)

G00 Z5.000000
G00 X62.377600 Y33.943000

G01 Z-0.125000 F100.0(Penetrate)
G01 X62.377600 Y36.931000 Z-0.125000 F400.000000
G01 X63.707200 Y36.931000 Z-0.125000
G01 X65.036800 Y36.931000 Z-0.125000
G01 X65.036800 Y35.143000 Z-0.125000
G01 X65.076600 Y33.355000 Z-0.125000
G01 X68.103100 Y35.235000 Z-0.125000
G01 X71.149300 Y37.115000 Z-0.125000
G01 X71.142900 Y35.930000 Z-0.125000
G01 X70.950900 Y34.288000 Z-0.125000
G01 X70.553400 Y33.177000 Z-0.125000
G01 X69.941000 Y32.295000 Z-0.125000
G01 X69.105700 Y31.631000 Z-0.125000
G01 X68.039300 Y31.179000 Z-0.125000
G01 X64.968000 Y30.996000 Z-0.125000
G01 X62.377600 Y30.954000 Z-0.125000
G01 X62.377600 Y33.943000 Z-0.125000
G00 Z5.000000

(End cutting path id: path7441)


(Start cutting path id: path7441)
(Change tool to Default tool)

G00 Z5.000000
G00 X78.682400 Y30.917000

G01 Z-0.125000 F100.0(Penetrate)
G01 X77.816600 Y31.267000 Z-0.125000 F400.000000
G01 X77.047100 Y31.782000 Z-0.125000
G01 X76.393400 Y32.446000 Z-0.125000
G01 X75.875300 Y33.242000 Z-0.125000
G01 X75.428300 Y34.248000 Z-0.125000
G01 X75.323400 Y34.778000 Z-0.125000
G01 X77.919900 Y35.352000 Z-0.125000
G01 X78.089100 Y34.878000 Z-0.125000
G01 X78.441900 Y34.084000 Z-0.125000
G01 X78.895100 Y33.523000 Z-0.125000
G01 X79.454300 Y33.190000 Z-0.125000
G01 X80.125300 Y33.080000 Z-0.125000
G01 X80.636000 Y33.124000 Z-0.125000
G01 X80.999200 Y33.289000 Z-0.125000
G01 X81.411200 Y33.666000 Z-0.125000
G01 X81.676400 Y34.129000 Z-0.125000
G01 X81.784200 Y34.650000 Z-0.125000
G01 X81.723900 Y35.202000 Z-0.125000
G01 X81.092900 Y36.109000 Z-0.125000
G01 X79.844600 Y37.016000 Z-0.125000
G01 X77.143100 Y38.685000 Z-0.125000
G01 X76.462200 Y39.335000 Z-0.125000
G01 X76.025100 Y40.020000 Z-0.125000
G01 X75.781200 Y40.647000 Z-0.125000
G01 X75.692100 Y41.367000 Z-0.125000
G01 X75.842000 Y42.875000 Z-0.125000
G01 X76.447600 Y44.076000 Z-0.125000
G01 X77.482900 Y44.939000 Z-0.125000
G01 X78.921800 Y45.430000 Z-0.125000
G01 X80.358500 Y45.504000 Z-0.125000
G01 X81.682700 Y45.220000 Z-0.125000
G01 X82.810000 Y44.608000 Z-0.125000
G01 X83.655900 Y43.699000 Z-0.125000
G01 X84.180500 Y42.684000 Z-0.125000
G01 X84.320100 Y42.061000 Z-0.125000
G01 X81.957000 Y41.349000 Z-0.125000
G01 X81.651000 Y41.937000 Z-0.125000
G01 X81.045300 Y42.781000 Z-0.125000
G01 X80.189000 Y43.201000 Z-0.125000
G01 X79.337800 Y43.117000 Z-0.125000
G01 X78.685100 Y42.606000 Z-0.125000
G01 X78.424500 Y41.744000 Z-0.125000
G01 X78.523800 Y41.235000 Z-0.125000
G01 X78.874500 Y40.757000 Z-0.125000
G01 X80.646200 Y39.593000 Z-0.125000
G01 X82.378500 Y38.549000 Z-0.125000
G01 X83.449900 Y37.630000 Z-0.125000
G01 X84.009400 Y36.879000 Z-0.125000
G01 X84.374300 Y36.031000 Z-0.125000
G01 X84.535900 Y35.114000 Z-0.125000
G01 X84.485700 Y34.158000 Z-0.125000
G01 X84.181100 Y33.090000 Z-0.125000
G01 X83.647000 Y32.224000 Z-0.125000
G01 X82.874900 Y31.548000 Z-0.125000
G01 X81.855800 Y31.054000 Z-0.125000
G01 X80.253400 Y30.822000 Z-0.125000
G01 X78.682400 Y30.917000 Z-0.125000
G01 X78.682400 Y30.917000 Z-0.125000
G00 Z5.000000

(End cutting path id: path7441)


(Start cutting path id: path7441)
(Change tool to Default tool)

G00 Z5.000000
G00 X78.252900 Y18.926000

G01 Z-0.125000 F100.0(Penetrate)
G01 X78.147200 Y19.239000 Z-0.125000 F400.000000
G01 X77.842000 Y19.341000 Z-0.125000
G01 X76.014600 Y19.341000 Z-0.125000
G01 X75.705500 Y19.235000 Z-0.125000
G01 X75.599900 Y18.934000 Z-0.125000
G01 X75.599900 Y17.557000 Z-0.125000
G01 X75.705500 Y17.251000 Z-0.125000
G01 X76.014600 Y17.146000 Z-0.125000
G01 X77.842000 Y17.146000 Z-0.125000
G01 X78.151100 Y17.251000 Z-0.125000
G01 X78.252900 Y17.557000 Z-0.125000
G01 X78.252900 Y18.926000 Z-0.125000
G00 Z5.000000

(End cutting path id: path7441)


(Start cutting path id: path7441)
(Change tool to Default tool)

G00 Z5.000000
G00 X79.270200 Y17.557000

G01 Z-0.125000 F100.0(Penetrate)
G01 X79.203700 Y17.083000 Z-0.125000 F400.000000
G01 X79.027600 Y16.715000 Z-0.125000
G01 X78.773300 Y16.445000 Z-0.125000
G01 X78.468100 Y16.265000 Z-0.125000
G01 X78.147200 Y16.160000 Z-0.125000
G01 X77.842000 Y16.128000 Z-0.125000
G01 X76.006800 Y16.128000 Z-0.125000
G01 X75.545100 Y16.203000 Z-0.125000
G01 X75.079400 Y16.445000 Z-0.125000
G01 X74.723400 Y16.888000 Z-0.125000
G01 X74.582500 Y17.557000 Z-0.125000
G01 X74.582500 Y18.934000 Z-0.125000
G01 X74.723400 Y19.595000 Z-0.125000
G01 X75.079400 Y20.038000 Z-0.125000
G01 X75.545100 Y20.284000 Z-0.125000
G01 X76.006800 Y20.358000 Z-0.125000
G01 X77.842000 Y20.358000 Z-0.125000
G01 X78.507200 Y20.218000 Z-0.125000
G01 X78.949400 Y19.861000 Z-0.125000
G01 X79.192000 Y19.400000 Z-0.125000
G01 X79.270200 Y18.934000 Z-0.125000
G01 X79.270200 Y17.557000 Z-0.125000
G00 Z5.000000

(End cutting path id: path7441)


(Start cutting path id: path7441)
(Change tool to Default tool)

G00 Z5.000000
G00 X83.911000 Y16.128000

G01 Z-0.125000 F100.0(Penetrate)
G01 X82.893600 Y16.128000 Z-0.125000 F400.000000
G01 X82.893600 Y18.934000 Z-0.125000
G01 X82.788000 Y19.235000 Z-0.125000
G01 X82.474900 Y19.341000 Z-0.125000
G01 X81.152400 Y19.341000 Z-0.125000
G01 X81.152400 Y16.128000 Z-0.125000
G01 X80.135000 Y16.128000 Z-0.125000
G01 X80.135000 Y19.854000 Z-0.125000
G01 X80.174100 Y20.049000 Z-0.125000
G01 X80.283700 Y20.210000 Z-0.125000
G01 X80.448000 Y20.319000 Z-0.125000
G01 X80.647600 Y20.358000 Z-0.125000
G01 X82.482800 Y20.358000 Z-0.125000
G01 X82.936700 Y20.284000 Z-0.125000
G01 X83.398400 Y20.045000 Z-0.125000
G01 X83.398400 Y20.358000 Z-0.125000
G01 X84.775800 Y20.358000 Z-0.125000
G01 X85.081000 Y20.323000 Z-0.125000
G01 X85.397900 Y20.221000 Z-0.125000
G01 X85.703100 Y20.037000 Z-0.125000
G01 X85.957500 Y19.768000 Z-0.125000
G01 X86.133600 Y19.404000 Z-0.125000
G01 X86.200100 Y18.934000 Z-0.125000
G01 X86.200100 Y16.128000 Z-0.125000
G01 X85.182700 Y16.128000 Z-0.125000
G01 X85.182700 Y18.934000 Z-0.125000
G01 X85.081000 Y19.235000 Z-0.125000
G01 X84.775800 Y19.341000 Z-0.125000
G01 X83.860100 Y19.341000 Z-0.125000
G01 X83.911000 Y18.934000 Z-0.125000
G01 X83.911000 Y16.128000 Z-0.125000
G00 Z5.000000

(End cutting path id: path7441)


(Start cutting path id: path7441)
(Change tool to Default tool)

G00 Z5.000000
G00 X73.858600 Y16.128000

G01 Z-0.125000 F100.0(Penetrate)
G01 X71.100000 Y16.128000 Z-0.125000 F400.000000
G01 X70.638200 Y16.203000 Z-0.125000
G01 X70.172600 Y16.445000 Z-0.125000
G01 X69.816500 Y16.888000 Z-0.125000
G01 X69.675600 Y17.557000 Z-0.125000
G01 X69.675600 Y18.934000 Z-0.125000
G01 X69.706900 Y19.239000 Z-0.125000
G01 X69.812600 Y19.556000 Z-0.125000
G01 X69.992600 Y19.861000 Z-0.125000
G01 X70.262600 Y20.116000 Z-0.125000
G01 X70.630400 Y20.292000 Z-0.125000
G01 X71.100000 Y20.358000 Z-0.125000
G01 X73.858600 Y20.358000 Z-0.125000
G01 X73.858600 Y19.341000 Z-0.125000
G01 X71.100000 Y19.341000 Z-0.125000
G01 X70.794800 Y19.239000 Z-0.125000
G01 X70.693000 Y18.926000 Z-0.125000
G01 X70.693000 Y17.557000 Z-0.125000
G01 X70.798700 Y17.251000 Z-0.125000
G01 X71.107800 Y17.146000 Z-0.125000
G01 X73.858600 Y17.146000 Z-0.125000
G01 X73.858600 Y16.128000 Z-0.125000
G00 Z5.000000

(End cutting path id: path7441)


(Start cutting path id: path7441)
(Change tool to Default tool)

G00 Z5.000000
G00 X68.967400 Y16.641000

G01 Z-0.125000 F100.0(Penetrate)
G01 X68.924400 Y16.441000 Z-0.125000 F400.000000
G01 X68.814800 Y16.281000 Z-0.125000
G01 X68.654400 Y16.175000 Z-0.125000
G01 X68.462600 Y16.136000 Z-0.125000
G01 X68.263100 Y16.175000 Z-0.125000
G01 X68.102600 Y16.281000 Z-0.125000
G01 X67.997000 Y16.441000 Z-0.125000
G01 X67.957900 Y16.641000 Z-0.125000
G01 X67.997000 Y16.833000 Z-0.125000
G01 X68.102600 Y16.993000 Z-0.125000
G01 X68.263100 Y17.103000 Z-0.125000
G01 X68.462600 Y17.146000 Z-0.125000
G01 X68.654400 Y17.103000 Z-0.125000
G01 X68.814800 Y16.993000 Z-0.125000
G01 X68.924400 Y16.833000 Z-0.125000
G01 X68.967400 Y16.641000 Z-0.125000
G01 X68.967400 Y16.641000 Z-0.125000
G00 Z5.000000

(End cutting path id: path7441)


(Start cutting path id: path7441)
(Change tool to Default tool)

G00 Z5.000000
G00 X67.147900 Y15.721000

G01 Z-0.125000 F100.0(Penetrate)
G01 X67.081400 Y15.252000 Z-0.125000 F400.000000
G01 X66.905300 Y14.884000 Z-0.125000
G01 X66.650900 Y14.614000 Z-0.125000
G01 X66.345700 Y14.430000 Z-0.125000
G01 X66.028800 Y14.328000 Z-0.125000
G01 X65.723600 Y14.293000 Z-0.125000
G01 X63.888400 Y14.293000 Z-0.125000
G01 X63.888400 Y15.311000 Z-0.125000
G01 X65.723600 Y15.311000 Z-0.125000
G01 X66.028800 Y15.416000 Z-0.125000
G01 X66.130500 Y15.721000 Z-0.125000
G01 X66.130500 Y20.358000 Z-0.125000
G01 X67.147900 Y20.358000 Z-0.125000
G01 X67.147900 Y15.721000 Z-0.125000
G00 Z5.000000

(End cutting path id: path7441)


(Start cutting path id: path7441)
(Change tool to Default tool)

G00 Z5.000000
G00 X65.723600 Y16.128000

G01 Z-0.125000 F100.0(Penetrate)
G01 X63.888400 Y16.128000 Z-0.125000 F400.000000
G01 X63.418800 Y16.203000 Z-0.125000
G01 X62.957100 Y16.445000 Z-0.125000
G01 X62.601000 Y16.888000 Z-0.125000
G01 X62.460200 Y17.557000 Z-0.125000
G01 X62.460200 Y20.358000 Z-0.125000
G01 X63.477500 Y20.358000 Z-0.125000
G01 X63.477500 Y17.557000 Z-0.125000
G01 X63.583200 Y17.251000 Z-0.125000
G01 X63.896200 Y17.146000 Z-0.125000
G01 X65.723600 Y17.146000 Z-0.125000
G01 X65.723600 Y16.128000 Z-0.125000
G00 Z5.000000

(End cutting path id: path7441)


(Start cutting path id: path7441)
(Change tool to Default tool)

G00 Z5.000000
G00 X61.830200 Y16.128000

G01 Z-0.125000 F100.0(Penetrate)
G01 X61.376300 Y16.128000 Z-0.125000 F400.000000
G01 X60.906700 Y16.203000 Z-0.125000
G01 X60.445000 Y16.445000 Z-0.125000
G01 X60.088900 Y16.888000 Z-0.125000
G01 X59.948000 Y17.557000 Z-0.125000
G01 X59.948000 Y22.147000 Z-0.125000
G01 X60.965400 Y22.147000 Z-0.125000
G01 X60.965400 Y17.557000 Z-0.125000
G01 X61.082800 Y17.255000 Z-0.125000
G01 X61.376300 Y17.146000 Z-0.125000
G01 X61.830200 Y17.146000 Z-0.125000
G01 X61.830200 Y16.128000 Z-0.125000
G00 Z5.000000

(End cutting path id: path7441)


(Start cutting path id: path7441)
(Change tool to Default tool)

G00 Z5.000000
G00 X59.102800 Y17.557000

G01 Z-0.125000 F100.0(Penetrate)
G01 X59.036300 Y17.083000 Z-0.125000 F400.000000
G01 X58.860200 Y16.715000 Z-0.125000
G01 X58.605900 Y16.445000 Z-0.125000
G01 X58.300700 Y16.265000 Z-0.125000
G01 X57.983700 Y16.160000 Z-0.125000
G01 X57.678500 Y16.128000 Z-0.125000
G01 X55.843300 Y16.128000 Z-0.125000
G01 X55.843300 Y17.146000 Z-0.125000
G01 X57.678500 Y17.146000 Z-0.125000
G01 X57.983700 Y17.251000 Z-0.125000
G01 X58.085500 Y17.557000 Z-0.125000
G01 X58.085500 Y18.926000 Z-0.125000
G01 X57.979800 Y19.239000 Z-0.125000
G01 X57.678500 Y19.341000 Z-0.125000
G01 X55.851200 Y19.341000 Z-0.125000
G01 X55.538100 Y19.235000 Z-0.125000
G01 X55.432500 Y18.934000 Z-0.125000
G01 X55.432500 Y14.806000 Z-0.125000
G01 X54.415100 Y14.806000 Z-0.125000
G01 X54.415100 Y18.934000 Z-0.125000
G01 X54.481600 Y19.404000 Z-0.125000
G01 X54.657700 Y19.768000 Z-0.125000
G01 X54.916000 Y20.037000 Z-0.125000
G01 X55.217300 Y20.221000 Z-0.125000
G01 X55.538100 Y20.323000 Z-0.125000
G01 X55.843300 Y20.358000 Z-0.125000
G01 X57.678500 Y20.358000 Z-0.125000
G01 X58.148100 Y20.292000 Z-0.125000
G01 X58.512000 Y20.116000 Z-0.125000
G01 X58.782000 Y19.861000 Z-0.125000
G01 X58.965900 Y19.556000 Z-0.125000
G01 X59.067600 Y19.239000 Z-0.125000
G01 X59.102800 Y18.934000 Z-0.125000
