%
(Header)
(Generated by gcodetools from Inkscape.)
(Using default header. To add your own header create file "header" in the output dir.)
M3
(Header end.)
G21 (All units in mm)

(Start cutting path id: path2)
(Change tool to Default tool)

G00 Z5.000000
G00 X11.703800 Y123.079900

G01 Z-0.125000 F100.0(Penetrate)
G01 X13.318300 Y124.694400 Z-0.125000 F400.000000
G01 X14.134800 Y125.136800 Z-0.125000
G01 X14.433100 Y125.177800 Z-0.125000
G01 X14.390200 Y125.017900 Z-0.125000
G01 X11.619200 Y122.247000 Z-0.125000
G01 X11.413500 Y121.924300 Z-0.125000
G01 X11.353800 Y121.607300 Z-0.125000
G01 X11.434400 Y121.430700 Z-0.125000
G01 X11.649600 Y121.529000 Z-0.125000
G01 X11.992300 Y121.871700 Z-0.125000
G01 X12.194600 Y121.957000 Z-0.125000
G01 X12.246500 Y121.751700 Z-0.125000
G01 X11.939400 Y121.070500 Z-0.125000
G01 X11.739200 Y120.870300 Z-0.125000
G01 X11.552000 Y120.566100 Z-0.125000
G01 X11.533000 Y120.289800 Z-0.125000
G01 X11.654200 Y120.153800 Z-0.125000
G01 X11.887900 Y120.270600 Z-0.125000
G01 X12.054200 Y120.436900 Z-0.125000
G01 X12.291600 Y120.557400 Z-0.125000
G01 X12.421000 Y120.429500 Z-0.125000
G01 X12.410100 Y120.161400 Z-0.125000
G01 X12.226600 Y119.860900 Z-0.125000
G01 X12.080800 Y119.715100 Z-0.125000
G01 X11.903600 Y119.421000 Z-0.125000
G01 X11.906600 Y119.166800 Z-0.125000
G01 X12.050000 Y119.052900 Z-0.125000
G01 X12.293800 Y119.179700 Z-0.125000
G01 X12.431600 Y119.317500 Z-0.125000
G01 X12.677400 Y119.446500 Z-0.125000
G01 X12.825500 Y119.337300 Z-0.125000
G01 X12.833200 Y119.087700 Z-0.125000
G01 X12.658100 Y118.795700 Z-0.125000
G01 X12.526700 Y118.664400 Z-0.125000
G01 X12.354800 Y118.375400 Z-0.125000
G01 X12.369300 Y118.132700 Z-0.125000
G01 X12.524100 Y118.030300 Z-0.125000
G01 X12.773100 Y118.162300 Z-0.125000
G01 X12.897900 Y118.287100 Z-0.125000
G01 X13.147200 Y118.419500 Z-0.125000
G01 X13.302900 Y118.317900 Z-0.125000
G01 X13.318200 Y118.076000 Z-0.125000
G01 X13.146600 Y117.787500 Z-0.125000
G01 X13.031100 Y117.672000 Z-0.125000
G01 X12.862600 Y117.386500 Z-0.125000
G01 X12.884600 Y117.151400 Z-0.125000
G01 X13.047000 Y117.056500 Z-0.125000
G01 X13.299400 Y117.192000 Z-0.125000
G01 X13.402600 Y117.295200 Z-0.125000
G01 X13.654700 Y117.430300 Z-0.125000
G01 X13.816300 Y117.334600 Z-0.125000
G01 X13.837500 Y117.098700 Z-0.125000
G01 X13.668600 Y116.812800 Z-0.125000
G01 X13.575400 Y116.719600 Z-0.125000
G01 X13.408700 Y116.436000 Z-0.125000
G01 X13.434800 Y116.204800 Z-0.125000
G01 X13.601200 Y116.113900 Z-0.125000
G01 X13.855400 Y116.251200 Z-0.125000
G01 X13.939000 Y116.334800 Z-0.125000
G01 X14.192900 Y116.471800 Z-0.125000
G01 X14.358600 Y116.380200 Z-0.125000
G01 X14.383900 Y116.148300 Z-0.125000
G01 X14.216900 Y115.864300 Z-0.125000
G01 X14.142200 Y115.789700 Z-0.125000
G01 X13.977000 Y115.507600 Z-0.125000
G01 X14.006400 Y115.279700 Z-0.125000
G01 X14.176100 Y115.192200 Z-0.125000
G01 X14.431900 Y115.331000 Z-0.125000
G01 X14.500600 Y115.399700 Z-0.125000
G01 X14.755900 Y115.538100 Z-0.125000
G01 X14.924800 Y115.449800 Z-0.125000
G01 X14.953400 Y115.221100 Z-0.125000
G01 X14.787800 Y114.938500 Z-0.125000
G01 X14.727300 Y114.878000 Z-0.125000
G01 X14.563000 Y114.596800 Z-0.125000
G01 X14.594500 Y114.371100 Z-0.125000
G01 X14.766300 Y114.285600 Z-0.125000
G01 X15.023000 Y114.425400 Z-0.125000
G01 X15.082400 Y114.484800 Z-0.125000
G01 X15.339200 Y114.624700 Z-0.125000
G01 X15.511300 Y114.539600 Z-0.125000
G01 X15.543100 Y114.314100 Z-0.125000
G01 X15.379000 Y114.033000 Z-0.125000
G01 X15.322000 Y113.976000 Z-0.125000
G01 X15.158200 Y113.695300 Z-0.125000
G01 X15.190800 Y113.470700 Z-0.125000
G01 X15.363800 Y113.386400 Z-0.125000
G01 X15.620900 Y113.526700 Z-0.125000
G01 X15.682100 Y113.587800 Z-0.125000
G01 X15.940400 Y113.729100 Z-0.125000
G01 X16.115700 Y113.647200 Z-0.125000
G01 X16.150700 Y113.424900 Z-0.125000
G01 X15.988000 Y113.145300 Z-0.125000
G01 X15.919900 Y113.077300 Z-0.125000
G01 X15.756200 Y112.796600 Z-0.125000
G01 X15.788800 Y112.572000 Z-0.125000
G01 X15.961700 Y112.487700 Z-0.125000
G01 X16.218900 Y112.627900 Z-0.125000
G01 X16.298500 Y112.707500 Z-0.125000
G01 X16.558200 Y112.850200 Z-0.125000
G01 X16.736600 Y112.771400 Z-0.125000
G01 X16.774700 Y112.552300 Z-0.125000
G01 X16.613500 Y112.274100 Z-0.125000
G01 X16.517900 Y112.178600 Z-0.125000
G01 X16.354200 Y111.897900 Z-0.125000
G01 X16.386800 Y111.673300 Z-0.125000
G01 X16.559700 Y111.589000 Z-0.125000
G01 X16.816900 Y111.729200 Z-0.125000
G01 X16.931200 Y111.843500 Z-0.125000
G01 X17.192400 Y111.987800 Z-0.125000
G01 X17.374200 Y111.912300 Z-0.125000
G01 X17.415600 Y111.696500 Z-0.125000
G01 X17.255800 Y111.419800 Z-0.125000
G01 X17.115900 Y111.279900 Z-0.125000
G01 X16.952200 Y110.999200 Z-0.125000
G01 X16.984800 Y110.774500 Z-0.125000
G01 X17.157700 Y110.690200 Z-0.125000
G01 X17.414900 Y110.830500 Z-0.125000
G01 X17.583100 Y110.998700 Z-0.125000
G01 X17.845700 Y111.144400 Z-0.125000
G01 X18.030500 Y111.071900 Z-0.125000
G01 X18.075000 Y110.859200 Z-0.125000
G01 X17.916600 Y110.583900 Z-0.125000
G01 X17.713900 Y110.381100 Z-0.125000
G01 X17.550100 Y110.100400 Z-0.125000
G01 X17.582800 Y109.875800 Z-0.125000
G01 X17.755700 Y109.791500 Z-0.125000
G01 X18.012900 Y109.931800 Z-0.125000
G01 X18.256200 Y110.175100 Z-0.125000
G01 X18.520600 Y110.322500 Z-0.125000
G01 X18.709200 Y110.253900 Z-0.125000
G01 X18.757600 Y110.045000 Z-0.125000
G01 X18.600900 Y109.771500 Z-0.125000
G01 X18.311900 Y109.482400 Z-0.125000
G01 X18.023500 Y108.819900 Z-0.125000
G01 X18.088400 Y108.627500 Z-0.125000
G01 X18.296500 Y108.718600 Z-0.125000
G01 X18.954800 Y109.377000 Z-0.125000
G01 X19.222400 Y109.527600 Z-0.125000
G01 X19.418100 Y109.466100 Z-0.125000
G01 X19.473600 Y109.264300 Z-0.125000
G01 X19.320200 Y108.994000 Z-0.125000
G01 X18.108200 Y107.782000 Z-0.125000
G01 X17.733400 Y107.033100 Z-0.125000
G01 X17.738900 Y106.781300 Z-0.125000
G01 X17.920000 Y106.845400 Z-0.125000
G01 X19.697200 Y108.622700 Z-0.125000
G01 X19.970700 Y108.779300 Z-0.125000
G01 X20.179600 Y108.730900 Z-0.125000
G01 X20.248100 Y108.542200 Z-0.125000
G01 X20.100700 Y108.277800 Z-0.125000
G01 X17.731700 Y105.908800 Z-0.125000
G01 X17.356900 Y105.159900 Z-0.125000
G01 X17.362400 Y104.908100 Z-0.125000
G01 X17.543500 Y104.972200 Z-0.125000
G01 X18.257200 Y105.685900 Z-0.125000
G01 X18.428400 Y105.740200 Z-0.125000
G01 X18.412200 Y105.466800 Z-0.125000
G01 X18.006000 Y104.686400 Z-0.125000
G01 X17.355200 Y104.035600 Z-0.125000
G01 X16.981100 Y103.287400 Z-0.125000
G01 X16.987100 Y103.036000 Z-0.125000
G01 X17.168300 Y103.100400 Z-0.125000
G01 X17.802000 Y103.734000 Z-0.125000
G01 X17.982500 Y103.797600 Z-0.125000
G01 X17.986700 Y103.544600 Z-0.125000
G01 X17.610200 Y102.793900 Z-0.125000
G01 X16.988100 Y102.171800 Z-0.125000
G01 X16.622900 Y101.432400 Z-0.125000
G01 X16.634900 Y101.187200 Z-0.125000
G01 X16.819000 Y101.254300 Z-0.125000
G01 X17.428100 Y101.863400 Z-0.125000
G01 X17.612100 Y101.930500 Z-0.125000
G01 X17.623900 Y101.685000 Z-0.125000
G01 X17.258400 Y100.945400 Z-0.125000
G01 X16.656900 Y100.343800 Z-0.125000
G01 X16.300000 Y99.612800 Z-0.125000
G01 X16.317700 Y99.373200 Z-0.125000
G01 X16.504300 Y99.443000 Z-0.125000
G01 X17.100200 Y100.038800 Z-0.125000
G01 X17.289500 Y100.111200 Z-0.125000
G01 X17.313100 Y99.877500 Z-0.125000
G01 X16.964700 Y99.155000 Z-0.125000
G01 X16.360200 Y98.550400 Z-0.125000
G01 X16.009700 Y97.825800 Z-0.125000
G01 X16.031800 Y97.590600 Z-0.125000
G01 X16.220500 Y97.662400 Z-0.125000
G01 X16.805400 Y98.247300 Z-0.125000
G01 X16.994400 Y98.319400 Z-0.125000
G01 X17.017500 Y98.085200 Z-0.125000
G01 X16.668400 Y97.361900 Z-0.125000
G01 X16.090600 Y96.784100 Z-0.125000
G01 X15.747100 Y96.066500 Z-0.125000
G01 X15.774100 Y95.836200 Z-0.125000
G01 X15.965000 Y95.910200 Z-0.125000
G01 X16.538200 Y96.483400 Z-0.125000
G01 X16.729400 Y96.557600 Z-0.125000
G01 X16.757100 Y96.328100 Z-0.125000
G01 X16.414700 Y95.611500 Z-0.125000
G01 X15.845200 Y95.042000 Z-0.125000
G01 X15.508000 Y94.330700 Z-0.125000
G01 X15.539300 Y94.104700 Z-0.125000
G01 X15.732100 Y94.180600 Z-0.125000
G01 X16.295000 Y94.743500 Z-0.125000
G01 X16.488000 Y94.819600 Z-0.125000
G01 X16.519800 Y94.594100 Z-0.125000
G01 X16.183300 Y93.883400 Z-0.125000
G01 X15.621400 Y93.321500 Z-0.125000
G01 X15.290200 Y92.616100 Z-0.125000
G01 X15.325500 Y92.394200 Z-0.125000
G01 X15.520200 Y92.472000 Z-0.125000
G01 X16.073500 Y93.025300 Z-0.125000
G01 X16.268200 Y93.103100 Z-0.125000
G01 X16.303700 Y92.881300 Z-0.125000
G01 X15.972700 Y92.176100 Z-0.125000
G01 X15.420400 Y91.623900 Z-0.125000
G01 X15.093600 Y90.922800 Z-0.125000
G01 X15.131900 Y90.704000 Z-0.125000
G01 X15.328000 Y90.783100 Z-0.125000
G01 X15.872400 Y91.327400 Z-0.125000
G01 X16.068700 Y91.406800 Z-0.125000
G01 X16.107800 Y91.188700 Z-0.125000
G01 X15.781900 Y90.488600 Z-0.125000
G01 X15.238600 Y89.945300 Z-0.125000
G01 X14.916000 Y89.248500 Z-0.125000
G01 X14.957300 Y89.032600 Z-0.125000
G01 X15.154700 Y89.113000 Z-0.125000
G01 X15.729200 Y89.687500 Z-0.125000
G01 X15.921100 Y89.762600 Z-0.125000
G01 X15.950600 Y89.534800 Z-0.125000
G01 X15.610800 Y88.820800 Z-0.125000
G01 X15.075200 Y88.285200 Z-0.125000
G01 X14.756800 Y87.592700 Z-0.125000
G01 X14.801100 Y87.379600 Z-0.125000
G01 X14.999700 Y87.461400 Z-0.125000
G01 X15.531900 Y87.993500 Z-0.125000
G01 X15.731100 Y88.075800 Z-0.125000
G01 X15.776500 Y87.864000 Z-0.125000
G01 X15.459800 Y87.173100 Z-0.125000
G01 X14.930000 Y86.643300 Z-0.125000
G01 X14.595400 Y85.934500 Z-0.125000
G01 X14.628400 Y85.710300 Z-0.125000
G01 X14.822000 Y85.786900 Z-0.125000
G01 X15.392100 Y86.357100 Z-0.125000
G01 X15.592900 Y86.441000 Z-0.125000
G01 X15.641800 Y86.232600 Z-0.125000
G01 X15.330200 Y85.546800 Z-0.125000
G01 X14.803100 Y85.019700 Z-0.125000
G01 X14.493100 Y84.335500 Z-0.125000
G01 X14.543100 Y84.128300 Z-0.125000
G01 X14.744400 Y84.212700 Z-0.125000
G01 X15.275000 Y84.743200 Z-0.125000
G01 X15.477500 Y84.828800 Z-0.125000
G01 X15.530100 Y84.624200 Z-0.125000
G01 X15.224000 Y83.943900 Z-0.125000
G01 X14.694600 Y83.414500 Z-0.125000
G01 X14.389700 Y82.735400 Z-0.125000
G01 X14.443200 Y82.531700 Z-0.125000
G01 X14.646100 Y82.617600 Z-0.125000
G01 X15.183200 Y83.154700 Z-0.125000
G01 X15.390200 Y83.244800 Z-0.125000
G01 X15.452800 Y83.050200 Z-0.125000
G01 X15.161200 Y82.384300 Z-0.125000
G01 X14.605300 Y81.828500 Z-0.125000
G01 X14.305700 Y81.154700 Z-0.125000
G01 X14.362800 Y80.954500 Z-0.125000
G01 X14.567300 Y81.042200 Z-0.125000
G01 X15.121000 Y81.595800 Z-0.125000
G01 X15.328800 Y81.686700 Z-0.125000
G01 X15.393200 Y81.493800 Z-0.125000
G01 X15.104100 Y80.830600 Z-0.125000
G01 X14.535900 Y80.262400 Z-0.125000
G01 X14.240700 Y79.593000 Z-0.125000
G01 X14.300900 Y79.395900 Z-0.125000
G01 X14.506800 Y79.485000 Z-0.125000
G01 X15.095000 Y80.073100 Z-0.125000
G01 X15.306000 Y80.167200 Z-0.125000
G01 X15.377300 Y79.981200 Z-0.125000
G01 X15.098300 Y79.328100 Z-0.125000
G01 X14.480200 Y78.710000 Z-0.125000
G01 X14.186300 Y78.041900 Z-0.125000
G01 X14.247300 Y77.845600 Z-0.125000
G01 X14.453600 Y77.935000 Z-0.125000
G01 X15.101800 Y78.583200 Z-0.125000
G01 X15.314200 Y78.678700 Z-0.125000
G01 X15.388500 Y78.495800 Z-0.125000
G01 X15.114000 Y77.847100 Z-0.125000
G01 X14.427000 Y77.160100 Z-0.125000
G01 X14.133000 Y76.492000 Z-0.125000
G01 X14.194000 Y76.295700 Z-0.125000
G01 X14.400400 Y76.385100 Z-0.125000
G01 X15.129000 Y77.113800 Z-0.125000
G01 X15.344600 Y77.212400 Z-0.125000
G01 X15.425800 Y77.036400 Z-0.125000
G01 X15.366700 Y76.720100 Z-0.125000
G01 X15.161300 Y76.397700 Z-0.125000
G01 X14.093100 Y75.329500 Z-0.125000
G00 Z5.000000

(End cutting path id: path2)


(Start cutting path id: path2)
(Change tool to Default tool)

G00 Z5.000000
G00 X12.511200 Y72.999100

G01 Z-0.125000 F100.0(Penetrate)
G01 X15.215900 Y75.703900 Z-0.125000 F400.000000
G01 X15.442600 Y75.813600 Z-0.125000
G01 X15.548300 Y75.662100 Z-0.125000
G01 X15.513700 Y75.370300 Z-0.125000
G01 X15.319400 Y75.059000 Z-0.125000
G01 X13.929100 Y73.668700 Z-0.125000
G01 X13.882600 Y73.505300 Z-0.125000
G01 X14.173400 Y73.538800 Z-0.125000
G01 X14.978900 Y73.970200 Z-0.125000
G01 X15.547200 Y74.538500 Z-0.125000
G01 X15.869100 Y74.743400 Z-0.125000
G01 X16.184300 Y74.801400 Z-0.125000
G01 X16.359200 Y74.719000 Z-0.125000
G01 X16.260100 Y74.503000 Z-0.125000
G01 X15.955100 Y74.198100 Z-0.125000
G01 X15.882300 Y74.008300 Z-0.125000
G01 X16.114900 Y73.983600 Z-0.125000
G01 X16.835900 Y74.330500 Z-0.125000
G01 X17.000900 Y74.495500 Z-0.125000
G01 X17.316600 Y74.694200 Z-0.125000
G01 X17.618200 Y74.738500 Z-0.125000
G01 X17.779400 Y74.642600 Z-0.125000
G01 X17.674100 Y74.420300 Z-0.125000
G01 X17.609200 Y74.355400 Z-0.125000
G01 X17.519100 Y74.148400 Z-0.125000
G01 X17.692100 Y74.064100 Z-0.125000
G01 X17.997600 Y74.112400 Z-0.125000
G01 X18.305200 Y74.303100 Z-0.125000
G01 X18.319800 Y74.317600 Z-0.125000
G01 X18.597800 Y74.478700 Z-0.125000
G01 X18.858600 Y74.482300 Z-0.125000
G01 X18.994200 Y74.360700 Z-0.125000
G01 X18.896400 Y74.145900 Z-0.125000
G01 X18.896400 Y74.145900 Z-0.125000
G01 X18.789900 Y73.922400 Z-0.125000
G01 X18.906200 Y73.781500 Z-0.125000
G01 X19.147700 Y73.765800 Z-0.125000
G01 X19.416900 Y73.918100 Z-0.125000
G01 X19.419200 Y73.920400 Z-0.125000
G01 X19.682200 Y74.066500 Z-0.125000
G01 X19.906900 Y74.033900 Z-0.125000
G01 X20.005300 Y73.875000 Z-0.125000
G01 X19.889100 Y73.641900 Z-0.125000
G01 X19.875100 Y73.627900 Z-0.125000
G01 X19.732900 Y73.368800 Z-0.125000
G01 X19.793600 Y73.172200 Z-0.125000
G01 X19.987700 Y73.109100 Z-0.125000
G01 X20.245700 Y73.250200 Z-0.125000
G01 X20.273100 Y73.277500 Z-0.125000
G01 X20.538000 Y73.425500 Z-0.125000
G01 X20.727800 Y73.358100 Z-0.125000
G01 X20.777300 Y73.150400 Z-0.125000
G01 X20.621300 Y72.877400 Z-0.125000
G01 X20.569300 Y72.825400 Z-0.125000
G01 X20.399200 Y72.538400 Z-0.125000
G01 X20.417900 Y72.299800 Z-0.125000
G01 X20.576800 Y72.201500 Z-0.125000
G01 X20.827700 Y72.335400 Z-0.125000
G01 X20.897400 Y72.405100 Z-0.125000
G01 X21.137800 Y72.528600 Z-0.125000
G01 X21.273700 Y72.407200 Z-0.125000
G01 X21.269200 Y72.145500 Z-0.125000
G01 X21.088600 Y71.848000 Z-0.125000
G01 X20.999000 Y71.758400 Z-0.125000
G01 X20.681700 Y71.066900 Z-0.125000
G01 X20.726600 Y70.854500 Z-0.125000
G01 X20.925600 Y70.936600 Z-0.125000
G01 X21.200100 Y71.211200 Z-0.125000
G01 X21.396700 Y71.290800 Z-0.125000
G01 X21.436300 Y71.073100 Z-0.125000
G01 X21.111100 Y70.373800 Z-0.125000
G01 X14.763600 Y64.026200 Z-0.125000
G01 X14.593700 Y63.739400 Z-0.125000
G01 X14.612900 Y63.501400 Z-0.125000
G01 X14.772400 Y63.403600 Z-0.125000
G01 X15.023500 Y63.537800 Z-0.125000
G01 X20.984100 Y69.498500 Z-0.125000
G00 Z5.000000

(End cutting path id: path2)


(Start cutting path id: path2)
(Change tool to Default tool)

G00 Z5.000000
G00 X16.113100 Y66.545900

G01 Z-0.125000 F100.0(Penetrate)
G01 X18.742600 Y68.329900 Z-0.125000 F400.000000
G01 X19.616800 Y69.117200 Z-0.125000
G01 X20.212000 Y69.858000 Z-0.125000
G01 X20.539500 Y70.569700 Z-0.125000
G01 X20.610100 Y71.269800 Z-0.125000
G01 X20.435200 Y71.975800 Z-0.125000
G01 X20.025700 Y72.705100 Z-0.125000
G01 X19.531900 Y73.252700 Z-0.125000
G01 X18.919500 Y73.643900 Z-0.125000
G01 X18.176400 Y73.878600 Z-0.125000
G01 X17.291000 Y73.956900 Z-0.125000
G01 X15.045500 Y73.644100 Z-0.125000
G01 X12.088100 Y72.705500 Z-0.125000
G01 X9.471540 Y71.558100 Z-0.125000
G01 X7.675930 Y70.360900 Z-0.125000
G01 X7.067450 Y69.727200 Z-0.125000
G01 X6.642000 Y69.061500 Z-0.125000
G01 X6.392150 Y68.357300 Z-0.125000
G01 X6.310520 Y67.607900 Z-0.125000
G01 X6.500520 Y66.268600 Z-0.125000
G01 X7.049490 Y65.267100 Z-0.125000
G01 X7.925850 Y64.607000 Z-0.125000
G01 X9.098010 Y64.291600 Z-0.125000
G01 X10.534400 Y64.324400 Z-0.125000
G01 X12.203400 Y64.708800 Z-0.125000
G01 X14.073500 Y65.448200 Z-0.125000
G01 X16.113100 Y66.545900 Z-0.125000
G01 X16.113100 Y66.545900 Z-0.125000
G00 Z5.000000

(End cutting path id: path2)


(Start cutting path id: path2)
(Change tool to Default tool)

G00 Z5.000000
G00 X16.142300 Y63.908200

G01 Z-0.125000 F100.0(Penetrate)
G01 X15.211400 Y62.977300 Z-0.125000 F400.000000
G01 X15.024700 Y62.673700 Z-0.125000
G01 X15.006700 Y62.398500 Z-0.125000
G01 X15.129100 Y62.263600 Z-0.125000
G01 X15.363300 Y62.380900 Z-0.125000
G01 X15.750600 Y62.768200 Z-0.125000
G01 X15.965000 Y62.865600 Z-0.125000
G01 X16.043800 Y62.687200 Z-0.125000
G01 X15.982300 Y62.368500 Z-0.125000
G01 X15.775700 Y62.045000 Z-0.125000
G01 X15.498300 Y61.767600 Z-0.125000
G01 X15.307300 Y61.459600 Z-0.125000
G01 X15.279800 Y61.174800 Z-0.125000
G01 X15.392600 Y61.030400 Z-0.125000
G01 X15.622500 Y61.143400 Z-0.125000
G01 X15.843000 Y61.363900 Z-0.125000
G01 X16.066700 Y61.470600 Z-0.125000
G01 X16.165900 Y61.312600 Z-0.125000
G01 X16.124700 Y61.014200 Z-0.125000
G01 X15.927500 Y60.700000 Z-0.125000
G01 X15.739600 Y60.512100 Z-0.125000
G01 X15.546600 Y60.202200 Z-0.125000
G01 X15.514800 Y59.913200 Z-0.125000
G01 X15.623400 Y59.764500 Z-0.125000
G01 X15.851300 Y59.875500 Z-0.125000
G01 X16.025300 Y60.049500 Z-0.125000
G01 X16.252900 Y60.160200 Z-0.125000
G01 X16.360800 Y60.010800 Z-0.125000
G01 X16.328400 Y59.721200 Z-0.125000
G01 X16.135100 Y59.410900 Z-0.125000
G01 X15.959600 Y59.235400 Z-0.125000
G01 X15.766100 Y58.924900 Z-0.125000
G01 X15.733100 Y58.634800 Z-0.125000
G01 X15.840500 Y58.484900 Z-0.125000
G01 X16.067900 Y58.595400 Z-0.125000
G01 X16.248700 Y58.776200 Z-0.125000
G01 X16.477700 Y58.888200 Z-0.125000
G01 X16.588600 Y58.741900 Z-0.125000
G01 X16.559200 Y58.455300 Z-0.125000
G01 X16.367300 Y58.146400 Z-0.125000
G01 X16.178200 Y57.957300 Z-0.125000
G01 X15.985100 Y57.647300 Z-0.125000
G01 X15.953100 Y57.358000 Z-0.125000
G01 X16.061400 Y57.209100 Z-0.125000
G01 X16.289200 Y57.319900 Z-0.125000
G01 X16.488900 Y57.519700 Z-0.125000
G01 X16.718700 Y57.632500 Z-0.125000
G01 X16.831300 Y57.487900 Z-0.125000
G01 X16.803600 Y57.203000 Z-0.125000
G01 X16.612500 Y56.894900 Z-0.125000
G01 X16.405800 Y56.688200 Z-0.125000
G01 X16.214300 Y56.379800 Z-0.125000
G01 X16.185900 Y56.094100 Z-0.125000
G01 X16.297800 Y55.948700 Z-0.125000
G01 X16.527200 Y56.061200 Z-0.125000
G01 X16.739300 Y56.273300 Z-0.125000
G01 X16.969900 Y56.387000 Z-0.125000
G01 X17.084400 Y56.244200 Z-0.125000
G01 X17.058500 Y55.961100 Z-0.125000
G01 X16.868200 Y55.653900 Z-0.125000
G01 X16.651600 Y55.437300 Z-0.125000
G01 X16.461700 Y55.130400 Z-0.125000
G01 X16.436700 Y54.848200 Z-0.125000
G01 X16.552000 Y54.706300 Z-0.125000
G01 X16.783000 Y54.820300 Z-0.125000
G01 X17.002600 Y55.040000 Z-0.125000
G01 X17.234400 Y55.154800 Z-0.125000
G01 X17.351400 Y55.014500 Z-0.125000
G01 X17.328100 Y54.734000 Z-0.125000
G01 X17.138900 Y54.427900 Z-0.125000
G01 X16.914800 Y54.203800 Z-0.125000
G01 X16.726400 Y53.898400 Z-0.125000
G01 X16.704700 Y53.619500 Z-0.125000
G01 X16.823300 Y53.480900 Z-0.125000
G01 X17.055800 Y53.596500 Z-0.125000
G01 X17.281600 Y53.822300 Z-0.125000
G01 X17.514500 Y53.938200 Z-0.125000
G01 X17.634000 Y53.800500 Z-0.125000
G01 X17.613200 Y53.522400 Z-0.125000
G01 X17.425200 Y53.217500 Z-0.125000
G01 X17.196900 Y52.989200 Z-0.125000
G01 X17.009600 Y52.685000 Z-0.125000
G01 X16.990400 Y52.408500 Z-0.125000
G01 X17.111600 Y52.272000 Z-0.125000
G01 X17.345200 Y52.389000 Z-0.125000
G01 X17.576200 Y52.620200 Z-0.125000
G01 X17.810500 Y52.737500 Z-0.125000
G01 X17.932900 Y52.602600 Z-0.125000
G01 X17.915000 Y52.328000 Z-0.125000
G01 X17.728300 Y52.024000 Z-0.125000
G01 X17.495800 Y51.791000 Z-0.125000
G01 X17.309500 Y51.488000 Z-0.125000
G01 X17.292700 Y51.214000 Z-0.125000
G01 X17.416100 Y51.080000 Z-0.125000
G01 X17.650800 Y51.198000 Z-0.125000
G01 X17.886400 Y51.434000 Z-0.125000
G01 X18.122000 Y51.552000 Z-0.125000
G01 X18.247300 Y51.420000 Z-0.125000
G01 X18.232300 Y51.148000 Z-0.125000
G01 X18.046800 Y50.846000 Z-0.125000
G01 X17.810700 Y50.610000 Z-0.125000
G01 X17.625500 Y50.307000 Z-0.125000
G01 X17.611000 Y50.036000 Z-0.125000
G01 X17.736800 Y49.904000 Z-0.125000
G01 X17.972600 Y50.023000 Z-0.125000
G01 X18.212300 Y50.263000 Z-0.125000
G01 X18.449100 Y50.383000 Z-0.125000
G01 X18.577300 Y50.254000 Z-0.125000
G01 X18.565200 Y49.984000 Z-0.125000
G01 X18.381100 Y49.683000 Z-0.125000
G01 X18.141800 Y49.444000 Z-0.125000
G01 X17.957700 Y49.143000 Z-0.125000
G01 X17.945500 Y48.873000 Z-0.125000
G01 X18.073700 Y48.744000 Z-0.125000
G01 X18.310500 Y48.864000 Z-0.125000
G01 X18.553900 Y49.108000 Z-0.125000
G01 X18.792100 Y49.229000 Z-0.125000
G01 X18.923200 Y49.103000 Z-0.125000
G01 X18.914000 Y48.836000 Z-0.125000
G01 X18.731300 Y48.537000 Z-0.125000
G01 X18.489100 Y48.295000 Z-0.125000
G01 X18.306600 Y47.995000 Z-0.125000
G01 X18.297800 Y47.729000 Z-0.125000
G01 X18.429300 Y47.603000 Z-0.125000
G01 X18.667700 Y47.725000 Z-0.125000
G01 X18.911400 Y47.969000 Z-0.125000
G01 X19.151000 Y48.091000 Z-0.125000
G01 X19.285100 Y47.968000 Z-0.125000
G01 X19.278900 Y47.705000 Z-0.125000
G01 X19.097500 Y47.406000 Z-0.125000
G01 X18.853200 Y47.162000 Z-0.125000
G01 X18.672100 Y46.864000 Z-0.125000
G01 X18.666600 Y46.601000 Z-0.125000
G01 X18.801500 Y46.479000 Z-0.125000
G01 X19.041400 Y46.602000 Z-0.125000
G01 X19.285200 Y46.846000 Z-0.125000
G01 X19.526200 Y46.970000 Z-0.125000
G01 X19.663400 Y46.850000 Z-0.125000
G01 X19.660300 Y46.589000 Z-0.125000
G01 X19.480300 Y46.292000 Z-0.125000
G01 X19.234500 Y46.047000 Z-0.125000
G01 X19.055000 Y45.750000 Z-0.125000
G01 X19.052900 Y45.491000 Z-0.125000
G01 X19.191200 Y45.372000 Z-0.125000
G01 X19.432600 Y45.496000 Z-0.125000
G01 X19.676800 Y45.740000 Z-0.125000
G01 X19.919000 Y45.866000 Z-0.125000
G01 X20.058900 Y45.748000 Z-0.125000
G01 X20.058600 Y45.491000 Z-0.125000
G01 X19.879800 Y45.195000 Z-0.125000
G01 X19.634000 Y44.949000 Z-0.125000
G01 X19.456100 Y44.654000 Z-0.125000
G01 X19.457600 Y44.399000 Z-0.125000
G01 X19.599400 Y44.283000 Z-0.125000
G01 X19.842400 Y44.409000 Z-0.125000
G01 X20.085800 Y44.653000 Z-0.125000
G01 X20.329200 Y44.779000 Z-0.125000
G01 X20.471900 Y44.665000 Z-0.125000
G01 X20.474200 Y44.410000 Z-0.125000
G01 X20.296700 Y44.115000 Z-0.125000
G01 X20.052900 Y43.872000 Z-0.125000
G01 X19.876700 Y43.578000 Z-0.125000
G01 X19.881900 Y43.326000 Z-0.125000
G01 X20.027500 Y43.215000 Z-0.125000
G01 X20.272200 Y43.342000 Z-0.125000
G01 X20.512500 Y43.583000 Z-0.125000
G01 X20.757200 Y43.711000 Z-0.125000
G01 X20.902700 Y43.599000 Z-0.125000
G01 X20.907800 Y43.347000 Z-0.125000
G01 X20.731600 Y43.053000 Z-0.125000
G01 X20.492500 Y42.814000 Z-0.125000
G01 X20.317800 Y42.523000 Z-0.125000
G01 X20.326200 Y42.274000 Z-0.125000
G01 X20.474900 Y42.165000 Z-0.125000
G01 X20.721100 Y42.295000 Z-0.125000
G01 X20.957700 Y42.531000 Z-0.125000
G01 X21.203800 Y42.660000 Z-0.125000
G01 X21.352500 Y42.552000 Z-0.125000
G01 X21.360800 Y42.303000 Z-0.125000
G01 X21.186000 Y42.011000 Z-0.125000
G01 X20.955700 Y41.781000 Z-0.125000
G01 X20.782900 Y41.491000 Z-0.125000
G01 X20.795600 Y41.247000 Z-0.125000
G01 X20.948600 Y41.142000 Z-0.125000
G01 X21.196700 Y41.274000 Z-0.125000
G01 X21.422000 Y41.499000 Z-0.125000
G01 X21.669900 Y41.630000 Z-0.125000
G01 X21.822400 Y41.525000 Z-0.125000
G01 X21.834600 Y41.280000 Z-0.125000
G01 X21.661600 Y40.990000 Z-0.125000
G01 X21.444600 Y40.773000 Z-0.125000
G01 X21.274100 Y40.486000 Z-0.125000
G01 X21.291600 Y40.246000 Z-0.125000
G01 X21.449600 Y40.147000 Z-0.125000
G01 X21.699900 Y40.280000 Z-0.125000
G01 X21.906400 Y40.487000 Z-0.125000
G01 X22.156200 Y40.619000 Z-0.125000
G01 X22.312800 Y40.519000 Z-0.125000
G01 X22.329100 Y40.278000 Z-0.125000
G01 X22.157900 Y39.990000 Z-0.125000
G01 X21.963100 Y39.795000 Z-0.125000
G01 X21.795100 Y39.510000 Z-0.125000
G01 X21.818400 Y39.276000 Z-0.125000
G01 X21.982000 Y39.182000 Z-0.125000
G01 X22.235000 Y39.318000 Z-0.125000
G01 X22.412000 Y39.495000 Z-0.125000
G01 X22.663300 Y39.630000 Z-0.125000
G01 X22.823300 Y39.533000 Z-0.125000
G01 X22.843000 Y39.295000 Z-0.125000
G01 X22.673300 Y39.008000 Z-0.125000
G01 X22.514100 Y38.849000 Z-0.125000
G01 X22.347500 Y38.566000 Z-0.125000
G01 X22.374100 Y38.335000 Z-0.125000
G01 X22.540900 Y38.245000 Z-0.125000
G01 X22.795300 Y38.382000 Z-0.125000
G01 X22.946700 Y38.533000 Z-0.125000
G01 X23.202500 Y38.672000 Z-0.125000
G01 X23.372300 Y38.585000 Z-0.125000
G01 X23.401900 Y38.357000 Z-0.125000
G01 X23.236700 Y38.075000 Z-0.125000
G01 X23.076600 Y37.915000 Z-0.125000
G01 X22.910100 Y37.631000 Z-0.125000
G01 X22.936600 Y37.401000 Z-0.125000
G01 X23.103400 Y37.310000 Z-0.125000
G01 X23.357900 Y37.448000 Z-0.125000
G01 X23.556700 Y37.647000 Z-0.125000
G01 X23.826100 Y37.799000 Z-0.125000
G01 X24.025800 Y37.742000 Z-0.125000
G01 X24.085300 Y37.544000 Z-0.125000
G01 X23.933700 Y37.275000 Z-0.125000
G01 X23.639100 Y36.981000 Z-0.125000
G01 X23.472600 Y36.697000 Z-0.125000
G01 X23.499100 Y36.467000 Z-0.125000
G01 X23.666000 Y36.376000 Z-0.125000
G01 X23.920400 Y36.514000 Z-0.125000
G01 X24.454800 Y37.048000 Z-0.125000
G01 X25.258100 Y37.477000 Z-0.125000
G01 X25.547300 Y37.509000 Z-0.125000
G01 X25.500200 Y37.345000 Z-0.125000
G01 X24.201700 Y36.047000 Z-0.125000
G01 X24.006500 Y35.734000 Z-0.125000
G01 X23.970000 Y35.441000 Z-0.125000
G01 X24.073800 Y35.287000 Z-0.125000
G01 X24.299500 Y35.396000 Z-0.125000
G01 X26.691900 Y37.788000 Z-0.125000
G01 X27.397500 Y38.120000 Z-0.125000
G01 X27.619500 Y38.085000 Z-0.125000
G01 X27.541800 Y37.890000 Z-0.125000
G01 X27.355900 Y37.704000 Z-0.125000
G01 X27.276400 Y37.508000 Z-0.125000
G01 X27.494500 Y37.469000 Z-0.125000
G01 X28.194300 Y37.794000 Z-0.125000
G01 X28.252900 Y37.853000 Z-0.125000
G01 X28.519600 Y38.003000 Z-0.125000
G01 X28.773500 Y37.999000 Z-0.125000
G01 X28.908500 Y37.877000 Z-0.125000
G01 X28.818500 Y37.670000 Z-0.125000
G01 X28.789100 Y37.641000 Z-0.125000
G01 X28.718700 Y37.453000 Z-0.125000
G01 X28.855500 Y37.333000 Z-0.125000
G01 X29.096400 Y37.316000 Z-0.125000
G01 X29.338600 Y37.442000 Z-0.125000
G01 X29.346900 Y37.450000 Z-0.125000
G01 X29.568100 Y37.554000 Z-0.125000
G01 X29.774600 Y37.503000 Z-0.125000
G01 X29.881200 Y37.353000 Z-0.125000
G01 X29.802300 Y37.157000 Z-0.125000
G01 X29.802300 Y37.157000 Z-0.125000
G01 X29.713800 Y36.951000 Z-0.125000
G01 X29.799200 Y36.780000 Z-0.125000
G01 X29.984600 Y36.708000 Z-0.125000
G01 X30.196200 Y36.802000 Z-0.125000
G01 X30.208800 Y36.815000 Z-0.125000
G01 X30.423800 Y36.913000 Z-0.125000
G01 X30.599000 Y36.831000 Z-0.125000
G01 X30.668000 Y36.643000 Z-0.125000
G01 X30.564000 Y36.422000 Z-0.125000
G01 X30.547600 Y36.405000 Z-0.125000
G01 X30.414700 Y36.156000 Z-0.125000
G01 X30.443200 Y35.927000 Z-0.125000
G01 X30.586200 Y35.813000 Z-0.125000
G01 X30.797000 Y35.906000 Z-0.125000
G01 X30.806000 Y35.915000 Z-0.125000
G01 X31.011100 Y36.004000 Z-0.125000
G01 X31.128800 Y35.864000 Z-0.125000
G01 X31.127600 Y35.606000 Z-0.125000
G01 X30.975500 Y35.336000 Z-0.125000
G01 X30.956500 Y35.318000 Z-0.125000
G01 X30.695500 Y34.682000 Z-0.125000
G01 X30.757000 Y34.487000 Z-0.125000
G01 X30.948500 Y34.561000 Z-0.125000
G01 X31.012500 Y34.625000 Z-0.125000
G01 X31.226700 Y34.722000 Z-0.125000
G01 X31.305000 Y34.544000 Z-0.125000
G01 X31.243000 Y34.224000 Z-0.125000
G01 X31.036200 Y33.901000 Z-0.125000
G01 X30.950000 Y33.814000 Z-0.125000
G01 X30.630800 Y33.121000 Z-0.125000
G01 X30.674500 Y32.907000 Z-0.125000
G01 X30.873000 Y32.989000 Z-0.125000
G01 X31.036800 Y33.153000 Z-0.125000
G01 X31.247200 Y33.246000 Z-0.125000
G01 X31.317400 Y33.059000 Z-0.125000
G01 X31.036800 Y32.404000 Z-0.125000
G01 X30.489000 Y31.857000 Z-0.125000
G00 Z5.000000

(End cutting path id: path2)


(Start cutting path id: path2)
(Change tool to Default tool)

G00 Z5.000000
G00 X34.136500 Y33.954000

G01 Z-0.125000 F100.0(Penetrate)
G01 X32.539100 Y35.867000 Z-0.125000 F400.000000
G01 X30.990600 Y38.338000 Z-0.125000
G01 X29.513700 Y41.305000 Z-0.125000
G01 X28.131000 Y44.706000 Z-0.125000
G01 X26.865100 Y48.481000 Z-0.125000
G01 X25.738700 Y52.567900 Z-0.125000
G01 X24.774300 Y56.905500 Z-0.125000
G01 X23.994600 Y61.432600 Z-0.125000
G01 X23.662100 Y64.539100 Z-0.125000
G01 X23.441600 Y68.433600 Z-0.125000
G01 X23.327700 Y77.666300 Z-0.125000
G01 X23.634000 Y87.289600 Z-0.125000
G01 X23.938900 Y91.672400 Z-0.125000
G01 X24.341800 Y95.462500 Z-0.125000
G01 X25.129800 Y100.610800 Z-0.125000
G01 X26.087300 Y105.445700 Z-0.125000
G01 X27.200900 Y109.927800 Z-0.125000
G01 X28.457200 Y114.017400 Z-0.125000
G01 X29.842500 Y117.675100 Z-0.125000
G01 X31.343500 Y120.861300 Z-0.125000
G01 X32.946700 Y123.536500 Z-0.125000
G01 X34.638600 Y125.661100 Z-0.125000
G01 X36.806300 Y127.959600 Z-0.125000
G01 X34.716800 Y127.959600 Z-0.125000
G01 X33.546500 Y127.864700 Z-0.125000
G01 X32.351900 Y127.586700 Z-0.125000
G01 X31.150100 Y127.135800 Z-0.125000
G01 X29.958400 Y126.522100 Z-0.125000
G01 X27.674900 Y124.847000 Z-0.125000
G01 X25.639700 Y122.642300 Z-0.125000
G01 X23.957300 Y120.211800 Z-0.125000
G01 X23.461400 Y119.223400 Z-0.125000
G01 X23.182700 Y118.320100 Z-0.125000
G01 X23.111300 Y117.452200 Z-0.125000
G01 X23.237500 Y116.570200 Z-0.125000
G01 X24.043300 Y114.565600 Z-0.125000
G01 X24.943700 Y112.543200 Z-0.125000
G01 X25.318200 Y111.190300 Z-0.125000
G01 X25.222500 Y110.539000 Z-0.125000
G01 X24.951900 Y109.900600 Z-0.125000
G01 X23.984600 Y108.747000 Z-0.125000
G01 X22.613700 Y107.898600 Z-0.125000
G01 X21.036600 Y107.524400 Z-0.125000
G01 X19.822700 Y107.395800 Z-0.125000
G01 X19.418200 Y107.230900 Z-0.125000
G01 X19.106700 Y106.943500 Z-0.125000
G01 X18.636300 Y105.835500 Z-0.125000
G01 X18.159100 Y103.740100 Z-0.125000
G01 X17.133500 Y97.984900 Z-0.125000
G01 X16.290000 Y91.640300 Z-0.125000
G01 X15.718300 Y85.496300 Z-0.125000
G01 X15.507800 Y80.343300 Z-0.125000
G01 X15.542500 Y77.371300 Z-0.125000
G01 X15.675600 Y75.638200 Z-0.125000
G01 X15.950400 Y74.879500 Z-0.125000
G01 X16.154500 Y74.782800 Z-0.125000
G01 X16.410200 Y74.830500 Z-0.125000
G01 X17.594100 Y74.884500 Z-0.125000
G01 X19.173100 Y74.528200 Z-0.125000
G01 X20.319700 Y73.933300 Z-0.125000
G01 X21.095700 Y73.114500 Z-0.125000
G01 X21.506900 Y72.125600 Z-0.125000
G01 X21.559200 Y71.020300 Z-0.125000
G01 X21.258500 Y69.852400 Z-0.125000
G01 X20.610600 Y68.675800 Z-0.125000
G01 X19.621500 Y67.544200 Z-0.125000
G01 X18.297000 Y66.511400 Z-0.125000
G01 X17.460400 Y65.919500 Z-0.125000
G01 X16.839900 Y65.318000 Z-0.125000
G01 X16.425100 Y64.625700 Z-0.125000
G01 X16.205400 Y63.761500 Z-0.125000
G01 X16.170500 Y62.644100 Z-0.125000
G01 X16.310000 Y61.192400 Z-0.125000
G01 X17.070300 Y56.961400 Z-0.125000
G01 X18.110700 Y52.435900 Z-0.125000
G01 X19.356000 Y48.170000 Z-0.125000
G01 X20.784200 Y44.231000 Z-0.125000
G01 X22.373400 Y40.687000 Z-0.125000
G01 X23.294700 Y38.958000 Z-0.125000
G01 X24.008600 Y37.928000 Z-0.125000
G01 X24.611600 Y37.490000 Z-0.125000
G01 X25.200100 Y37.537000 Z-0.125000
G01 X26.740200 Y38.093000 Z-0.125000
G01 X27.908100 Y38.284000 Z-0.125000
G01 X28.901000 Y38.111000 Z-0.125000
G01 X29.915800 Y37.577000 Z-0.125000
G01 X30.666300 Y36.975000 Z-0.125000
G01 X31.136900 Y36.279000 Z-0.125000
G01 X31.380400 Y35.372000 Z-0.125000
G01 X31.449800 Y34.133000 Z-0.125000
G01 X31.449800 Y31.695000 Z-0.125000
G01 X33.922800 Y31.695000 Z-0.125000
G01 X36.395900 Y31.695000 Z-0.125000
G01 X34.136500 Y33.954000 Z-0.125000
G00 Z5.000000

(End cutting path id: path2)


(Start cutting path id: path2)
(Change tool to Default tool)

G00 Z5.000000
G00 X36.720900 Y30.605000

G01 Z-0.125000 F100.0(Penetrate)
G01 X37.937800 Y31.822000 Z-0.125000 F400.000000
G01 X38.233500 Y32.001000 Z-0.125000
G01 X38.491000 Y32.001000 Z-0.125000
G01 X38.608200 Y31.861000 Z-0.125000
G01 X38.482900 Y31.619000 Z-0.125000
G01 X37.759700 Y30.896000 Z-0.125000
G01 X37.670400 Y30.689000 Z-0.125000
G01 X37.866800 Y30.628000 Z-0.125000
G01 X38.535200 Y30.923000 Z-0.125000
G01 X39.067400 Y31.455000 Z-0.125000
G01 X39.376900 Y31.648000 Z-0.125000
G01 X39.665100 Y31.678000 Z-0.125000
G01 X39.812800 Y31.569000 Z-0.125000
G01 X39.701400 Y31.341000 Z-0.125000
G01 X39.321400 Y30.961000 Z-0.125000
G01 X39.236000 Y30.758000 Z-0.125000
G01 X39.440900 Y30.706000 Z-0.125000
G01 X40.121700 Y31.012000 Z-0.125000
G01 X40.401300 Y31.292000 Z-0.125000
G01 X41.077200 Y31.594000 Z-0.125000
G01 X41.278800 Y31.538000 Z-0.125000
G01 X41.191800 Y31.334000 Z-0.125000
G01 X40.944600 Y31.087000 Z-0.125000
G01 X40.862000 Y30.887000 Z-0.125000
G01 X41.073100 Y30.841000 Z-0.125000
G01 X41.762800 Y31.157000 Z-0.125000
G01 X42.107000 Y31.501000 Z-0.125000
G01 X42.966300 Y31.986000 Z-0.125000
G01 X43.293900 Y32.057000 Z-0.125000
G01 X43.264300 Y31.910000 Z-0.125000
G01 X42.645100 Y31.291000 Z-0.125000
G01 X42.589700 Y31.118000 Z-0.125000
G01 X42.860600 Y31.132000 Z-0.125000
G01 X43.637400 Y31.535000 Z-0.125000
G01 X46.252700 Y34.150000 Z-0.125000
G00 Z5.000000

(End cutting path id: path2)


(Start cutting path id: path2)
(Change tool to Default tool)

G00 Z5.000000
G00 X47.288000 Y35.186000

G01 Z-0.125000 F100.0(Penetrate)
G01 X51.225800 Y39.123000 Z-0.125000 F400.000000
G00 Z5.000000

(End cutting path id: path2)


(Start cutting path id: path2)
(Change tool to Default tool)

G00 Z5.000000
G00 X52.121800 Y40.768000

G01 Z-0.125000 F100.0(Penetrate)
G01 X49.738100 Y38.384000 Z-0.125000 F400.000000
G00 Z5.000000

(End cutting path id: path2)


(Start cutting path id: path2)
(Change tool to Default tool)

G00 Z5.000000
G00 X44.691200 Y43.066000

G01 Z-0.125000 F100.0(Penetrate)
G01 X47.951300 Y46.326000 Z-0.125000 F400.000000
G00 Z5.000000

(End cutting path id: path2)


(Start cutting path id: path2)
(Change tool to Default tool)

G00 Z5.000000
G00 X49.023000 Y48.146000

G01 Z-0.125000 F100.0(Penetrate)
G01 X46.903000 Y46.026000 Z-0.125000 F400.000000
G00 Z5.000000

(End cutting path id: path2)


(Start cutting path id: path2)
(Change tool to Default tool)

G00 Z5.000000
G00 X45.802000 Y44.878000

G01 Z-0.125000 F100.0(Penetrate)
G01 X47.097500 Y46.398000 Z-0.125000 F400.000000
G01 X48.353300 Y48.485000 Z-0.125000
G01 X49.545800 Y51.068000 Z-0.125000
G01 X50.651600 Y54.076700 Z-0.125000
G01 X51.647300 Y57.439800 Z-0.125000
G01 X52.509400 Y61.086000 Z-0.125000
G01 X53.214600 Y64.944300 Z-0.125000
G01 X53.739200 Y68.943700 Z-0.125000
G01 X54.078600 Y72.162700 Z-0.125000
G01 X51.654900 Y72.162700 Z-0.125000
G01 X49.231200 Y72.162700 Z-0.125000
G01 X49.233200 Y68.637100 Z-0.125000
G01 X49.306500 Y66.938200 Z-0.125000
G01 X49.529300 Y65.476400 Z-0.125000
G01 X49.910600 Y64.211600 Z-0.125000
G01 X50.459500 Y63.103900 Z-0.125000
G01 X51.323900 Y61.299400 Z-0.125000
G01 X51.683500 Y59.779900 Z-0.125000
G01 X51.399500 Y58.532500 Z-0.125000
G01 X50.667600 Y57.385900 Z-0.125000
G01 X49.667900 Y56.546500 Z-0.125000
G01 X49.123800 Y56.306500 Z-0.125000
G01 X48.580300 Y56.220800 Z-0.125000
G01 X48.050100 Y56.052400 Z-0.125000
G01 X47.541600 Y55.543600 Z-0.125000
G01 X47.050900 Y54.689200 Z-0.125000
G01 X46.574200 Y53.483900 Z-0.125000
G01 X45.285000 Y50.542000 Z-0.125000
G01 X43.609800 Y47.850000 Z-0.125000
G01 X41.837200 Y45.804000 Z-0.125000
G01 X41.004700 Y45.148000 Z-0.125000
G01 X40.256000 Y44.802000 Z-0.125000
G01 X39.222000 Y44.380000 Z-0.125000
G01 X39.210500 Y44.151000 Z-0.125000
G01 X39.515500 Y43.886000 Z-0.125000
G01 X40.185800 Y43.567000 Z-0.125000
G01 X40.950500 Y43.385000 Z-0.125000
G01 X42.640500 Y43.409000 Z-0.125000
G01 X44.339400 Y43.920000 Z-0.125000
G01 X45.801700 Y44.878000 Z-0.125000
G01 X45.802000 Y44.878000 Z-0.125000
G00 Z5.000000

(End cutting path id: path2)


(Start cutting path id: path2)
(Change tool to Default tool)

G00 Z5.000000
G00 X41.515200 Y47.060000

G01 Z-0.125000 F100.0(Penetrate)
G01 X42.487600 Y48.077000 Z-0.125000 F400.000000
G01 X43.418900 Y49.357000 Z-0.125000
G01 X44.252600 Y50.813000 Z-0.125000
G01 X44.931800 Y52.356000 Z-0.125000
G01 X46.211200 Y55.776000 Z-0.125000
G01 X43.805900 Y60.750300 Z-0.125000
G01 X40.928200 Y66.950900 Z-0.125000
G01 X40.659300 Y67.344800 Z-0.125000
G01 X40.369900 Y67.067400 Z-0.125000
G01 X39.580100 Y64.191800 Z-0.125000
G01 X37.352300 Y54.028500 Z-0.125000
G01 X36.390900 Y49.073000 Z-0.125000
G01 X36.293900 Y47.894000 Z-0.125000
G01 X36.404100 Y47.231000 Z-0.125000
G01 X36.684800 Y46.824000 Z-0.125000
G01 X37.099600 Y46.411000 Z-0.125000
G01 X38.071600 Y45.518000 Z-0.125000
G01 X38.495300 Y45.322000 Z-0.125000
G01 X38.928300 Y45.299000 Z-0.125000
G01 X39.974600 Y45.798000 Z-0.125000
G01 X41.515200 Y47.060000 Z-0.125000
G01 X41.515200 Y47.060000 Z-0.125000
G00 Z5.000000

(End cutting path id: path2)


(Start cutting path id: path2)
(Change tool to Default tool)

G00 Z5.000000
G00 X44.764200 Y49.874000

G01 Z-0.125000 F100.0(Penetrate)
G01 X39.813600 Y44.923000 Z-0.125000 F400.000000
G01 X39.784300 Y44.777000 Z-0.125000
G01 X40.112800 Y44.848000 Z-0.125000
G01 X40.973200 Y45.335000 Z-0.125000
G01 X43.450200 Y47.812000 Z-0.125000
G00 Z5.000000

(End cutting path id: path2)


(Start cutting path id: path2)
(Change tool to Default tool)

G00 Z5.000000
G00 X49.787500 Y49.659000

G01 Z-0.125000 F100.0(Penetrate)
G01 X48.374300 Y48.246000 Z-0.125000 F400.000000
G00 Z5.000000

(End cutting path id: path2)


(Start cutting path id: path2)
(Change tool to Default tool)

G00 Z5.000000
G00 X54.279500 Y48.912000

G01 Z-0.125000 F100.0(Penetrate)
G01 X55.568100 Y50.201000 Z-0.125000 F400.000000
G01 X55.715000 Y50.231000 Z-0.125000
G01 X55.645400 Y49.904000 Z-0.125000
G01 X55.161400 Y49.046000 Z-0.125000
G01 X54.146100 Y48.030000 Z-0.125000
G01 X53.709200 Y47.219000 Z-0.125000
G01 X53.671900 Y46.925000 Z-0.125000
G01 X53.833500 Y46.969000 Z-0.125000
G01 X54.757900 Y47.894000 Z-0.125000
G01 X54.915700 Y47.935000 Z-0.125000
G01 X54.870100 Y47.632000 Z-0.125000
G01 X54.421000 Y46.808000 Z-0.125000
G01 X53.418300 Y45.806000 Z-0.125000
G01 X52.862700 Y44.876000 Z-0.125000
G01 X52.743800 Y44.500000 Z-0.125000
G01 X52.868300 Y44.507000 Z-0.125000
G01 X54.117700 Y45.757000 Z-0.125000
G01 X54.291900 Y45.814000 Z-0.125000
G01 X54.282400 Y45.547000 Z-0.125000
G01 X53.886000 Y44.777000 Z-0.125000
G01 X52.439400 Y43.330000 Z-0.125000
G01 X51.852300 Y42.369000 Z-0.125000
G01 X51.711800 Y41.971000 Z-0.125000
G01 X51.826500 Y41.969000 Z-0.125000
G01 X53.917800 Y44.060000 Z-0.125000
G01 X54.157700 Y44.183000 Z-0.125000
G01 X54.292600 Y44.061000 Z-0.125000
G01 X54.287200 Y43.798000 Z-0.125000
G01 X54.106200 Y43.500000 Z-0.125000
G01 X50.743800 Y40.138000 Z-0.125000
G00 Z5.000000

(End cutting path id: path2)


(Start cutting path id: path2)
(Change tool to Default tool)

G00 Z5.000000
G00 X58.874000 Y39.288000

G01 Z-0.125000 F100.0(Penetrate)
G01 X61.522000 Y41.936000 Z-0.125000 F400.000000
G00 Z5.000000

(End cutting path id: path2)


(Start cutting path id: path2)
(Change tool to Default tool)

G00 Z5.000000
G00 X59.961900 Y41.287000

G01 Z-0.125000 F100.0(Penetrate)
G01 X60.362800 Y41.804000 Z-0.125000 F400.000000
G01 X60.595800 Y42.401000 Z-0.125000
G01 X60.657300 Y43.091000 Z-0.125000
G01 X60.543500 Y43.891000 Z-0.125000
G01 X59.775800 Y45.880000 Z-0.125000
G01 X58.263500 Y48.493000 Z-0.125000
G01 X56.345800 Y51.495000 Z-0.125000
G01 X55.288600 Y48.493000 Z-0.125000
G01 X54.504600 Y46.123000 Z-0.125000
G01 X54.290500 Y44.646000 Z-0.125000
G01 X54.409100 Y44.070000 Z-0.125000
G01 X54.684300 Y43.511000 Z-0.125000
G01 X55.723800 Y42.165000 Z-0.125000
G01 X56.937600 Y40.924000 Z-0.125000
G01 X57.968800 Y40.380000 Z-0.125000
G01 X58.453400 Y40.362000 Z-0.125000
G01 X58.937100 Y40.509000 Z-0.125000
G01 X59.961900 Y41.287000 Z-0.125000
G01 X59.961900 Y41.287000 Z-0.125000
G00 Z5.000000

(End cutting path id: path2)


(Start cutting path id: path2)
(Change tool to Default tool)

G00 Z5.000000
G00 X66.393700 Y33.337000

G01 Z-0.125000 F100.0(Penetrate)
G01 X66.748000 Y33.692000 Z-0.125000 F400.000000
G01 X67.389000 Y33.958000 Z-0.125000
G01 X67.571500 Y33.884000 Z-0.125000
G01 X67.479200 Y33.674000 Z-0.125000
G01 X67.463000 Y33.658000 Z-0.125000
G01 X67.380100 Y33.458000 Z-0.125000
G01 X67.560500 Y33.382000 Z-0.125000
G01 X68.176300 Y33.623000 Z-0.125000
G01 X68.178800 Y33.625000 Z-0.125000
G01 X68.471600 Y33.801000 Z-0.125000
G01 X68.756400 Y33.829000 Z-0.125000
G01 X68.912700 Y33.728000 Z-0.125000
G01 X68.820400 Y33.518000 Z-0.125000
G01 X68.811800 Y33.509000 Z-0.125000
G01 X68.725000 Y33.306000 Z-0.125000
G01 X68.881500 Y33.205000 Z-0.125000
G01 X69.162100 Y33.228000 Z-0.125000
G01 X69.447500 Y33.397000 Z-0.125000
G01 X69.447500 Y33.397000 Z-0.125000
G01 X69.728000 Y33.560000 Z-0.125000
G01 X69.997800 Y33.573000 Z-0.125000
G01 X70.143600 Y33.461000 Z-0.125000
G01 X70.051900 Y33.253000 Z-0.125000
G01 X70.050300 Y33.251000 Z-0.125000
G01 X69.954100 Y33.038000 Z-0.125000
G01 X70.092100 Y32.918000 Z-0.125000
G01 X70.354900 Y32.924000 Z-0.125000
G01 X70.633300 Y33.085000 Z-0.125000
G01 X70.635900 Y33.088000 Z-0.125000
G01 X70.915600 Y33.251000 Z-0.125000
G01 X71.177700 Y33.256000 Z-0.125000
G01 X71.313600 Y33.135000 Z-0.125000
G01 X71.214800 Y32.919000 Z-0.125000
G01 X71.212100 Y32.916000 Z-0.125000
G01 X71.108800 Y32.696000 Z-0.125000
G01 X71.238700 Y32.568000 Z-0.125000
G01 X71.496200 Y32.569000 Z-0.125000
G01 X71.775500 Y32.731000 Z-0.125000
G01 X71.780100 Y32.736000 Z-0.125000
G01 X72.063000 Y32.902000 Z-0.125000
G01 X72.321700 Y32.904000 Z-0.125000
G01 X72.450700 Y32.775000 Z-0.125000
G01 X72.344000 Y32.552000 Z-0.125000
G01 X72.341200 Y32.549000 Z-0.125000
G01 X72.235200 Y32.326000 Z-0.125000
G01 X72.364900 Y32.198000 Z-0.125000
G01 X72.624100 Y32.200000 Z-0.125000
G01 X72.906900 Y32.366000 Z-0.125000
G01 X72.912200 Y32.371000 Z-0.125000
G01 X73.190300 Y32.532000 Z-0.125000
G01 X73.446600 Y32.531000 Z-0.125000
G01 X73.576000 Y32.403000 Z-0.125000
G01 X73.473300 Y32.184000 Z-0.125000
G01 X73.465700 Y32.176000 Z-0.125000
G01 X73.371300 Y31.964000 Z-0.125000
G01 X73.508600 Y31.844000 Z-0.125000
G01 X73.768900 Y31.848000 Z-0.125000
G01 X74.044000 Y32.006000 Z-0.125000
G01 X74.052000 Y32.014000 Z-0.125000
G01 X74.320100 Y32.165000 Z-0.125000
G01 X74.576100 Y32.164000 Z-0.125000
G01 X74.713000 Y32.043000 Z-0.125000
G01 X74.623600 Y31.837000 Z-0.125000
G01 X74.623600 Y31.837000 Z-0.125000
G01 X74.538100 Y31.635000 Z-0.125000
G01 X74.683800 Y31.523000 Z-0.125000
G01 X74.948600 Y31.531000 Z-0.125000
G01 X75.220700 Y31.686000 Z-0.125000
G01 X75.223500 Y31.689000 Z-0.125000
G01 X75.497700 Y31.846000 Z-0.125000
G01 X75.766800 Y31.858000 Z-0.125000
G01 X75.916500 Y31.750000 Z-0.125000
G01 X75.832600 Y31.549000 Z-0.125000
G01 X75.832600 Y31.549000 Z-0.125000
G01 X75.754900 Y31.355000 Z-0.125000
G01 X75.918400 Y31.261000 Z-0.125000
G01 X76.201100 Y31.286000 Z-0.125000
G01 X76.481600 Y31.450000 Z-0.125000
G01 X76.513200 Y31.482000 Z-0.125000
G01 X77.235700 Y31.830000 Z-0.125000
G01 X77.478900 Y31.816000 Z-0.125000
G01 X77.417400 Y31.637000 Z-0.125000
G01 X77.185500 Y31.406000 Z-0.125000
G01 X77.051200 Y31.154000 Z-0.125000
G01 X77.148600 Y30.995000 Z-0.125000
G01 X77.386300 Y30.975000 Z-0.125000
G01 X77.673000 Y31.145000 Z-0.125000
G01 X79.128900 Y32.601000 Z-0.125000
G00 Z5.000000

(End cutting path id: path2)


(Start cutting path id: path2)
(Change tool to Default tool)

G00 Z5.000000
G00 X80.732900 Y33.458000

G01 Z-0.125000 F100.0(Penetrate)
G01 X77.894300 Y30.619000 Z-0.125000 F400.000000
G01 X77.735900 Y30.344000 Z-0.125000
G01 X77.780200 Y30.131000 Z-0.125000
G01 X77.964900 Y30.058000 Z-0.125000
G01 X78.227400 Y30.204000 Z-0.125000
G01 X78.362400 Y30.339000 Z-0.125000
G01 X78.585500 Y30.445000 Z-0.125000
G01 X78.730900 Y30.333000 Z-0.125000
G01 X78.753000 Y30.098000 Z-0.125000
G01 X78.606100 Y29.834000 Z-0.125000
G01 X78.512900 Y29.741000 Z-0.125000
G01 X78.470600 Y29.582000 Z-0.125000
G01 X78.592400 Y29.446000 Z-0.125000
G01 X78.978900 Y29.459000 Z-0.125000
G01 X79.132400 Y29.612000 Z-0.125000
G00 Z5.000000

(End cutting path id: path2)


(Start cutting path id: path2)
(Change tool to Default tool)

G00 Z5.000000
G00 X82.246300 Y22.766000

G01 Z-0.125000 F100.0(Penetrate)
G01 X87.336300 Y23.528000 Z-0.125000 F400.000000
G01 X89.022400 Y23.898000 Z-0.125000
G01 X89.805400 Y24.197000 Z-0.125000
G01 X90.172100 Y25.140000 Z-0.125000
G01 X90.207000 Y26.561000 Z-0.125000
G01 X90.040900 Y27.484000 Z-0.125000
G01 X89.726600 Y27.994000 Z-0.125000
G01 X89.142400 Y28.187000 Z-0.125000
G01 X88.166300 Y28.158000 Z-0.125000
G01 X86.326900 Y27.994000 Z-0.125000
G01 X88.051000 Y28.964000 Z-0.125000
G01 X89.141400 Y29.745000 Z-0.125000
G01 X89.404800 Y30.119000 Z-0.125000
G01 X89.479500 Y30.496000 Z-0.125000
G01 X89.365000 Y30.887000 Z-0.125000
G01 X89.060900 Y31.301000 Z-0.125000
G01 X87.881200 Y32.242000 Z-0.125000
G01 X87.067900 Y32.754000 Z-0.125000
G01 X86.673200 Y32.853000 Z-0.125000
G01 X86.599200 Y32.479000 Z-0.125000
G01 X86.747800 Y31.575000 Z-0.125000
G01 X86.839000 Y30.782000 Z-0.125000
G01 X86.741100 Y30.231000 Z-0.125000
G01 X86.430700 Y29.868000 Z-0.125000
G01 X85.884500 Y29.642000 Z-0.125000
G01 X84.381900 Y29.590000 Z-0.125000
G01 X82.819700 Y29.999000 Z-0.125000
G01 X81.660100 Y30.685000 Z-0.125000
G01 X81.375500 Y31.073000 Z-0.125000
G01 X81.364900 Y31.461000 Z-0.125000
G01 X81.385700 Y32.030000 Z-0.125000
G01 X80.966500 Y32.269000 Z-0.125000
G01 X80.224200 Y32.165000 Z-0.125000
G01 X79.275600 Y31.704000 Z-0.125000
G01 X78.837300 Y31.356000 Z-0.125000
G01 X78.674400 Y30.989000 Z-0.125000
G01 X78.780700 Y30.513000 Z-0.125000
G01 X79.150400 Y29.837000 Z-0.125000
G01 X79.632000 Y28.854000 Z-0.125000
G01 X78.690500 Y29.227000 Z-0.125000
G01 X77.804600 Y29.875000 Z-0.125000
G01 X77.436200 Y30.490000 Z-0.125000
G01 X77.347000 Y30.719000 Z-0.125000
G01 X77.104100 Y30.907000 Z-0.125000
G01 X76.305900 Y31.081000 Z-0.125000
G01 X74.446200 Y31.446000 Z-0.125000
G01 X71.562200 Y32.324000 Z-0.125000
G01 X68.474600 Y33.155000 Z-0.125000
G01 X67.254700 Y33.268000 Z-0.125000
G01 X66.222100 Y33.172000 Z-0.125000
G01 X65.355400 Y32.864000 Z-0.125000
G01 X64.632900 Y32.338000 Z-0.125000
G01 X64.033400 Y31.591000 Z-0.125000
G01 X63.535200 Y30.618000 Z-0.125000
G01 X63.070400 Y29.390000 Z-0.125000
G01 X62.943800 Y28.537000 Z-0.125000
G01 X63.172200 Y27.795000 Z-0.125000
G01 X63.772400 Y26.899000 Z-0.125000
G01 X64.358800 Y26.254000 Z-0.125000
G01 X65.118700 Y25.660000 Z-0.125000
G01 X67.168100 Y24.618000 Z-0.125000
G01 X69.939300 Y23.767000 Z-0.125000
G01 X73.450700 Y23.099000 Z-0.125000
G01 X77.129600 Y22.551000 Z-0.125000
G01 X72.703700 Y22.793000 Z-0.125000
G01 X68.741700 Y23.310000 Z-0.125000
G01 X66.955000 Y23.747000 Z-0.125000
G01 X65.510900 Y24.259000 Z-0.125000
G01 X63.750000 Y24.879000 Z-0.125000
G01 X62.599300 Y24.989000 Z-0.125000
G01 X62.314100 Y24.864000 Z-0.125000
G01 X62.255100 Y24.624000 Z-0.125000
G01 X62.446700 Y24.274000 Z-0.125000
G01 X62.913600 Y23.817000 Z-0.125000
G01 X64.006400 Y23.116000 Z-0.125000
G01 X65.413000 Y22.580000 Z-0.125000
G01 X67.165500 Y22.210000 Z-0.125000
G01 X69.296200 Y22.002000 Z-0.125000
G01 X71.837400 Y21.955000 Z-0.125000
G01 X74.821300 Y22.068000 Z-0.125000
G01 X82.246300 Y22.766000 Z-0.125000
G01 X82.246300 Y22.766000 Z-0.125000
G00 Z5.000000

(End cutting path id: path2)


(Start cutting path id: path2)
(Change tool to Default tool)

G00 Z5.000000
G00 X81.562200 Y20.817000

G01 Z-0.125000 F100.0(Penetrate)
G01 X81.878100 Y21.133000 Z-0.125000 F400.000000
G01 X82.098000 Y21.236000 Z-0.125000
G01 X82.294000 Y21.175000 Z-0.125000
G01 X82.387100 Y21.011000 Z-0.125000
G01 X82.298600 Y20.805000 Z-0.125000
G01 X82.265400 Y20.772000 Z-0.125000
G01 X82.229100 Y20.619000 Z-0.125000
G01 X82.390400 Y20.523000 Z-0.125000
G01 X82.860100 Y20.618000 Z-0.125000
G01 X82.881200 Y20.639000 Z-0.125000
G01 X83.328300 Y20.712000 Z-0.125000
G01 X83.493900 Y20.621000 Z-0.125000
G01 X83.473000 Y20.483000 Z-0.125000
G01 X83.473000 Y20.483000 Z-0.125000
G01 X83.461300 Y20.354000 Z-0.125000
G01 X83.647400 Y20.283000 Z-0.125000
G01 X84.124300 Y20.386000 Z-0.125000
G01 X84.139300 Y20.401000 Z-0.125000
G01 X84.689600 Y20.577000 Z-0.125000
G01 X84.912200 Y20.542000 Z-0.125000
G01 X84.907600 Y20.421000 Z-0.125000
G01 X84.884600 Y20.398000 Z-0.125000
G01 X84.857500 Y20.254000 Z-0.125000
G01 X85.062700 Y20.202000 Z-0.125000
G01 X85.619100 Y20.384000 Z-0.125000
G01 X85.683700 Y20.449000 Z-0.125000
G01 X86.421500 Y20.812000 Z-0.125000
G01 X86.690900 Y20.824000 Z-0.125000
G01 X86.651900 Y20.668000 Z-0.125000
G01 X86.480900 Y20.497000 Z-0.125000
G01 X86.397800 Y20.297000 Z-0.125000
G01 X86.607800 Y20.250000 Z-0.125000
G01 X87.295900 Y20.564000 Z-0.125000
G01 X88.064400 Y21.333000 Z-0.125000
G00 Z5.000000

(End cutting path id: path2)


(Start cutting path id: path2)
(Change tool to Default tool)

G00 Z5.000000
G00 X87.768300 Y21.331000

G01 Z-0.125000 F100.0(Penetrate)
G01 X89.012300 Y21.943000 Z-0.125000 F400.000000
G01 X89.659800 Y22.572000 Z-0.125000
G01 X89.717700 Y22.816000 Z-0.125000
G01 X89.575900 Y22.972000 Z-0.125000
G01 X88.626200 Y22.897000 Z-0.125000
G01 X84.537200 Y22.189000 Z-0.125000
G01 X82.438300 Y21.745000 Z-0.125000
G01 X82.169500 Y21.501000 Z-0.125000
G01 X82.391100 Y21.227000 Z-0.125000
G01 X83.399700 Y20.816000 Z-0.125000
G01 X84.647800 Y20.696000 Z-0.125000
G01 X86.111900 Y20.868000 Z-0.125000
G01 X87.768300 Y21.331000 Z-0.125000
G01 X87.768300 Y21.331000 Z-0.125000
G00 Z5.000000

(End cutting path id: path2)


(Start cutting path id: path2)
(Change tool to Default tool)

G00 Z5.000000
G00 X89.748400 Y23.017000

G01 Z-0.125000 F100.0(Penetrate)
G01 X90.440200 Y23.708000 Z-0.125000 F400.000000
G01 X90.604200 Y23.755000 Z-0.125000
G01 X90.572000 Y23.466000 Z-0.125000
G01 X90.142400 Y22.662000 Z-0.125000
G01 X88.159300 Y20.679000 Z-0.125000
G01 X88.116900 Y20.520000 Z-0.125000
G01 X88.416600 Y20.562000 Z-0.125000
G01 X89.235200 Y21.007000 Z-0.125000
G01 X89.675400 Y21.447000 Z-0.125000
G00 Z5.000000

(End cutting path id: path2)


(Start cutting path id: path2)
(Change tool to Default tool)

G00 Z5.000000
G00 X88.310000 Y29.061000

G01 Z-0.125000 F100.0(Penetrate)
G01 X87.478000 Y28.229000 Z-0.125000 F400.000000
G00 Z5.000000

(End cutting path id: path2)


(Start cutting path id: path2)
(Change tool to Default tool)

G00 Z5.000000
G00 X86.467800 Y32.457000

G01 Z-0.125000 F100.0(Penetrate)
G01 X84.116000 Y30.106000 Z-0.125000 F400.000000
G01 X84.004200 Y29.877000 Z-0.125000
G01 X84.151300 Y29.767000 Z-0.125000
G01 X84.438700 Y29.797000 Z-0.125000
G01 X84.747900 Y29.989000 Z-0.125000
G01 X86.289200 Y31.531000 Z-0.125000
G01 X86.516600 Y31.641000 Z-0.125000
G01 X86.624100 Y31.491000 Z-0.125000
G01 X86.591200 Y31.201000 Z-0.125000
G01 X86.397700 Y30.891000 Z-0.125000
G01 X85.466300 Y29.959000 Z-0.125000
G01 X85.398200 Y29.774000 Z-0.125000
G01 X85.641200 Y29.760000 Z-0.125000
G01 X86.377300 Y30.122000 Z-0.125000
G01 X86.674200 Y30.419000 Z-0.125000
G00 Z5.000000

(End cutting path id: path2)


(Start cutting path id: path2)
(Change tool to Default tool)

G00 Z5.000000
G00 X82.671000 Y40.632000

G01 Z-0.125000 F100.0(Penetrate)
G01 X90.663800 Y48.625000 Z-0.125000 F400.000000
G01 X90.910300 Y48.755000 Z-0.125000
G01 X91.059800 Y48.647000 Z-0.125000
G01 X91.069000 Y48.399000 Z-0.125000
G01 X90.894600 Y48.107000 Z-0.125000
G01 X82.528500 Y39.741000 Z-0.125000
G01 X82.153300 Y38.992000 Z-0.125000
G01 X82.158500 Y38.740000 Z-0.125000
G01 X82.339400 Y38.804000 Z-0.125000
G01 X91.210900 Y47.675000 Z-0.125000
G01 X91.477800 Y47.825000 Z-0.125000
G01 X91.672100 Y47.762000 Z-0.125000
G01 X91.726000 Y47.559000 Z-0.125000
G01 X91.572000 Y47.288000 Z-0.125000
G01 X82.202100 Y37.918000 Z-0.125000
G01 X81.887300 Y37.229000 Z-0.125000
G01 X81.934000 Y37.019000 Z-0.125000
G01 X82.133800 Y37.102000 Z-0.125000
G01 X91.960100 Y46.928000 Z-0.125000
G01 X92.234500 Y47.085000 Z-0.125000
G01 X92.445300 Y47.039000 Z-0.125000
G01 X92.515800 Y46.852000 Z-0.125000
G01 X92.369300 Y46.589000 Z-0.125000
G01 X82.122000 Y36.341000 Z-0.125000
G01 X81.824700 Y35.670000 Z-0.125000
G01 X81.883400 Y35.471000 Z-0.125000
G01 X82.088600 Y35.560000 Z-0.125000
G01 X92.793000 Y46.264000 Z-0.125000
G01 X93.071800 Y46.426000 Z-0.125000
G01 X93.292300 Y46.389000 Z-0.125000
G01 X93.372500 Y46.212000 Z-0.125000
G01 X93.230400 Y45.953000 Z-0.125000
G01 X81.428500 Y34.153000 Z-0.125000
G00 Z5.000000

(End cutting path id: path2)


(Start cutting path id: path2)
(Change tool to Default tool)

G00 Z5.000000
G00 X86.389800 Y45.099000

G01 Z-0.125000 F100.0(Penetrate)
G01 X84.414600 Y43.124000 Z-0.125000 F400.000000
G00 Z5.000000

(End cutting path id: path2)


(Start cutting path id: path2)
(Change tool to Default tool)

G00 Z5.000000
G00 X91.195400 Y43.172000

G01 Z-0.125000 F100.0(Penetrate)
G01 X93.677900 Y45.654000 Z-0.125000 F400.000000
G01 X93.959800 Y45.819000 Z-0.125000
G01 X94.187200 Y45.790000 Z-0.125000
G01 X94.274300 Y45.619000 Z-0.125000
G01 X94.135300 Y45.363000 Z-0.125000
G01 X93.850000 Y45.078000 Z-0.125000
G01 X93.720200 Y44.831000 Z-0.125000
G01 X93.827600 Y44.682000 Z-0.125000
G01 X94.075300 Y44.672000 Z-0.125000
G01 X94.366500 Y44.846000 Z-0.125000
G01 X94.600900 Y45.081000 Z-0.125000
G01 X94.885200 Y45.248000 Z-0.125000
G01 X95.118000 Y45.224000 Z-0.125000
G01 X95.210400 Y45.059000 Z-0.125000
G01 X95.073900 Y44.805000 Z-0.125000
G01 X94.883100 Y44.615000 Z-0.125000
G01 X94.753300 Y44.368000 Z-0.125000
G01 X94.860700 Y44.218000 Z-0.125000
G01 X95.108400 Y44.208000 Z-0.125000
G01 X95.399600 Y44.383000 Z-0.125000
G01 X95.553600 Y44.537000 Z-0.125000
G01 X95.840000 Y44.706000 Z-0.125000
G01 X96.077200 Y44.686000 Z-0.125000
G01 X96.174100 Y44.526000 Z-0.125000
G01 X96.039600 Y44.274000 Z-0.125000
G01 X95.916200 Y44.151000 Z-0.125000
G01 X95.786400 Y43.904000 Z-0.125000
G01 X95.893800 Y43.754000 Z-0.125000
G01 X96.141500 Y43.745000 Z-0.125000
G01 X96.432700 Y43.919000 Z-0.125000
G01 X96.531000 Y44.017000 Z-0.125000
G01 X96.818800 Y44.188000 Z-0.125000
G01 X97.059000 Y44.171000 Z-0.125000
G01 X97.158900 Y44.014000 Z-0.125000
G01 X97.025800 Y43.764000 Z-0.125000
G01 X96.949200 Y43.687000 Z-0.125000
G01 X96.819500 Y43.441000 Z-0.125000
G01 X96.926900 Y43.291000 Z-0.125000
G01 X97.174600 Y43.281000 Z-0.125000
G01 X97.465800 Y43.456000 Z-0.125000
G01 X97.520500 Y43.510000 Z-0.125000
G01 X97.809200 Y43.682000 Z-0.125000
G01 X98.051200 Y43.667000 Z-0.125000
G01 X98.153000 Y43.511000 Z-0.125000
G01 X98.020700 Y43.262000 Z-0.125000
G01 X97.982300 Y43.224000 Z-0.125000
G01 X97.852600 Y42.977000 Z-0.125000
G01 X97.960000 Y42.827000 Z-0.125000
G01 X98.207700 Y42.818000 Z-0.125000
G01 X98.498900 Y42.992000 Z-0.125000
G01 X98.528100 Y43.021000 Z-0.125000
G01 X98.820500 Y43.197000 Z-0.125000
G01 X99.071000 Y43.190000 Z-0.125000
G01 X99.181100 Y43.043000 Z-0.125000
G01 X99.052600 Y42.797000 Z-0.125000
G01 X99.015400 Y42.760000 Z-0.125000
G01 X98.885700 Y42.513000 Z-0.125000
G01 X98.993100 Y42.364000 Z-0.125000
G01 X99.240800 Y42.354000 Z-0.125000
G01 X99.532000 Y42.528000 Z-0.125000
G01 X99.607000 Y42.603000 Z-0.125000
G01 X99.923000 Y42.802000 Z-0.125000
G01 X100.225000 Y42.847000 Z-0.125000
G01 X100.387000 Y42.752000 Z-0.125000
G01 X100.283000 Y42.530000 Z-0.125000
G01 X100.049000 Y42.296000 Z-0.125000
G01 X99.918700 Y42.050000 Z-0.125000
G01 X100.026000 Y41.900000 Z-0.125000
G01 X100.274000 Y41.890000 Z-0.125000
G01 X100.565000 Y42.065000 Z-0.125000
G01 X101.874000 Y43.374000 Z-0.125000
G00 Z5.000000

(End cutting path id: path2)


(Start cutting path id: path2)
(Change tool to Default tool)

G00 Z5.000000
G00 X102.894000 Y42.897000

G01 Z-0.125000 F100.0(Penetrate)
G01 X104.897000 Y44.899000 Z-0.125000 F400.000000
G01 X105.208000 Y45.094000 Z-0.125000
G01 X105.500000 Y45.128000 Z-0.125000
G01 X105.651000 Y45.023000 Z-0.125000
G01 X105.541000 Y44.796000 Z-0.125000
G01 X104.828000 Y44.082000 Z-0.125000
G01 X104.775000 Y43.912000 Z-0.125000
G01 X105.051000 Y43.931000 Z-0.125000
G01 X105.835000 Y44.341000 Z-0.125000
G01 X106.180000 Y44.686000 Z-0.125000
G01 X106.486000 Y44.875000 Z-0.125000
G01 X106.766000 Y44.898000 Z-0.125000
G01 X106.905000 Y44.780000 Z-0.125000
G01 X106.790000 Y44.548000 Z-0.125000
G01 X106.603000 Y44.361000 Z-0.125000
G01 X106.494000 Y44.135000 Z-0.125000
G01 X106.647000 Y44.031000 Z-0.125000
G01 X106.940000 Y44.066000 Z-0.125000
G01 X107.252000 Y44.261000 Z-0.125000
G01 X107.344000 Y44.353000 Z-0.125000
G01 X107.618000 Y44.510000 Z-0.125000
G01 X107.828000 Y44.463000 Z-0.125000
G01 X107.897000 Y44.275000 Z-0.125000
G01 X107.750000 Y44.011000 Z-0.125000
G01 X107.634000 Y43.895000 Z-0.125000
G01 X107.354000 Y43.241000 Z-0.125000
G01 X107.425000 Y43.054000 Z-0.125000
G01 X107.635000 Y43.148000 Z-0.125000
G01 X107.767000 Y43.280000 Z-0.125000
G01 X107.965000 Y43.361000 Z-0.125000
G01 X108.007000 Y43.146000 Z-0.125000
G01 X107.686000 Y42.451000 Z-0.125000
G01 X107.409000 Y42.174000 Z-0.125000
G01 X107.211000 Y41.858000 Z-0.125000
G01 X107.166000 Y41.557000 Z-0.125000
G01 X107.263000 Y41.396000 Z-0.125000
G01 X107.485000 Y41.501000 Z-0.125000
G01 X107.773000 Y41.790000 Z-0.125000
G01 X108.026000 Y41.925000 Z-0.125000
G01 X108.189000 Y41.831000 Z-0.125000
G01 X108.212000 Y41.597000 Z-0.125000
G01 X108.044000 Y41.312000 Z-0.125000
G01 X107.840000 Y41.108000 Z-0.125000
G01 X107.706000 Y40.857000 Z-0.125000
G01 X107.803000 Y40.697000 Z-0.125000
G01 X108.041000 Y40.677000 Z-0.125000
G01 X108.327000 Y40.847000 Z-0.125000
G01 X108.467000 Y40.987000 Z-0.125000
G01 X108.762000 Y41.165000 Z-0.125000
G01 X109.018000 Y41.163000 Z-0.125000
G01 X109.134000 Y41.022000 Z-0.125000
G01 X109.007000 Y40.779000 Z-0.125000
G01 X108.865000 Y40.636000 Z-0.125000
G01 X108.744000 Y40.398000 Z-0.125000
G01 X108.869000 Y40.266000 Z-0.125000
G01 X109.135000 Y40.275000 Z-0.125000
G01 X109.435000 Y40.458000 Z-0.125000
G01 X109.624000 Y40.647000 Z-0.125000
G01 X109.939000 Y40.845000 Z-0.125000
G01 X110.240000 Y40.889000 Z-0.125000
G01 X110.401000 Y40.792000 Z-0.125000
G01 X110.295000 Y40.570000 Z-0.125000
G01 X110.037000 Y40.311000 Z-0.125000
G01 X109.924000 Y40.081000 Z-0.125000
G01 X110.069000 Y39.969000 Z-0.125000
G01 X110.355000 Y39.998000 Z-0.125000
G01 X110.663000 Y40.189000 Z-0.125000
G01 X110.997000 Y40.523000 Z-0.125000
G01 X111.320000 Y40.729000 Z-0.125000
G01 X111.639000 Y40.790000 Z-0.125000
G01 X111.816000 Y40.711000 Z-0.125000
G01 X111.719000 Y40.497000 Z-0.125000
G01 X111.326000 Y40.104000 Z-0.125000
G01 X111.228000 Y39.889000 Z-0.125000
G01 X111.405000 Y39.809000 Z-0.125000
G01 X111.723000 Y39.869000 Z-0.125000
G01 X112.046000 Y40.075000 Z-0.125000
G01 X112.454000 Y40.483000 Z-0.125000
G01 X113.106000 Y40.761000 Z-0.125000
G01 X113.291000 Y40.689000 Z-0.125000
G01 X113.197000 Y40.478000 Z-0.125000
G01 X112.693000 Y39.974000 Z-0.125000
G01 X112.547000 Y39.711000 Z-0.125000
G01 X112.620000 Y39.527000 Z-0.125000
G01 X112.833000 Y39.482000 Z-0.125000
G01 X113.108000 Y39.641000 Z-0.125000
G01 X113.955000 Y40.488000 Z-0.125000
G01 X114.619000 Y40.778000 Z-0.125000
G01 X114.813000 Y40.715000 Z-0.125000
G01 X114.723000 Y40.507000 Z-0.125000
G01 X113.307000 Y39.091000 Z-0.125000
G01 X113.108000 Y38.776000 Z-0.125000
G01 X113.063000 Y38.474000 Z-0.125000
G01 X113.159000 Y38.312000 Z-0.125000
G01 X113.381000 Y38.417000 Z-0.125000
G01 X115.503000 Y40.540000 Z-0.125000
G01 X116.181000 Y40.843000 Z-0.125000
G01 X116.385000 Y40.789000 Z-0.125000
G01 X116.298000 Y40.586000 Z-0.125000
G01 X113.405000 Y37.693000 Z-0.125000
G01 X113.128000 Y37.042000 Z-0.125000
G01 X113.201000 Y36.857000 Z-0.125000
G01 X113.412000 Y36.952000 Z-0.125000
G01 X117.122000 Y40.661000 Z-0.125000
G01 X117.822000 Y40.987000 Z-0.125000
G01 X118.040000 Y40.948000 Z-0.125000
G01 X117.961000 Y40.752000 Z-0.125000
G01 X113.402000 Y36.193000 Z-0.125000
G01 X113.098000 Y35.515000 Z-0.125000
G01 X113.153000 Y35.312000 Z-0.125000
G01 X113.356000 Y35.399000 Z-0.125000
G01 X118.822000 Y40.864000 Z-0.125000
G01 X119.661000 Y41.330000 Z-0.125000
G01 X119.975000 Y41.386000 Z-0.125000
G01 X119.939000 Y41.234000 Z-0.125000
G01 X113.218000 Y34.512000 Z-0.125000
G01 X112.611000 Y33.531000 Z-0.125000
G01 X112.456000 Y33.119000 Z-0.125000
G01 X112.470000 Y33.048000 Z-0.125000
G01 X112.565000 Y33.111000 Z-0.125000
G01 X117.816000 Y38.362000 Z-0.125000
G01 X118.003000 Y38.432000 Z-0.125000
G01 X118.022000 Y38.194000 Z-0.125000
G01 X117.667000 Y37.464000 Z-0.125000
G01 X105.648000 Y25.445000 Z-0.125000
G01 X105.501000 Y25.182000 Z-0.125000
G01 X105.571000 Y24.995000 Z-0.125000
G01 X105.782000 Y24.948000 Z-0.125000
G01 X106.056000 Y25.105000 Z-0.125000
G01 X117.604000 Y36.653000 Z-0.125000
G01 X117.804000 Y36.736000 Z-0.125000
G01 X117.851000 Y36.526000 Z-0.125000
G01 X117.537000 Y35.838000 Z-0.125000
G01 X106.623000 Y24.924000 Z-0.125000
G01 X106.514000 Y24.698000 Z-0.125000
G01 X106.666000 Y24.593000 Z-0.125000
G01 X106.959000 Y24.629000 Z-0.125000
G01 X107.271000 Y24.823000 Z-0.125000
G01 X117.455000 Y35.007000 Z-0.125000
G01 X117.648000 Y35.084000 Z-0.125000
G01 X117.681000 Y34.860000 Z-0.125000
G01 X117.347000 Y34.151000 Z-0.125000
G01 X107.971000 Y24.776000 Z-0.125000
G01 X107.879000 Y24.566000 Z-0.125000
G01 X108.068000 Y24.498000 Z-0.125000
G01 X108.726000 Y24.782000 Z-0.125000
G01 X117.191000 Y33.247000 Z-0.125000
G01 X117.375000 Y33.314000 Z-0.125000
G01 X117.386000 Y33.068000 Z-0.125000
G01 X117.019000 Y32.327000 Z-0.125000
G01 X109.551000 Y24.859000 Z-0.125000
G01 X109.489000 Y24.679000 Z-0.125000
G01 X109.745000 Y24.678000 Z-0.125000
G01 X110.500000 Y25.059000 Z-0.125000
G01 X116.826000 Y31.385000 Z-0.125000
G00 Z5.000000

(End cutting path id: path2)


(Start cutting path id: path2)
(Change tool to Default tool)

G00 Z5.000000
G00 X115.807000 Y29.618000

G01 Z-0.125000 F100.0(Penetrate)
G01 X112.110000 Y25.921000 Z-0.125000 F400.000000
G01 X111.977000 Y25.671000 Z-0.125000
G01 X112.076000 Y25.513000 Z-0.125000
G01 X112.316000 Y25.496000 Z-0.125000
G01 X112.604000 Y25.666000 Z-0.125000
G01 X113.700000 Y26.763000 Z-0.125000
G01 X113.795000 Y26.825000 Z-0.125000
G01 X113.807000 Y26.752000 Z-0.125000
G01 X113.649000 Y26.337000 Z-0.125000
G01 X113.036000 Y25.350000 Z-0.125000
G01 X112.488000 Y24.802000 Z-0.125000
G01 X112.276000 Y24.357000 Z-0.125000
G01 X112.204000 Y23.770000 Z-0.125000
G01 X112.272000 Y23.323000 Z-0.125000
G01 X112.359000 Y23.240000 Z-0.125000
G01 X112.481000 Y23.299000 Z-0.125000
G01 X113.002000 Y23.820000 Z-0.125000
G01 X113.278000 Y23.978000 Z-0.125000
G01 X113.491000 Y23.935000 Z-0.125000
G01 X113.564000 Y23.750000 Z-0.125000
G01 X113.419000 Y23.488000 Z-0.125000
G01 X113.234000 Y23.303000 Z-0.125000
G01 X113.144000 Y23.096000 Z-0.125000
G01 X113.338000 Y23.033000 Z-0.125000
G01 X114.003000 Y23.324000 Z-0.125000
G01 X114.076000 Y23.396000 Z-0.125000
G01 X114.743000 Y23.689000 Z-0.125000
G01 X114.938000 Y23.628000 Z-0.125000
G01 X114.849000 Y23.421000 Z-0.125000
G01 X114.779000 Y23.351000 Z-0.125000
G01 X114.689000 Y23.144000 Z-0.125000
G01 X114.883000 Y23.081000 Z-0.125000
G01 X115.548000 Y23.372000 Z-0.125000
G01 X115.674000 Y23.498000 Z-0.125000
G01 X116.363000 Y23.813000 Z-0.125000
G01 X116.573000 Y23.766000 Z-0.125000
G01 X116.490000 Y23.566000 Z-0.125000
G01 X116.341000 Y23.417000 Z-0.125000
G01 X116.251000 Y23.210000 Z-0.125000
G01 X116.448000 Y23.149000 Z-0.125000
G01 X117.116000 Y23.443000 Z-0.125000
G01 X117.319000 Y23.647000 Z-0.125000
G01 X118.013000 Y23.966000 Z-0.125000
G01 X118.227000 Y23.923000 Z-0.125000
G01 X118.146000 Y23.725000 Z-0.125000
G01 X117.884000 Y23.463000 Z-0.125000
G01 X117.790000 Y23.252000 Z-0.125000
G01 X117.978000 Y23.182000 Z-0.125000
G01 X118.633000 Y23.463000 Z-0.125000
G01 X118.962000 Y23.793000 Z-0.125000
G01 X119.646000 Y24.102000 Z-0.125000
G01 X119.853000 Y24.052000 Z-0.125000
G01 X119.768000 Y23.851000 Z-0.125000
G01 X119.370000 Y23.452000 Z-0.125000
G01 X119.270000 Y23.235000 Z-0.125000
G01 X119.443000 Y23.151000 Z-0.125000
G01 X119.757000 Y23.208000 Z-0.125000
G01 X120.078000 Y23.412000 Z-0.125000
G01 X120.478000 Y23.812000 Z-0.125000
G01 X120.785000 Y24.002000 Z-0.125000
G01 X121.069000 Y24.029000 Z-0.125000
G01 X121.213000 Y23.915000 Z-0.125000
G01 X121.100000 Y23.685000 Z-0.125000
G01 X120.755000 Y23.340000 Z-0.125000
G01 X120.644000 Y23.112000 Z-0.125000
G01 X120.792000 Y23.003000 Z-0.125000
G01 X121.080000 Y23.034000 Z-0.125000
G01 X121.390000 Y23.227000 Z-0.125000
G01 X121.614000 Y23.451000 Z-0.125000
G01 X121.892000 Y23.612000 Z-0.125000
G01 X122.111000 Y23.575000 Z-0.125000
G01 X122.191000 Y23.396000 Z-0.125000
G01 X122.048000 Y23.137000 Z-0.125000
G01 X121.949000 Y23.038000 Z-0.125000
G01 X121.834000 Y22.806000 Z-0.125000
G01 X121.946000 Y22.660000 Z-0.125000
G01 X122.187000 Y22.645000 Z-0.125000
G01 X122.462000 Y22.803000 Z-0.125000
G01 X122.492000 Y22.833000 Z-0.125000
G01 X122.723000 Y22.947000 Z-0.125000
G01 X122.909000 Y22.875000 Z-0.125000
G01 X122.980000 Y22.689000 Z-0.125000
G01 X122.866000 Y22.458000 Z-0.125000
G01 X122.866000 Y22.458000 Z-0.125000
G01 X122.748000 Y22.223000 Z-0.125000
G01 X122.808000 Y22.026000 Z-0.125000
G01 X122.984000 Y21.944000 Z-0.125000
G01 X123.209000 Y22.053000 Z-0.125000
G01 X123.209000 Y22.053000 Z-0.125000
G01 X123.429000 Y22.156000 Z-0.125000
G01 X123.592000 Y22.062000 Z-0.125000
G01 X123.640000 Y21.853000 Z-0.125000
G01 X123.516000 Y21.612000 Z-0.125000
G01 X123.490000 Y21.586000 Z-0.125000
G01 X123.325000 Y21.304000 Z-0.125000
G01 X123.320000 Y21.042000 Z-0.125000
G01 X123.443000 Y20.907000 Z-0.125000
G01 X123.661000 Y21.008000 Z-0.125000
G01 X123.739000 Y21.086000 Z-0.125000
G01 X123.986000 Y21.217000 Z-0.125000
G01 X124.138000 Y21.111000 Z-0.125000
G01 X124.150000 Y20.866000 Z-0.125000
G01 X123.976000 Y20.575000 Z-0.125000
G01 X123.783000 Y20.382000 Z-0.125000
G01 X123.580000 Y20.062000 Z-0.125000
G01 X123.525000 Y19.749000 Z-0.125000
G01 X123.610000 Y19.577000 Z-0.125000
G01 X123.827000 Y19.678000 Z-0.125000
G01 X124.161000 Y20.012000 Z-0.125000
G01 X124.384000 Y20.118000 Z-0.125000
G01 X124.482000 Y19.959000 Z-0.125000
G01 X124.440000 Y19.659000 Z-0.125000
G01 X124.242000 Y19.344000 Z-0.125000
G01 X123.826000 Y18.929000 Z-0.125000
G01 X123.492000 Y18.220000 Z-0.125000
G01 X123.525000 Y17.996000 Z-0.125000
G01 X123.719000 Y18.073000 Z-0.125000
G01 X124.328000 Y18.682000 Z-0.125000
G01 X124.557000 Y18.794000 Z-0.125000
G01 X124.667000 Y18.646000 Z-0.125000
G01 X124.636000 Y18.359000 Z-0.125000
G01 X124.444000 Y18.050000 Z-0.125000
G01 X123.164000 Y16.769000 Z-0.125000
G00 Z5.000000

(End cutting path id: path2)


(Start cutting path id: path2)
(Change tool to Default tool)

G00 Z5.000000
G00 X125.035000 Y16.396000

G01 Z-0.125000 F100.0(Penetrate)
G01 X125.212000 Y16.572000 Z-0.125000 F400.000000
G01 X125.380000 Y16.624000 Z-0.125000
G01 X125.503000 Y16.490000 Z-0.125000
G01 X125.538000 Y16.267000 Z-0.125000
G01 X125.442000 Y16.054000 Z-0.125000
G01 X124.935000 Y15.548000 Z-0.125000
G00 Z5.000000

(End cutting path id: path2)


(Start cutting path id: path2)
(Change tool to Default tool)

G00 Z5.000000
G00 X123.725000 Y12.841000

G01 Z-0.125000 F100.0(Penetrate)
G01 X124.196000 Y13.312000 Z-0.125000 F400.000000
G00 Z5.000000

(End cutting path id: path2)


(Start cutting path id: path2)
(Change tool to Default tool)

G00 Z5.000000
G00 X122.624000 Y13.236000

G01 Z-0.125000 F100.0(Penetrate)
G01 X120.472000 Y11.085000 Z-0.125000 F400.000000
G01 X120.411000 Y10.991000 Z-0.125000
G01 X120.483000 Y10.979000 Z-0.125000
G01 X120.900000 Y11.138000 Z-0.125000
G01 X121.888000 Y11.752000 Z-0.125000
G01 X125.604000 Y15.468000 Z-0.125000
G00 Z5.000000

(End cutting path id: path2)


(Start cutting path id: path2)
(Change tool to Default tool)

G00 Z5.000000
G00 X121.572000 Y14.823000

G01 Z-0.125000 F100.0(Penetrate)
G01 X122.457000 Y15.783000 Z-0.125000 F400.000000
G01 X123.027000 Y16.707000 Z-0.125000
G01 X123.332000 Y17.705000 Z-0.125000
G01 X123.423000 Y18.889000 Z-0.125000
G01 X123.362000 Y20.193000 Z-0.125000
G01 X123.140000 Y21.212000 Z-0.125000
G01 X122.700000 Y21.975000 Z-0.125000
G01 X121.983000 Y22.512000 Z-0.125000
G01 X120.932000 Y22.851000 Z-0.125000
G01 X119.487000 Y23.020000 Z-0.125000
G01 X115.187000 Y22.967000 Z-0.125000
G01 X111.224000 Y22.899000 Z-0.125000
G01 X110.317000 Y22.989000 Z-0.125000
G01 X110.202000 Y23.063000 Z-0.125000
G01 X110.339000 Y23.154000 Z-0.125000
G01 X111.317000 Y23.654000 Z-0.125000
G01 X111.999000 Y24.269000 Z-0.125000
G01 X112.299000 Y24.890000 Z-0.125000
G01 X112.130000 Y25.410000 Z-0.125000
G01 X111.650000 Y25.464000 Z-0.125000
G01 X111.027000 Y25.062000 Z-0.125000
G01 X110.537000 Y24.758000 Z-0.125000
G01 X109.818000 Y24.538000 Z-0.125000
G01 X108.020000 Y24.356000 Z-0.125000
G01 X106.289000 Y24.521000 Z-0.125000
G01 X105.654000 Y24.734000 Z-0.125000
G01 X105.283000 Y25.034000 Z-0.125000
G01 X105.229000 Y25.400000 Z-0.125000
G01 X105.406000 Y25.876000 Z-0.125000
G01 X106.319000 Y26.923000 Z-0.125000
G01 X107.787000 Y28.115000 Z-0.125000
G01 X105.377000 Y27.779000 Z-0.125000
G01 X103.413000 Y27.280000 Z-0.125000
G01 X102.075000 Y26.551000 Z-0.125000
G01 X101.662000 Y26.030000 Z-0.125000
G01 X101.629000 Y25.541000 Z-0.125000
G01 X102.021000 Y24.939000 Z-0.125000
G01 X102.888000 Y24.078000 Z-0.125000
G01 X103.862000 Y23.088000 Z-0.125000
G01 X104.135000 Y22.584000 Z-0.125000
G01 X103.713000 Y22.582000 Z-0.125000
G01 X102.599000 Y23.098000 Z-0.125000
G01 X102.041000 Y23.326000 Z-0.125000
G01 X101.564000 Y23.356000 Z-0.125000
G01 X101.138000 Y23.182000 Z-0.125000
G01 X100.732000 Y22.799000 Z-0.125000
G01 X100.399000 Y22.240000 Z-0.125000
G01 X100.252000 Y21.606000 Z-0.125000
G01 X100.284000 Y20.916000 Z-0.125000
G01 X100.487000 Y20.187000 Z-0.125000
G01 X101.380000 Y18.686000 Z-0.125000
G01 X102.875000 Y17.250000 Z-0.125000
G01 X105.339000 Y15.619000 Z-0.125000
G01 X107.942000 Y14.345000 Z-0.125000
G01 X110.596000 Y13.439000 Z-0.125000
G01 X113.213000 Y12.912000 Z-0.125000
G01 X115.707000 Y12.775000 Z-0.125000
G01 X117.989000 Y13.041000 Z-0.125000
G01 X119.974000 Y13.720000 Z-0.125000
G01 X120.827000 Y14.217000 Z-0.125000
G01 X121.572000 Y14.823000 Z-0.125000
G01 X121.572000 Y14.823000 Z-0.125000
G00 Z5.000000

(End cutting path id: path2)


(Start cutting path id: path2)
(Change tool to Default tool)

G00 Z5.000000
G00 X121.726000 Y12.706000

G01 Z-0.125000 F100.0(Penetrate)
G01 X123.494000 Y14.030000 Z-0.125000 F400.000000
G01 X124.661000 Y15.205000 Z-0.125000
G01 X125.081000 Y16.045000 Z-0.125000
G01 X124.966000 Y16.282000 Z-0.125000
G01 X124.610000 Y16.366000 Z-0.125000
G01 X124.076000 Y16.100000 Z-0.125000
G01 X123.650000 Y15.462000 Z-0.125000
G01 X123.257000 Y14.984000 Z-0.125000
G01 X122.440000 Y14.352000 Z-0.125000
G01 X120.018000 Y12.951000 Z-0.125000
G01 X117.556000 Y11.987000 Z-0.125000
G01 X116.383000 Y11.751000 Z-0.125000
G01 X115.186000 Y11.679000 Z-0.125000
G01 X112.521000 Y12.031000 Z-0.125000
G01 X109.175000 Y13.045000 Z-0.125000
G01 X107.454000 Y13.560000 Z-0.125000
G01 X107.050000 Y13.601000 Z-0.125000
G01 X106.946000 Y13.512000 Z-0.125000
G01 X107.628000 Y12.984000 Z-0.125000
G01 X109.473000 Y12.057000 Z-0.125000
G01 X110.784000 Y11.573000 Z-0.125000
G01 X112.304000 Y11.197000 Z-0.125000
G01 X113.915000 Y10.952000 Z-0.125000
G01 X115.500000 Y10.861000 Z-0.125000
G01 X117.330000 Y10.931000 Z-0.125000
G01 X118.801000 Y11.210000 Z-0.125000
G01 X120.179000 Y11.775000 Z-0.125000
G01 X121.726000 Y12.706000 Z-0.125000
G01 X121.726000 Y12.706000 Z-0.125000
G00 Z5.000000

(End cutting path id: path2)


(Start cutting path id: path2)
(Change tool to Default tool)

G00 Z5.000000
G00 X110.365000 Y10.562000

G01 Z-0.125000 F100.0(Penetrate)
G01 X108.255000 Y11.532000 Z-0.125000 F400.000000
G01 X106.450000 Y12.665000 Z-0.125000
G01 X104.917000 Y13.546000 Z-0.125000
G01 X103.459000 Y13.913000 Z-0.125000
G01 X102.689000 Y14.039000 Z-0.125000
G01 X101.846000 Y14.386000 Z-0.125000
G01 X100.156000 Y15.550000 Z-0.125000
G01 X98.823900 Y17.027000 Z-0.125000
G01 X98.427500 Y17.764000 Z-0.125000
G01 X98.283400 Y18.437000 Z-0.125000
G01 X98.643600 Y20.096000 Z-0.125000
G01 X99.509700 Y22.191000 Z-0.125000
G01 X100.376000 Y24.202000 Z-0.125000
G01 X100.736000 Y25.658000 Z-0.125000
G01 X100.846000 Y26.247000 Z-0.125000
G01 X101.159000 Y26.800000 Z-0.125000
G01 X102.304000 Y27.746000 Z-0.125000
G01 X103.984000 Y28.391000 Z-0.125000
G01 X106.013000 Y28.629000 Z-0.125000
G01 X107.417000 Y28.715000 Z-0.125000
G01 X108.505000 Y29.063000 Z-0.125000
G01 X109.540000 Y29.807000 Z-0.125000
G01 X110.782000 Y31.083000 Z-0.125000
G01 X111.940000 Y32.470000 Z-0.125000
G01 X112.612000 Y33.644000 Z-0.125000
G01 X112.923000 Y34.917000 Z-0.125000
G01 X112.999000 Y36.602000 Z-0.125000
G01 X112.960000 Y38.278000 Z-0.125000
G01 X112.771000 Y39.198000 Z-0.125000
G01 X112.323000 Y39.586000 Z-0.125000
G01 X111.506000 Y39.666000 Z-0.125000
G01 X109.971000 Y39.848000 Z-0.125000
G01 X108.376000 Y40.288000 Z-0.125000
G01 X107.566000 Y40.663000 Z-0.125000
G01 X107.124000 Y41.082000 Z-0.125000
G01 X106.995000 Y41.641000 Z-0.125000
G01 X107.122000 Y42.434000 Z-0.125000
G01 X107.268000 Y43.231000 Z-0.125000
G01 X107.165000 Y43.693000 Z-0.125000
G01 X106.743000 Y43.906000 Z-0.125000
G01 X105.935000 Y43.958000 Z-0.125000
G01 X104.313000 Y43.578000 Z-0.125000
G01 X102.619000 Y42.666000 Z-0.125000
G01 X100.872000 Y41.375000 Z-0.125000
G01 X97.161300 Y43.041000 Z-0.125000
G01 X93.450500 Y44.706000 Z-0.125000
G01 X91.728100 Y43.472000 Z-0.125000
G01 X89.624100 Y41.776000 Z-0.125000
G01 X88.159800 Y40.122000 Z-0.125000
G01 X87.255000 Y38.397000 Z-0.125000
G01 X86.829500 Y36.485000 Z-0.125000
G01 X86.723700 Y34.994000 Z-0.125000
G01 X86.889000 Y34.091000 Z-0.125000
G01 X87.463900 Y33.493000 Z-0.125000
G01 X88.586700 Y32.921000 Z-0.125000
G01 X89.538800 Y32.410000 Z-0.125000
G01 X90.170300 Y31.865000 Z-0.125000
G01 X90.522900 Y31.234000 Z-0.125000
G01 X90.638300 Y30.468000 Z-0.125000
G01 X90.793400 Y28.981000 Z-0.125000
G01 X91.138800 Y27.558000 Z-0.125000
G01 X91.269300 Y26.857000 Z-0.125000
G01 X91.255200 Y25.992000 Z-0.125000
G01 X90.865700 Y24.017000 Z-0.125000
G01 X90.115600 Y22.125000 Z-0.125000
G01 X89.650900 Y21.365000 Z-0.125000
G01 X89.150500 Y20.811000 Z-0.125000
G01 X88.493800 Y20.466000 Z-0.125000
G01 X87.538400 Y20.227000 Z-0.125000
G01 X85.132800 Y20.061000 Z-0.125000
G01 X82.736400 Y20.299000 Z-0.125000
G01 X81.792500 Y20.567000 Z-0.125000
G01 X81.151900 Y20.931000 Z-0.125000
G01 X80.548000 Y21.342000 Z-0.125000
G01 X79.820200 Y21.514000 Z-0.125000
G01 X78.826500 Y21.457000 Z-0.125000
G01 X77.424700 Y21.180000 Z-0.125000
G01 X75.882300 Y20.928000 Z-0.125000
G01 X74.050400 Y20.799000 Z-0.125000
G01 X69.978800 Y20.874000 Z-0.125000
G01 X66.131000 Y21.343000 Z-0.125000
G01 X64.578700 Y21.705000 Z-0.125000
G01 X63.427800 Y22.142000 Z-0.125000
G01 X62.287200 Y22.966000 Z-0.125000
G01 X61.619800 Y23.940000 Z-0.125000
G01 X61.481800 Y24.928000 Z-0.125000
G01 X61.628800 Y25.385000 Z-0.125000
G01 X61.929100 Y25.794000 Z-0.125000
G01 X62.185200 Y26.808000 Z-0.125000
G01 X62.190100 Y28.637000 Z-0.125000
G01 X62.175300 Y29.885000 Z-0.125000
G01 X62.368400 Y30.871000 Z-0.125000
G01 X62.816500 Y31.729000 Z-0.125000
G01 X63.566800 Y32.597000 Z-0.125000
G01 X64.311400 Y33.233000 Z-0.125000
G01 X65.117400 Y33.695000 Z-0.125000
G01 X66.014600 Y33.984000 Z-0.125000
G01 X67.032600 Y34.099000 Z-0.125000
G01 X68.201300 Y34.043000 Z-0.125000
G01 X69.550200 Y33.816000 Z-0.125000
G01 X72.908100 Y32.852000 Z-0.125000
G01 X75.145500 Y32.131000 Z-0.125000
G01 X76.566400 Y31.874000 Z-0.125000
G01 X77.736200 Y32.068000 Z-0.125000
G01 X79.220300 Y32.698000 Z-0.125000
G01 X80.589200 Y33.393000 Z-0.125000
G01 X81.333300 Y34.061000 Z-0.125000
G01 X81.644000 Y34.993000 Z-0.125000
G01 X81.712400 Y36.477000 Z-0.125000
G01 X81.978500 Y38.825000 Z-0.125000
G01 X82.595700 Y40.769000 Z-0.125000
G01 X83.589900 Y42.213000 Z-0.125000
G01 X85.118800 Y43.917000 Z-0.125000
G01 X86.932100 Y45.626000 Z-0.125000
G01 X88.779500 Y47.084000 Z-0.125000
G01 X89.645600 Y48.051000 Z-0.125000
G01 X89.909000 Y48.626000 Z-0.125000
G01 X90.005800 Y49.170000 Z-0.125000
G01 X90.095000 Y49.718000 Z-0.125000
G01 X90.362700 Y50.140000 Z-0.125000
G01 X90.808500 Y50.433000 Z-0.125000
G01 X91.432300 Y50.598000 Z-0.125000
G01 X92.087100 Y50.745000 Z-0.125000
G01 X92.450600 Y50.978000 Z-0.125000
G01 X92.547200 Y51.328000 Z-0.125000
G01 X92.401000 Y51.824000 Z-0.125000
G01 X91.860400 Y53.806700 Z-0.125000
G01 X91.689800 Y56.362500 Z-0.125000
G01 X91.888200 Y59.277000 Z-0.125000
G01 X92.454300 Y62.335600 Z-0.125000
G01 X93.495500 Y66.584400 Z-0.125000
G01 X91.903900 Y69.948800 Z-0.125000
G01 X90.779900 Y72.537100 Z-0.125000
G01 X90.312300 Y74.035700 Z-0.125000
G01 X90.201800 Y74.321800 Z-0.125000
G01 X89.877000 Y74.479700 Z-0.125000
G01 X88.626200 Y74.401800 Z-0.125000
G01 X84.373400 Y73.954700 Z-0.125000
G01 X76.516400 Y73.380600 Z-0.125000
G01 X62.720500 Y72.286100 Z-0.125000
G01 X59.348200 Y71.856200 Z-0.125000
G01 X58.894100 Y67.257500 Z-0.125000
G01 X58.305400 Y62.582100 Z-0.125000
G01 X57.527800 Y57.798800 Z-0.125000
G01 X56.615600 Y52.938800 Z-0.125000
G01 X59.029300 Y49.117000 Z-0.125000
G01 X60.889700 Y45.967000 Z-0.125000
G01 X61.440800 Y44.787000 Z-0.125000
G01 X61.754800 Y43.799000 Z-0.125000
G01 X61.843200 Y42.950000 Z-0.125000
G01 X61.717700 Y42.189000 Z-0.125000
G01 X61.389800 Y41.460000 Z-0.125000
G01 X60.871200 Y40.712000 Z-0.125000
G01 X60.236400 Y40.007000 Z-0.125000
G01 X59.599500 Y39.510000 Z-0.125000
G01 X58.951600 Y39.221000 Z-0.125000
G01 X58.284000 Y39.142000 Z-0.125000
G01 X57.587900 Y39.272000 Z-0.125000
G01 X56.854500 Y39.611000 Z-0.125000
G01 X55.240800 Y40.919000 Z-0.125000
G01 X53.876300 Y42.185000 Z-0.125000
G01 X53.217300 Y42.606000 Z-0.125000
G01 X51.732600 Y39.791000 Z-0.125000
G01 X50.093700 Y37.114000 Z-0.125000
G01 X48.046500 Y34.596000 Z-0.125000
G01 X45.880700 Y32.551000 Z-0.125000
G01 X44.843700 Y31.805000 Z-0.125000
G01 X43.885800 Y31.294000 Z-0.125000
G01 X42.680600 Y30.960000 Z-0.125000
G01 X40.916700 Y30.699000 Z-0.125000
G01 X36.374600 Y30.468000 Z-0.125000
G01 X30.836600 Y30.468000 Z-0.125000
G01 X30.833600 Y28.782000 Z-0.125000
G01 X30.627300 Y26.725000 Z-0.125000
G01 X30.095700 Y24.496000 Z-0.125000
G01 X29.358400 Y22.494000 Z-0.125000
G01 X28.535000 Y21.118000 Z-0.125000
G01 X27.903100 Y20.582000 Z-0.125000
G01 X27.147700 Y20.227000 Z-0.125000
G01 X26.309600 Y20.046000 Z-0.125000
G01 X25.429200 Y20.039000 Z-0.125000
G01 X24.547100 Y20.200000 Z-0.125000
G01 X23.704100 Y20.526000 Z-0.125000
G01 X22.940600 Y21.014000 Z-0.125000
G01 X22.297400 Y21.660000 Z-0.125000
G01 X21.388200 Y23.160000 Z-0.125000
G01 X21.170400 Y23.957000 Z-0.125000
G01 X21.112100 Y24.865000 Z-0.125000
G01 X21.479700 Y27.246000 Z-0.125000
G01 X22.501400 Y30.774000 Z-0.125000
G01 X23.976200 Y35.418000 Z-0.125000
G01 X21.982400 Y38.729000 Z-0.125000
G01 X20.064800 Y42.540000 Z-0.125000
G01 X18.312700 Y47.239000 Z-0.125000
G01 X16.820500 Y52.536200 Z-0.125000
G01 X15.682800 Y58.139100 Z-0.125000
G01 X15.134400 Y61.239400 Z-0.125000
G01 X14.687800 Y63.032600 Z-0.125000
G01 X14.246800 Y63.795700 Z-0.125000
G01 X13.998300 Y63.877400 Z-0.125000
G01 X13.715100 Y63.805500 Z-0.125000
G01 X12.293000 Y63.422400 Z-0.125000
G01 X10.230700 Y63.113000 Z-0.125000
G01 X8.875830 Y63.038000 Z-0.125000
G01 X7.925480 Y63.196900 Z-0.125000
G01 X7.169690 Y63.667200 Z-0.125000
G01 X6.398480 Y64.526200 Z-0.125000
G01 X5.612940 Y65.779100 Z-0.125000
G01 X5.227120 Y67.016100 Z-0.125000
G01 X5.233540 Y68.222600 Z-0.125000
G01 X5.624710 Y69.384000 Z-0.125000
G01 X6.393160 Y70.485800 Z-0.125000
G01 X7.531380 Y71.513200 Z-0.125000
G01 X9.031910 Y72.451800 Z-0.125000
G01 X10.887300 Y73.286900 Z-0.125000
G01 X13.930700 Y74.453800 Z-0.125000
G01 X14.107200 Y79.593100 Z-0.125000
G01 X14.438900 Y85.416800 Z-0.125000
G01 X15.024000 Y91.500000 Z-0.125000
G01 X15.821000 Y97.482800 Z-0.125000
G01 X16.788900 Y103.005100 Z-0.125000
G01 X17.996800 Y109.014700 Z-0.125000
G01 X14.606500 Y114.110100 Z-0.125000
G01 X12.400200 Y117.770400 Z-0.125000
G01 X11.730600 Y119.240400 Z-0.125000
G01 X11.340800 Y120.513300 Z-0.125000
G01 X11.223900 Y121.621500 Z-0.125000
G01 X11.373200 Y122.597200 Z-0.125000
G01 X11.781600 Y123.472900 Z-0.125000
G01 X12.442400 Y124.280700 Z-0.125000
G01 X13.101400 Y124.790200 Z-0.125000
G01 X13.890700 Y125.161900 Z-0.125000
G01 X15.670900 Y125.487300 Z-0.125000
G01 X16.567100 Y125.438800 Z-0.125000
G01 X17.404200 Y125.247800 Z-0.125000
G01 X18.134800 Y124.913200 Z-0.125000
G01 X18.711500 Y124.434000 Z-0.125000
G01 X19.693700 Y123.049900 Z-0.125000
G01 X20.733800 Y121.228900 Z-0.125000
G01 X21.815300 Y119.096800 Z-0.125000
G01 X22.800500 Y120.610200 Z-0.125000
G01 X24.388100 Y122.748800 Z-0.125000
G01 X26.285500 Y124.860700 Z-0.125000
G01 X28.208100 Y126.654800 Z-0.125000
G01 X29.871200 Y127.840100 Z-0.125000
G01 X31.107100 Y128.332300 Z-0.125000
G01 X32.812300 Y128.649600 Z-0.125000
G01 X35.227300 Y128.820500 Z-0.125000
G01 X38.592300 Y128.873400 Z-0.125000
G01 X45.428000 Y128.879300 Z-0.125000
G01 X45.788500 Y131.509900 Z-0.125000
G01 X46.112300 Y133.213700 Z-0.125000
G01 X46.576600 Y134.633100 Z-0.125000
G01 X47.179600 Y135.766600 Z-0.125000
G01 X47.919800 Y136.612700 Z-0.125000
G01 X48.795200 Y137.169800 Z-0.125000
G01 X49.804300 Y137.436700 Z-0.125000
G01 X50.945300 Y137.411600 Z-0.125000
G01 X52.216500 Y137.093200 Z-0.125000
G01 X53.266500 Y136.627600 Z-0.125000
G01 X54.060700 Y136.024100 Z-0.125000
G01 X54.606200 Y135.237500 Z-0.125000
G01 X54.910500 Y134.222800 Z-0.125000
G01 X54.980900 Y132.935000 Z-0.125000
G01 X54.824600 Y131.329000 Z-0.125000
G01 X53.861500 Y126.982600 Z-0.125000
G01 X52.028800 Y120.742000 Z-0.125000
G01 X52.287700 Y119.645000 Z-0.125000
G01 X53.238500 Y117.335900 Z-0.125000
G01 X54.682400 Y113.600900 Z-0.125000
G01 X56.174900 Y108.931100 Z-0.125000
G01 X57.343400 Y104.587700 Z-0.125000
G01 X57.815700 Y101.832000 Z-0.125000
G01 X57.881000 Y100.881000 Z-0.125000
G01 X58.009400 Y100.611500 Z-0.125000
G01 X58.242900 Y100.467700 Z-0.125000
G01 X59.150200 Y100.521600 Z-0.125000
G01 X60.851700 Y100.972300 Z-0.125000
G01 X62.467100 Y101.247100 Z-0.125000
G01 X64.118800 Y101.185600 Z-0.125000
G01 X65.750500 Y100.816900 Z-0.125000
G01 X67.305700 Y100.170200 Z-0.125000
G01 X68.728000 Y99.274800 Z-0.125000
G01 X69.961200 Y98.159700 Z-0.125000
G01 X70.948800 Y96.854300 Z-0.125000
G01 X71.634400 Y95.387700 Z-0.125000
G01 X72.149800 Y94.264000 Z-0.125000
G01 X72.977900 Y93.333500 Z-0.125000
G01 X74.330600 Y92.416800 Z-0.125000
G01 X76.419700 Y91.334400 Z-0.125000
G01 X79.492100 Y89.929000 Z-0.125000
G01 X81.732100 Y89.089200 Z-0.125000
G01 X83.103000 Y88.826400 Z-0.125000
G01 X83.451000 Y88.914800 Z-0.125000
G01 X83.568100 Y89.151700 Z-0.125000
G01 X83.296800 Y89.484200 Z-0.125000
G01 X82.558300 Y89.970500 Z-0.125000
G01 X80.130500 Y91.143300 Z-0.125000
G01 X78.522100 Y91.890900 Z-0.125000
G01 X77.064900 Y92.733400 Z-0.125000
G01 X75.770700 Y93.658900 Z-0.125000
G01 X74.651200 Y94.655600 Z-0.125000
G01 X73.718400 Y95.711600 Z-0.125000
G01 X72.983900 Y96.815300 Z-0.125000
G01 X72.459600 Y97.954600 Z-0.125000
G01 X72.157400 Y99.118000 Z-0.125000
G01 X71.895000 Y100.162200 Z-0.125000
G01 X71.465700 Y101.212600 Z-0.125000
G01 X70.925700 Y102.154000 Z-0.125000
G01 X70.331000 Y102.871300 Z-0.125000
G01 X69.558500 Y103.702300 Z-0.125000
G01 X68.928400 Y104.597500 Z-0.125000
G01 X68.121200 Y106.478800 Z-0.125000
G01 X67.957500 Y107.414200 Z-0.125000
G01 X67.962400 Y108.312300 Z-0.125000
G01 X68.142600 Y109.147600 Z-0.125000
G01 X68.504700 Y109.894900 Z-0.125000
G01 X69.264100 Y110.732800 Z-0.125000
G01 X70.150500 Y111.188000 Z-0.125000
G01 X71.113400 Y111.281600 Z-0.125000
G01 X72.102200 Y111.034600 Z-0.125000
G01 X73.066500 Y110.468100 Z-0.125000
G01 X73.955700 Y109.603100 Z-0.125000
G01 X74.719200 Y108.460700 Z-0.125000
G01 X75.306600 Y107.061800 Z-0.125000
G01 X75.563000 Y106.573200 Z-0.125000
G01 X75.970400 Y106.202900 Z-0.125000
G01 X76.502100 Y105.968200 Z-0.125000
G01 X77.131400 Y105.886100 Z-0.125000
G01 X78.651900 Y105.697800 Z-0.125000
G01 X80.269100 Y105.245000 Z-0.125000
G01 X81.147600 Y104.963400 Z-0.125000
G01 X81.752800 Y104.931100 Z-0.125000
G01 X82.190800 Y105.169000 Z-0.125000
G01 X82.567500 Y105.698100 Z-0.125000
G01 X83.979200 Y107.593400 Z-0.125000
G01 X86.123000 Y109.909800 Z-0.125000
G01 X88.293600 Y111.936900 Z-0.125000
G01 X89.785300 Y112.964500 Z-0.125000
G01 X90.386200 Y113.224700 Z-0.125000
G01 X90.506900 Y113.604500 Z-0.125000
G01 X90.097400 Y114.288100 Z-0.125000
G01 X89.107700 Y115.459400 Z-0.125000
G01 X88.133900 Y116.786600 Z-0.125000
G01 X87.501700 Y118.116800 Z-0.125000
G01 X87.202000 Y119.394400 Z-0.125000
G01 X87.225600 Y120.564100 Z-0.125000
G01 X87.563300 Y121.570400 Z-0.125000
G01 X88.205900 Y122.357900 Z-0.125000
G01 X89.144200 Y122.871000 Z-0.125000
G01 X90.368900 Y123.054300 Z-0.125000
G01 X91.169400 Y123.130400 Z-0.125000
G01 X91.741800 Y123.382500 Z-0.125000
G01 X92.134800 Y123.846900 Z-0.125000
G01 X92.397100 Y124.559700 Z-0.125000
G01 X92.721100 Y125.279400 Z-0.125000
G01 X93.323900 Y126.126200 Z-0.125000
G01 X95.021700 Y127.778700 Z-0.125000
G01 X96.296300 Y128.643400 Z-0.125000
G01 X97.509100 Y129.166200 Z-0.125000
G01 X98.917400 Y129.423700 Z-0.125000
G01 X100.779000 Y129.492400 Z-0.125000
G01 X102.690000 Y129.424200 Z-0.125000
G01 X104.098000 Y129.147900 Z-0.125000
G01 X105.332000 Y128.556000 Z-0.125000
G01 X106.718000 Y127.540900 Z-0.125000
G01 X109.146000 Y125.589400 Z-0.125000
G01 X111.745000 Y128.237400 Z-0.125000
G01 X113.071000 Y129.657000 Z-0.125000
G01 X113.764000 Y130.638700 Z-0.125000
G01 X113.929000 Y131.395800 Z-0.125000
G01 X113.672000 Y132.141400 Z-0.125000
G01 X113.161000 Y133.750300 Z-0.125000
G01 X113.031000 Y135.733500 Z-0.125000
G01 X113.271000 Y137.765400 Z-0.125000
G01 X113.873000 Y139.520500 Z-0.125000
G01 X114.851000 Y140.833200 Z-0.125000
G01 X116.220000 Y141.826500 Z-0.125000
G01 X117.897000 Y142.455540 Z-0.125000
G01 X119.797000 Y142.675220 Z-0.125000
G01 X121.455000 Y142.461080 Z-0.125000
G01 X123.171000 Y141.860400 Z-0.125000
G01 X124.870000 Y140.935800 Z-0.125000
G01 X126.479000 Y139.749800 Z-0.125000
G01 X127.923000 Y138.365000 Z-0.125000
G01 X129.127000 Y136.844200 Z-0.125000
G01 X130.017000 Y135.249700 Z-0.125000
G01 X130.520000 Y133.644300 Z-0.125000
G01 X131.156000 Y131.631700 Z-0.125000
G01 X132.107000 Y130.040200 Z-0.125000
G01 X132.688000 Y129.269400 Z-0.125000
G01 X133.138000 Y128.392100 Z-0.125000
G01 X133.634000 Y126.415200 Z-0.125000
G01 X133.575000 Y124.303600 Z-0.125000
G01 X133.332000 Y123.257900 Z-0.125000
G01 X132.941000 Y122.251300 Z-0.125000
G01 X132.367000 Y121.202500 Z-0.125000
G01 X131.711000 Y120.306700 Z-0.125000
G01 X130.966000 Y119.560600 Z-0.125000
G01 X130.128000 Y118.961100 Z-0.125000
G01 X129.192000 Y118.504800 Z-0.125000
G01 X128.151000 Y118.188600 Z-0.125000
G01 X125.735000 Y117.963400 Z-0.125000
G01 X124.701000 Y117.953900 Z-0.125000
G01 X123.818000 Y117.823800 Z-0.125000
G01 X122.964000 Y117.472000 Z-0.125000
G01 X122.023000 Y116.797800 Z-0.125000
G01 X119.397000 Y114.078700 Z-0.125000
G01 X114.989000 Y108.859400 Z-0.125000
G01 X114.540000 Y108.024600 Z-0.125000
G01 X114.556000 Y107.703600 Z-0.125000
G01 X114.739000 Y107.480700 Z-0.125000
G01 X115.065000 Y107.500500 Z-0.125000
G01 X115.514000 Y107.825400 Z-0.125000
G01 X116.544000 Y109.168800 Z-0.125000
G01 X117.324000 Y110.268600 Z-0.125000
G01 X118.256000 Y111.213100 Z-0.125000
G01 X119.319000 Y112.003100 Z-0.125000
G01 X120.488000 Y112.639400 Z-0.125000
G01 X121.740000 Y113.122800 Z-0.125000
G01 X123.051000 Y113.454100 Z-0.125000
G01 X124.397000 Y113.634000 Z-0.125000
G01 X125.755000 Y113.663300 Z-0.125000
G01 X127.102000 Y113.542900 Z-0.125000
G01 X128.413000 Y113.273600 Z-0.125000
G01 X129.666000 Y112.856100 Z-0.125000
G01 X130.836000 Y112.291200 Z-0.125000
G01 X131.901000 Y111.579700 Z-0.125000
G01 X132.835000 Y110.722500 Z-0.125000
G01 X133.617000 Y109.720200 Z-0.125000
G01 X134.222000 Y108.573800 Z-0.125000
G01 X134.699000 Y107.205500 Z-0.125000
G01 X134.992000 Y105.844500 Z-0.125000
G01 X135.110000 Y104.503000 Z-0.125000
G01 X135.060000 Y103.193300 Z-0.125000
G01 X134.852000 Y101.927400 Z-0.125000
G01 X134.493000 Y100.717600 Z-0.125000
G01 X133.992000 Y99.575900 Z-0.125000
G01 X133.357000 Y98.514500 Z-0.125000
G01 X132.597000 Y97.545700 Z-0.125000
G01 X131.720000 Y96.681500 Z-0.125000
G01 X130.734000 Y95.934100 Z-0.125000
G01 X129.648000 Y95.315700 Z-0.125000
G01 X128.470000 Y94.838400 Z-0.125000
G01 X127.209000 Y94.514400 Z-0.125000
G01 X125.872000 Y94.355900 Z-0.125000
G01 X124.468000 Y94.374900 Z-0.125000
G01 X121.910000 Y94.689000 Z-0.125000
G01 X120.241000 Y95.094400 Z-0.125000
G01 X119.695000 Y95.218000 Z-0.125000
G01 X119.272000 Y94.954800 Z-0.125000
G01 X118.900000 Y94.214700 Z-0.125000
G01 X118.508000 Y92.907800 Z-0.125000
G01 X117.546000 Y90.306600 Z-0.125000
G01 X116.113000 Y87.839300 Z-0.125000
G01 X114.328000 Y85.678300 Z-0.125000
G01 X112.310000 Y83.996100 Z-0.125000
G01 X110.067000 Y82.511900 Z-0.125000
G01 X114.546000 Y78.033400 Z-0.125000
G01 X118.310000 Y74.497700 Z-0.125000
G01 X121.070000 Y72.286100 Z-0.125000
G01 X123.166000 Y70.748800 Z-0.125000
G01 X125.122000 Y68.892400 Z-0.125000
G01 X126.704000 Y66.967600 Z-0.125000
G01 X127.677000 Y65.224800 Z-0.125000
G01 X128.141000 Y63.551700 Z-0.125000
G01 X128.338000 Y61.738000 Z-0.125000
G01 X128.277000 Y59.824200 Z-0.125000
G01 X127.968000 Y57.850600 Z-0.125000
G01 X127.419000 Y55.857400 Z-0.125000
G01 X126.638000 Y53.884900 Z-0.125000
G01 X125.635000 Y51.973000 Z-0.125000
G01 X124.418000 Y50.163000 Z-0.125000
G01 X122.386000 Y47.478000 Z-0.125000
G01 X124.439000 Y44.428000 Z-0.125000
G01 X125.719000 Y42.305000 Z-0.125000
G01 X126.749000 Y39.853000 Z-0.125000
G01 X127.806000 Y36.275000 Z-0.125000
G01 X129.165000 Y30.775000 Z-0.125000
G01 X130.173000 Y27.544000 Z-0.125000
G01 X131.522000 Y24.755000 Z-0.125000
G01 X133.155000 Y22.451000 Z-0.125000
G01 X135.017000 Y20.674000 Z-0.125000
G01 X137.049000 Y19.470000 Z-0.125000
G01 X138.113000 Y19.095000 Z-0.125000
G01 X139.197000 Y18.880000 Z-0.125000
G01 X140.297000 Y18.828000 Z-0.125000
G01 X141.404000 Y18.947000 Z-0.125000
G01 X142.512000 Y19.241000 Z-0.125000
G01 X143.613000 Y19.716000 Z-0.125000
G01 X144.864000 Y20.529000 Z-0.125000
G01 X145.627000 Y21.535000 Z-0.125000
G01 X146.006000 Y22.961000 Z-0.125000
G01 X146.110000 Y25.031000 Z-0.125000
G01 X145.905000 Y26.925000 Z-0.125000
G01 X145.314000 Y28.882000 Z-0.125000
G01 X144.375000 Y30.809000 Z-0.125000
G01 X143.123000 Y32.614000 Z-0.125000
G01 X142.124000 Y33.841000 Z-0.125000
G01 X143.590000 Y32.614000 Z-0.125000
G01 X144.780000 Y31.383000 Z-0.125000
G01 X145.754000 Y29.906000 Z-0.125000
G01 X146.494000 Y28.264000 Z-0.125000
G01 X146.984000 Y26.541000 Z-0.125000
G01 X147.206000 Y24.819000 Z-0.125000
G01 X147.144000 Y23.180000 Z-0.125000
G01 X146.781000 Y21.705000 Z-0.125000
G01 X146.100000 Y20.478000 Z-0.125000
G01 X144.924000 Y19.307000 Z-0.125000
G01 X143.540000 Y18.473000 Z-0.125000
G01 X141.998000 Y17.977000 Z-0.125000
G01 X140.349000 Y17.819000 Z-0.125000
G01 X138.644000 Y17.997000 Z-0.125000
G01 X136.935000 Y18.512000 Z-0.125000
G01 X135.272000 Y19.364000 Z-0.125000
G01 X133.706000 Y20.551000 Z-0.125000
G01 X132.589000 Y21.664000 Z-0.125000
G01 X131.572000 Y22.901000 Z-0.125000
G01 X130.646000 Y24.278000 Z-0.125000
G01 X129.804000 Y25.811000 Z-0.125000
G01 X128.335000 Y29.416000 Z-0.125000
G01 X127.100000 Y33.848000 Z-0.125000
G01 X125.843000 Y38.317000 Z-0.125000
G01 X124.539000 Y41.683000 Z-0.125000
G01 X123.782000 Y43.099000 Z-0.125000
G01 X123.338000 Y43.687000 Z-0.125000
G01 X123.190000 Y43.699000 Z-0.125000
G01 X123.067000 Y43.536000 Z-0.125000
G01 X122.828000 Y42.731000 Z-0.125000
G01 X122.535000 Y42.006000 Z-0.125000
G01 X122.031000 Y41.402000 Z-0.125000
G01 X121.302000 Y40.908000 Z-0.125000
G01 X120.332000 Y40.509000 Z-0.125000
G01 X119.199000 Y40.068000 Z-0.125000
G01 X118.537000 Y39.539000 Z-0.125000
G01 X118.203000 Y38.728000 Z-0.125000
G01 X118.054000 Y37.443000 Z-0.125000
G01 X117.759000 Y34.412000 Z-0.125000
G01 X117.273000 Y32.190000 Z-0.125000
G01 X116.492000 Y30.451000 Z-0.125000
G01 X115.313000 Y28.871000 Z-0.125000
G01 X113.939000 Y26.879000 Z-0.125000
G01 X113.506000 Y25.923000 Z-0.125000
G01 X113.328000 Y25.156000 Z-0.125000
G01 X113.356000 Y24.280000 Z-0.125000
G01 X113.499000 Y24.023000 Z-0.125000
G01 X113.791000 Y23.871000 Z-0.125000
G01 X115.010000 Y23.826000 Z-0.125000
G01 X117.391000 Y24.040000 Z-0.125000
G01 X119.712000 Y24.232000 Z-0.125000
G01 X121.142000 Y24.163000 Z-0.125000
G01 X122.121000 Y23.745000 Z-0.125000
G01 X123.085000 Y22.891000 Z-0.125000
G01 X123.693000 Y22.159000 Z-0.125000
G01 X124.190000 Y21.325000 Z-0.125000
G01 X124.526000 Y20.491000 Z-0.125000
G01 X124.649000 Y19.758000 Z-0.125000
G01 X124.869000 Y18.298000 Z-0.125000
G01 X125.397000 Y16.991000 Z-0.125000
G01 X125.727000 Y16.317000 Z-0.125000
G01 X125.769000 Y15.702000 Z-0.125000
G01 X125.497000 Y15.011000 Z-0.125000
G01 X124.889000 Y14.111000 Z-0.125000
G01 X123.634000 Y12.743000 Z-0.125000
G01 X122.118000 Y11.615000 Z-0.125000
G01 X120.391000 Y10.739000 Z-0.125000
G01 X118.503000 Y10.126000 Z-0.125000
G01 X116.506000 Y9.789000 Z-0.125000
G01 X114.450000 Y9.742000 Z-0.125000
G01 X112.386000 Y9.995000 Z-0.125000
G01 X110.365000 Y10.562000 Z-0.125000
G01 X110.365000 Y10.562000 Z-0.125000
G00 Z5.000000

(End cutting path id: path2)


(Start cutting path id: path2)
(Change tool to Default tool)

G00 Z5.000000
G00 X107.378000 Y13.706000

G01 Z-0.125000 F100.0(Penetrate)
G01 X107.671000 Y13.999000 Z-0.125000 F400.000000
G01 X107.922000 Y14.133000 Z-0.125000
G01 X108.162000 Y14.116000 Z-0.125000
G01 X108.291000 Y13.988000 Z-0.125000
G01 X108.208000 Y13.788000 Z-0.125000
G01 X108.194000 Y13.774000 Z-0.125000
G01 X108.127000 Y13.590000 Z-0.125000
G01 X108.273000 Y13.478000 Z-0.125000
G01 X108.523000 Y13.471000 Z-0.125000
G01 X108.769000 Y13.600000 Z-0.125000
G01 X108.770000 Y13.601000 Z-0.125000
G01 X109.013000 Y13.728000 Z-0.125000
G01 X109.257000 Y13.714000 Z-0.125000
G01 X109.398000 Y13.597000 Z-0.125000
G01 X109.329000 Y13.412000 Z-0.125000
G01 X109.329000 Y13.412000 Z-0.125000
G01 X109.260000 Y13.226000 Z-0.125000
G01 X109.399000 Y13.108000 Z-0.125000
G01 X109.643000 Y13.094000 Z-0.125000
G01 X109.886000 Y13.221000 Z-0.125000
G01 X109.893000 Y13.228000 Z-0.125000
G01 X110.146000 Y13.363000 Z-0.125000
G01 X110.400000 Y13.361000 Z-0.125000
G01 X110.547000 Y13.251000 Z-0.125000
G01 X110.478000 Y13.064000 Z-0.125000
G01 X110.465000 Y13.051000 Z-0.125000
G01 X110.383000 Y12.852000 Z-0.125000
G01 X110.521000 Y12.733000 Z-0.125000
G01 X110.773000 Y12.728000 Z-0.125000
G01 X111.033000 Y12.870000 Z-0.125000
G01 X111.048000 Y12.886000 Z-0.125000
G01 X111.326000 Y13.047000 Z-0.125000
G01 X111.598000 Y13.062000 Z-0.125000
G01 X111.749000 Y12.955000 Z-0.125000
G01 X111.663000 Y12.752000 Z-0.125000
G01 X111.644000 Y12.733000 Z-0.125000
G01 X111.538000 Y12.511000 Z-0.125000
G01 X111.674000 Y12.389000 Z-0.125000
G01 X111.941000 Y12.399000 Z-0.125000
G01 X112.229000 Y12.570000 Z-0.125000
G01 X112.257000 Y12.598000 Z-0.125000
G01 X112.569000 Y12.794000 Z-0.125000
G01 X112.864000 Y12.831000 Z-0.125000
G01 X113.018000 Y12.727000 Z-0.125000
G01 X112.909000 Y12.502000 Z-0.125000
G01 X112.845000 Y12.438000 Z-0.125000
G01 X112.731000 Y12.207000 Z-0.125000
G01 X112.874000 Y12.092000 Z-0.125000
G01 X113.156000 Y12.118000 Z-0.125000
G01 X113.463000 Y12.308000 Z-0.125000
G01 X113.583000 Y12.427000 Z-0.125000
G01 X113.903000 Y12.630000 Z-0.125000
G01 X114.214000 Y12.684000 Z-0.125000
G01 X114.384000 Y12.597000 Z-0.125000
G01 X114.283000 Y12.379000 Z-0.125000
G01 X114.105000 Y12.201000 Z-0.125000
G01 X114.000000 Y11.979000 Z-0.125000
G01 X114.161000 Y11.883000 Z-0.125000
G01 X114.462000 Y11.927000 Z-0.125000
G01 X114.778000 Y12.125000 Z-0.125000
G01 X115.014000 Y12.361000 Z-0.125000
G01 X115.678000 Y12.651000 Z-0.125000
G01 X115.871000 Y12.588000 Z-0.125000
G01 X115.781000 Y12.380000 Z-0.125000
G01 X115.493000 Y12.093000 Z-0.125000
G01 X115.405000 Y11.887000 Z-0.125000
G01 X115.603000 Y11.828000 Z-0.125000
G01 X116.274000 Y12.125000 Z-0.125000
G01 X116.592000 Y12.443000 Z-0.125000
G01 X117.317000 Y12.793000 Z-0.125000
G01 X117.552000 Y12.771000 Z-0.125000
G01 X117.480000 Y12.583000 Z-0.125000
G01 X117.142000 Y12.245000 Z-0.125000
G01 X117.088000 Y12.073000 Z-0.125000
G01 X117.360000 Y12.089000 Z-0.125000
G01 X118.139000 Y12.493000 Z-0.125000
G01 X118.472000 Y12.826000 Z-0.125000
G01 X119.435000 Y13.415000 Z-0.125000
G01 X119.833000 Y13.556000 Z-0.125000
G01 X119.836000 Y13.442000 Z-0.125000
G01 X119.333000 Y12.939000 Z-0.125000
G01 X119.272000 Y12.846000 Z-0.125000
G01 X119.346000 Y12.835000 Z-0.125000
G01 X119.766000 Y12.997000 Z-0.125000
G01 X120.759000 Y13.617000 Z-0.125000
G01 X124.620000 Y17.478000 Z-0.125000
G01 X124.865000 Y17.605000 Z-0.125000
G01 X125.010000 Y17.493000 Z-0.125000
G01 X125.014000 Y17.240000 Z-0.125000
G01 X124.838000 Y16.947000 Z-0.125000
G01 X121.997000 Y14.107000 Z-0.125000
G00 Z5.000000

(End cutting path id: path2)


(Start cutting path id: path2)
(Change tool to Default tool)

G00 Z5.000000
G00 X111.234000 Y23.548000

G01 Z-0.125000 F100.0(Penetrate)
G01 X110.989000 Y23.303000 Z-0.125000 F400.000000
G01 X110.917000 Y23.115000 Z-0.125000
G01 X111.103000 Y23.043000 Z-0.125000
G01 X111.706000 Y23.272000 Z-0.125000
G01 X113.183000 Y24.749000 Z-0.125000
G00 Z5.000000

(End cutting path id: path2)


(Start cutting path id: path2)
(Change tool to Default tool)

G00 Z5.000000
G00 X105.675000 Y26.221000

G01 Z-0.125000 F100.0(Penetrate)
G01 X106.253000 Y26.799000 Z-0.125000 F400.000000
G00 Z5.000000

(End cutting path id: path2)


(Start cutting path id: path2)
(Change tool to Default tool)

G00 Z5.000000
G00 X102.859000 Y27.146000

G01 Z-0.125000 F100.0(Penetrate)
G01 X103.684000 Y27.971000 Z-0.125000 F400.000000
G01 X104.429000 Y28.342000 Z-0.125000
G01 X104.678000 Y28.334000 Z-0.125000
G01 X104.612000 Y28.151000 Z-0.125000
G01 X104.381000 Y27.921000 Z-0.125000
G01 X104.323000 Y27.745000 Z-0.125000
G01 X104.586000 Y27.751000 Z-0.125000
G01 X105.352000 Y28.142000 Z-0.125000
G01 X105.442000 Y28.233000 Z-0.125000
G01 X106.079000 Y28.495000 Z-0.125000
G01 X106.278000 Y28.437000 Z-0.125000
G01 X106.206000 Y28.248000 Z-0.125000
G01 X106.203000 Y28.245000 Z-0.125000
G01 X106.149000 Y28.075000 Z-0.125000
G01 X106.385000 Y28.053000 Z-0.125000
G01 X107.072000 Y28.366000 Z-0.125000
G01 X107.072000 Y28.366000 Z-0.125000
G01 X107.871000 Y28.791000 Z-0.125000
G01 X108.183000 Y28.846000 Z-0.125000
G01 X108.164000 Y28.710000 Z-0.125000
G01 X107.689000 Y28.235000 Z-0.125000
G00 Z5.000000

(End cutting path id: path2)


(Start cutting path id: path2)
(Change tool to Default tool)

G00 Z5.000000
G00 X102.819000 Y27.855000

G01 Z-0.125000 F100.0(Penetrate)
G01 X101.138000 Y26.174000 Z-0.125000 F400.000000
G01 X100.819000 Y25.480000 Z-0.125000
G01 X100.862000 Y25.267000 Z-0.125000
G01 X101.061000 Y25.348000 Z-0.125000
G01 X101.171000 Y25.459000 Z-0.125000
G01 X101.414000 Y25.584000 Z-0.125000
G01 X101.554000 Y25.467000 Z-0.125000
G01 X101.554000 Y25.210000 Z-0.125000
G01 X101.375000 Y24.914000 Z-0.125000
G01 X100.711000 Y24.250000 Z-0.125000
G01 X100.639000 Y23.945000 Z-0.125000
G01 X100.874000 Y23.665000 Z-0.125000
G01 X101.249000 Y23.526000 Z-0.125000
G01 X101.599000 Y23.641000 Z-0.125000
G01 X102.078000 Y24.120000 Z-0.125000
G01 X102.230000 Y24.390000 Z-0.125000
G01 X102.174000 Y24.590000 Z-0.125000
G01 X101.976000 Y24.650000 Z-0.125000
G01 X101.708000 Y24.499000 Z-0.125000
G01 X99.901900 Y22.693000 Z-0.125000
G00 Z5.000000

(End cutting path id: path2)


(Start cutting path id: path2)
(Change tool to Default tool)

G00 Z5.000000
G00 X100.534000 Y22.577000

G01 Z-0.125000 F100.0(Penetrate)
G01 X99.452800 Y21.495000 Z-0.125000 F400.000000
G01 X98.972600 Y20.641000 Z-0.125000
G01 X98.905600 Y20.317000 Z-0.125000
G01 X99.053700 Y20.348000 Z-0.125000
G01 X99.828900 Y21.123000 Z-0.125000
G01 X100.051000 Y21.228000 Z-0.125000
G01 X100.147000 Y21.067000 Z-0.125000
G01 X100.103000 Y20.766000 Z-0.125000
G01 X99.904500 Y20.450000 Z-0.125000
G01 X98.753200 Y19.299000 Z-0.125000
G01 X98.453500 Y18.625000 Z-0.125000
G01 X98.510600 Y18.425000 Z-0.125000
G01 X98.715100 Y18.512000 Z-0.125000
G01 X100.140000 Y19.938000 Z-0.125000
G01 X100.340000 Y20.020000 Z-0.125000
G01 X100.475000 Y19.898000 Z-0.125000
G01 X100.500000 Y19.666000 Z-0.125000
G01 X100.374000 Y19.423000 Z-0.125000
G01 X100.316000 Y19.365000 Z-0.125000
G01 X100.257000 Y19.189000 Z-0.125000
G01 X100.352000 Y19.027000 Z-0.125000
G01 X100.526000 Y18.944000 Z-0.125000
G01 X100.707000 Y19.008000 Z-0.125000
G01 X100.741000 Y19.041000 Z-0.125000
G01 X100.884000 Y19.067000 Z-0.125000
G01 X101.022000 Y18.949000 Z-0.125000
G01 X101.052000 Y18.604000 Z-0.125000
G01 X101.036000 Y18.588000 Z-0.125000
G01 X101.113000 Y18.291000 Z-0.125000
G01 X101.409000 Y18.213000 Z-0.125000
G01 X101.409000 Y18.213000 Z-0.125000
G01 X101.701000 Y18.130000 Z-0.125000
