%
(Header)
(Generated by gcodetools from Inkscape.)
(Using default header. To add your own header create file "header" in the output dir.)
M3
(Header end.)
G21 (All units in mm)

(Start cutting path id: path12306)
(Change tool to Default tool)

G00 Z5.000000
G00 X81.112900 Y51.234000

G01 Z-0.125000 F100.0(Penetrate)
G01 X79.918600 Y51.107000 Z-0.125000 F400.000000
G01 X78.833100 Y50.589000 Z-0.125000
G01 X78.009900 Y49.737000 Z-0.125000
G01 X77.602500 Y48.607000 Z-0.125000
G01 X77.534700 Y47.587000 Z-0.125000
G01 X77.806700 Y46.616000 Z-0.125000
G01 X78.367900 Y45.773000 Z-0.125000
G01 X79.167600 Y45.138000 Z-0.125000
G01 X81.612400 Y43.673000 Z-0.125000
G01 X82.734200 Y42.823000 Z-0.125000
G01 X83.558900 Y41.679000 Z-0.125000
G01 X83.672200 Y41.110000 Z-0.125000
G01 X83.615600 Y40.545000 Z-0.125000
G01 X83.086700 Y39.543000 Z-0.125000
G01 X82.160200 Y38.897000 Z-0.125000
G01 X81.606700 Y38.778000 Z-0.125000
G01 X81.024400 Y38.834000 Z-0.125000
G01 X80.268900 Y39.116000 Z-0.125000
G01 X79.647600 Y39.624000 Z-0.125000
G01 X79.178200 Y40.289000 Z-0.125000
G01 X78.878500 Y41.037000 Z-0.125000
G01 X77.280900 Y40.677000 Z-0.125000
G01 X77.889700 Y39.423000 Z-0.125000
G01 X78.852300 Y38.408000 Z-0.125000
G01 X80.075300 Y37.767000 Z-0.125000
G01 X80.755200 Y37.629000 Z-0.125000
G01 X81.465200 Y37.636000 Z-0.125000
G01 X82.712200 Y37.789000 Z-0.125000
G01 X83.866600 Y38.305000 Z-0.125000
G01 X84.761500 Y39.160000 Z-0.125000
G01 X85.059600 Y39.706000 Z-0.125000
G01 X85.230300 Y40.328000 Z-0.125000
G01 X85.277800 Y41.593000 Z-0.125000
G01 X84.891200 Y42.786000 Z-0.125000
G01 X84.151200 Y43.810000 Z-0.125000
G01 X83.138800 Y44.569000 Z-0.125000
G01 X81.120200 Y45.723000 Z-0.125000
G01 X80.162400 Y46.366000 Z-0.125000
G01 X79.388300 Y47.216000 Z-0.125000
G01 X79.208600 Y48.171000 Z-0.125000
G01 X79.497800 Y49.090000 Z-0.125000
G01 X80.156500 Y49.787000 Z-0.125000
G01 X81.085400 Y50.074000 Z-0.125000
G01 X81.896200 Y49.980000 Z-0.125000
G01 X82.604400 Y49.586000 Z-0.125000
G01 X83.174200 Y48.986000 Z-0.125000
G01 X83.569900 Y48.273000 Z-0.125000
G01 X85.025000 Y48.709000 Z-0.125000
G01 X84.530700 Y49.721000 Z-0.125000
G01 X83.734100 Y50.510000 Z-0.125000
G01 X82.730400 Y51.026000 Z-0.125000
G01 X81.614600 Y51.224000 Z-0.125000
G01 X81.112900 Y51.234000 Z-0.125000
G01 X81.112900 Y51.234000 Z-0.125000
G00 Z5.000000

(End cutting path id: path12306)


(Start cutting path id: path12306)
(Change tool to Default tool)

G00 Z5.000000
G00 X80.771100 Y51.476000

G01 Z-0.125000 F100.0(Penetrate)
G01 X79.550300 Y51.271000 Z-0.125000 F400.000000
G01 X78.482200 Y50.662000 Z-0.125000
G01 X77.697400 Y49.727000 Z-0.125000
G01 X77.326600 Y48.546000 Z-0.125000
G01 X77.275700 Y47.563000 Z-0.125000
G01 X77.507100 Y46.619000 Z-0.125000
G01 X78.001700 Y45.785000 Z-0.125000
G01 X78.740600 Y45.134000 Z-0.125000
G01 X79.853100 Y44.379000 Z-0.125000
G01 X81.034100 Y43.711000 Z-0.125000
G01 X82.158500 Y42.970000 Z-0.125000
G01 X83.100900 Y42.001000 Z-0.125000
G01 X83.336400 Y41.525000 Z-0.125000
G01 X83.406100 Y41.017000 Z-0.125000
G01 X83.123900 Y40.034000 Z-0.125000
G01 X82.404900 Y39.299000 Z-0.125000
G01 X81.928600 Y39.102000 Z-0.125000
G01 X81.399700 Y39.061000 Z-0.125000
G01 X80.544800 Y39.265000 Z-0.125000
G01 X79.855700 Y39.788000 Z-0.125000
G01 X79.355600 Y40.520000 Z-0.125000
G01 X79.068000 Y41.349000 Z-0.125000
G01 X76.944900 Y40.873000 Z-0.125000
G01 X77.533400 Y39.494000 Z-0.125000
G01 X78.505100 Y38.343000 Z-0.125000
G01 X79.775900 Y37.582000 Z-0.125000
G01 X80.497000 Y37.399000 Z-0.125000
G01 X81.261300 Y37.375000 Z-0.125000
G01 X82.543000 Y37.482000 Z-0.125000
G01 X83.759200 Y37.925000 Z-0.125000
G01 X84.753700 Y38.708000 Z-0.125000
G01 X85.370400 Y39.837000 Z-0.125000
G01 X85.575700 Y41.179000 Z-0.125000
G01 X85.314500 Y42.498000 Z-0.125000
G01 X84.643200 Y43.666000 Z-0.125000
G01 X83.618200 Y44.556000 Z-0.125000
G01 X81.607100 Y45.755000 Z-0.125000
G01 X80.610800 Y46.363000 Z-0.125000
G01 X79.737900 Y47.130000 Z-0.125000
G01 X79.478800 Y47.908000 Z-0.125000
G01 X79.600600 Y48.716000 Z-0.125000
G01 X80.054800 Y49.385000 Z-0.125000
G01 X80.792600 Y49.750000 Z-0.125000
G01 X81.641800 Y49.779000 Z-0.125000
G01 X82.386300 Y49.421000 Z-0.125000
G01 X82.980500 Y48.803000 Z-0.125000
G01 X83.379000 Y48.054000 Z-0.125000
G01 X83.684400 Y48.012000 Z-0.125000
G01 X84.048400 Y48.111000 Z-0.125000
G01 X84.790000 Y48.354000 Z-0.125000
G01 X85.159300 Y48.449000 Z-0.125000
G01 X85.291400 Y48.672000 Z-0.125000
G01 X85.060100 Y49.295000 Z-0.125000
G01 X84.330200 Y50.371000 Z-0.125000
G01 X83.292800 Y51.082000 Z-0.125000
G01 X82.066800 Y51.444000 Z-0.125000
G01 X80.771100 Y51.476000 Z-0.125000
G01 X80.771100 Y51.476000 Z-0.125000
G00 Z5.000000

(End cutting path id: path12306)


(Start cutting path id: path12306)
(Change tool to Default tool)

G00 Z5.000000
G00 X88.653900 Y46.049000

G01 Z-0.125000 F100.0(Penetrate)
G01 X88.671000 Y43.076000 Z-0.125000 F400.000000
G01 X88.822400 Y40.114000 Z-0.125000
G01 X89.310800 Y38.981000 Z-0.125000
G01 X90.167600 Y38.119000 Z-0.125000
G01 X91.267700 Y37.570000 Z-0.125000
G01 X92.486200 Y37.378000 Z-0.125000
G01 X93.667500 Y37.382000 Z-0.125000
G01 X94.838100 Y37.589000 Z-0.125000
G01 X95.906300 Y38.066000 Z-0.125000
G01 X96.780900 Y38.881000 Z-0.125000
G01 X97.271700 Y39.999000 Z-0.125000
G01 X97.434900 Y41.205000 Z-0.125000
G01 X97.451300 Y43.670000 Z-0.125000
G01 X97.456600 Y51.308000 Z-0.125000
G01 X95.323800 Y51.308000 Z-0.125000
G01 X95.329300 Y46.038000 Z-0.125000
G01 X95.216400 Y40.771000 Z-0.125000
G01 X94.971700 Y40.152000 Z-0.125000
G01 X94.545900 Y39.684000 Z-0.125000
G01 X93.991400 Y39.372000 Z-0.125000
G01 X93.360800 Y39.217000 Z-0.125000
G01 X92.706600 Y39.223000 Z-0.125000
G01 X92.081500 Y39.394000 Z-0.125000
G01 X91.537900 Y39.732000 Z-0.125000
G01 X91.128500 Y40.240000 Z-0.125000
G01 X90.920600 Y41.277000 Z-0.125000
G01 X90.864900 Y42.338000 Z-0.125000
G01 X90.860500 Y44.468000 Z-0.125000
G01 X90.855100 Y51.308000 Z-0.125000
G01 X88.620700 Y51.308000 Z-0.125000
G01 X88.653900 Y46.049000 Z-0.125000
G01 X88.653900 Y46.049000 Z-0.125000
G00 Z5.000000

(End cutting path id: path12306)


(Start cutting path id: path12306)
(Change tool to Default tool)

G00 Z5.000000
G00 X88.917600 Y46.053000

G01 Z-0.125000 F100.0(Penetrate)
G01 X88.931600 Y42.964000 Z-0.125000 F400.000000
G01 X88.976700 Y41.422000 Z-0.125000
G01 X89.155900 Y39.892000 Z-0.125000
G01 X89.760400 Y38.835000 Z-0.125000
G01 X90.711400 Y38.101000 Z-0.125000
G01 X91.866000 Y37.695000 Z-0.125000
G01 X93.081600 Y37.623000 Z-0.125000
G01 X94.307500 Y37.728000 Z-0.125000
G01 X95.483900 Y38.138000 Z-0.125000
G01 X96.436500 Y38.880000 Z-0.125000
G01 X96.774400 Y39.384000 Z-0.125000
G01 X96.990800 Y39.981000 Z-0.125000
G01 X97.159000 Y41.194000 Z-0.125000
G01 X97.189800 Y42.420000 Z-0.125000
G01 X97.188100 Y44.878000 Z-0.125000
G01 X97.193000 Y51.045000 Z-0.125000
G01 X96.265000 Y51.070000 Z-0.125000
G01 X95.829400 Y51.054000 Z-0.125000
G01 X95.587000 Y50.845000 Z-0.125000
G01 X95.595900 Y45.688000 Z-0.125000
G01 X95.433200 Y40.541000 Z-0.125000
G01 X95.113400 Y39.890000 Z-0.125000
G01 X94.608900 Y39.406000 Z-0.125000
G01 X93.976400 Y39.091000 Z-0.125000
G01 X93.272300 Y38.950000 Z-0.125000
G01 X92.553400 Y38.984000 Z-0.125000
G01 X91.876000 Y39.197000 Z-0.125000
G01 X91.297000 Y39.594000 Z-0.125000
G01 X90.872600 Y40.176000 Z-0.125000
G01 X90.641400 Y41.532000 Z-0.125000
G01 X90.590600 Y42.908000 Z-0.125000
G01 X90.596200 Y45.669000 Z-0.125000
G01 X90.591400 Y51.045000 Z-0.125000
G01 X89.675100 Y51.058000 Z-0.125000
G01 X88.886900 Y50.945000 Z-0.125000
G01 X88.917600 Y46.053000 Z-0.125000
G01 X88.917600 Y46.053000 Z-0.125000
G00 Z5.000000

(End cutting path id: path12306)


(Start cutting path id: path12306)
(Change tool to Default tool)

G00 Z5.000000
G00 X91.581900 Y37.226000

G01 Z-0.125000 F100.0(Penetrate)
G01 X90.517300 Y37.589000 Z-0.125000 F400.000000
G01 X89.659100 Y38.172000 Z-0.125000
G01 X89.012500 Y38.967000 Z-0.125000
G01 X88.583100 Y39.972000 Z-0.125000
G01 X88.445300 Y41.356000 Z-0.125000
G01 X88.389500 Y46.046000 Z-0.125000
G01 X88.354400 Y51.571000 Z-0.125000
G01 X89.736200 Y51.571000 Z-0.125000
G01 X91.118000 Y51.571000 Z-0.125000
G01 X91.118000 Y46.361000 Z-0.125000
G01 X91.195000 Y41.156000 Z-0.125000
G01 X91.371800 Y40.340000 Z-0.125000
G01 X91.712500 Y39.939000 Z-0.125000
G01 X92.376400 Y39.564000 Z-0.125000
G01 X93.269200 Y39.469000 Z-0.125000
G01 X94.046000 Y39.674000 Z-0.125000
G01 X94.634000 Y40.144000 Z-0.125000
G01 X94.960600 Y40.842000 Z-0.125000
G01 X95.061000 Y46.441000 Z-0.125000
G01 X95.061000 Y51.571000 Z-0.125000
G01 X96.390600 Y51.571000 Z-0.125000
G01 X97.720200 Y51.571000 Z-0.125000
G01 X97.720200 Y46.040000 Z-0.125000
G01 X97.657400 Y40.695000 Z-0.125000
G01 X97.503900 Y39.754000 Z-0.125000
G01 X97.202500 Y39.074000 Z-0.125000
G01 X96.760600 Y38.431000 Z-0.125000
G01 X96.151100 Y37.902000 Z-0.125000
G01 X95.388100 Y37.498000 Z-0.125000
G01 X94.485700 Y37.228000 Z-0.125000
G01 X93.016700 Y37.096000 Z-0.125000
G01 X91.581900 Y37.226000 Z-0.125000
G01 X91.581900 Y37.226000 Z-0.125000
G00 Z5.000000

(End cutting path id: path12306)


(Start cutting path id: path12306)
(Change tool to Default tool)

G00 Z5.000000
G00 X80.206100 Y37.177000

G01 Z-0.125000 F100.0(Penetrate)
G01 X79.374200 Y37.458000 Z-0.125000 F400.000000
G01 X78.589000 Y37.929000 Z-0.125000
G01 X77.892600 Y38.560000 Z-0.125000
G01 X77.326800 Y39.318000 Z-0.125000
G01 X76.643500 Y41.068000 Z-0.125000
G01 X77.822000 Y41.343000 Z-0.125000
G01 X79.118800 Y41.631000 Z-0.125000
G01 X79.260700 Y41.569000 Z-0.125000
G01 X79.378800 Y41.218000 Z-0.125000
G01 X79.743500 Y40.371000 Z-0.125000
G01 X80.311100 Y39.717000 Z-0.125000
G01 X81.266600 Y39.330000 Z-0.125000
G01 X82.183300 Y39.488000 Z-0.125000
G01 X82.870600 Y40.099000 Z-0.125000
G01 X83.068600 Y40.546000 Z-0.125000
G01 X83.137900 Y41.072000 Z-0.125000
G01 X82.996500 Y41.658000 Z-0.125000
G01 X82.577700 Y42.252000 Z-0.125000
G01 X81.881000 Y42.856000 Z-0.125000
G01 X80.905700 Y43.469000 Z-0.125000
G01 X79.066100 Y44.572000 Z-0.125000
G01 X77.902500 Y45.515000 Z-0.125000
G01 X77.270300 Y46.450000 Z-0.125000
G01 X77.024700 Y47.528000 Z-0.125000
G01 X77.040100 Y48.446000 Z-0.125000
G01 X77.233600 Y49.307000 Z-0.125000
G01 X77.591600 Y50.069000 Z-0.125000
G01 X78.100200 Y50.694000 Z-0.125000
G01 X78.733400 Y51.181000 Z-0.125000
G01 X79.442000 Y51.510000 Z-0.125000
G01 X80.272200 Y51.696000 Z-0.125000
G01 X81.270300 Y51.755000 Z-0.125000
G01 X82.609200 Y51.608000 Z-0.125000
G01 X83.727500 Y51.169000 Z-0.125000
G01 X84.623100 Y50.438000 Z-0.125000
G01 X85.294200 Y49.416000 Z-0.125000
G01 X85.577300 Y48.796000 Z-0.125000
G01 X85.593900 Y48.452000 Z-0.125000
G01 X85.257600 Y48.231000 Z-0.125000
G01 X84.482200 Y47.982000 Z-0.125000
G01 X83.283700 Y47.647000 Z-0.125000
G01 X83.009100 Y48.208000 Z-0.125000
G01 X82.508900 Y48.966000 Z-0.125000
G01 X81.897900 Y49.418000 Z-0.125000
G01 X81.211300 Y49.551000 Z-0.125000
G01 X80.484500 Y49.347000 Z-0.125000
G01 X79.928500 Y48.834000 Z-0.125000
G01 X79.747600 Y48.037000 Z-0.125000
G01 X79.835200 Y47.507000 Z-0.125000
G01 X80.164400 Y47.036000 Z-0.125000
G01 X81.948400 Y45.880000 Z-0.125000
G01 X84.310600 Y44.359000 Z-0.125000
G01 X84.987000 Y43.663000 Z-0.125000
G01 X85.445000 Y42.909000 Z-0.125000
G01 X85.721500 Y42.111000 Z-0.125000
G01 X85.833100 Y41.269000 Z-0.125000
G01 X85.779000 Y40.407000 Z-0.125000
G01 X85.558200 Y39.550000 Z-0.125000
G01 X85.193600 Y38.844000 Z-0.125000
G01 X84.651100 Y38.227000 Z-0.125000
G01 X83.957700 Y37.722000 Z-0.125000
G01 X83.140400 Y37.355000 Z-0.125000
G01 X81.677600 Y37.127000 Z-0.125000
G01 X80.206100 Y37.177000 Z-0.125000
G01 X80.206100 Y37.177000 Z-0.125000
G00 Z5.000000

(End cutting path id: path12306)


(Start cutting path id: path12306)
(Change tool to Default tool)

G00 Z5.000000
G00 X69.481300 Y47.576000

G01 Z-0.125000 F100.0(Penetrate)
G01 X66.432400 Y49.462000 Z-0.125000 F400.000000
G01 X66.359900 Y47.674000 Z-0.125000
G01 X66.359900 Y45.886000 Z-0.125000
G01 X65.030300 Y45.886000 Z-0.125000
G01 X63.700700 Y45.886000 Z-0.125000
G01 X63.700700 Y48.729000 Z-0.125000
G01 X63.700700 Y51.571000 Z-0.125000
G01 X65.757300 Y51.571000 Z-0.125000
G01 X68.972600 Y51.395000 Z-0.125000
G01 X69.942800 Y51.124000 Z-0.125000
G01 X70.738200 Y50.688000 Z-0.125000
G01 X71.565400 Y49.827000 Z-0.125000
G01 X72.138200 Y48.657000 Z-0.125000
G01 X72.405800 Y47.266000 Z-0.125000
G01 X72.487600 Y45.986000 Z-0.125000
G01 X72.457800 Y45.691000 Z-0.125000
G01 X69.481300 Y47.576000 Z-0.125000
G00 Z5.000000

(End cutting path id: path12306)


(Start cutting path id: path12306)
(Change tool to Default tool)

G00 Z5.000000
G00 X63.964400 Y48.728000

G01 Z-0.125000 F100.0(Penetrate)
G01 X63.964400 Y46.150000 Z-0.125000 F400.000000
G01 X66.095300 Y46.150000 Z-0.125000
G01 X66.091200 Y48.018000 Z-0.125000
G01 X66.247600 Y49.871000 Z-0.125000
G01 X72.230100 Y46.148000 Z-0.125000
G01 X72.123700 Y47.443000 Z-0.125000
G01 X71.819500 Y48.726000 Z-0.125000
G01 X71.218500 Y49.858000 Z-0.125000
G01 X70.222300 Y50.699000 Z-0.125000
G01 X68.835400 Y51.140000 Z-0.125000
G01 X67.386900 Y51.292000 Z-0.125000
G01 X64.455500 Y51.308000 Z-0.125000
G01 X64.037300 Y51.254000 Z-0.125000
G01 X63.938200 Y50.880000 Z-0.125000
G01 X63.964400 Y49.908000 Z-0.125000
G01 X63.964400 Y48.728000 Z-0.125000
G01 X63.964400 Y48.728000 Z-0.125000
G00 Z5.000000

(End cutting path id: path12306)


(Start cutting path id: path12306)
(Change tool to Default tool)

G00 Z5.000000
G00 X64.241800 Y51.068000

G01 Z-0.125000 F100.0(Penetrate)
G01 X64.228100 Y46.414000 Z-0.125000 F400.000000
G01 X65.156000 Y46.388000 Z-0.125000
G01 X65.591600 Y46.404000 Z-0.125000
G01 X65.835400 Y46.614000 Z-0.125000
G01 X65.837700 Y48.462000 Z-0.125000
G01 X66.052300 Y50.295000 Z-0.125000
G01 X71.939100 Y46.646000 Z-0.125000
G01 X71.784800 Y47.876000 Z-0.125000
G01 X71.383300 Y49.071000 Z-0.125000
G01 X70.671900 Y50.059000 Z-0.125000
G01 X70.180300 Y50.422000 Z-0.125000
G01 X69.587800 Y50.668000 Z-0.125000
G01 X68.283700 Y50.958000 Z-0.125000
G01 X66.943900 Y51.036000 Z-0.125000
G01 X64.241800 Y51.068000 Z-0.125000
G01 X64.241800 Y51.068000 Z-0.125000
G00 Z5.000000

(End cutting path id: path12306)


(Start cutting path id: path12306)
(Change tool to Default tool)

G00 Z5.000000
G00 X64.228100 Y40.238000

G01 Z-0.125000 F100.0(Penetrate)
G01 X64.228100 Y37.789000 Z-0.125000 F400.000000
G01 X67.035000 Y37.819000 Z-0.125000
G01 X68.431300 Y37.908000 Z-0.125000
G01 X69.798400 Y38.193000 Z-0.125000
G01 X70.749800 Y38.842000 Z-0.125000
G01 X71.396600 Y39.770000 Z-0.125000
G01 X71.773500 Y40.862000 Z-0.125000
G01 X71.915600 Y42.002000 Z-0.125000
G01 X71.887900 Y42.371000 Z-0.125000
G01 X71.573700 Y42.260000 Z-0.125000
G01 X70.757500 Y41.723000 Z-0.125000
G01 X65.987900 Y38.773000 Z-0.125000
G01 X65.836000 Y40.732000 Z-0.125000
G01 X65.833600 Y42.699000 Z-0.125000
G01 X64.905500 Y42.724000 Z-0.125000
G01 X64.470100 Y42.708000 Z-0.125000
G01 X64.228100 Y42.499000 Z-0.125000
G01 X64.228100 Y40.238000 Z-0.125000
G01 X64.228100 Y40.238000 Z-0.125000
G00 Z5.000000

(End cutting path id: path12306)


(Start cutting path id: path12306)
(Change tool to Default tool)

G00 Z5.000000
G00 X63.964400 Y40.238000

G01 Z-0.125000 F100.0(Penetrate)
G01 X63.964400 Y37.515000 Z-0.125000 F400.000000
G01 X66.665300 Y37.553000 Z-0.125000
G01 X69.348900 Y37.770000 Z-0.125000
G01 X70.384300 Y38.210000 Z-0.125000
G01 X71.201300 Y38.957000 Z-0.125000
G01 X71.768200 Y39.920000 Z-0.125000
G01 X72.053200 Y41.006000 Z-0.125000
G01 X72.224200 Y42.951000 Z-0.125000
G01 X66.202700 Y39.214000 Z-0.125000
G01 X66.092800 Y41.085000 Z-0.125000
G01 X66.095300 Y42.963000 Z-0.125000
G01 X63.964400 Y42.963000 Z-0.125000
G01 X63.964400 Y40.238000 Z-0.125000
G01 X63.964400 Y40.238000 Z-0.125000
G00 Z5.000000

(End cutting path id: path12306)


(Start cutting path id: path12306)
(Change tool to Default tool)

G00 Z5.000000
G00 X63.700700 Y40.237000

G01 Z-0.125000 F100.0(Penetrate)
G01 X63.700700 Y43.227000 Z-0.125000 F400.000000
G01 X65.030300 Y43.227000 Z-0.125000
G01 X66.359900 Y43.227000 Z-0.125000
G01 X66.359900 Y41.439000 Z-0.125000
G01 X66.408800 Y39.651000 Z-0.125000
G01 X69.407000 Y41.507000 Z-0.125000
G01 X72.444400 Y43.400000 Z-0.125000
G01 X72.470000 Y42.328000 Z-0.125000
G01 X72.203000 Y40.443000 Z-0.125000
G01 X71.617100 Y39.050000 Z-0.125000
G01 X70.669800 Y38.085000 Z-0.125000
G01 X69.318700 Y37.482000 Z-0.125000
G01 X66.245300 Y37.290000 Z-0.125000
G01 X63.700700 Y37.247000 Z-0.125000
G01 X63.700700 Y40.237000 Z-0.125000
G00 Z5.000000

(End cutting path id: path12306)


(Start cutting path id: path12306)
(Change tool to Default tool)

G00 Z5.000000
G00 X48.986800 Y37.379000

G01 Z-0.125000 F100.0(Penetrate)
G01 X47.517400 Y44.327000 Z-0.125000 F400.000000
G01 X46.035000 Y51.365000 Z-0.125000
G01 X45.983400 Y51.571000 Z-0.125000
G01 X47.254100 Y51.571000 Z-0.125000
G01 X48.524900 Y51.571000 Z-0.125000
G01 X49.485100 Y46.896000 Z-0.125000
G01 X50.500700 Y42.289000 Z-0.125000
G01 X51.450100 Y46.619000 Z-0.125000
G01 X52.432400 Y51.227000 Z-0.125000
G01 X52.520700 Y51.571000 Z-0.125000
G01 X53.830000 Y51.571000 Z-0.125000
G01 X55.139300 Y51.571000 Z-0.125000
G01 X56.081200 Y47.101000 Z-0.125000
G01 X57.016500 Y42.689000 Z-0.125000
G01 X57.126200 Y42.249000 Z-0.125000
G01 X57.160800 Y42.250000 Z-0.125000
G01 X58.140200 Y46.908000 Z-0.125000
G01 X59.079300 Y51.525000 Z-0.125000
G01 X60.335500 Y51.551000 Z-0.125000
G01 X61.589400 Y51.459000 Z-0.125000
G01 X60.047200 Y44.327000 Z-0.125000
G01 X58.507200 Y37.312000 Z-0.125000
G01 X57.183500 Y37.287000 Z-0.125000
G01 X55.859800 Y37.262000 Z-0.125000
G01 X54.858200 Y42.169000 Z-0.125000
G01 X53.810100 Y47.030000 Z-0.125000
G01 X52.694300 Y42.148000 Z-0.125000
G01 X51.625100 Y37.312000 Z-0.125000
G01 X50.325200 Y37.287000 Z-0.125000
G01 X48.986700 Y37.379000 Z-0.125000
G01 X48.986800 Y37.379000 Z-0.125000
G00 Z5.000000

(End cutting path id: path12306)


(Start cutting path id: path12306)
(Change tool to Default tool)

G00 Z5.000000
G00 X47.776900 Y44.382000

G01 Z-0.125000 F100.0(Penetrate)
G01 X49.216400 Y37.570000 Z-0.125000 F400.000000
G01 X51.411700 Y37.572000 Z-0.125000
G01 X53.798400 Y48.062000 Z-0.125000
G01 X55.003600 Y42.812000 Z-0.125000
G01 X56.075800 Y37.529000 Z-0.125000
G01 X58.294500 Y37.572000 Z-0.125000
G01 X61.280900 Y51.285000 Z-0.125000
G01 X59.296500 Y51.265000 Z-0.125000
G01 X58.363700 Y46.657000 Z-0.125000
G01 X57.360900 Y42.072000 Z-0.125000
G01 X57.137700 Y41.885000 Z-0.125000
G01 X56.942100 Y42.065000 Z-0.125000
G01 X56.736700 Y42.732000 Z-0.125000
G01 X54.925400 Y51.308000 Z-0.125000
G01 X52.726200 Y51.308000 Z-0.125000
G01 X51.652400 Y46.281000 Z-0.125000
G01 X50.517200 Y41.267000 Z-0.125000
G01 X49.338100 Y46.270000 Z-0.125000
G01 X48.308200 Y51.308000 Z-0.125000
G01 X46.318000 Y51.308000 Z-0.125000
G01 X47.776900 Y44.383000 Z-0.125000
G01 X47.776900 Y44.382000 Z-0.125000
G00 Z5.000000

(End cutting path id: path12306)


(Start cutting path id: path12306)
(Change tool to Default tool)

G00 Z5.000000
G00 X48.036700 Y44.437000

G01 Z-0.125000 F100.0(Penetrate)
G01 X49.433200 Y37.826000 Z-0.125000 F400.000000
G01 X51.198800 Y37.832000 Z-0.125000
G01 X52.446300 Y43.473000 Z-0.125000
G01 X53.790600 Y49.092000 Z-0.125000
G01 X55.138000 Y43.467000 Z-0.125000
G01 X56.290600 Y37.797000 Z-0.125000
G01 X57.245900 Y37.804000 Z-0.125000
G01 X58.103100 Y37.930000 Z-0.125000
G01 X60.956600 Y51.027000 Z-0.125000
G01 X60.174600 Y51.034000 Z-0.125000
G01 X59.493200 Y50.908000 Z-0.125000
G01 X58.583900 Y46.409000 Z-0.125000
G01 X57.585500 Y41.934000 Z-0.125000
G01 X57.355300 Y41.671000 Z-0.125000
G01 X57.048100 Y41.654000 Z-0.125000
G01 X56.766400 Y41.830000 Z-0.125000
G01 X56.612900 Y42.145000 Z-0.125000
G01 X54.710500 Y51.045000 Z-0.125000
G01 X53.764700 Y51.057000 Z-0.125000
G01 X52.917900 Y50.947000 Z-0.125000
G01 X51.770700 Y45.574000 Z-0.125000
G01 X50.528900 Y40.217000 Z-0.125000
G01 X49.208000 Y45.607000 Z-0.125000
G01 X48.091400 Y51.045000 Z-0.125000
G01 X47.129600 Y51.076000 Z-0.125000
G01 X46.747800 Y51.011000 Z-0.125000
G01 X46.726600 Y50.654000 Z-0.125000
G01 X48.036700 Y44.438000 Z-0.125000
G01 X48.036700 Y44.437000 Z-0.125000
G00 Z5.000000

(End cutting path id: path12306)


(Start cutting path id: path12306)
(Change tool to Default tool)

G00 Z5.000000
G00 X41.124400 Y39.709000

G01 Z-0.125000 F100.0(Penetrate)
G01 X41.601800 Y40.343000 Z-0.125000 F400.000000
G01 X41.831000 Y40.797000 Z-0.125000
G01 X41.831000 Y44.419000 Z-0.125000
G01 X41.831000 Y48.041000 Z-0.125000
G01 X41.601800 Y48.499000 Z-0.125000
G01 X41.320800 Y48.918000 Z-0.125000
G01 X40.956600 Y49.190000 Z-0.125000
G01 X39.876400 Y49.345000 Z-0.125000
G01 X39.049400 Y49.172000 Z-0.125000
G01 X38.513100 Y48.647000 Z-0.125000
G01 X38.340500 Y48.269000 Z-0.125000
G01 X38.247700 Y47.573000 Z-0.125000
G01 X38.225500 Y44.006000 Z-0.125000
G01 X38.254900 Y40.613000 Z-0.125000
G01 X38.477100 Y40.225000 Z-0.125000
G01 X38.754600 Y39.859000 Z-0.125000
G01 X39.107500 Y39.623000 Z-0.125000
G01 X40.161600 Y39.492000 Z-0.125000
G01 X41.124400 Y39.709000 Z-0.125000
G01 X41.124400 Y39.709000 Z-0.125000
G00 Z5.000000

(End cutting path id: path12306)


(Start cutting path id: path12306)
(Change tool to Default tool)

G00 Z5.000000
G00 X38.942600 Y37.146000

G01 Z-0.125000 F100.0(Penetrate)
G01 X38.012600 Y37.404000 Z-0.125000 F400.000000
G01 X37.206300 Y37.837000 Z-0.125000
G01 X36.547400 Y38.429000 Z-0.125000
G01 X36.059900 Y39.162000 Z-0.125000
G01 X35.782300 Y39.835000 Z-0.125000
G01 X35.629800 Y40.680000 Z-0.125000
G01 X35.551200 Y44.427000 Z-0.125000
G01 X35.578600 Y47.604000 Z-0.125000
G01 X35.733300 Y48.775000 Z-0.125000
G01 X36.284200 Y50.085000 Z-0.125000
G01 X37.174100 Y51.014000 Z-0.125000
G01 X38.412100 Y51.568000 Z-0.125000
G01 X40.007500 Y51.753000 Z-0.125000
G01 X41.367800 Y51.647000 Z-0.125000
G01 X42.490900 Y51.248000 Z-0.125000
G01 X43.171100 Y50.818000 Z-0.125000
G01 X43.709700 Y50.257000 Z-0.125000
G01 X44.121500 Y49.544000 Z-0.125000
G01 X44.421200 Y48.661000 Z-0.125000
G01 X44.551500 Y47.518000 Z-0.125000
G01 X44.580600 Y44.465000 Z-0.125000
G01 X44.456900 Y40.338000 Z-0.125000
G01 X43.898900 Y38.894000 Z-0.125000
G01 X42.974400 Y37.876000 Z-0.125000
G01 X41.676200 Y37.279000 Z-0.125000
G01 X39.997100 Y37.097000 Z-0.125000
G01 X38.942600 Y37.146000 Z-0.125000
G01 X38.942600 Y37.146000 Z-0.125000
G00 Z5.000000

(End cutting path id: path12306)


(Start cutting path id: path12306)
(Change tool to Default tool)

G00 Z5.000000
G00 X31.557800 Y37.170000

G01 Z-0.125000 F100.0(Penetrate)
G01 X31.246400 Y37.396000 Z-0.125000 F400.000000
G01 X29.890900 Y40.135000 Z-0.125000
G01 X28.497400 Y42.889000 Z-0.125000
G01 X27.632400 Y43.108000 Z-0.125000
G01 X26.930300 Y43.162000 Z-0.125000
G01 X26.930300 Y40.214000 Z-0.125000
G01 X26.930300 Y37.266000 Z-0.125000
G01 X25.554900 Y37.266000 Z-0.125000
G01 X24.179400 Y37.266000 Z-0.125000
G01 X24.179400 Y44.428000 Z-0.125000
G01 X24.179400 Y51.590000 Z-0.125000
G01 X26.769900 Y51.546000 Z-0.125000
G01 X29.583700 Y51.412000 Z-0.125000
G01 X30.344400 Y51.242000 Z-0.125000
G01 X31.024800 Y50.956000 Z-0.125000
G01 X32.020300 Y50.174000 Z-0.125000
G01 X32.713300 Y49.121000 Z-0.125000
G01 X32.960900 Y47.482000 Z-0.125000
G01 X32.875400 Y45.941000 Z-0.125000
G01 X32.376100 Y44.804000 Z-0.125000
G01 X31.783600 Y44.168000 Z-0.125000
G01 X31.114500 Y43.750000 Z-0.125000
G01 X31.258000 Y43.427000 Z-0.125000
G01 X34.449500 Y37.116000 Z-0.125000
G01 X31.557800 Y37.170000 Z-0.125000
G01 X31.557800 Y37.170000 Z-0.125000
G00 Z5.000000

(End cutting path id: path12306)


(Start cutting path id: path12306)
(Change tool to Default tool)

G00 Z5.000000
G00 X29.083100 Y45.438000

G01 Z-0.125000 F100.0(Penetrate)
G01 X29.818300 Y45.909000 Z-0.125000 F400.000000
G01 X30.228100 Y46.741000 Z-0.125000
G01 X30.293600 Y47.500000 Z-0.125000
G01 X30.170100 Y48.167000 Z-0.125000
G01 X29.870800 Y48.704000 Z-0.125000
G01 X29.409300 Y49.072000 Z-0.125000
G01 X28.889500 Y49.242000 Z-0.125000
G01 X27.965400 Y49.279000 Z-0.125000
G01 X26.930300 Y49.279000 Z-0.125000
G01 X26.930300 Y47.307000 Z-0.125000
G01 X26.930300 Y45.336000 Z-0.125000
G01 X27.824400 Y45.336000 Z-0.125000
G01 X29.083100 Y45.438000 Z-0.125000
G01 X29.083100 Y45.438000 Z-0.125000
G00 Z5.000000

(End cutting path id: path12306)


(Start cutting path id: path12306)
(Change tool to Default tool)

G00 Z5.000000
G00 X28.278900 Y49.812000

G01 Z-0.125000 F100.0(Penetrate)
G01 X29.078100 Y49.740000 Z-0.125000 F400.000000
G01 X29.811300 Y49.431000 Z-0.125000
G01 X30.388300 Y48.902000 Z-0.125000
G01 X30.718900 Y48.169000 Z-0.125000
G01 X30.825600 Y47.067000 Z-0.125000
G01 X30.495100 Y45.997000 Z-0.125000
G01 X29.776200 Y45.184000 Z-0.125000
G01 X29.286500 Y44.945000 Z-0.125000
G01 X28.718200 Y44.855000 Z-0.125000
G01 X26.403900 Y44.806000 Z-0.125000
G01 X26.403900 Y49.806000 Z-0.125000
G01 X28.278900 Y49.812000 Z-0.125000
G01 X28.278900 Y49.812000 Z-0.125000
G00 Z5.000000

(End cutting path id: path12306)


(Start cutting path id: path12306)
(Change tool to Default tool)

G00 Z5.000000
G00 X26.931200 Y49.543000

G01 Z-0.125000 F100.0(Penetrate)
G01 X28.723000 Y49.520000 Z-0.125000 F400.000000
G01 X29.556300 Y49.290000 Z-0.125000
G01 X30.201900 Y48.688000 Z-0.125000
G01 X30.553500 Y47.651000 Z-0.125000
G01 X30.443300 Y46.534000 Z-0.125000
G01 X29.886400 Y45.605000 Z-0.125000
G01 X29.445200 Y45.296000 Z-0.125000
G01 X28.898000 Y45.134000 Z-0.125000
G01 X26.667600 Y45.072000 Z-0.125000
G01 X26.667600 Y49.543000 Z-0.125000
G01 X26.931200 Y49.543000 Z-0.125000
G01 X26.931200 Y49.543000 Z-0.125000
G00 Z5.000000

(End cutting path id: path12306)


(Start cutting path id: path12306)
(Change tool to Default tool)

G00 Z5.000000
G00 X24.706600 Y44.427000

G01 Z-0.125000 F100.0(Penetrate)
G01 X24.706600 Y37.795000 Z-0.125000 F400.000000
G01 X25.678000 Y37.772000 Z-0.125000
G01 X26.131900 Y37.792000 Z-0.125000
G01 X26.403900 Y37.995000 Z-0.125000
G01 X26.403900 Y43.746000 Z-0.125000
G01 X27.943400 Y43.616000 Z-0.125000
G01 X28.649800 Y43.398000 Z-0.125000
G01 X29.149700 Y42.832000 Z-0.125000
G01 X30.408900 Y40.260000 Z-0.125000
G01 X31.718400 Y37.714000 Z-0.125000
G01 X32.671600 Y37.618000 Z-0.125000
G01 X33.632400 Y37.621000 Z-0.125000
G01 X30.573800 Y43.650000 Z-0.125000
G01 X30.735600 Y44.075000 Z-0.125000
G01 X31.092900 Y44.357000 Z-0.125000
G01 X31.500900 Y44.610000 Z-0.125000
G01 X31.814900 Y44.952000 Z-0.125000
G01 X32.290200 Y45.868000 Z-0.125000
G01 X32.455700 Y46.887000 Z-0.125000
G01 X32.398300 Y47.939000 Z-0.125000
G01 X32.204700 Y48.951000 Z-0.125000
G01 X31.536200 Y49.924000 Z-0.125000
G01 X30.569800 Y50.571000 Z-0.125000
G01 X29.433600 Y50.914000 Z-0.125000
G01 X28.255800 Y50.975000 Z-0.125000
G01 X24.706600 Y51.054000 Z-0.125000
G01 X24.706600 Y44.427000 Z-0.125000
G01 X24.706600 Y44.427000 Z-0.125000
G00 Z5.000000

(End cutting path id: path12306)


(Start cutting path id: path12306)
(Change tool to Default tool)

G00 Z5.000000
G00 X24.443000 Y44.427000

G01 Z-0.125000 F100.0(Penetrate)
G01 X24.443000 Y37.531000 Z-0.125000 F400.000000
G01 X26.667600 Y37.531000 Z-0.125000
G01 X26.667600 Y43.447000 Z-0.125000
G01 X27.965800 Y43.350000 Z-0.125000
G01 X28.551900 Y43.154000 Z-0.125000
G01 X28.938300 Y42.653000 Z-0.125000
G01 X30.217300 Y40.049000 Z-0.125000
G01 X31.546500 Y37.482000 Z-0.125000
G01 X32.791900 Y37.353000 Z-0.125000
G01 X34.060100 Y37.351000 Z-0.125000
G01 X30.837500 Y43.644000 Z-0.125000
G01 X30.936300 Y43.922000 Z-0.125000
G01 X31.202100 Y44.106000 Z-0.125000
G01 X31.750800 Y44.502000 Z-0.125000
G01 X32.411600 Y45.408000 Z-0.125000
G01 X32.685600 Y46.485000 Z-0.125000
G01 X32.694000 Y47.631000 Z-0.125000
G01 X32.558200 Y48.744000 Z-0.125000
G01 X31.991700 Y49.817000 Z-0.125000
G01 X31.086700 Y50.602000 Z-0.125000
G01 X29.969000 Y51.077000 Z-0.125000
G01 X28.764600 Y51.220000 Z-0.125000
G01 X24.443000 Y51.322000 Z-0.125000
G01 X24.443000 Y44.427000 Z-0.125000
G01 X24.443000 Y44.427000 Z-0.125000
G00 Z5.000000

(End cutting path id: path12306)


(Start cutting path id: path12306)
(Change tool to Default tool)

G00 Z5.000000
G00 X16.571900 Y51.214000

G01 Z-0.125000 F100.0(Penetrate)
G01 X15.368000 Y51.035000 Z-0.125000 F400.000000
G01 X14.302600 Y50.456000 Z-0.125000
G01 X13.518000 Y49.549000 Z-0.125000
G01 X13.156800 Y48.385000 Z-0.125000
G01 X12.985600 Y45.245000 Z-0.125000
G01 X12.985800 Y42.096000 Z-0.125000
G01 X13.070500 Y40.889000 Z-0.125000
G01 X13.375300 Y39.695000 Z-0.125000
G01 X13.982800 Y38.671000 Z-0.125000
G01 X14.426100 Y38.273000 Z-0.125000
G01 X14.976200 Y37.976000 Z-0.125000
G01 X16.045700 Y37.692000 Z-0.125000
G01 X17.161400 Y37.599000 Z-0.125000
G01 X18.264600 Y37.730000 Z-0.125000
G01 X19.297100 Y38.122000 Z-0.125000
G01 X20.157500 Y38.849000 Z-0.125000
G01 X20.683800 Y39.820000 Z-0.125000
G01 X20.940600 Y40.922000 Z-0.125000
G01 X20.992400 Y42.043000 Z-0.125000
G01 X20.721300 Y42.244000 Z-0.125000
G01 X20.268200 Y42.264000 Z-0.125000
G01 X19.298400 Y42.242000 Z-0.125000
G01 X19.308300 Y41.395000 Z-0.125000
G01 X19.195400 Y40.536000 Z-0.125000
G01 X18.861700 Y39.776000 Z-0.125000
G01 X18.209000 Y39.230000 Z-0.125000
G01 X17.155000 Y38.918000 Z-0.125000
G01 X16.048500 Y39.093000 Z-0.125000
G01 X15.160300 Y39.712000 Z-0.125000
G01 X14.882800 Y40.176000 Z-0.125000
G01 X14.761300 Y40.736000 Z-0.125000
G01 X14.737900 Y48.504000 Z-0.125000
G01 X15.096600 Y49.109000 Z-0.125000
G01 X15.627200 Y49.546000 Z-0.125000
G01 X16.271100 Y49.813000 Z-0.125000
G01 X16.969600 Y49.906000 Z-0.125000
G01 X17.664000 Y49.822000 Z-0.125000
G01 X18.295700 Y49.559000 Z-0.125000
G01 X18.806100 Y49.114000 Z-0.125000
G01 X19.136300 Y48.484000 Z-0.125000
G01 X19.268900 Y47.593000 Z-0.125000
G01 X19.298400 Y46.689000 Z-0.125000
G01 X20.270400 Y46.666000 Z-0.125000
G01 X20.725000 Y46.687000 Z-0.125000
G01 X21.000800 Y46.889000 Z-0.125000
G01 X20.913300 Y48.123000 Z-0.125000
G01 X20.547200 Y49.321000 Z-0.125000
G01 X19.857200 Y50.322000 Z-0.125000
G01 X19.376500 Y50.698000 Z-0.125000
G01 X18.797800 Y50.964000 Z-0.125000
G01 X17.698700 Y51.193000 Z-0.125000
G01 X16.571900 Y51.215000 Z-0.125000
G01 X16.571900 Y51.214000 Z-0.125000
G00 Z5.000000

(End cutting path id: path12306)


(Start cutting path id: path12306)
(Change tool to Default tool)

G00 Z5.000000
G00 X16.564100 Y51.478000

G01 Z-0.125000 F100.0(Penetrate)
G01 X15.459000 Y51.332000 Z-0.125000 F400.000000
G01 X14.440800 Y50.889000 Z-0.125000
G01 X13.613200 Y50.168000 Z-0.125000
G01 X13.079800 Y49.189000 Z-0.125000
G01 X12.839800 Y48.101000 Z-0.125000
G01 X12.756800 Y46.985000 Z-0.125000
G01 X12.714000 Y44.740000 Z-0.125000
G01 X12.729100 Y41.747000 Z-0.125000
G01 X12.920300 Y40.277000 Z-0.125000
G01 X13.466400 Y38.894000 Z-0.125000
G01 X14.328000 Y38.024000 Z-0.125000
G01 X15.437300 Y37.540000 Z-0.125000
G01 X16.667100 Y37.358000 Z-0.125000
G01 X17.890200 Y37.394000 Z-0.125000
G01 X19.001500 Y37.670000 Z-0.125000
G01 X19.961800 Y38.277000 Z-0.125000
G01 X20.682800 Y39.150000 Z-0.125000
G01 X21.076100 Y40.226000 Z-0.125000
G01 X21.236400 Y41.359000 Z-0.125000
G01 X21.257400 Y42.506000 Z-0.125000
G01 X19.032800 Y42.506000 Z-0.125000
G01 X18.993200 Y40.847000 Z-0.125000
G01 X18.749700 Y40.086000 Z-0.125000
G01 X18.167700 Y39.509000 Z-0.125000
G01 X17.228600 Y39.194000 Z-0.125000
G01 X16.221300 Y39.307000 Z-0.125000
G01 X15.401600 Y39.828000 Z-0.125000
G01 X15.141900 Y40.237000 Z-0.125000
G01 X15.025000 Y40.742000 Z-0.125000
G01 X14.976200 Y48.390000 Z-0.125000
G01 X15.273400 Y48.898000 Z-0.125000
G01 X15.703400 Y49.278000 Z-0.125000
G01 X16.798400 Y49.641000 Z-0.125000
G01 X17.933400 Y49.454000 Z-0.125000
G01 X18.413500 Y49.146000 Z-0.125000
G01 X18.780900 Y48.691000 Z-0.125000
G01 X19.007300 Y47.575000 Z-0.125000
G01 X19.044500 Y46.425000 Z-0.125000
G01 X21.257400 Y46.425000 Z-0.125000
G01 X21.225600 Y47.744000 Z-0.125000
G01 X20.946300 Y49.051000 Z-0.125000
G01 X20.335600 Y50.196000 Z-0.125000
G01 X19.879600 Y50.661000 Z-0.125000
G01 X19.309300 Y51.029000 Z-0.125000
G01 X17.971200 Y51.432000 Z-0.125000
G01 X16.564100 Y51.478000 Z-0.125000
G01 X16.564100 Y51.478000 Z-0.125000
G00 Z5.000000

(End cutting path id: path12306)


(Start cutting path id: path12306)
(Change tool to Default tool)

G00 Z5.000000
G00 X15.526400 Y37.228000

G01 Z-0.125000 F100.0(Penetrate)
G01 X14.429600 Y37.664000 Z-0.125000 F400.000000
G01 X13.576500 Y38.300000 Z-0.125000
G01 X12.955200 Y39.310000 Z-0.125000
G01 X12.565500 Y40.622000 Z-0.125000
G01 X12.450100 Y44.846000 Z-0.125000
G01 X12.658900 Y48.774000 Z-0.125000
G01 X13.247600 Y50.104000 Z-0.125000
G01 X14.147800 Y51.033000 Z-0.125000
G01 X15.383200 Y51.577000 Z-0.125000
G01 X16.977600 Y51.753000 Z-0.125000
G01 X18.022800 Y51.693000 Z-0.125000
G01 X18.882500 Y51.504000 Z-0.125000
G01 X19.610000 Y51.169000 Z-0.125000
G01 X20.259000 Y50.670000 Z-0.125000
G01 X20.806800 Y49.999000 Z-0.125000
G01 X21.201400 Y49.156000 Z-0.125000
G01 X21.440100 Y48.151000 Z-0.125000
G01 X21.520200 Y46.990000 Z-0.125000
G01 X21.520200 Y46.161000 Z-0.125000
G01 X20.154700 Y46.161000 Z-0.125000
G01 X18.789100 Y46.161000 Z-0.125000
G01 X18.755400 Y47.193000 Z-0.125000
G01 X18.690200 Y48.088000 Z-0.125000
G01 X18.533900 Y48.591000 Z-0.125000
G01 X17.920400 Y49.170000 Z-0.125000
G01 X17.031500 Y49.381000 Z-0.125000
G01 X16.125200 Y49.216000 Z-0.125000
G01 X15.459500 Y48.671000 Z-0.125000
G01 X15.239000 Y48.316000 Z-0.125000
G01 X15.239000 Y44.465000 Z-0.125000
G01 X15.265200 Y41.098000 Z-0.125000
G01 X15.427700 Y40.247000 Z-0.125000
G01 X15.699300 Y39.893000 Z-0.125000
G01 X16.074400 Y39.644000 Z-0.125000
G01 X16.996700 Y39.452000 Z-0.125000
G01 X17.918300 Y39.668000 Z-0.125000
G01 X18.292500 Y39.928000 Z-0.125000
G01 X18.563000 Y40.289000 Z-0.125000
G01 X18.732800 Y40.809000 Z-0.125000
G01 X18.769300 Y41.733000 Z-0.125000
G01 X18.769300 Y42.768000 Z-0.125000
G01 X20.144800 Y42.768000 Z-0.125000
G01 X21.520200 Y42.768000 Z-0.125000
G01 X21.518600 Y41.874000 Z-0.125000
G01 X21.307800 Y40.052000 Z-0.125000
G01 X20.682300 Y38.660000 Z-0.125000
G01 X19.642000 Y37.699000 Z-0.125000
G01 X18.186800 Y37.169000 Z-0.125000
G01 X16.848400 Y37.095000 Z-0.125000
G01 X15.526400 Y37.228000 Z-0.125000
G01 X15.526400 Y37.228000 Z-0.125000
G00 Z5.000000

(End cutting path id: path12306)


(Start cutting path id: path12306)
(Change tool to Default tool)

G00 Z5.000000
G00 X19.491900 Y21.564000

G01 Z-0.125000 F100.0(Penetrate)
G01 X17.202900 Y21.564000 Z-0.125000 F400.000000
G01 X16.889800 Y21.458000 Z-0.125000
G01 X16.784200 Y21.157000 Z-0.125000
G01 X16.784200 Y18.352000 Z-0.125000
G01 X15.766800 Y18.352000 Z-0.125000
G01 X15.766800 Y21.157000 Z-0.125000
G01 X15.833300 Y21.627000 Z-0.125000
G01 X16.009400 Y21.991000 Z-0.125000
G01 X16.267700 Y22.261000 Z-0.125000
G01 X16.569000 Y22.444000 Z-0.125000
G01 X16.889800 Y22.546000 Z-0.125000
G01 X17.195000 Y22.581000 Z-0.125000
G01 X19.491900 Y22.581000 Z-0.125000
G01 X19.491900 Y21.564000 Z-0.125000
G00 Z5.000000

(End cutting path id: path12306)


(Start cutting path id: path12306)
(Change tool to Default tool)

G00 Z5.000000
G00 X23.729700 Y21.149000

G01 Z-0.125000 F100.0(Penetrate)
G01 X23.624000 Y21.462000 Z-0.125000 F400.000000
G01 X23.318800 Y21.564000 Z-0.125000
G01 X21.491500 Y21.564000 Z-0.125000
G01 X21.182300 Y21.458000 Z-0.125000
G01 X21.076700 Y21.157000 Z-0.125000
G01 X21.076700 Y19.780000 Z-0.125000
G01 X21.182300 Y19.475000 Z-0.125000
G01 X21.491500 Y19.369000 Z-0.125000
G01 X23.318800 Y19.369000 Z-0.125000
G01 X23.627900 Y19.475000 Z-0.125000
G01 X23.729700 Y19.780000 Z-0.125000
G01 X23.729700 Y21.149000 Z-0.125000
G00 Z5.000000

(End cutting path id: path12306)


(Start cutting path id: path12306)
(Change tool to Default tool)

G00 Z5.000000
G00 X24.747000 Y19.780000

G01 Z-0.125000 F100.0(Penetrate)
G01 X24.680500 Y19.306000 Z-0.125000 F400.000000
G01 X24.504400 Y18.938000 Z-0.125000
G01 X24.250100 Y18.668000 Z-0.125000
G01 X23.944900 Y18.488000 Z-0.125000
G01 X23.624000 Y18.383000 Z-0.125000
G01 X23.318800 Y18.352000 Z-0.125000
G01 X21.483600 Y18.352000 Z-0.125000
G01 X21.021900 Y18.426000 Z-0.125000
G01 X20.556300 Y18.668000 Z-0.125000
G01 X20.200200 Y19.111000 Z-0.125000
G01 X20.059300 Y19.780000 Z-0.125000
G01 X20.059300 Y21.157000 Z-0.125000
G01 X20.200200 Y21.818000 Z-0.125000
G01 X20.556300 Y22.261000 Z-0.125000
G01 X21.021900 Y22.507000 Z-0.125000
G01 X21.483600 Y22.581000 Z-0.125000
G01 X23.318800 Y22.581000 Z-0.125000
G01 X23.984000 Y22.441000 Z-0.125000
G01 X24.426200 Y22.084000 Z-0.125000
G01 X24.668800 Y21.623000 Z-0.125000
G01 X24.747000 Y21.157000 Z-0.125000
G01 X24.747000 Y19.780000 Z-0.125000
G00 Z5.000000

(End cutting path id: path12306)


(Start cutting path id: path12306)
(Change tool to Default tool)

G00 Z5.000000
G00 X32.576900 Y22.581000

G01 Z-0.125000 F100.0(Penetrate)
G01 X32.052500 Y21.509000 Z-0.125000 F400.000000
G01 X31.461700 Y20.515000 Z-0.125000
G01 X30.835600 Y19.647000 Z-0.125000
G01 X30.197800 Y18.962000 Z-0.125000
G01 X29.583500 Y18.512000 Z-0.125000
G01 X29.020000 Y18.352000 Z-0.125000
G01 X28.816500 Y18.391000 Z-0.125000
G01 X28.652200 Y18.496000 Z-0.125000
G01 X28.542600 Y18.661000 Z-0.125000
G01 X28.503500 Y18.864000 Z-0.125000
G01 X28.503500 Y20.762000 Z-0.125000
G01 X26.484400 Y18.504000 Z-0.125000
G01 X26.312200 Y18.387000 Z-0.125000
G01 X26.124400 Y18.351000 Z-0.125000
G01 X25.924800 Y18.391000 Z-0.125000
G01 X25.764400 Y18.496000 Z-0.125000
G01 X25.650900 Y18.661000 Z-0.125000
G01 X25.611800 Y18.864000 Z-0.125000
G01 X25.611800 Y22.581000 Z-0.125000
G01 X26.629200 Y22.581000 Z-0.125000
G01 X26.629200 Y20.171000 Z-0.125000
G01 X28.656100 Y22.437000 Z-0.125000
G01 X28.914300 Y22.574000 Z-0.125000
G01 X29.211700 Y22.542000 Z-0.125000
G01 X29.438700 Y22.354000 Z-0.125000
G01 X29.524800 Y22.077000 Z-0.125000
G01 X29.524800 Y19.658000 Z-0.125000
G01 X30.119500 Y20.328000 Z-0.125000
G01 X30.612600 Y21.051000 Z-0.125000
G01 X31.043000 Y21.811000 Z-0.125000
G01 X31.438200 Y22.581000 Z-0.125000
G01 X32.576900 Y22.581000 Z-0.125000
G00 Z5.000000

(End cutting path id: path12306)


(Start cutting path id: path12306)
(Change tool to Default tool)

G00 Z5.000000
G00 X37.569800 Y19.780000

G01 Z-0.125000 F100.0(Penetrate)
G01 X37.503300 Y19.306000 Z-0.125000 F400.000000
G01 X37.327200 Y18.938000 Z-0.125000
G01 X37.072900 Y18.668000 Z-0.125000
G01 X36.767600 Y18.488000 Z-0.125000
G01 X36.446800 Y18.383000 Z-0.125000
G01 X36.141600 Y18.352000 Z-0.125000
G01 X34.306400 Y18.352000 Z-0.125000
G01 X33.836800 Y18.418000 Z-0.125000
G01 X33.469000 Y18.594000 Z-0.125000
G01 X33.199000 Y18.852000 Z-0.125000
G01 X33.019000 Y19.154000 Z-0.125000
G01 X32.913400 Y19.475000 Z-0.125000
G01 X32.882100 Y19.780000 Z-0.125000
G01 X32.882100 Y21.157000 Z-0.125000
G01 X33.023000 Y21.818000 Z-0.125000
G01 X33.379000 Y22.261000 Z-0.125000
G01 X33.844700 Y22.507000 Z-0.125000
G01 X34.306400 Y22.581000 Z-0.125000
G01 X36.141600 Y22.581000 Z-0.125000
G01 X36.141600 Y21.564000 Z-0.125000
G01 X34.314200 Y21.564000 Z-0.125000
G01 X34.005100 Y21.458000 Z-0.125000
G01 X33.899500 Y21.157000 Z-0.125000
G01 X33.899500 Y19.788000 Z-0.125000
G01 X34.001200 Y19.475000 Z-0.125000
G01 X34.306400 Y19.369000 Z-0.125000
G01 X36.141600 Y19.369000 Z-0.125000
G01 X36.450700 Y19.475000 Z-0.125000
G01 X36.552400 Y19.780000 Z-0.125000
G01 X36.552400 Y24.370000 Z-0.125000
G01 X37.569800 Y24.370000 Z-0.125000
G01 X37.569800 Y19.780000 Z-0.125000
G00 Z5.000000

(End cutting path id: path12306)


(Start cutting path id: path12306)
(Change tool to Default tool)

G00 Z5.000000
G00 X42.629300 Y19.780000

G01 Z-0.125000 F100.0(Penetrate)
G01 X42.562700 Y19.306000 Z-0.125000 F400.000000
G01 X42.386700 Y18.938000 Z-0.125000
G01 X42.132300 Y18.668000 Z-0.125000
G01 X41.827100 Y18.488000 Z-0.125000
G01 X41.506200 Y18.383000 Z-0.125000
G01 X41.201000 Y18.352000 Z-0.125000
G01 X38.446300 Y18.352000 Z-0.125000
G01 X38.446300 Y19.369000 Z-0.125000
G01 X41.193200 Y19.369000 Z-0.125000
G01 X41.506200 Y19.475000 Z-0.125000
G01 X41.611900 Y19.780000 Z-0.125000
G01 X41.499400 Y20.085000 Z-0.125000
G01 X41.201000 Y20.187000 Z-0.125000
G01 X39.624100 Y20.187000 Z-0.125000
G01 X39.052800 Y20.304000 Z-0.125000
G01 X38.669300 Y20.598000 Z-0.125000
G01 X38.458000 Y20.977000 Z-0.125000
G01 X38.395400 Y21.357000 Z-0.125000
G01 X38.516700 Y21.928000 Z-0.125000
G01 X38.822000 Y22.308000 Z-0.125000
G01 X39.221100 Y22.515000 Z-0.125000
G01 X39.624100 Y22.581000 Z-0.125000
G01 X42.124500 Y22.581000 Z-0.125000
G01 X42.124500 Y21.564000 Z-0.125000
G01 X39.631900 Y21.564000 Z-0.125000
G01 X39.506700 Y21.544000 Z-0.125000
G01 X39.440200 Y21.497000 Z-0.125000
G01 X39.416700 Y21.435000 Z-0.125000
G01 X39.412800 Y21.372000 Z-0.125000
G01 X39.436300 Y21.274000 Z-0.125000
G01 X39.483300 Y21.224000 Z-0.125000
G01 X39.549800 Y21.204000 Z-0.125000
G01 X39.624100 Y21.204000 Z-0.125000
G01 X41.201100 Y21.204000 Z-0.125000
G01 X41.866300 Y21.063000 Z-0.125000
G01 X42.308400 Y20.707000 Z-0.125000
G01 X42.551000 Y20.245000 Z-0.125000
G01 X42.629300 Y19.780000 Z-0.125000
G01 X42.629300 Y19.780000 Z-0.125000
G00 Z5.000000

(End cutting path id: path12306)


(Start cutting path id: path12306)
(Change tool to Default tool)

G00 Z5.000000
G00 X47.966500 Y18.864000

G01 Z-0.125000 F100.0(Penetrate)
G01 X47.927400 Y18.661000 Z-0.125000 F400.000000
G01 X47.817800 Y18.496000 Z-0.125000
G01 X47.657400 Y18.391000 Z-0.125000
G01 X47.461800 Y18.352000 Z-0.125000
G01 X45.160900 Y18.352000 Z-0.125000
G01 X44.757900 Y18.395000 Z-0.125000
G01 X44.339200 Y18.531000 Z-0.125000
G01 X43.936200 Y18.774000 Z-0.125000
G01 X43.599700 Y19.130000 Z-0.125000
G01 X43.364900 Y19.615000 Z-0.125000
G01 X43.278800 Y20.234000 Z-0.125000
G01 X43.278800 Y22.581000 Z-0.125000
G01 X44.296200 Y22.581000 Z-0.125000
G01 X44.296200 Y20.234000 Z-0.125000
G01 X44.362700 Y19.874000 Z-0.125000
G01 X44.550500 Y19.604000 Z-0.125000
G01 X44.824400 Y19.428000 Z-0.125000
G01 X45.168800 Y19.369000 Z-0.125000
G01 X46.949200 Y19.369000 Z-0.125000
G01 X46.949200 Y22.581000 Z-0.125000
G01 X47.966500 Y22.581000 Z-0.125000
G01 X47.966500 Y18.864000 Z-0.125000
G00 Z5.000000

(End cutting path id: path12306)


(Start cutting path id: path12306)
(Change tool to Default tool)

G00 Z5.000000
G00 X53.585500 Y19.780000

G01 Z-0.125000 F100.0(Penetrate)
G01 X53.519000 Y19.306000 Z-0.125000 F400.000000
G01 X53.342900 Y18.938000 Z-0.125000
G01 X53.088600 Y18.668000 Z-0.125000
G01 X52.783400 Y18.488000 Z-0.125000
G01 X52.466400 Y18.383000 Z-0.125000
G01 X52.161200 Y18.352000 Z-0.125000
G01 X50.326100 Y18.352000 Z-0.125000
G01 X50.326100 Y19.369000 Z-0.125000
G01 X52.161200 Y19.369000 Z-0.125000
G01 X52.466400 Y19.475000 Z-0.125000
G01 X52.568200 Y19.780000 Z-0.125000
G01 X52.568200 Y21.149000 Z-0.125000
G01 X52.462500 Y21.462000 Z-0.125000
G01 X52.161200 Y21.564000 Z-0.125000
G01 X50.333900 Y21.564000 Z-0.125000
G01 X50.020800 Y21.458000 Z-0.125000
G01 X49.915200 Y21.157000 Z-0.125000
G01 X49.915200 Y17.029000 Z-0.125000
G01 X48.897800 Y17.029000 Z-0.125000
G01 X48.897800 Y21.157000 Z-0.125000
G01 X48.964300 Y21.627000 Z-0.125000
G01 X49.140400 Y21.991000 Z-0.125000
G01 X49.398700 Y22.261000 Z-0.125000
G01 X49.700000 Y22.444000 Z-0.125000
G01 X50.020800 Y22.546000 Z-0.125000
G01 X50.326100 Y22.581000 Z-0.125000
G01 X52.161200 Y22.581000 Z-0.125000
G01 X52.630800 Y22.515000 Z-0.125000
G01 X52.994700 Y22.339000 Z-0.125000
G01 X53.264700 Y22.084000 Z-0.125000
G01 X53.448600 Y21.779000 Z-0.125000
G01 X53.550300 Y21.462000 Z-0.125000
G01 X53.585500 Y21.157000 Z-0.125000
G01 X53.585500 Y19.780000 Z-0.125000
G00 Z5.000000

(End cutting path id: path12306)


(Start cutting path id: path12306)
(Change tool to Default tool)

G00 Z5.000000
G00 X59.118500 Y19.780000

G01 Z-0.125000 F100.0(Penetrate)
G01 X59.051900 Y19.306000 Z-0.125000 F400.000000
G01 X58.875900 Y18.938000 Z-0.125000
G01 X58.621500 Y18.668000 Z-0.125000
G01 X58.316300 Y18.488000 Z-0.125000
G01 X57.999400 Y18.383000 Z-0.125000
G01 X57.694200 Y18.352000 Z-0.125000
G01 X55.859000 Y18.352000 Z-0.125000
G01 X55.859000 Y19.369000 Z-0.125000
G01 X57.694200 Y19.369000 Z-0.125000
G01 X57.999400 Y19.475000 Z-0.125000
G01 X58.101100 Y19.780000 Z-0.125000
G01 X58.101100 Y21.149000 Z-0.125000
G01 X57.995500 Y21.462000 Z-0.125000
G01 X57.694200 Y21.564000 Z-0.125000
G01 X55.866800 Y21.564000 Z-0.125000
G01 X55.553800 Y21.458000 Z-0.125000
G01 X55.448100 Y21.157000 Z-0.125000
G01 X55.448100 Y17.029000 Z-0.125000
G01 X54.430700 Y17.029000 Z-0.125000
G01 X54.430700 Y21.157000 Z-0.125000
G01 X54.497300 Y21.627000 Z-0.125000
G01 X54.673300 Y21.991000 Z-0.125000
G01 X54.931600 Y22.261000 Z-0.125000
G01 X55.232900 Y22.444000 Z-0.125000
G01 X55.553800 Y22.546000 Z-0.125000
G01 X55.859000 Y22.581000 Z-0.125000
G01 X57.694200 Y22.581000 Z-0.125000
G01 X58.163700 Y22.515000 Z-0.125000
G01 X58.527600 Y22.339000 Z-0.125000
G01 X58.797600 Y22.084000 Z-0.125000
G01 X58.981500 Y21.779000 Z-0.125000
G01 X59.083300 Y21.462000 Z-0.125000
G01 X59.118500 Y21.157000 Z-0.125000
G01 X59.118500 Y19.780000 Z-0.125000
G00 Z5.000000

(End cutting path id: path12306)


(Start cutting path id: path12306)
(Change tool to Default tool)

G00 Z5.000000
G00 X61.845800 Y18.352000

G01 Z-0.125000 F100.0(Penetrate)
G01 X61.391900 Y18.352000 Z-0.125000 F400.000000
G01 X60.922300 Y18.426000 Z-0.125000
G01 X60.460600 Y18.668000 Z-0.125000
G01 X60.104500 Y19.111000 Z-0.125000
G01 X59.963700 Y19.780000 Z-0.125000
G01 X59.963700 Y24.370000 Z-0.125000
G01 X60.981000 Y24.370000 Z-0.125000
G01 X60.981000 Y19.780000 Z-0.125000
G01 X61.098400 Y19.478000 Z-0.125000
G01 X61.391900 Y19.369000 Z-0.125000
G01 X61.845800 Y19.369000 Z-0.125000
G01 X61.845800 Y18.352000 Z-0.125000
G00 Z5.000000

(End cutting path id: path12306)


(Start cutting path id: path12306)
(Change tool to Default tool)

G00 Z5.000000
G00 X65.739200 Y18.352000

G01 Z-0.125000 F100.0(Penetrate)
G01 X63.904000 Y18.352000 Z-0.125000 F400.000000
G01 X63.434500 Y18.426000 Z-0.125000
G01 X62.972700 Y18.668000 Z-0.125000
G01 X62.616700 Y19.111000 Z-0.125000
G01 X62.475800 Y19.780000 Z-0.125000
G01 X62.475800 Y22.581000 Z-0.125000
G01 X63.493200 Y22.581000 Z-0.125000
G01 X63.493200 Y19.780000 Z-0.125000
G01 X63.598800 Y19.474000 Z-0.125000
G01 X63.911800 Y19.369000 Z-0.125000
G01 X65.739200 Y19.369000 Z-0.125000
G01 X65.739200 Y18.352000 Z-0.125000
G00 Z5.000000

(End cutting path id: path12306)


(Start cutting path id: path12306)
(Change tool to Default tool)

G00 Z5.000000
G00 X67.163500 Y17.945000

G01 Z-0.125000 F100.0(Penetrate)
G01 X67.097000 Y17.475000 Z-0.125000 F400.000000
G01 X66.920900 Y17.107000 Z-0.125000
G01 X66.666600 Y16.837000 Z-0.125000
G01 X66.361400 Y16.653000 Z-0.125000
G01 X66.044400 Y16.552000 Z-0.125000
G01 X65.739200 Y16.516000 Z-0.125000
G01 X63.904000 Y16.516000 Z-0.125000
G01 X63.904000 Y17.534000 Z-0.125000
G01 X65.739200 Y17.534000 Z-0.125000
G01 X66.044400 Y17.639000 Z-0.125000
G01 X66.146100 Y17.945000 Z-0.125000
G01 X66.146100 Y22.581000 Z-0.125000
G01 X67.163500 Y22.581000 Z-0.125000
G01 X67.163500 Y17.945000 Z-0.125000
G00 Z5.000000

(End cutting path id: path12306)


(Start cutting path id: path12306)
(Change tool to Default tool)

G00 Z5.000000
G00 X68.983000 Y18.864000

G01 Z-0.125000 F100.0(Penetrate)
G01 X68.940000 Y18.665000 Z-0.125000 F400.000000
G01 X68.830400 Y18.504000 Z-0.125000
G01 X68.670000 Y18.398000 Z-0.125000
G01 X68.478300 Y18.359000 Z-0.125000
G01 X68.278700 Y18.398000 Z-0.125000
G01 X68.118300 Y18.504000 Z-0.125000
G01 X68.012600 Y18.665000 Z-0.125000
G01 X67.973500 Y18.864000 Z-0.125000
G01 X68.012600 Y19.056000 Z-0.125000
G01 X68.118300 Y19.216000 Z-0.125000
G01 X68.278700 Y19.326000 Z-0.125000
G01 X68.478300 Y19.369000 Z-0.125000
G01 X68.670000 Y19.326000 Z-0.125000
G01 X68.830400 Y19.216000 Z-0.125000
G01 X68.940000 Y19.056000 Z-0.125000
G01 X68.983000 Y18.864000 Z-0.125000
G01 X68.983000 Y18.864000 Z-0.125000
G00 Z5.000000

(End cutting path id: path12306)


(Start cutting path id: path12306)
(Change tool to Default tool)

G00 Z5.000000
G00 X73.874200 Y18.352000

G01 Z-0.125000 F100.0(Penetrate)
G01 X71.115600 Y18.352000 Z-0.125000 F400.000000
G01 X70.653900 Y18.426000 Z-0.125000
G01 X70.188200 Y18.668000 Z-0.125000
G01 X69.832100 Y19.111000 Z-0.125000
G01 X69.691300 Y19.780000 Z-0.125000
G01 X69.691300 Y21.157000 Z-0.125000
G01 X69.722600 Y21.462000 Z-0.125000
G01 X69.828200 Y21.779000 Z-0.125000
G01 X70.008200 Y22.084000 Z-0.125000
G01 X70.278200 Y22.339000 Z-0.125000
G01 X70.646000 Y22.515000 Z-0.125000
G01 X71.115600 Y22.581000 Z-0.125000
G01 X73.874200 Y22.581000 Z-0.125000
G01 X73.874200 Y21.564000 Z-0.125000
G01 X71.115600 Y21.564000 Z-0.125000
G01 X70.810400 Y21.462000 Z-0.125000
G01 X70.708600 Y21.149000 Z-0.125000
G01 X70.708600 Y19.780000 Z-0.125000
G01 X70.814300 Y19.474000 Z-0.125000
G01 X71.123400 Y19.369000 Z-0.125000
G01 X73.874200 Y19.369000 Z-0.125000
G01 X73.874200 Y18.352000 Z-0.125000
G00 Z5.000000

(End cutting path id: path12306)


(Start cutting path id: path12306)
(Change tool to Default tool)

G00 Z5.000000
G00 X78.268500 Y21.149000

G01 Z-0.125000 F100.0(Penetrate)
G01 X78.162800 Y21.462000 Z-0.125000 F400.000000
G01 X77.857600 Y21.564000 Z-0.125000
G01 X76.030300 Y21.564000 Z-0.125000
G01 X75.721200 Y21.458000 Z-0.125000
G01 X75.615500 Y21.157000 Z-0.125000
G01 X75.615500 Y19.780000 Z-0.125000
G01 X75.721200 Y19.475000 Z-0.125000
G01 X76.030300 Y19.369000 Z-0.125000
G01 X77.857600 Y19.369000 Z-0.125000
G01 X78.166800 Y19.475000 Z-0.125000
G01 X78.268500 Y19.780000 Z-0.125000
G01 X78.268500 Y21.149000 Z-0.125000
G00 Z5.000000

(End cutting path id: path12306)


(Start cutting path id: path12306)
(Change tool to Default tool)

G00 Z5.000000
G00 X79.285900 Y19.780000

G01 Z-0.125000 F100.0(Penetrate)
G01 X79.219300 Y19.306000 Z-0.125000 F400.000000
G01 X79.043300 Y18.938000 Z-0.125000
G01 X78.788900 Y18.668000 Z-0.125000
G01 X78.483700 Y18.488000 Z-0.125000
G01 X78.162800 Y18.383000 Z-0.125000
G01 X77.857600 Y18.352000 Z-0.125000
G01 X76.022500 Y18.352000 Z-0.125000
G01 X75.560700 Y18.426000 Z-0.125000
G01 X75.095100 Y18.668000 Z-0.125000
G01 X74.739000 Y19.111000 Z-0.125000
G01 X74.598100 Y19.780000 Z-0.125000
G01 X74.598100 Y21.157000 Z-0.125000
G01 X74.739000 Y21.818000 Z-0.125000
G01 X75.095100 Y22.261000 Z-0.125000
G01 X75.560700 Y22.507000 Z-0.125000
G01 X76.022500 Y22.581000 Z-0.125000
G01 X77.857600 Y22.581000 Z-0.125000
G01 X78.522800 Y22.441000 Z-0.125000
G01 X78.965000 Y22.084000 Z-0.125000
G01 X79.207600 Y21.623000 Z-0.125000
G01 X79.285900 Y21.157000 Z-0.125000
G01 X79.285900 Y19.780000 Z-0.125000
G00 Z5.000000

(End cutting path id: path12306)


(Start cutting path id: path12306)
(Change tool to Default tool)

G00 Z5.000000
G00 X83.926600 Y18.352000

G01 Z-0.125000 F100.0(Penetrate)
G01 X82.909300 Y18.352000 Z-0.125000 F400.000000
G01 X82.909300 Y21.157000 Z-0.125000
G01 X82.803600 Y21.458000 Z-0.125000
G01 X82.490600 Y21.564000 Z-0.125000
G01 X81.168000 Y21.564000 Z-0.125000
G01 X81.168000 Y18.352000 Z-0.125000
G01 X80.150600 Y18.352000 Z-0.125000
G01 X80.150600 Y22.077000 Z-0.125000
G01 X80.189800 Y22.272000 Z-0.125000
G01 X80.299300 Y22.433000 Z-0.125000
G01 X80.463700 Y22.542000 Z-0.125000
G01 X80.663200 Y22.581000 Z-0.125000
G01 X82.498400 Y22.581000 Z-0.125000
G01 X82.952300 Y22.507000 Z-0.125000
G01 X83.414000 Y22.268000 Z-0.125000
G01 X83.414000 Y22.581000 Z-0.125000
G01 X84.791400 Y22.581000 Z-0.125000
G01 X85.096600 Y22.546000 Z-0.125000
G01 X85.413600 Y22.444000 Z-0.125000
G01 X85.718800 Y22.260000 Z-0.125000
G01 X85.973100 Y21.991000 Z-0.125000
G01 X86.149200 Y21.627000 Z-0.125000
G01 X86.215700 Y21.157000 Z-0.125000
G01 X86.215700 Y18.351000 Z-0.125000
G01 X85.198300 Y18.351000 Z-0.125000
G01 X85.198300 Y21.157000 Z-0.125000
G01 X85.096600 Y21.458000 Z-0.125000
G01 X84.791400 Y21.564000 Z-0.125000
G01 X83.875800 Y21.564000 Z-0.125000
G01 X83.926600 Y21.157000 Z-0.125000
G01 X83.926600 Y18.352000 Z-0.125000
G00 Z5.000000

(End cutting path id: path12306)


(Start cutting path id: path12306)
(Change tool to Default tool)

G00 Z5.000000
G00 X91.639100 Y23.963000

G01 Z-0.125000 F100.0(Penetrate)
G01 X88.097800 Y18.352000 Z-0.125000 F400.000000
G01 X87.006100 Y18.352000 Z-0.125000
G01 X90.551300 Y23.963000 Z-0.125000
G01 X91.639100 Y23.963000 Z-0.125000
G00 Z5.000000

(End cutting path id: path12306)


(Start cutting path id: path12306)
(Change tool to Default tool)

G00 Z5.000000
G00 X96.757200 Y21.181000

G01 Z-0.125000 F100.0(Penetrate)
G01 X96.682900 Y20.723000 Z-0.125000 F400.000000
G01 X96.440300 Y20.269000 Z-0.125000
G01 X96.005900 Y19.921000 Z-0.125000
G01 X95.356400 Y19.780000 Z-0.125000
G01 X93.521200 Y19.780000 Z-0.125000
G01 X93.521200 Y20.746000 Z-0.125000
G01 X95.356400 Y20.746000 Z-0.125000
G01 X95.677200 Y20.871000 Z-0.125000
G01 X95.790700 Y21.188000 Z-0.125000
G01 X95.661600 Y21.501000 Z-0.125000
G01 X95.356400 Y21.615000 Z-0.125000
G01 X93.521200 Y21.615000 Z-0.125000
G01 X93.200300 Y21.486000 Z-0.125000
G01 X93.086900 Y21.173000 Z-0.125000
G01 X93.086900 Y19.752000 Z-0.125000
G01 X93.212100 Y19.435000 Z-0.125000
G01 X93.529000 Y19.322000 Z-0.125000
G01 X95.356400 Y19.322000 Z-0.125000
G01 X95.356400 Y18.352000 Z-0.125000
G01 X93.521200 Y18.352000 Z-0.125000
G01 X93.063400 Y18.426000 Z-0.125000
G01 X92.609500 Y18.665000 Z-0.125000
G01 X92.261200 Y19.099000 Z-0.125000
G01 X92.120400 Y19.752000 Z-0.125000
G01 X92.120400 Y21.181000 Z-0.125000
G01 X92.194700 Y21.634000 Z-0.125000
G01 X92.433400 Y22.088000 Z-0.125000
G01 X92.867700 Y22.441000 Z-0.125000
G01 X93.521200 Y22.581000 Z-0.125000
G01 X95.356400 Y22.581000 Z-0.125000
G01 X95.810300 Y22.507000 Z-0.125000
G01 X96.264200 Y22.264000 Z-0.125000
G01 X96.616400 Y21.830000 Z-0.125000
G01 X96.757200 Y21.180000 Z-0.125000
G01 X96.757200 Y21.181000 Z-0.125000
G00 Z5.000000

(End cutting path id: path12306)


(Start cutting path id: path12306)
(Change tool to Default tool)

G00 Z5.000000
G00 X102.490000 Y22.581000

G01 Z-0.125000 F100.0(Penetrate)
G01 X102.087000 Y21.525000 Z-0.125000 F400.000000
G01 X101.555000 Y20.531000 Z-0.125000
G01 X100.885000 Y19.658000 Z-0.125000
G01 X100.068000 Y18.966000 Z-0.125000
G01 X99.093300 Y18.508000 Z-0.125000
G01 X97.954600 Y18.344000 Z-0.125000
G01 X97.755000 Y18.383000 Z-0.125000
G01 X97.590700 Y18.488000 Z-0.125000
G01 X97.481100 Y18.649000 Z-0.125000
G01 X97.442000 Y18.848000 Z-0.125000
G01 X97.442000 Y22.581000 Z-0.125000
G01 X98.459400 Y22.581000 Z-0.125000
G01 X98.459400 Y19.400000 Z-0.125000
G01 X99.171500 Y19.561000 Z-0.125000
G01 X99.821100 Y19.983000 Z-0.125000
G01 X100.385000 Y20.586000 Z-0.125000
G01 X100.850000 Y21.274000 Z-0.125000
G01 X101.195000 Y21.971000 Z-0.125000
G01 X101.410000 Y22.581000 Z-0.125000
G01 X102.490000 Y22.581000 Z-0.125000
G00 Z5.000000

(End cutting path id: path12306)


(Start cutting path id: path12306)
(Change tool to Default tool)

G00 Z5.000000
G00 X107.404000 Y21.181000

G01 Z-0.125000 F100.0(Penetrate)
G01 X107.330000 Y20.723000 Z-0.125000 F400.000000
G01 X107.087000 Y20.269000 Z-0.125000
G01 X106.653000 Y19.921000 Z-0.125000
G01 X106.004000 Y19.780000 Z-0.125000
G01 X104.168000 Y19.780000 Z-0.125000
G01 X104.168000 Y20.746000 Z-0.125000
G01 X106.004000 Y20.746000 Z-0.125000
G01 X106.324000 Y20.871000 Z-0.125000
G01 X106.438000 Y21.188000 Z-0.125000
G01 X106.309000 Y21.501000 Z-0.125000
G01 X106.004000 Y21.615000 Z-0.125000
G01 X104.168000 Y21.615000 Z-0.125000
G01 X103.848000 Y21.486000 Z-0.125000
G01 X103.734000 Y21.173000 Z-0.125000
G01 X103.734000 Y19.752000 Z-0.125000
G01 X103.859000 Y19.435000 Z-0.125000
G01 X104.176000 Y19.322000 Z-0.125000
G01 X106.004000 Y19.322000 Z-0.125000
G01 X106.004000 Y18.352000 Z-0.125000
G01 X104.168000 Y18.352000 Z-0.125000
G01 X103.711000 Y18.426000 Z-0.125000
G01 X103.257000 Y18.665000 Z-0.125000
G01 X102.908000 Y19.099000 Z-0.125000
G01 X102.768000 Y19.752000 Z-0.125000
G01 X102.768000 Y21.181000 Z-0.125000
G01 X102.842000 Y21.634000 Z-0.125000
G01 X103.081000 Y22.088000 Z-0.125000
G01 X103.515000 Y22.441000 Z-0.125000
G01 X104.168000 Y22.581000 Z-0.125000
G01 X106.004000 Y22.581000 Z-0.125000
G01 X106.458000 Y22.507000 Z-0.125000
G01 X106.911000 Y22.264000 Z-0.125000
G01 X107.264000 Y21.830000 Z-0.125000
G01 X107.404000 Y21.180000 Z-0.125000
G01 X107.404000 Y21.181000 Z-0.125000
G00 Z5.000000

(End cutting path id: path12306)


(Start cutting path id: path12306)
(Change tool to Default tool)

G00 Z5.000000
G00 X112.096000 Y22.268000

G01 Z-0.125000 F100.0(Penetrate)
G01 X112.127000 Y21.975000 Z-0.125000 F400.000000
G01 X111.994000 Y21.717000 Z-0.125000
G01 X109.643000 Y19.369000 Z-0.125000
G01 X112.088000 Y19.369000 Z-0.125000
G01 X112.088000 Y18.352000 Z-0.125000
G01 X108.418000 Y18.352000 Z-0.125000
G01 X108.132000 Y18.438000 Z-0.125000
G01 X107.944000 Y18.665000 Z-0.125000
G01 X107.913000 Y18.958000 Z-0.125000
G01 X108.058000 Y19.224000 Z-0.125000
G01 X110.398000 Y21.564000 Z-0.125000
G01 X107.952000 Y21.564000 Z-0.125000
G01 X107.952000 Y22.581000 Z-0.125000
G01 X111.630000 Y22.581000 Z-0.125000
G01 X111.908000 Y22.499000 Z-0.125000
G01 X112.096000 Y22.268000 Z-0.125000
G01 X112.096000 Y22.268000 Z-0.125000
G00 Z5.000000

(End cutting path id: path12306)


(Start cutting path id: path12306)
(Change tool to Default tool)

G00 Z5.000000
G00 X116.475000 Y21.149000

G01 Z-0.125000 F100.0(Penetrate)
G01 X116.369000 Y21.462000 Z-0.125000 F400.000000
G01 X116.064000 Y21.564000 Z-0.125000
G01 X114.236000 Y21.564000 Z-0.125000
G01 X113.927000 Y21.458000 Z-0.125000
G01 X113.822000 Y21.157000 Z-0.125000
G01 X113.822000 Y19.780000 Z-0.125000
G01 X113.927000 Y19.475000 Z-0.125000
G01 X114.236000 Y19.369000 Z-0.125000
G01 X116.064000 Y19.369000 Z-0.125000
G01 X116.373000 Y19.475000 Z-0.125000
G01 X116.475000 Y19.780000 Z-0.125000
G01 X116.475000 Y21.149000 Z-0.125000
G00 Z5.000000

(End cutting path id: path12306)


(Start cutting path id: path12306)
(Change tool to Default tool)

G00 Z5.000000
G00 X117.492000 Y19.780000

G01 Z-0.125000 F100.0(Penetrate)
G01 X117.425000 Y19.306000 Z-0.125000 F400.000000
G01 X117.249000 Y18.938000 Z-0.125000
G01 X116.995000 Y18.668000 Z-0.125000
G01 X116.690000 Y18.488000 Z-0.125000
G01 X116.369000 Y18.383000 Z-0.125000
G01 X116.064000 Y18.352000 Z-0.125000
G01 X114.229000 Y18.352000 Z-0.125000
G01 X113.767000 Y18.426000 Z-0.125000
G01 X113.301000 Y18.668000 Z-0.125000
G01 X112.945000 Y19.111000 Z-0.125000
G01 X112.804000 Y19.780000 Z-0.125000
G01 X112.804000 Y21.157000 Z-0.125000
G01 X112.945000 Y21.818000 Z-0.125000
G01 X113.301000 Y22.261000 Z-0.125000
G01 X113.767000 Y22.507000 Z-0.125000
G01 X114.229000 Y22.581000 Z-0.125000
G01 X116.064000 Y22.581000 Z-0.125000
G01 X116.729000 Y22.441000 Z-0.125000
G01 X117.171000 Y22.084000 Z-0.125000
G01 X117.414000 Y21.623000 Z-0.125000
G01 X117.492000 Y21.157000 Z-0.125000
G01 X117.492000 Y19.780000 Z-0.125000
G00 Z5.000000

(End cutting path id: path12306)


(Start cutting path id: path12306)
(Change tool to Default tool)

G00 Z5.000000
G00 X122.058000 Y21.564000

G01 Z-0.125000 F100.0(Penetrate)
G01 X119.769000 Y21.564000 Z-0.125000 F400.000000
G01 X119.456000 Y21.458000 Z-0.125000
G01 X119.351000 Y21.157000 Z-0.125000
G01 X119.351000 Y18.352000 Z-0.125000
G01 X118.333000 Y18.352000 Z-0.125000
G01 X118.333000 Y21.157000 Z-0.125000
G01 X118.400000 Y21.627000 Z-0.125000
G01 X118.576000 Y21.991000 Z-0.125000
G01 X118.834000 Y22.261000 Z-0.125000
G01 X119.135000 Y22.444000 Z-0.125000
G01 X119.456000 Y22.546000 Z-0.125000
G01 X119.761000 Y22.581000 Z-0.125000
G01 X122.058000 Y22.581000 Z-0.125000
G01 X122.058000 Y21.564000 Z-0.125000
G00 Z5.000000

(End cutting path id: path12306)


(Start cutting path id: path12306)
(Change tool to Default tool)

G00 Z5.000000
G00 X126.374000 Y20.699000

G01 Z-0.125000 F100.0(Penetrate)
G01 X122.704000 Y20.699000 Z-0.125000 F400.000000
G01 X122.704000 Y21.615000 Z-0.125000
G01 X126.374000 Y21.615000 Z-0.125000
G01 X126.374000 Y20.699000 Z-0.125000
G00 Z5.000000

(End cutting path id: path12306)


(Start cutting path id: path12306)
(Change tool to Default tool)

G00 Z5.000000
G00 X128.339000 Y18.352000

G01 Z-0.125000 F100.0(Penetrate)
G01 X127.321000 Y18.352000 Z-0.125000 F400.000000
G01 X127.321000 Y22.581000 Z-0.125000
G01 X128.339000 Y22.581000 Z-0.125000
G01 X128.339000 Y18.352000 Z-0.125000
G00 Z5.000000

(End cutting path id: path12306)


(Start cutting path id: path12306)
(Change tool to Default tool)

G00 Z5.000000
G00 X128.339000 Y23.450000

G01 Z-0.125000 F100.0(Penetrate)
G01 X127.321000 Y23.450000 Z-0.125000 F400.000000
G01 X127.321000 Y24.370000 Z-0.125000
G01 X128.339000 Y24.370000 Z-0.125000
G01 X128.339000 Y23.450000 Z-0.125000
G00 Z5.000000

(End cutting path id: path12306)


(Start cutting path id: path12306)
(Change tool to Default tool)

G00 Z5.000000
G00 X134.001000 Y18.352000

G01 Z-0.125000 F100.0(Penetrate)
G01 X132.983000 Y18.352000 Z-0.125000 F400.000000
G01 X132.983000 Y20.699000 Z-0.125000
G01 X132.913000 Y21.055000 Z-0.125000
G01 X132.729000 Y21.329000 Z-0.125000
G01 X132.451000 Y21.501000 Z-0.125000
G01 X132.111000 Y21.564000 Z-0.125000
G01 X130.330000 Y21.564000 Z-0.125000
G01 X130.330000 Y18.352000 Z-0.125000
G01 X129.313000 Y18.352000 Z-0.125000
G01 X129.313000 Y22.077000 Z-0.125000
G01 X129.352000 Y22.272000 Z-0.125000
G01 X129.462000 Y22.433000 Z-0.125000
G01 X129.626000 Y22.542000 Z-0.125000
G01 X129.826000 Y22.581000 Z-0.125000
G01 X132.119000 Y22.581000 Z-0.125000
G01 X132.522000 Y22.538000 Z-0.125000
G01 X132.944000 Y22.398000 Z-0.125000
G01 X133.343000 Y22.155000 Z-0.125000
G01 X133.680000 Y21.799000 Z-0.125000
G01 X133.915000 Y21.318000 Z-0.125000
G01 X134.001000 Y20.699000 Z-0.125000
G01 X134.001000 Y18.352000 Z-0.125000
G00 Z5.000000

(End cutting path id: path12306)


(Start cutting path id: path12306)
(Change tool to Default tool)

G00 Z5.000000
G00 X138.990000 Y18.352000

G01 Z-0.125000 F100.0(Penetrate)
G01 X136.231000 Y18.352000 Z-0.125000 F400.000000
G01 X135.769000 Y18.426000 Z-0.125000
G01 X135.304000 Y18.668000 Z-0.125000
G01 X134.948000 Y19.111000 Z-0.125000
G01 X134.807000 Y19.780000 Z-0.125000
G01 X134.807000 Y21.157000 Z-0.125000
G01 X134.838000 Y21.462000 Z-0.125000
G01 X134.944000 Y21.779000 Z-0.125000
G01 X135.124000 Y22.084000 Z-0.125000
G01 X135.394000 Y22.339000 Z-0.125000
G01 X135.762000 Y22.515000 Z-0.125000
G01 X136.231000 Y22.581000 Z-0.125000
G01 X138.990000 Y22.581000 Z-0.125000
G01 X138.990000 Y21.564000 Z-0.125000
G01 X136.231000 Y21.564000 Z-0.125000
G01 X135.926000 Y21.462000 Z-0.125000
G01 X135.824000 Y21.149000 Z-0.125000
G01 X135.824000 Y19.780000 Z-0.125000
G01 X135.930000 Y19.474000 Z-0.125000
G01 X136.239000 Y19.369000 Z-0.125000
G01 X138.990000 Y19.369000 Z-0.125000
G01 X138.990000 Y18.352000 Z-0.125000
G00 Z5.000000

(End cutting path id: path12306)


(Start cutting path id: path12306)
(Change tool to Default tool)

G00 Z5.000000
G00 X133.390000 Y40.170000

G01 Z-0.125000 F100.0(Penetrate)
G01 X133.390000 Y43.073000 Z-0.125000 F400.000000
G01 X131.502000 Y47.200000 Z-0.125000
G01 X129.565000 Y51.451000 Z-0.125000
G01 X129.805000 Y51.547000 Z-0.125000
G01 X130.970000 Y51.551000 Z-0.125000
G01 X132.422000 Y51.525000 Z-0.125000
G01 X133.529000 Y48.854000 Z-0.125000
G01 X134.729000 Y45.974000 Z-0.125000
G01 X134.818000 Y45.967000 Z-0.125000
G01 X135.010000 Y46.312000 Z-0.125000
G01 X135.978000 Y48.646000 Z-0.125000
G01 X137.133000 Y51.525000 Z-0.125000
G01 X138.563000 Y51.550000 Z-0.125000
G01 X139.992000 Y51.500000 Z-0.125000
G01 X138.067000 Y47.263000 Z-0.125000
G01 X136.141000 Y43.104000 Z-0.125000
G01 X136.141000 Y40.185000 Z-0.125000
G01 X136.141000 Y37.266000 Z-0.125000
G01 X134.766000 Y37.266000 Z-0.125000
G01 X133.390000 Y37.266000 Z-0.125000
G01 X133.390000 Y40.170000 Z-0.125000
G00 Z5.000000

(End cutting path id: path12306)


(Start cutting path id: path12306)
(Change tool to Default tool)

G00 Z5.000000
G00 X123.740000 Y44.420000

G01 Z-0.125000 F100.0(Penetrate)
G01 X123.740000 Y37.795000 Z-0.125000 F400.000000
G01 X129.837000 Y37.795000 Z-0.125000
G01 X129.863000 Y38.735000 Z-0.125000
G01 X129.760000 Y39.088000 Z-0.125000
G01 X129.337000 Y39.123000 Z-0.125000
G01 X125.435000 Y39.123000 Z-0.125000
G01 X125.435000 Y51.045000 Z-0.125000
G01 X124.465000 Y51.068000 Z-0.125000
G01 X124.011000 Y51.047000 Z-0.125000
G01 X123.740000 Y50.845000 Z-0.125000
G01 X123.740000 Y44.420000 Z-0.125000
G01 X123.740000 Y44.420000 Z-0.125000
G00 Z5.000000

(End cutting path id: path12306)


(Start cutting path id: path12306)
(Change tool to Default tool)

G00 Z5.000000
G00 X123.476000 Y44.420000

G01 Z-0.125000 F100.0(Penetrate)
G01 X123.476000 Y37.531000 Z-0.125000 F400.000000
G01 X130.101000 Y37.531000 Z-0.125000
G01 X130.101000 Y39.386000 Z-0.125000
G01 X125.699000 Y39.386000 Z-0.125000
G01 X125.699000 Y51.308000 Z-0.125000
G01 X123.476000 Y51.308000 Z-0.125000
G01 X123.476000 Y44.420000 Z-0.125000
G01 X123.476000 Y44.420000 Z-0.125000
G00 Z5.000000

(End cutting path id: path12306)


(Start cutting path id: path12306)
(Change tool to Default tool)

G00 Z5.000000
G00 X123.212000 Y44.419000

G01 Z-0.125000 F100.0(Penetrate)
G01 X123.212000 Y51.571000 Z-0.125000 F400.000000
G01 X124.587000 Y51.571000 Z-0.125000
G01 X125.963000 Y51.571000 Z-0.125000
G01 X125.963000 Y45.611000 Z-0.125000
G01 X125.963000 Y39.651000 Z-0.125000
G01 X128.164000 Y39.651000 Z-0.125000
G01 X130.364000 Y39.651000 Z-0.125000
G01 X130.364000 Y38.458000 Z-0.125000
G01 X130.364000 Y37.266000 Z-0.125000
G01 X126.788000 Y37.266000 Z-0.125000
G01 X123.212000 Y37.266000 Z-0.125000
G01 X123.212000 Y44.419000 Z-0.125000
G00 Z5.000000

(End cutting path id: path12306)


(Start cutting path id: path12306)
(Change tool to Default tool)

G00 Z5.000000
G00 X117.266000 Y45.541000

G01 Z-0.125000 F100.0(Penetrate)
G01 X117.902000 Y46.211000 Z-0.125000 F400.000000
G01 X118.096000 Y47.288000 Z-0.125000
G01 X117.996000 Y48.169000 Z-0.125000
G01 X117.636000 Y48.760000 Z-0.125000
G01 X116.964000 Y49.216000 Z-0.125000
G01 X115.716000 Y49.353000 Z-0.125000
G01 X114.592000 Y49.392000 Z-0.125000
G01 X114.592000 Y47.309000 Z-0.125000
G01 X114.592000 Y45.225000 Z-0.125000
G01 X115.716000 Y45.257000 Z-0.125000
G01 X116.730000 Y45.324000 Z-0.125000
G01 X117.266000 Y45.541000 Z-0.125000
G01 X117.266000 Y45.541000 Z-0.125000
G00 Z5.000000

(End cutting path id: path12306)


(Start cutting path id: path12306)
(Change tool to Default tool)

G00 Z5.000000
G00 X114.603000 Y49.656000

G01 Z-0.125000 F100.0(Penetrate)
G01 X116.429000 Y49.582000 Z-0.125000 F400.000000
G01 X117.285000 Y49.357000 Z-0.125000
G01 X117.972000 Y48.773000 Z-0.125000
G01 X118.272000 Y48.122000 Z-0.125000
G01 X118.376000 Y47.402000 Z-0.125000
G01 X118.305000 Y46.672000 Z-0.125000
G01 X118.080000 Y45.991000 Z-0.125000
G01 X117.584000 Y45.425000 Z-0.125000
G01 X116.921000 Y45.117000 Z-0.125000
G01 X115.424000 Y44.985000 Z-0.125000
G01 X114.553000 Y44.971000 Z-0.125000
G01 X114.304000 Y45.156000 Z-0.125000
G01 X114.330000 Y45.624000 Z-0.125000
G01 X114.330000 Y49.666000 Z-0.125000
G01 X114.603000 Y49.656000 Z-0.125000
G01 X114.603000 Y49.656000 Z-0.125000
G00 Z5.000000

(End cutting path id: path12306)


(Start cutting path id: path12306)
(Change tool to Default tool)

G00 Z5.000000
G00 X114.339000 Y49.930000

G01 Z-0.125000 F100.0(Penetrate)
G01 X116.423000 Y49.847000 Z-0.125000 F400.000000
G01 X117.402000 Y49.589000 Z-0.125000
G01 X118.189000 Y48.926000 Z-0.125000
G01 X118.568000 Y47.993000 Z-0.125000
G01 X118.630000 Y46.965000 Z-0.125000
G01 X118.357000 Y45.987000 Z-0.125000
G01 X117.728000 Y45.205000 Z-0.125000
G01 X116.967000 Y44.865000 Z-0.125000
G01 X116.146000 Y44.725000 Z-0.125000
G01 X114.468000 Y44.719000 Z-0.125000
G01 X114.101000 Y44.991000 Z-0.125000
G01 X114.021000 Y45.421000 Z-0.125000
G01 X114.066000 Y46.362000 Z-0.125000
G01 X114.066000 Y49.939000 Z-0.125000
G01 X114.339000 Y49.929000 Z-0.125000
G01 X114.339000 Y49.930000 Z-0.125000
G00 Z5.000000

(End cutting path id: path12306)


(Start cutting path id: path12306)
(Change tool to Default tool)

G00 Z5.000000
G00 X112.369000 Y44.427000

G01 Z-0.125000 F100.0(Penetrate)
G01 X112.369000 Y37.793000 Z-0.125000 F400.000000
G01 X113.340000 Y37.770000 Z-0.125000
G01 X113.794000 Y37.790000 Z-0.125000
G01 X114.066000 Y37.993000 Z-0.125000
G01 X114.066000 Y43.574000 Z-0.125000
G01 X115.492000 Y43.564000 Z-0.125000
G01 X116.944000 Y43.645000 Z-0.125000
G01 X118.313000 Y44.002000 Z-0.125000
G01 X118.931000 Y44.340000 Z-0.125000
G01 X119.486000 Y44.816000 Z-0.125000
G01 X120.139000 Y46.072000 Z-0.125000
G01 X120.315000 Y47.495000 Z-0.125000
G01 X120.012000 Y48.890000 Z-0.125000
G01 X119.228000 Y50.066000 Z-0.125000
G01 X118.018000 Y50.738000 Z-0.125000
G01 X116.671000 Y50.981000 Z-0.125000
G01 X113.886000 Y51.032000 Z-0.125000
G01 X112.946000 Y51.076000 Z-0.125000
G01 X112.528000 Y51.045000 Z-0.125000
G01 X112.369000 Y50.752000 Z-0.125000
G01 X112.369000 Y44.427000 Z-0.125000
G01 X112.369000 Y44.427000 Z-0.125000
G00 Z5.000000

(End cutting path id: path12306)


(Start cutting path id: path12306)
(Change tool to Default tool)

G00 Z5.000000
G00 X112.105000 Y44.427000

G01 Z-0.125000 F100.0(Penetrate)
G01 X112.105000 Y37.529000 Z-0.125000 F400.000000
G01 X114.330000 Y37.529000 Z-0.125000
G01 X114.330000 Y43.306000 Z-0.125000
G01 X115.748000 Y43.302000 Z-0.125000
G01 X117.189000 Y43.415000 Z-0.125000
G01 X118.540000 Y43.808000 Z-0.125000
G01 X119.146000 Y44.160000 Z-0.125000
G01 X119.688000 Y44.644000 Z-0.125000
G01 X120.330000 Y45.783000 Z-0.125000
G01 X120.572000 Y47.079000 Z-0.125000
G01 X120.445000 Y48.393000 Z-0.125000
G01 X119.979000 Y49.585000 Z-0.125000
G01 X119.190000 Y50.436000 Z-0.125000
G01 X118.174000 Y50.965000 Z-0.125000
G01 X117.035000 Y51.223000 Z-0.125000
G01 X115.877000 Y51.258000 Z-0.125000
G01 X112.105000 Y51.320000 Z-0.125000
G01 X112.105000 Y44.427000 Z-0.125000
G01 X112.105000 Y44.427000 Z-0.125000
G00 Z5.000000

(End cutting path id: path12306)


(Start cutting path id: path12306)
(Change tool to Default tool)

G00 Z5.000000
G00 X111.842000 Y44.427000

G01 Z-0.125000 F100.0(Penetrate)
G01 X111.842000 Y51.587000 Z-0.125000 F400.000000
G01 X114.615000 Y51.549000 Z-0.125000
G01 X117.463000 Y51.433000 Z-0.125000
G01 X118.170000 Y51.264000 Z-0.125000
G01 X118.842000 Y50.959000 Z-0.125000
G01 X119.696000 Y50.355000 Z-0.125000
G01 X120.318000 Y49.532000 Z-0.125000
G01 X120.699000 Y48.511000 Z-0.125000
G01 X120.828000 Y47.307000 Z-0.125000
G01 X120.692000 Y46.061000 Z-0.125000
G01 X120.286000 Y45.021000 Z-0.125000
G01 X119.615000 Y44.193000 Z-0.125000
G01 X118.681000 Y43.584000 Z-0.125000
G01 X117.378000 Y43.172000 Z-0.125000
G01 X115.716000 Y43.045000 Z-0.125000
G01 X114.592000 Y43.043000 Z-0.125000
G01 X114.592000 Y40.154000 Z-0.125000
G01 X114.592000 Y37.266000 Z-0.125000
G01 X113.217000 Y37.266000 Z-0.125000
G01 X111.842000 Y37.266000 Z-0.125000
G01 X111.842000 Y44.427000 Z-0.125000
G00 Z5.000000

(End cutting path id: path12306)


(Start cutting path id: path12306)
(Change tool to Default tool)

G00 Z5.000000
G00 X106.110000 Y45.448000

G01 Z-0.125000 F100.0(Penetrate)
G01 X106.632000 Y45.861000 Z-0.125000 F400.000000
G01 X106.976000 Y46.373000 Z-0.125000
G01 X107.070000 Y47.307000 Z-0.125000
G01 X106.976000 Y48.241000 Z-0.125000
G01 X106.534000 Y48.844000 Z-0.125000
G01 X105.844000 Y49.235000 Z-0.125000
G01 X104.489000 Y49.370000 Z-0.125000
G01 X103.589000 Y49.370000 Z-0.125000
G01 X103.589000 Y47.296000 Z-0.125000
G01 X103.589000 Y45.222000 Z-0.125000
G01 X104.712000 Y45.262000 Z-0.125000
G01 X106.110000 Y45.448000 Z-0.125000
G01 X106.110000 Y45.448000 Z-0.125000
G00 Z5.000000

(End cutting path id: path12306)


(Start cutting path id: path12306)
(Change tool to Default tool)

G00 Z5.000000
G00 X104.541000 Y49.902000

G01 Z-0.125000 F100.0(Penetrate)
G01 X105.579000 Y49.839000 Z-0.125000 F400.000000
G01 X106.555000 Y49.465000 Z-0.125000
G01 X107.288000 Y48.778000 Z-0.125000
G01 X107.504000 Y48.317000 Z-0.125000
G01 X107.591000 Y47.777000 Z-0.125000
G01 X107.601000 Y47.005000 Z-0.125000
G01 X107.458000 Y46.244000 Z-0.125000
G01 X107.111000 Y45.578000 Z-0.125000
G01 X106.508000 Y45.088000 Z-0.125000
G01 X105.687000 Y44.802000 Z-0.125000
G01 X104.819000 Y44.720000 Z-0.125000
G01 X103.062000 Y44.676000 Z-0.125000
G01 X103.062000 Y49.898000 Z-0.125000
G01 X104.541000 Y49.902000 Z-0.125000
G01 X104.541000 Y49.902000 Z-0.125000
G00 Z5.000000

(End cutting path id: path12306)


(Start cutting path id: path12306)
(Change tool to Default tool)

G00 Z5.000000
G00 X103.589000 Y49.634000

G01 Z-0.125000 F100.0(Penetrate)
G01 X105.507000 Y49.567000 Z-0.125000 F400.000000
G01 X106.391000 Y49.275000 Z-0.125000
G01 X107.078000 Y48.617000 Z-0.125000
G01 X107.280000 Y48.058000 Z-0.125000
G01 X107.345000 Y47.460000 Z-0.125000
G01 X107.216000 Y46.261000 Z-0.125000
G01 X106.854000 Y45.697000 Z-0.125000
G01 X106.337000 Y45.292000 Z-0.125000
G01 X105.719000 Y45.059000 Z-0.125000
G01 X105.050000 Y45.015000 Z-0.125000
G01 X103.326000 Y44.949000 Z-0.125000
G01 X103.326000 Y49.634000 Z-0.125000
G01 X103.589000 Y49.634000 Z-0.125000
G01 X103.589000 Y49.634000 Z-0.125000
G00 Z5.000000

(End cutting path id: path12306)


(Start cutting path id: path12306)
(Change tool to Default tool)

G00 Z5.000000
G00 X101.365000 Y44.427000

G01 Z-0.125000 F100.0(Penetrate)
G01 X101.365000 Y37.793000 Z-0.125000 F400.000000
G01 X102.336000 Y37.770000 Z-0.125000
G01 X102.790000 Y37.790000 Z-0.125000
G01 X103.062000 Y37.993000 Z-0.125000
G01 X103.062000 Y43.572000 Z-0.125000
G01 X105.934000 Y43.646000 Z-0.125000
G01 X107.300000 Y43.999000 Z-0.125000
G01 X107.916000 Y44.336000 Z-0.125000
G01 X108.470000 Y44.810000 Z-0.125000
G01 X108.874000 Y45.437000 Z-0.125000
G01 X109.147000 Y46.136000 Z-0.125000
G01 X109.299000 Y47.639000 Z-0.125000
G01 X108.917000 Y49.088000 Z-0.125000
G01 X108.523000 Y49.719000 Z-0.125000
G01 X107.992000 Y50.250000 Z-0.125000
G01 X106.757000 Y50.811000 Z-0.125000
G01 X105.418000 Y50.997000 Z-0.125000
G01 X102.682000 Y51.035000 Z-0.125000
G01 X101.748000 Y51.073000 Z-0.125000
G01 X101.397000 Y50.974000 Z-0.125000
G01 X101.365000 Y50.552000 Z-0.125000
G01 X101.365000 Y44.427000 Z-0.125000
G01 X101.365000 Y44.427000 Z-0.125000
G00 Z5.000000

(End cutting path id: path12306)


(Start cutting path id: path12306)
(Change tool to Default tool)

G00 Z5.000000
G00 X101.101000 Y44.427000

G01 Z-0.125000 F100.0(Penetrate)
G01 X101.101000 Y37.529000 Z-0.125000 F400.000000
G01 X103.326000 Y37.529000 Z-0.125000
G01 X103.326000 Y43.306000 Z-0.125000
G01 X104.740000 Y43.303000 Z-0.125000
G01 X106.175000 Y43.413000 Z-0.125000
G01 X107.521000 Y43.802000 Z-0.125000
G01 X108.126000 Y44.152000 Z-0.125000
G01 X108.667000 Y44.633000 Z-0.125000
G01 X109.317000 Y45.776000 Z-0.125000
G01 X109.566000 Y47.075000 Z-0.125000
G01 X109.436000 Y48.401000 Z-0.125000
G01 X108.947000 Y49.621000 Z-0.125000
G01 X108.158000 Y50.457000 Z-0.125000
G01 X107.149000 Y50.973000 Z-0.125000
G01 X106.020000 Y51.223000 Z-0.125000
G01 X104.873000 Y51.258000 Z-0.125000
G01 X101.101000 Y51.320000 Z-0.125000
G01 X101.101000 Y44.427000 Z-0.125000
G01 X101.101000 Y44.427000 Z-0.125000
G00 Z5.000000

(End cutting path id: path12306)


(Start cutting path id: path12306)
(Change tool to Default tool)

G00 Z5.000000
G00 X100.838000 Y44.427000

G01 Z-0.125000 F100.0(Penetrate)
G01 X100.838000 Y51.587000 Z-0.125000 F400.000000
G01 X103.612000 Y51.549000 Z-0.125000
G01 X106.460000 Y51.433000 Z-0.125000
G01 X107.166000 Y51.264000 Z-0.125000
G01 X107.838000 Y50.959000 Z-0.125000
G01 X108.687000 Y50.355000 Z-0.125000
G01 X109.309000 Y49.530000 Z-0.125000
G01 X109.691000 Y48.507000 Z-0.125000
G01 X109.821000 Y47.307000 Z-0.125000
G01 X109.684000 Y46.065000 Z-0.125000
G01 X109.277000 Y45.023000 Z-0.125000
G01 X108.606000 Y44.192000 Z-0.125000
G01 X107.678000 Y43.584000 Z-0.125000
G01 X106.375000 Y43.172000 Z-0.125000
G01 X104.712000 Y43.045000 Z-0.125000
G01 X103.589000 Y43.043000 Z-0.125000
G01 X103.589000 Y40.154000 Z-0.125000
G01 X103.589000 Y37.266000 Z-0.125000
G01 X102.213000 Y37.266000 Z-0.125000
G01 X100.838000 Y37.266000 Z-0.125000
G01 X100.838000 Y44.427000 Z-0.125000
G00 Z5.000000

(End cutting path id: path12306)


(Start cutting path id: path12306)
(Change tool to Default tool)

G00 Z5.000000
G00 X85.573800 Y65.013700

G01 Z-0.125000 F100.0(Penetrate)
G01 X84.875300 Y63.817800 Z-0.125000 F400.000000
G01 X83.615800 Y62.818800 Z-0.125000
G01 X82.240000 Y62.318200 Z-0.125000
G01 X81.276900 Y62.318200 Z-0.125000
G01 X80.980600 Y62.818800 Z-0.125000
G01 X81.382800 Y64.082400 Z-0.125000
G01 X82.377600 Y65.585200 Z-0.125000
G01 X83.510000 Y66.516600 Z-0.125000
G01 X84.240300 Y66.887000 Z-0.125000
G01 X84.981100 Y66.781100 Z-0.125000
G01 X85.573800 Y66.315500 Z-0.125000
G01 X85.743100 Y61.584700 Z-0.125000
G01 X85.616100 Y59.986700 Z-0.125000
G01 X85.245700 Y58.981200 Z-0.125000
G01 X84.780000 Y58.314500 Z-0.125000
G01 X84.346100 Y57.954700 Z-0.125000
G01 X83.774600 Y57.848800 Z-0.125000
G01 X83.340700 Y57.817100 Z-0.125000
G01 X82.144800 Y57.848800 Z-0.125000
G00 Z5.000000

(End cutting path id: path12306)


(Start cutting path id: path12306)
(Change tool to Default tool)

G00 Z5.000000
G00 X77.086000 Y65.183100

G01 Z-0.125000 F100.0(Penetrate)
G01 X76.482700 Y63.849600 Z-0.125000 F400.000000
G01 X75.509000 Y62.951000 Z-0.125000
G01 X74.810500 Y62.552100 Z-0.125000
G01 X74.143800 Y62.318200 Z-0.125000
G01 X73.212500 Y62.418700 Z-0.125000
G01 X72.715100 Y62.751000 Z-0.125000
G01 X72.577500 Y63.786100 Z-0.125000
G01 X73.085500 Y64.823200 Z-0.125000
G01 X73.741600 Y65.818100 Z-0.125000
G01 X74.810500 Y66.548300 Z-0.125000
G01 X75.614900 Y66.918700 Z-0.125000
G01 X76.218100 Y66.918700 Z-0.125000
G01 X76.948400 Y66.781100 Z-0.125000
G01 X77.086000 Y66.283700 Z-0.125000
G01 X77.213000 Y62.284800 Z-0.125000
G00 Z5.000000

(End cutting path id: path12306)


(Start cutting path id: path12306)
(Change tool to Default tool)

G00 Z5.000000
G00 X79.213200 Y66.982200

G01 Z-0.125000 F100.0(Penetrate)
G01 X79.308400 Y62.718200 Z-0.125000 F400.000000
G01 X79.509500 Y62.518200 Z-0.125000
G00 Z5.000000

(End cutting path id: path12306)


(Start cutting path id: path12306)
(Change tool to Default tool)

G00 Z5.000000
G00 X78.948600 Y68.982500

G01 Z-0.125000 F100.0(Penetrate)
G01 X79.139100 Y68.982500 Z-0.125000 F400.000000
G00 Z5.000000

(End cutting path id: path12306)


(Start cutting path id: path12306)
(Change tool to Default tool)

G00 Z5.000000
G00 X86.509300 Y67.014000

G01 Z-0.125000 F100.0(Penetrate)
G01 X86.542100 Y62.451500 Z-0.125000 F400.000000
G01 X86.509300 Y65.680500 Z-0.125000
G01 X87.743300 Y66.484800 Z-0.125000
G01 X88.939300 Y67.056300 Z-0.125000
G01 X89.711800 Y67.119800 Z-0.125000
G01 X90.272700 Y67.056300 Z-0.125000
G01 X90.643200 Y66.654100 Z-0.125000
G01 X90.907700 Y65.490000 Z-0.125000
G01 X90.876000 Y62.351500 Z-0.125000
G00 Z5.000000

(End cutting path id: path12306)


(Start cutting path id: path12306)
(Change tool to Default tool)

G00 Z5.000000
G00 X90.886500 Y80.010200

G01 Z-0.125000 F100.0(Penetrate)
G01 X90.547900 Y80.348900 Z-0.125000 F400.000000
G01 X89.553000 Y80.348900 Z-0.125000
G01 X88.420600 Y80.116100 Z-0.125000
G01 X87.383500 Y79.576300 Z-0.125000
G01 X86.949600 Y78.877800 Z-0.125000
G01 X86.949600 Y78.115800 Z-0.125000
G01 X87.383500 Y77.777200 Z-0.125000
G01 X88.346600 Y77.777200 Z-0.125000
G01 X89.383700 Y77.978200 Z-0.125000
G01 X90.050500 Y77.946500 Z-0.125000
G01 X90.579600 Y77.745400 Z-0.125000
G01 X90.918300 Y77.449100 Z-0.125000
G01 X90.823000 Y76.951700 Z-0.125000
G01 X89.785900 Y76.147300 Z-0.125000
G01 X88.452400 Y75.781200 Z-0.125000
G01 X87.679800 Y75.480600 Z-0.125000
G01 X87.351700 Y75.513900 Z-0.125000
G00 Z5.000000

(End cutting path id: path12306)


(Start cutting path id: path12306)
(Change tool to Default tool)

G00 Z5.000000
G00 X91.945000 Y80.348900

G01 Z-0.125000 F100.0(Penetrate)
G01 X91.680400 Y78.814300 Z-0.125000 F400.000000
G01 X91.585200 Y77.046900 Z-0.125000
G01 X91.987300 Y76.014000 Z-0.125000
G01 X92.812800 Y75.580600 Z-0.125000
G01 X94.220400 Y75.680600 Z-0.125000
G01 X95.014200 Y76.180100 Z-0.125000
G01 X95.448100 Y76.381200 Z-0.125000
G01 X95.882000 Y76.983400 Z-0.125000
G01 X96.188900 Y77.618400 Z-0.125000
G01 X95.945500 Y80.475900 Z-0.125000
G01 X96.284200 Y75.613900 Z-0.125000
G00 Z5.000000

(End cutting path id: path12306)


(Start cutting path id: path12306)
(Change tool to Default tool)

G00 Z5.000000
G00 X97.353000 Y82.582000

G01 Z-0.125000 F100.0(Penetrate)
G01 X97.416500 Y75.913500 Z-0.125000 F400.000000
G01 X97.913900 Y75.714500 Z-0.125000
G01 X98.781800 Y75.880600 Z-0.125000
G01 X100.084000 Y76.414000 Z-0.125000
G01 X101.682000 Y77.681900 Z-0.125000
G01 X102.317000 Y78.782600 Z-0.125000
G01 X102.549000 Y79.650400 Z-0.125000
G01 X102.348000 Y80.116100 Z-0.125000
G01 X101.851000 Y80.317200 Z-0.125000
G01 X100.687000 Y80.211300 Z-0.125000
G01 X99.649600 Y79.512800 Z-0.125000
G01 X98.517200 Y78.719100 Z-0.125000
G01 X97.490600 Y77.248000 Z-0.125000
G00 Z5.000000

(End cutting path id: path12306)


(Start cutting path id: path12306)
(Change tool to Default tool)

G00 Z5.000000
G00 X107.354000 Y80.010200

G01 Z-0.125000 F100.0(Penetrate)
G01 X107.016000 Y80.348900 Z-0.125000 F400.000000
G01 X106.021000 Y80.348900 Z-0.125000
G01 X104.888000 Y80.116100 Z-0.125000
G01 X103.851000 Y79.576300 Z-0.125000
G01 X103.417000 Y78.877800 Z-0.125000
G01 X103.417000 Y78.115800 Z-0.125000
G01 X103.851000 Y77.777200 Z-0.125000
G01 X104.814000 Y77.777200 Z-0.125000
G01 X105.851000 Y77.978200 Z-0.125000
G01 X106.518000 Y77.946500 Z-0.125000
G01 X107.047000 Y77.745400 Z-0.125000
G01 X107.386000 Y77.449100 Z-0.125000
G01 X107.291000 Y76.951700 Z-0.125000
G01 X106.254000 Y76.147300 Z-0.125000
G01 X104.920000 Y75.781200 Z-0.125000
G01 X104.148000 Y75.480600 Z-0.125000
G01 X103.819000 Y75.513900 Z-0.125000
G00 Z5.000000

(End cutting path id: path12306)


(Start cutting path id: path12306)
(Change tool to Default tool)

G00 Z5.000000
G00 X112.656000 Y79.883200

G01 Z-0.125000 F100.0(Penetrate)
G01 X112.318000 Y80.179600 Z-0.125000 F400.000000
G01 X111.323000 Y80.285400 Z-0.125000
G01 X110.254000 Y79.883200 Z-0.125000
G01 X109.354000 Y79.216500 Z-0.125000
G01 X108.381000 Y77.946500 Z-0.125000
G01 X108.084000 Y76.613000 Z-0.125000
G01 X108.719000 Y75.846800 Z-0.125000
G01 X110.021000 Y75.447300 Z-0.125000
G01 X111.418000 Y75.513900 Z-0.125000
G01 X112.413000 Y75.747300 Z-0.125000
G01 X113.482000 Y76.314600 Z-0.125000
G00 Z5.000000

(End cutting path id: path12306)


(Start cutting path id: path12306)
(Change tool to Default tool)

G00 Z5.000000
G00 X114.721000 Y80.444200

G01 Z-0.125000 F100.0(Penetrate)
G01 X114.594000 Y75.647800 Z-0.125000 F400.000000
G01 X114.922000 Y78.348700 Z-0.125000
G01 X115.726000 Y79.385800 Z-0.125000
G01 X116.753000 Y79.978500 Z-0.125000
G01 X117.589000 Y80.317200 Z-0.125000
G01 X117.959000 Y80.348900 Z-0.125000
G01 X119.060000 Y80.243100 Z-0.125000
G01 X119.187000 Y80.147800 Z-0.125000
G00 Z5.000000

(End cutting path id: path12306)


(Start cutting path id: path12306)
(Change tool to Default tool)

G00 Z5.000000
G00 X121.060000 Y80.211300

G01 Z-0.125000 F100.0(Penetrate)
G01 X121.155000 Y75.947300 Z-0.125000 F400.000000
G01 X121.356000 Y75.747300 Z-0.125000
G00 Z5.000000

(End cutting path id: path12306)


(Start cutting path id: path12306)
(Change tool to Default tool)

G00 Z5.000000
G00 X120.795000 Y82.211600

G01 Z-0.125000 F100.0(Penetrate)
G01 X120.986000 Y82.211600 Z-0.125000 F400.000000
G00 Z5.000000

(End cutting path id: path12306)


(Start cutting path id: path12306)
(Change tool to Default tool)

G00 Z5.000000
G00 X123.092000 Y82.582000

G01 Z-0.125000 F100.0(Penetrate)
G01 X123.155000 Y75.913500 Z-0.125000 F400.000000
G01 X123.653000 Y75.714500 Z-0.125000
G01 X124.521000 Y75.880600 Z-0.125000
G01 X125.822000 Y76.414000 Z-0.125000
G01 X127.420000 Y77.681900 Z-0.125000
G01 X128.055000 Y78.782600 Z-0.125000
G01 X128.288000 Y79.650400 Z-0.125000
G01 X128.087000 Y80.116100 Z-0.125000
G01 X127.590000 Y80.317200 Z-0.125000
G01 X126.426000 Y80.211300 Z-0.125000
G01 X125.388000 Y79.512800 Z-0.125000
G01 X124.256000 Y78.719100 Z-0.125000
G01 X123.229000 Y77.248000 Z-0.125000
G00 Z5.000000

(End cutting path id: path12306)


(Start cutting path id: path12306)
(Change tool to Default tool)

G00 Z5.000000
G00 X129.960000 Y80.211300

G01 Z-0.125000 F100.0(Penetrate)
G01 X130.055000 Y75.947300 Z-0.125000 F400.000000
G01 X130.256000 Y75.747300 Z-0.125000
G00 Z5.000000

(End cutting path id: path12306)


(Start cutting path id: path12306)
(Change tool to Default tool)

G00 Z5.000000
G00 X131.425000 Y80.243100

G01 Z-0.125000 F100.0(Penetrate)
G01 X131.457000 Y75.680600 Z-0.125000 F400.000000
G01 X131.425000 Y78.909600 Z-0.125000
G01 X132.659000 Y79.713900 Z-0.125000
G01 X133.854000 Y80.285400 Z-0.125000
G01 X134.627000 Y80.348900 Z-0.125000
G01 X135.188000 Y80.285400 Z-0.125000
G01 X135.558000 Y79.883200 Z-0.125000
G01 X135.823000 Y78.719100 Z-0.125000
G01 X135.791000 Y75.580600 Z-0.125000
G00 Z5.000000

(End cutting path id: path12306)


(Start cutting path id: path12306)
(Change tool to Default tool)

G00 Z5.000000
G00 X141.453000 Y78.242800

G01 Z-0.125000 F100.0(Penetrate)
G01 X140.755000 Y77.046900 Z-0.125000 F400.000000
G01 X139.495000 Y76.047900 Z-0.125000
G01 X138.120000 Y75.547300 Z-0.125000
G01 X137.157000 Y75.547300 Z-0.125000
G01 X136.860000 Y76.047900 Z-0.125000
G01 X137.262000 Y77.311500 Z-0.125000
G01 X138.257000 Y78.814300 Z-0.125000
G01 X139.390000 Y79.745700 Z-0.125000
G01 X140.120000 Y80.116100 Z-0.125000
G01 X140.861000 Y80.010200 Z-0.125000
G01 X141.453000 Y79.544600 Z-0.125000
G01 X141.623000 Y74.813800 Z-0.125000
G01 X141.496000 Y73.215800 Z-0.125000
G01 X141.125000 Y72.210400 Z-0.125000
G01 X140.660000 Y71.543600 Z-0.125000
G01 X140.226000 Y71.183800 Z-0.125000
G01 X139.654000 Y71.077900 Z-0.125000
G01 X139.220000 Y71.046200 Z-0.125000
G01 X138.024000 Y71.077900 Z-0.125000
G00 Z5.000000

(End cutting path id: path12306)


(Start cutting path id: path12306)
(Change tool to Default tool)

G00 Z5.000000
G00 X129.695000 Y82.211600

G01 Z-0.125000 F100.0(Penetrate)
G01 X129.886000 Y82.211600 Z-0.125000 F400.000000
G00 Z5.000000

(End cutting path id: path12306)


(Start cutting path id: path12306)
(Change tool to Default tool)

G00 Z5.000000
G00 X111.364000 Y92.866900

G01 Z-0.125000 F100.0(Penetrate)
G01 X112.418000 Y93.920200 Z-0.125000 F400.000000
G00 Z5.000000

(End cutting path id: path12306)


(Start cutting path id: path12306)
(Change tool to Default tool)

G00 Z5.000000
G00 X113.670000 Y98.002000

G01 Z-0.125000 F100.0(Penetrate)
G01 X113.592000 Y96.817500 Z-0.125000 F400.000000
G01 X113.355000 Y95.753900 Z-0.125000
G01 X112.519000 Y94.007400 Z-0.125000
G01 X111.311000 Y92.725500 Z-0.125000
G01 X109.862000 Y91.870800 Z-0.125000
G01 X108.338000 Y91.369200 Z-0.125000
G01 X106.889000 Y91.220500 Z-0.125000
G01 X98.175300 Y91.220500 Z-0.125000
G01 X97.125600 Y91.308800 Z-0.125000
G01 X95.983000 Y91.573500 Z-0.125000
G01 X94.835700 Y92.038000 Z-0.125000
G01 X93.772000 Y92.725500 Z-0.125000
G01 X92.847700 Y93.659100 Z-0.125000
G01 X92.081300 Y94.824900 Z-0.125000
G01 X91.579700 Y96.269500 Z-0.125000
G01 X91.412500 Y98.002000 Z-0.125000
G01 X91.412500 Y104.541900 Z-0.125000
G01 X91.579700 Y106.255800 Z-0.125000
G01 X92.081300 Y107.681800 Z-0.125000
G01 X92.847700 Y108.856900 Z-0.125000
G01 X93.772000 Y109.781300 Z-0.125000
G01 X94.835700 Y110.482600 Z-0.125000
G01 X95.983000 Y110.951700 Z-0.125000
G01 X97.125600 Y111.216500 Z-0.125000
G01 X98.175300 Y111.304800 Z-0.125000
G01 X106.889000 Y111.304800 Z-0.125000
G01 X108.608000 Y111.137500 Z-0.125000
G01 X110.047000 Y110.635900 Z-0.125000
G01 X111.223000 Y109.878800 Z-0.125000
G01 X112.147000 Y108.945200 Z-0.125000
G01 X112.834000 Y107.895500 Z-0.125000
G01 X113.299000 Y106.752800 Z-0.125000
G01 X113.578000 Y105.605600 Z-0.125000
G01 X113.670000 Y104.541900 Z-0.125000
G01 X113.670000 Y98.002000 Z-0.125000
G00 Z5.000000

(End cutting path id: path12306)


(Start cutting path id: path12306)
(Change tool to Default tool)

G00 Z5.000000
G00 X108.840000 Y104.504700

G01 Z-0.125000 F100.0(Penetrate)
G01 X108.714000 Y105.378000 Z-0.125000 F400.000000
G01 X108.338000 Y105.991100 Z-0.125000
G01 X107.725000 Y106.353400 Z-0.125000
G01 X106.889000 Y106.474100 Z-0.125000
G01 X98.212500 Y106.474100 Z-0.125000
G01 X97.362500 Y106.348700 Z-0.125000
G01 X96.744700 Y105.972500 Z-0.125000
G01 X96.368500 Y105.373300 Z-0.125000
G01 X96.243100 Y104.541900 Z-0.125000
G01 X96.243100 Y98.002000 Z-0.125000
G01 X96.368500 Y97.165900 Z-0.125000
G01 X96.744700 Y96.552800 Z-0.125000
G01 X97.362500 Y96.176600 Z-0.125000
G01 X98.212500 Y96.051200 Z-0.125000
G01 X106.889000 Y96.051200 Z-0.125000
G01 X107.748000 Y96.176600 Z-0.125000
G01 X108.357000 Y96.552800 Z-0.125000
G01 X108.719000 Y97.165900 Z-0.125000
G01 X108.840000 Y98.002000 Z-0.125000
G01 X108.840000 Y104.504700 Z-0.125000
G00 Z5.000000

(End cutting path id: path12306)


(Start cutting path id: path12306)
(Change tool to Default tool)

G00 Z5.000000
G00 X119.208000 Y108.942300

G01 Z-0.125000 F100.0(Penetrate)
G01 X119.952000 Y109.685900 Z-0.125000 F400.000000
G00 Z5.000000

(End cutting path id: path12306)


(Start cutting path id: path12306)
(Change tool to Default tool)

G00 Z5.000000
G00 X121.561000 Y110.547000

G01 Z-0.125000 F100.0(Penetrate)
G01 X118.593000 Y107.578600 Z-0.125000 F400.000000
G01 X118.139000 Y106.750900 Z-0.125000
G01 X118.090000 Y106.444900 Z-0.125000
G01 X118.247000 Y106.484400 Z-0.125000
G01 X122.416000 Y110.653200 Z-0.125000
G01 X123.180000 Y111.043600 Z-0.125000
G01 X123.443000 Y111.048900 Z-0.125000
G01 X123.384000 Y110.872800 Z-0.125000
G01 X118.113000 Y105.602700 Z-0.125000
G01 X117.815000 Y104.930400 Z-0.125000
G01 X117.873000 Y104.731200 Z-0.125000
G01 X118.078000 Y104.819300 Z-0.125000
G01 X124.151000 Y110.891800 Z-0.125000
G01 X124.806000 Y111.172400 Z-0.125000
G01 X124.993000 Y111.102300 Z-0.125000
G01 X124.899000 Y110.891800 Z-0.125000
G01 X118.078000 Y104.071000 Z-0.125000
G01 X117.797000 Y103.416200 Z-0.125000
G01 X117.867000 Y103.229100 Z-0.125000
G01 X118.078000 Y103.322600 Z-0.125000
G01 X125.647000 Y110.891800 Z-0.125000
G01 X126.302000 Y111.172500 Z-0.125000
G01 X126.489000 Y111.102300 Z-0.125000
G01 X126.395000 Y110.891800 Z-0.125000
G01 X118.078000 Y102.574300 Z-0.125000
G01 X117.797000 Y101.919500 Z-0.125000
G01 X117.867000 Y101.732400 Z-0.125000
G01 X118.078000 Y101.825900 Z-0.125000
G01 X127.144000 Y110.891800 Z-0.125000
G01 X127.799000 Y111.172500 Z-0.125000
G01 X127.986000 Y111.102300 Z-0.125000
G01 X127.892000 Y110.891800 Z-0.125000
G01 X118.078000 Y101.077600 Z-0.125000
G01 X117.797000 Y100.422800 Z-0.125000
G01 X117.867000 Y100.235700 Z-0.125000
G01 X118.078000 Y100.329200 Z-0.125000
G01 X122.085000 Y104.336500 Z-0.125000
G01 X122.295000 Y104.429600 Z-0.125000
G01 X122.365000 Y104.241700 Z-0.125000
G01 X122.083000 Y103.585600 Z-0.125000
G01 X118.078000 Y99.580900 Z-0.125000
G01 X117.798000 Y98.926100 Z-0.125000
G01 X117.868000 Y98.739000 Z-0.125000
G01 X118.078000 Y98.832500 Z-0.125000
G01 X122.083000 Y102.837300 Z-0.125000
G01 X122.294000 Y102.930800 Z-0.125000
G01 X122.364000 Y102.743700 Z-0.125000
G01 X122.083000 Y102.088900 Z-0.125000
G01 X118.078000 Y98.084200 Z-0.125000
G01 X117.798000 Y97.429400 Z-0.125000
G01 X117.868000 Y97.242300 Z-0.125000
G01 X118.078000 Y97.335800 Z-0.125000
G01 X122.083000 Y101.340600 Z-0.125000
G01 X122.294000 Y101.434100 Z-0.125000
G01 X122.364000 Y101.247000 Z-0.125000
G01 X122.083000 Y100.592200 Z-0.125000
G01 X118.078000 Y96.587500 Z-0.125000
G01 X117.798000 Y95.932600 Z-0.125000
G01 X117.868000 Y95.745600 Z-0.125000
G01 X118.078000 Y95.839100 Z-0.125000
G01 X122.083000 Y99.843900 Z-0.125000
G01 X122.294000 Y99.937400 Z-0.125000
G01 X122.364000 Y99.750300 Z-0.125000
G01 X122.083000 Y99.095500 Z-0.125000
G01 X118.078000 Y95.090700 Z-0.125000
G01 X117.798000 Y94.435900 Z-0.125000
G01 X117.868000 Y94.248800 Z-0.125000
G01 X118.078000 Y94.342400 Z-0.125000
G01 X122.083000 Y98.347200 Z-0.125000
G01 X122.294000 Y98.440700 Z-0.125000
G01 X122.364000 Y98.253600 Z-0.125000
G01 X122.083000 Y97.598800 Z-0.125000
G01 X118.078000 Y93.594000 Z-0.125000
G01 X117.798000 Y92.939200 Z-0.125000
G01 X117.868000 Y92.752100 Z-0.125000
G01 X118.078000 Y92.845700 Z-0.125000
G01 X122.083000 Y96.850400 Z-0.125000
G01 X122.294000 Y96.944000 Z-0.125000
G01 X122.364000 Y96.756900 Z-0.125000
G01 X122.083000 Y96.102100 Z-0.125000
G01 X118.078000 Y92.097300 Z-0.125000
G01 X117.912000 Y91.814400 Z-0.125000
G01 X117.940000 Y91.584800 Z-0.125000
G01 X118.108000 Y91.495500 Z-0.125000
G01 X118.363000 Y91.633500 Z-0.125000
G01 X122.083000 Y95.353700 Z-0.125000
G01 X122.294000 Y95.447300 Z-0.125000
G01 X122.364000 Y95.260200 Z-0.125000
G01 X122.083000 Y94.605400 Z-0.125000
G01 X119.111000 Y91.633500 Z-0.125000
G01 X119.018000 Y91.423000 Z-0.125000
G01 X119.205000 Y91.352800 Z-0.125000
G01 X119.860000 Y91.633500 Z-0.125000
G01 X122.083000 Y93.857000 Z-0.125000
G01 X122.294000 Y93.950600 Z-0.125000
G01 X122.364000 Y93.763500 Z-0.125000
G01 X122.083000 Y93.108700 Z-0.125000
G01 X120.608000 Y91.633500 Z-0.125000
G01 X120.514000 Y91.423000 Z-0.125000
G01 X120.702000 Y91.352800 Z-0.125000
G01 X121.356000 Y91.633500 Z-0.125000
G01 X122.094000 Y92.371100 Z-0.125000
G01 X122.296000 Y92.456500 Z-0.125000
G01 X122.364000 Y92.266800 Z-0.125000
G01 X122.094000 Y91.622700 Z-0.125000
G01 X121.824000 Y91.352800 Z-0.125000
G00 Z5.000000

(End cutting path id: path12306)


(Start cutting path id: path12306)
(Change tool to Default tool)

G00 Z5.000000
G00 X124.329000 Y106.580100

G01 Z-0.125000 F100.0(Penetrate)
G01 X128.641000 Y110.891800 Z-0.125000 F400.000000
G01 X129.296000 Y111.172500 Z-0.125000
G01 X129.483000 Y111.102300 Z-0.125000
G01 X129.389000 Y110.891800 Z-0.125000
G01 X125.385000 Y106.887100 Z-0.125000
G01 X125.291000 Y106.676600 Z-0.125000
G01 X125.478000 Y106.606400 Z-0.125000
G01 X126.133000 Y106.887100 Z-0.125000
G01 X130.138000 Y110.891800 Z-0.125000
G01 X130.793000 Y111.172500 Z-0.125000
G01 X130.980000 Y111.102300 Z-0.125000
G01 X130.886000 Y110.891800 Z-0.125000
G01 X126.881000 Y106.887100 Z-0.125000
G01 X126.788000 Y106.676600 Z-0.125000
G01 X126.975000 Y106.606400 Z-0.125000
G01 X127.630000 Y106.887100 Z-0.125000
G01 X131.634000 Y110.891800 Z-0.125000
G01 X132.289000 Y111.172500 Z-0.125000
G01 X132.476000 Y111.102300 Z-0.125000
G01 X132.383000 Y110.891800 Z-0.125000
G01 X128.378000 Y106.887100 Z-0.125000
G01 X128.284000 Y106.676600 Z-0.125000
G01 X128.472000 Y106.606400 Z-0.125000
G01 X129.126000 Y106.887100 Z-0.125000
G01 X133.131000 Y110.891800 Z-0.125000
G01 X133.786000 Y111.172500 Z-0.125000
G01 X133.973000 Y111.102300 Z-0.125000
G01 X133.880000 Y110.891800 Z-0.125000
G01 X129.875000 Y106.887100 Z-0.125000
G01 X129.781000 Y106.676600 Z-0.125000
G01 X129.968000 Y106.606400 Z-0.125000
G01 X130.623000 Y106.887100 Z-0.125000
G01 X134.628000 Y110.891800 Z-0.125000
G01 X134.887000 Y111.034200 Z-0.125000
G01 X135.065000 Y110.954400 Z-0.125000
G01 X135.102000 Y110.734300 Z-0.125000
G01 X134.940000 Y110.455700 Z-0.125000
G01 X131.371000 Y106.887100 Z-0.125000
G01 X131.278000 Y106.676600 Z-0.125000
G01 X131.465000 Y106.606400 Z-0.125000
G01 X132.120000 Y106.887100 Z-0.125000
G01 X134.940000 Y109.707300 Z-0.125000
G01 X135.151000 Y109.800900 Z-0.125000
G01 X135.221000 Y109.613800 Z-0.125000
G01 X134.940000 Y108.959000 Z-0.125000
G01 X132.868000 Y106.887100 Z-0.125000
G01 X132.775000 Y106.676600 Z-0.125000
G01 X132.962000 Y106.606400 Z-0.125000
G01 X133.617000 Y106.887100 Z-0.125000
G01 X134.940000 Y108.210600 Z-0.125000
G01 X135.151000 Y108.304200 Z-0.125000
G01 X135.221000 Y108.117100 Z-0.125000
G01 X134.940000 Y107.462300 Z-0.125000
G01 X134.278000 Y106.800500 Z-0.125000
G01 X134.250000 Y106.654900 Z-0.125000
G01 X134.458000 Y106.606400 Z-0.125000
G01 X135.027000 Y106.800500 Z-0.125000
G01 X135.221000 Y106.994500 Z-0.125000
G00 Z5.000000

(End cutting path id: path12306)


(Start cutting path id: path12306)
(Change tool to Default tool)

G00 Z5.000000
G00 X135.353000 Y106.474100

G01 Z-0.125000 F100.0(Penetrate)
G01 X124.484000 Y106.474100 Z-0.125000 F400.000000
G01 X123.620000 Y106.348700 Z-0.125000
G01 X122.997000 Y105.972500 Z-0.125000
G01 X122.621000 Y105.373300 Z-0.125000
G01 X122.496000 Y104.541900 Z-0.125000
G01 X122.496000 Y91.220500 Z-0.125000
G01 X117.665000 Y91.220500 Z-0.125000
G01 X117.665000 Y104.541900 Z-0.125000
G01 X117.744000 Y105.721700 Z-0.125000
G01 X117.981000 Y106.771400 Z-0.125000
G01 X118.817000 Y108.499300 Z-0.125000
G01 X120.043000 Y109.781300 Z-0.125000
G01 X121.474000 Y110.654500 Z-0.125000
G01 X122.997000 Y111.137500 Z-0.125000
G01 X124.446000 Y111.304800 Z-0.125000
G01 X135.352000 Y111.304800 Z-0.125000
G01 X135.353000 Y106.474100 Z-0.125000
G00 Z5.000000

(End cutting path id: path12306)


(Start cutting path id: path12306)
(Change tool to Default tool)

G00 Z5.000000
G00 X114.154000 Y128.981500

G01 Z-0.125000 F100.0(Penetrate)
G01 X112.810000 Y128.981500 Z-0.125000 F400.000000
G01 X112.810000 Y132.686700 Z-0.125000
G01 X112.676000 Y133.084600 Z-0.125000
G01 X112.273000 Y133.224200 Z-0.125000
G01 X109.849000 Y133.224200 Z-0.125000
G01 X109.849000 Y134.567700 Z-0.125000
G01 X112.273000 Y134.567700 Z-0.125000
G01 X112.676000 Y134.521200 Z-0.125000
G01 X113.094000 Y134.386900 Z-0.125000
G01 X113.497000 Y134.144000 Z-0.125000
G01 X113.833000 Y133.787400 Z-0.125000
G01 X114.066000 Y133.306800 Z-0.125000
G01 X114.154000 Y132.686700 Z-0.125000
G01 X114.154000 Y128.981500 Z-0.125000
G00 Z5.000000

(End cutting path id: path12306)


(Start cutting path id: path12306)
(Change tool to Default tool)

G00 Z5.000000
G00 X109.306000 Y128.981500

G01 Z-0.125000 F100.0(Penetrate)
G01 X107.963000 Y128.981500 Z-0.125000 F400.000000
G01 X107.963000 Y136.929300 Z-0.125000
G01 X109.306000 Y136.929300 Z-0.125000
G01 X109.306000 Y128.981500 Z-0.125000
G00 Z5.000000

(End cutting path id: path12306)


(Start cutting path id: path12306)
(Change tool to Default tool)

G00 Z5.000000
G00 X107.058000 Y133.224200

G01 Z-0.125000 F100.0(Penetrate)
G01 X104.712000 Y133.224200 Z-0.125000 F400.000000
G01 X104.712000 Y128.981500 Z-0.125000
G01 X103.353000 Y128.981500 Z-0.125000
G01 X103.353000 Y133.224200 Z-0.125000
G01 X101.607000 Y133.224200 Z-0.125000
G01 X101.607000 Y134.567700 Z-0.125000
G01 X103.353000 Y134.567700 Z-0.125000
G01 X103.353000 Y136.391900 Z-0.125000
G01 X104.712000 Y136.391900 Z-0.125000
G01 X104.712000 Y134.567700 Z-0.125000
G01 X107.058000 Y134.567700 Z-0.125000
G01 X107.058000 Y133.224200 Z-0.125000
G00 Z5.000000

(End cutting path id: path12306)


(Start cutting path id: path12306)
(Change tool to Default tool)

G00 Z5.000000
G00 X100.692000 Y135.715000

G01 Z-0.125000 F100.0(Penetrate)
G01 X99.348300 Y135.715000 Z-0.125000 F400.000000
G01 X99.348300 Y136.929400 Z-0.125000
G01 X100.692000 Y136.929400 Z-0.125000
G01 X100.692000 Y135.715000 Z-0.125000
G00 Z5.000000

(End cutting path id: path12306)


(Start cutting path id: path12306)
(Change tool to Default tool)

G00 Z5.000000
G00 X98.862500 Y134.567700

G01 Z-0.125000 F100.0(Penetrate)
G01 X98.170100 Y133.151800 Z-0.125000 F400.000000
G01 X97.389800 Y131.839200 Z-0.125000
G01 X96.562900 Y130.692000 Z-0.125000
G01 X95.720600 Y129.787700 Z-0.125000
G01 X94.909300 Y129.193400 Z-0.125000
G01 X94.165200 Y128.981500 Z-0.125000
G01 X93.896500 Y129.033200 Z-0.125000
G01 X93.679400 Y129.172700 Z-0.125000
G01 X93.534700 Y129.389800 Z-0.125000
G01 X93.483000 Y129.658500 Z-0.125000
G01 X93.483000 Y132.164800 Z-0.125000
G01 X90.816500 Y129.183100 Z-0.125000
G01 X90.589200 Y129.028100 Z-0.125000
G01 X90.341100 Y128.981500 Z-0.125000
G01 X90.077600 Y129.033200 Z-0.125000
G01 X89.865700 Y129.172700 Z-0.125000
G01 X89.715800 Y129.389800 Z-0.125000
G01 X89.664200 Y129.658500 Z-0.125000
G01 X89.664200 Y134.567800 Z-0.125000
G01 X91.007700 Y134.567800 Z-0.125000
G01 X91.007700 Y131.384500 Z-0.125000
G01 X93.684600 Y134.376500 Z-0.125000
G01 X94.025600 Y134.557400 Z-0.125000
G01 X94.418400 Y134.516100 Z-0.125000
G01 X94.718100 Y134.268000 Z-0.125000
G01 X94.831800 Y133.901100 Z-0.125000
G01 X94.831800 Y130.707500 Z-0.125000
G01 X95.617300 Y131.591200 Z-0.125000
G01 X96.268400 Y132.547200 Z-0.125000
G01 X96.836800 Y133.549700 Z-0.125000
G01 X97.358800 Y134.567800 Z-0.125000
G01 X98.862500 Y134.567700 Z-0.125000
G00 Z5.000000

(End cutting path id: path12306)


