%
(Header)
(Generated by gcodetools from Inkscape.)
(Using default header. To add your own header create file "header" in the output dir.)
M3
(Header end.)
G21 (All units in mm)

(Start cutting path id: path732)
(Change tool to Default tool)

G00 Z5.000000
G00 X81.306600 Y42.121000

G01 Z-0.125000 F100.0(Penetrate)
G01 X80.124500 Y41.891000 Z-0.125000 F400.000000
G01 X79.063200 Y41.324000 Z-0.125000
G01 X78.246900 Y40.464000 Z-0.125000
G01 X77.799600 Y39.351000 Z-0.125000
G01 X77.693800 Y38.135000 Z-0.125000
G01 X77.996000 Y36.961000 Z-0.125000
G01 X78.650900 Y35.937000 Z-0.125000
G01 X79.603500 Y35.173000 Z-0.125000
G01 X82.271800 Y33.598000 Z-0.125000
G01 X83.488800 Y32.674000 Z-0.125000
G01 X83.983200 Y32.099000 Z-0.125000
G01 X84.369100 Y31.418000 Z-0.125000
G01 X84.467900 Y30.829000 Z-0.125000
G01 X84.403900 Y30.244000 Z-0.125000
G01 X83.870600 Y29.197000 Z-0.125000
G01 X82.935100 Y28.507000 Z-0.125000
G01 X82.368300 Y28.369000 Z-0.125000
G01 X81.763100 Y28.406000 Z-0.125000
G01 X80.891400 Y28.666000 Z-0.125000
G01 X80.184800 Y29.225000 Z-0.125000
G01 X79.652300 Y29.977000 Z-0.125000
G01 X79.302700 Y30.816000 Z-0.125000
G01 X77.392600 Y30.414000 Z-0.125000
G01 X78.002100 Y29.082000 Z-0.125000
G01 X78.953600 Y27.960000 Z-0.125000
G01 X80.182600 Y27.194000 Z-0.125000
G01 X80.881200 Y26.989000 Z-0.125000
G01 X81.624900 Y26.927000 Z-0.125000
G01 X83.058200 Y26.992000 Z-0.125000
G01 X84.432300 Y27.450000 Z-0.125000
G01 X85.557600 Y28.307000 Z-0.125000
G01 X85.967800 Y28.887000 Z-0.125000
G01 X86.244800 Y29.570000 Z-0.125000
G01 X86.445000 Y30.882000 Z-0.125000
G01 X86.216500 Y32.182000 Z-0.125000
G01 X85.601300 Y33.351000 Z-0.125000
G01 X84.641400 Y34.270000 Z-0.125000
G01 X83.424900 Y35.081000 Z-0.125000
G01 X82.131400 Y35.796000 Z-0.125000
G01 X80.902800 Y36.587000 Z-0.125000
G01 X79.880900 Y37.625000 Z-0.125000
G01 X79.697900 Y38.167000 Z-0.125000
G01 X79.687000 Y38.725000 Z-0.125000
G01 X80.096500 Y39.760000 Z-0.125000
G01 X80.939700 Y40.485000 Z-0.125000
G01 X81.470900 Y40.655000 Z-0.125000
G01 X82.046900 Y40.654000 Z-0.125000
G01 X82.824600 Y40.445000 Z-0.125000
G01 X83.481500 Y39.991000 Z-0.125000
G01 X84.008000 Y39.371000 Z-0.125000
G01 X84.394500 Y38.666000 Z-0.125000
G01 X85.278800 Y38.912000 Z-0.125000
G01 X86.138700 Y39.226000 Z-0.125000
G01 X85.540300 Y40.408000 Z-0.125000
G01 X84.602700 Y41.329000 Z-0.125000
G01 X83.427500 Y41.924000 Z-0.125000
G01 X82.116700 Y42.127000 Z-0.125000
G01 X81.306600 Y42.121000 Z-0.125000
G01 X81.306600 Y42.121000 Z-0.125000
G00 Z5.000000

(End cutting path id: path732)


(Start cutting path id: path732)
(Change tool to Default tool)

G00 Z5.000000
G00 X81.582000 Y42.398000

G01 Z-0.125000 F100.0(Penetrate)
G01 X80.371400 Y42.234000 Z-0.125000 F400.000000
G01 X79.239700 Y41.768000 Z-0.125000
G01 X78.311700 Y41.002000 Z-0.125000
G01 X77.712300 Y39.937000 Z-0.125000
G01 X77.423200 Y38.606000 Z-0.125000
G01 X77.595100 Y37.264000 Z-0.125000
G01 X78.199000 Y36.060000 Z-0.125000
G01 X79.206000 Y35.142000 Z-0.125000
G01 X80.465000 Y34.318000 Z-0.125000
G01 X81.796700 Y33.576000 Z-0.125000
G01 X83.035100 Y32.730000 Z-0.125000
G01 X84.013700 Y31.591000 Z-0.125000
G01 X84.175300 Y31.075000 Z-0.125000
G01 X84.183900 Y30.541000 Z-0.125000
G01 X83.810200 Y29.543000 Z-0.125000
G01 X83.029900 Y28.836000 Z-0.125000
G01 X82.530200 Y28.666000 Z-0.125000
G01 X81.980200 Y28.660000 Z-0.125000
G01 X81.065400 Y28.872000 Z-0.125000
G01 X80.346600 Y29.438000 Z-0.125000
G01 X79.821700 Y30.225000 Z-0.125000
G01 X79.488800 Y31.100000 Z-0.125000
G01 X78.286500 Y30.898000 Z-0.125000
G01 X77.056600 Y30.605000 Z-0.125000
G01 X77.639800 Y29.182000 Z-0.125000
G01 X78.571200 Y27.947000 Z-0.125000
G01 X79.806300 Y27.062000 Z-0.125000
G01 X80.523900 Y26.803000 Z-0.125000
G01 X81.300900 Y26.692000 Z-0.125000
G01 X82.789600 Y26.690000 Z-0.125000
G01 X84.246200 Y27.066000 Z-0.125000
G01 X85.489700 Y27.849000 Z-0.125000
G01 X85.974900 Y28.404000 Z-0.125000
G01 X86.338900 Y29.073000 Z-0.125000
G01 X86.678700 Y30.347000 Z-0.125000
G01 X86.625100 Y31.694000 Z-0.125000
G01 X86.174700 Y32.967000 Z-0.125000
G01 X85.324200 Y34.021000 Z-0.125000
G01 X84.111500 Y34.971000 Z-0.125000
G01 X82.771700 Y35.745000 Z-0.125000
G01 X81.443000 Y36.530000 Z-0.125000
G01 X80.263700 Y37.511000 Z-0.125000
G01 X80.024200 Y37.961000 Z-0.125000
G01 X79.940500 Y38.446000 Z-0.125000
G01 X80.174600 Y39.399000 Z-0.125000
G01 X80.835200 Y40.128000 Z-0.125000
G01 X81.284600 Y40.333000 Z-0.125000
G01 X81.791400 Y40.392000 Z-0.125000
G01 X82.633300 Y40.243000 Z-0.125000
G01 X83.325700 Y39.777000 Z-0.125000
G01 X83.865100 Y39.107000 Z-0.125000
G01 X84.248000 Y38.345000 Z-0.125000
G01 X85.385100 Y38.667000 Z-0.125000
G01 X86.455100 Y39.101000 Z-0.125000
G01 X85.975900 Y40.216000 Z-0.125000
G01 X85.228100 Y41.165000 Z-0.125000
G01 X84.256300 Y41.873000 Z-0.125000
G01 X83.105400 Y42.265000 Z-0.125000
G01 X81.582000 Y42.398000 Z-0.125000
G01 X81.582000 Y42.398000 Z-0.125000
G00 Z5.000000

(End cutting path id: path732)


(Start cutting path id: path732)
(Change tool to Default tool)

G00 Z5.000000
G00 X90.029300 Y36.246000

G01 Z-0.125000 F100.0(Penetrate)
G01 X90.046500 Y32.872000 Z-0.125000 F400.000000
G01 X90.253900 Y29.511000 Z-0.125000
G01 X90.526600 Y28.825000 Z-0.125000
G01 X90.925700 Y28.223000 Z-0.125000
G01 X92.020900 Y27.296000 Z-0.125000
G01 X93.375300 Y26.768000 Z-0.125000
G01 X94.824600 Y26.678000 Z-0.125000
G01 X95.980400 Y26.732000 Z-0.125000
G01 X97.119200 Y26.967000 Z-0.125000
G01 X98.152700 Y27.450000 Z-0.125000
G01 X98.992900 Y28.250000 Z-0.125000
G01 X99.597200 Y29.448000 Z-0.125000
G01 X99.831800 Y30.764000 Z-0.125000
G01 X99.903100 Y33.471000 Z-0.125000
G01 X99.916000 Y42.138000 Z-0.125000
G01 X97.408200 Y42.138000 Z-0.125000
G01 X97.385500 Y36.412000 Z-0.125000
G01 X97.284700 Y30.689000 Z-0.125000
G01 X97.051200 Y29.873000 Z-0.125000
G01 X96.496800 Y29.259000 Z-0.125000
G01 X95.739700 Y28.885000 Z-0.125000
G01 X94.898000 Y28.785000 Z-0.125000
G01 X94.000800 Y28.922000 Z-0.125000
G01 X93.242200 Y29.404000 Z-0.125000
G01 X92.732600 Y30.139000 Z-0.125000
G01 X92.582800 Y31.035000 Z-0.125000
G01 X92.515600 Y42.138000 Z-0.125000
G01 X89.994100 Y42.138000 Z-0.125000
G01 X90.029300 Y36.246000 Z-0.125000
G01 X90.029300 Y36.246000 Z-0.125000
G00 Z5.000000

(End cutting path id: path732)


(Start cutting path id: path732)
(Change tool to Default tool)

G00 Z5.000000
G00 X90.293000 Y36.252000

G01 Z-0.125000 F100.0(Penetrate)
G01 X90.306400 Y32.754000 Z-0.125000 F400.000000
G01 X90.366300 Y31.010000 Z-0.125000
G01 X90.607700 Y29.286000 Z-0.125000
G01 X91.350900 Y28.145000 Z-0.125000
G01 X92.452800 Y27.370000 Z-0.125000
G01 X93.760200 Y26.968000 Z-0.125000
G01 X95.120300 Y26.947000 Z-0.125000
G01 X96.342300 Y27.044000 Z-0.125000
G01 X97.520700 Y27.413000 Z-0.125000
G01 X98.516900 Y28.093000 Z-0.125000
G01 X99.192200 Y29.121000 Z-0.125000
G01 X99.518300 Y30.376000 Z-0.125000
G01 X99.617300 Y31.671000 Z-0.125000
G01 X99.641200 Y34.280000 Z-0.125000
G01 X99.652300 Y41.875000 Z-0.125000
G01 X97.669900 Y41.875000 Z-0.125000
G01 X97.648700 Y36.140000 Z-0.125000
G01 X97.521500 Y30.408000 Z-0.125000
G01 X97.272500 Y29.734000 Z-0.125000
G01 X96.836000 Y29.200000 Z-0.125000
G01 X96.260200 Y28.813000 Z-0.125000
G01 X95.593300 Y28.578000 Z-0.125000
G01 X94.883600 Y28.502000 Z-0.125000
G01 X94.179300 Y28.592000 Z-0.125000
G01 X93.528800 Y28.854000 Z-0.125000
G01 X92.980300 Y29.295000 Z-0.125000
G01 X92.471000 Y30.096000 Z-0.125000
G01 X92.305100 Y31.019000 Z-0.125000
G01 X92.282200 Y32.936000 Z-0.125000
G01 X92.251900 Y41.875000 Z-0.125000
G01 X90.259800 Y41.875000 Z-0.125000
G01 X90.293000 Y36.252000 Z-0.125000
G01 X90.293000 Y36.252000 Z-0.125000
G00 Z5.000000

(End cutting path id: path732)


(Start cutting path id: path732)
(Change tool to Default tool)

G00 Z5.000000
G00 X93.350800 Y26.497000

G01 Z-0.125000 F100.0(Penetrate)
G01 X92.433500 Y26.784000 Z-0.125000 F400.000000
G01 X91.603800 Y27.240000 Z-0.125000
G01 X90.910900 Y27.830000 Z-0.125000
G01 X90.404100 Y28.521000 Z-0.125000
G01 X90.053200 Y29.255000 Z-0.125000
G01 X89.871200 Y30.285000 Z-0.125000
G01 X89.764900 Y36.243000 Z-0.125000
G01 X89.728600 Y42.401000 Z-0.125000
G01 X91.254200 Y42.401000 Z-0.125000
G01 X92.779700 Y42.401000 Z-0.125000
G01 X92.779700 Y36.730000 Z-0.125000
G01 X92.890700 Y30.541000 Z-0.125000
G01 X93.213000 Y29.815000 Z-0.125000
G01 X93.787500 Y29.313000 Z-0.125000
G01 X94.557900 Y29.066000 Z-0.125000
G01 X95.467600 Y29.106000 Z-0.125000
G01 X96.343900 Y29.454000 Z-0.125000
G01 X96.872300 Y30.127000 Z-0.125000
G01 X97.062900 Y31.318000 Z-0.125000
G01 X97.117500 Y36.497000 Z-0.125000
G01 X97.147400 Y42.401000 Z-0.125000
G01 X98.663300 Y42.401000 Z-0.125000
G01 X100.179000 Y42.401000 Z-0.125000
G01 X100.179000 Y36.783000 Z-0.125000
G01 X100.108000 Y31.114000 Z-0.125000
G01 X99.982700 Y29.871000 Z-0.125000
G01 X99.764500 Y29.080000 Z-0.125000
G01 X99.347200 Y28.278000 Z-0.125000
G01 X98.761000 Y27.601000 Z-0.125000
G01 X98.019900 Y27.061000 Z-0.125000
G01 X97.138300 Y26.673000 Z-0.125000
G01 X95.278800 Y26.428000 Z-0.125000
G01 X93.350800 Y26.497000 Z-0.125000
G01 X93.350800 Y26.497000 Z-0.125000
G00 Z5.000000

(End cutting path id: path732)


(Start cutting path id: path732)
(Change tool to Default tool)

G00 Z5.000000
G00 X91.554800 Y16.946000

G01 Z-0.125000 F100.0(Penetrate)
G01 X88.310700 Y11.806000 Z-0.125000 F400.000000
G01 X87.310600 Y11.806000 Z-0.125000
G01 X90.558300 Y16.946000 Z-0.125000
G01 X91.554800 Y16.946000 Z-0.125000
G00 Z5.000000

(End cutting path id: path732)


(Start cutting path id: path732)
(Change tool to Default tool)

G00 Z5.000000
G00 X96.243500 Y14.397000

G01 Z-0.125000 F100.0(Penetrate)
G01 X96.175400 Y13.978000 Z-0.125000 F400.000000
G01 X95.953100 Y13.562000 Z-0.125000
G01 X95.555200 Y13.243000 Z-0.125000
G01 X94.960200 Y13.114000 Z-0.125000
G01 X93.279000 Y13.114000 Z-0.125000
G01 X93.279000 Y14.000000 Z-0.125000
G01 X94.960200 Y14.000000 Z-0.125000
G01 X95.254100 Y14.114000 Z-0.125000
G01 X95.358100 Y14.405000 Z-0.125000
G01 X95.239800 Y14.691000 Z-0.125000
G01 X94.960200 Y14.795000 Z-0.125000
G01 X93.279000 Y14.795000 Z-0.125000
G01 X92.985000 Y14.677000 Z-0.125000
G01 X92.881100 Y14.390000 Z-0.125000
G01 X92.881100 Y13.089000 Z-0.125000
G01 X92.995800 Y12.799000 Z-0.125000
G01 X93.286200 Y12.695000 Z-0.125000
G01 X94.960200 Y12.695000 Z-0.125000
G01 X94.960200 Y11.806000 Z-0.125000
G01 X93.279000 Y11.806000 Z-0.125000
G01 X92.859600 Y11.874000 Z-0.125000
G01 X92.443800 Y12.093000 Z-0.125000
G01 X92.124700 Y12.490000 Z-0.125000
G01 X91.995700 Y13.089000 Z-0.125000
G01 X91.995700 Y14.397000 Z-0.125000
G01 X92.063800 Y14.813000 Z-0.125000
G01 X92.282500 Y15.229000 Z-0.125000
G01 X92.680400 Y15.552000 Z-0.125000
G01 X93.279000 Y15.681000 Z-0.125000
G01 X94.960200 Y15.681000 Z-0.125000
G01 X95.376000 Y15.613000 Z-0.125000
G01 X95.791800 Y15.390000 Z-0.125000
G01 X96.114400 Y14.993000 Z-0.125000
G01 X96.243500 Y14.397000 Z-0.125000
G01 X96.243500 Y14.397000 Z-0.125000
G00 Z5.000000

(End cutting path id: path732)


(Start cutting path id: path732)
(Change tool to Default tool)

G00 Z5.000000
G00 X101.495000 Y15.681000

G01 Z-0.125000 F100.0(Penetrate)
G01 X101.126000 Y14.713000 Z-0.125000 F400.000000
G01 X100.638000 Y13.802000 Z-0.125000
G01 X100.025000 Y13.003000 Z-0.125000
G01 X99.276100 Y12.369000 Z-0.125000
G01 X98.383500 Y11.949000 Z-0.125000
G01 X97.340400 Y11.799000 Z-0.125000
G01 X97.157600 Y11.834000 Z-0.125000
G01 X97.007000 Y11.931000 Z-0.125000
G01 X96.906600 Y12.078000 Z-0.125000
G01 X96.870800 Y12.261000 Z-0.125000
G01 X96.870800 Y15.681000 Z-0.125000
G01 X97.802800 Y15.681000 Z-0.125000
G01 X97.802800 Y12.766000 Z-0.125000
G01 X98.455200 Y12.913000 Z-0.125000
G01 X99.050300 Y13.301000 Z-0.125000
G01 X99.566400 Y13.853000 Z-0.125000
G01 X99.993000 Y14.483000 Z-0.125000
G01 X100.308000 Y15.122000 Z-0.125000
G01 X100.506000 Y15.681000 Z-0.125000
G01 X101.495000 Y15.681000 Z-0.125000
G00 Z5.000000

(End cutting path id: path732)


(Start cutting path id: path732)
(Change tool to Default tool)

G00 Z5.000000
G00 X105.997000 Y14.397000

G01 Z-0.125000 F100.0(Penetrate)
G01 X105.929000 Y13.978000 Z-0.125000 F400.000000
G01 X105.707000 Y13.562000 Z-0.125000
G01 X105.309000 Y13.243000 Z-0.125000
G01 X104.714000 Y13.114000 Z-0.125000
G01 X103.033000 Y13.114000 Z-0.125000
G01 X103.033000 Y14.000000 Z-0.125000
G01 X104.714000 Y14.000000 Z-0.125000
G01 X105.008000 Y14.114000 Z-0.125000
G01 X105.112000 Y14.405000 Z-0.125000
G01 X104.994000 Y14.691000 Z-0.125000
G01 X104.714000 Y14.795000 Z-0.125000
G01 X103.033000 Y14.795000 Z-0.125000
G01 X102.739000 Y14.677000 Z-0.125000
G01 X102.635000 Y14.390000 Z-0.125000
G01 X102.635000 Y13.089000 Z-0.125000
G01 X102.750000 Y12.799000 Z-0.125000
G01 X103.040000 Y12.695000 Z-0.125000
G01 X104.714000 Y12.695000 Z-0.125000
G01 X104.714000 Y11.806000 Z-0.125000
G01 X103.033000 Y11.806000 Z-0.125000
G01 X102.613000 Y11.874000 Z-0.125000
G01 X102.198000 Y12.093000 Z-0.125000
G01 X101.879000 Y12.490000 Z-0.125000
G01 X101.749000 Y13.089000 Z-0.125000
G01 X101.749000 Y14.397000 Z-0.125000
G01 X101.818000 Y14.813000 Z-0.125000
G01 X102.036000 Y15.229000 Z-0.125000
G01 X102.434000 Y15.552000 Z-0.125000
G01 X103.033000 Y15.681000 Z-0.125000
G01 X104.714000 Y15.681000 Z-0.125000
G01 X105.130000 Y15.613000 Z-0.125000
G01 X105.546000 Y15.390000 Z-0.125000
G01 X105.868000 Y14.993000 Z-0.125000
G01 X105.997000 Y14.397000 Z-0.125000
G01 X105.997000 Y14.397000 Z-0.125000
G00 Z5.000000

(End cutting path id: path732)


(Start cutting path id: path732)
(Change tool to Default tool)

G00 Z5.000000
G00 X110.295000 Y15.394000

G01 Z-0.125000 F100.0(Penetrate)
G01 X110.324000 Y15.125000 Z-0.125000 F400.000000
G01 X110.202000 Y14.889000 Z-0.125000
G01 X108.048000 Y12.738000 Z-0.125000
G01 X110.288000 Y12.738000 Z-0.125000
G01 X110.288000 Y11.806000 Z-0.125000
G01 X106.926000 Y11.806000 Z-0.125000
G01 X106.664000 Y11.885000 Z-0.125000
G01 X106.492000 Y12.093000 Z-0.125000
G01 X106.463000 Y12.361000 Z-0.125000
G01 X106.596000 Y12.605000 Z-0.125000
G01 X108.740000 Y14.749000 Z-0.125000
G01 X106.499000 Y14.749000 Z-0.125000
G01 X106.499000 Y15.681000 Z-0.125000
G01 X109.869000 Y15.681000 Z-0.125000
G01 X110.123000 Y15.605000 Z-0.125000
G01 X110.295000 Y15.394000 Z-0.125000
G01 X110.295000 Y15.394000 Z-0.125000
G00 Z5.000000

(End cutting path id: path732)


(Start cutting path id: path732)
(Change tool to Default tool)

G00 Z5.000000
G00 X114.306000 Y14.369000

G01 Z-0.125000 F100.0(Penetrate)
G01 X114.210000 Y14.656000 Z-0.125000 F400.000000
G01 X113.930000 Y14.749000 Z-0.125000
G01 X112.256000 Y14.749000 Z-0.125000
G01 X111.973000 Y14.652000 Z-0.125000
G01 X111.876000 Y14.376000 Z-0.125000
G01 X111.876000 Y13.114000 Z-0.125000
G01 X111.973000 Y12.835000 Z-0.125000
G01 X112.256000 Y12.738000 Z-0.125000
G01 X113.930000 Y12.738000 Z-0.125000
G01 X114.213000 Y12.835000 Z-0.125000
G01 X114.306000 Y13.114000 Z-0.125000
G01 X114.306000 Y14.369000 Z-0.125000
G00 Z5.000000

(End cutting path id: path732)


(Start cutting path id: path732)
(Change tool to Default tool)

G00 Z5.000000
G00 X115.238000 Y13.114000

G01 Z-0.125000 F100.0(Penetrate)
G01 X115.178000 Y12.680000 Z-0.125000 F400.000000
G01 X115.016000 Y12.343000 Z-0.125000
G01 X114.783000 Y12.096000 Z-0.125000
G01 X114.504000 Y11.931000 Z-0.125000
G01 X114.210000 Y11.834000 Z-0.125000
G01 X113.930000 Y11.806000 Z-0.125000
G01 X112.249000 Y11.806000 Z-0.125000
G01 X111.826000 Y11.874000 Z-0.125000
G01 X111.399000 Y12.096000 Z-0.125000
G01 X111.073000 Y12.501000 Z-0.125000
G01 X110.944000 Y13.114000 Z-0.125000
G01 X110.944000 Y14.376000 Z-0.125000
G01 X111.073000 Y14.982000 Z-0.125000
G01 X111.399000 Y15.387000 Z-0.125000
G01 X111.826000 Y15.613000 Z-0.125000
G01 X112.249000 Y15.681000 Z-0.125000
G01 X113.930000 Y15.681000 Z-0.125000
G01 X114.539000 Y15.552000 Z-0.125000
G01 X114.945000 Y15.225000 Z-0.125000
G01 X115.167000 Y14.802000 Z-0.125000
G01 X115.238000 Y14.376000 Z-0.125000
G01 X115.238000 Y13.114000 Z-0.125000
G00 Z5.000000

(End cutting path id: path732)


(Start cutting path id: path732)
(Change tool to Default tool)

G00 Z5.000000
G00 X119.422000 Y14.749000

G01 Z-0.125000 F100.0(Penetrate)
G01 X117.325000 Y14.749000 Z-0.125000 F400.000000
G01 X117.038000 Y14.652000 Z-0.125000
G01 X116.941000 Y14.376000 Z-0.125000
G01 X116.941000 Y11.806000 Z-0.125000
G01 X116.009000 Y11.806000 Z-0.125000
G01 X116.009000 Y14.376000 Z-0.125000
G01 X116.070000 Y14.806000 Z-0.125000
G01 X116.231000 Y15.139000 Z-0.125000
G01 X116.468000 Y15.387000 Z-0.125000
G01 X116.744000 Y15.555000 Z-0.125000
G01 X117.038000 Y15.648000 Z-0.125000
G01 X117.317000 Y15.681000 Z-0.125000
G01 X119.422000 Y15.681000 Z-0.125000
G01 X119.422000 Y14.749000 Z-0.125000
G00 Z5.000000

(End cutting path id: path732)


(Start cutting path id: path732)
(Change tool to Default tool)

G00 Z5.000000
G00 X123.376000 Y13.957000

G01 Z-0.125000 F100.0(Penetrate)
G01 X120.013000 Y13.957000 Z-0.125000 F400.000000
G01 X120.013000 Y14.795000 Z-0.125000
G01 X123.376000 Y14.795000 Z-0.125000
G01 X123.376000 Y13.957000 Z-0.125000
G00 Z5.000000

(End cutting path id: path732)


(Start cutting path id: path732)
(Change tool to Default tool)

G00 Z5.000000
G00 X125.175000 Y11.806000

G01 Z-0.125000 F100.0(Penetrate)
G01 X124.243000 Y11.806000 Z-0.125000 F400.000000
G01 X124.243000 Y15.681000 Z-0.125000
G01 X125.175000 Y15.681000 Z-0.125000
G01 X125.175000 Y11.806000 Z-0.125000
G00 Z5.000000

(End cutting path id: path732)


(Start cutting path id: path732)
(Change tool to Default tool)

G00 Z5.000000
G00 X125.175000 Y16.477000

G01 Z-0.125000 F100.0(Penetrate)
G01 X124.243000 Y16.477000 Z-0.125000 F400.000000
G01 X124.243000 Y17.319000 Z-0.125000
G01 X125.175000 Y17.319000 Z-0.125000
G01 X125.175000 Y16.477000 Z-0.125000
G00 Z5.000000

(End cutting path id: path732)


(Start cutting path id: path732)
(Change tool to Default tool)

G00 Z5.000000
G00 X130.362000 Y11.806000

G01 Z-0.125000 F100.0(Penetrate)
G01 X129.430000 Y11.806000 Z-0.125000 F400.000000
G01 X129.430000 Y13.957000 Z-0.125000
G01 X129.366000 Y14.283000 Z-0.125000
G01 X129.197000 Y14.534000 Z-0.125000
G01 X128.943000 Y14.691000 Z-0.125000
G01 X128.631000 Y14.749000 Z-0.125000
G01 X127.000000 Y14.749000 Z-0.125000
G01 X127.000000 Y11.806000 Z-0.125000
G01 X126.068000 Y11.806000 Z-0.125000
G01 X126.068000 Y15.218000 Z-0.125000
G01 X126.104000 Y15.398000 Z-0.125000
G01 X126.204000 Y15.545000 Z-0.125000
G01 X126.354000 Y15.645000 Z-0.125000
G01 X126.537000 Y15.681000 Z-0.125000
G01 X128.638000 Y15.681000 Z-0.125000
G01 X129.007000 Y15.641000 Z-0.125000
G01 X129.394000 Y15.512000 Z-0.125000
G01 X129.760000 Y15.290000 Z-0.125000
G01 X130.068000 Y14.964000 Z-0.125000
G01 X130.283000 Y14.523000 Z-0.125000
G01 X130.362000 Y13.957000 Z-0.125000
G01 X130.362000 Y11.806000 Z-0.125000
G00 Z5.000000

(End cutting path id: path732)


(Start cutting path id: path732)
(Change tool to Default tool)

G00 Z5.000000
G00 X134.932000 Y11.806000

G01 Z-0.125000 F100.0(Penetrate)
G01 X132.405000 Y11.806000 Z-0.125000 F400.000000
G01 X131.982000 Y11.874000 Z-0.125000
G01 X131.556000 Y12.096000 Z-0.125000
G01 X131.230000 Y12.501000 Z-0.125000
G01 X131.100000 Y13.114000 Z-0.125000
G01 X131.100000 Y14.376000 Z-0.125000
G01 X131.129000 Y14.656000 Z-0.125000
G01 X131.226000 Y14.946000 Z-0.125000
G01 X131.391000 Y15.225000 Z-0.125000
G01 X131.638000 Y15.458000 Z-0.125000
G01 X131.975000 Y15.620000 Z-0.125000
G01 X132.405000 Y15.681000 Z-0.125000
G01 X134.932000 Y15.681000 Z-0.125000
G01 X134.932000 Y14.749000 Z-0.125000
G01 X132.405000 Y14.749000 Z-0.125000
G01 X132.126000 Y14.655000 Z-0.125000
G01 X132.033000 Y14.369000 Z-0.125000
G01 X132.033000 Y13.114000 Z-0.125000
G01 X132.129000 Y12.834000 Z-0.125000
G01 X132.412000 Y12.738000 Z-0.125000
G01 X134.932000 Y12.738000 Z-0.125000
G01 X134.932000 Y11.806000 Z-0.125000
G00 Z5.000000

(End cutting path id: path732)


(Start cutting path id: path732)
(Change tool to Default tool)

G00 Z5.000000
G00 X139.508000 Y29.777000

G01 Z-0.125000 F100.0(Penetrate)
G01 X139.508000 Y32.965000 Z-0.125000 F400.000000
G01 X137.431000 Y37.500000 Z-0.125000
G01 X135.295000 Y42.218000 Z-0.125000
G01 X135.303000 Y42.319000 Z-0.125000
G01 X135.485000 Y42.374000 Z-0.125000
G01 X136.840000 Y42.401000 Z-0.125000
G01 X138.444000 Y42.400000 Z-0.125000
G01 X139.247000 Y40.449000 Z-0.125000
G01 X141.109000 Y36.164000 Z-0.125000
G01 X142.395000 Y39.285000 Z-0.125000
G01 X143.626000 Y42.351000 Z-0.125000
G01 X145.272000 Y42.378000 Z-0.125000
G01 X146.661000 Y42.376000 Z-0.125000
G01 X146.836000 Y42.325000 Z-0.125000
G01 X146.824000 Y42.226000 Z-0.125000
G01 X144.640000 Y37.520000 Z-0.125000
G01 X142.549000 Y32.994000 Z-0.125000
G01 X142.549000 Y29.791000 Z-0.125000
G01 X142.549000 Y26.589000 Z-0.125000
G01 X141.028000 Y26.589000 Z-0.125000
G01 X139.508000 Y26.589000 Z-0.125000
G01 X139.508000 Y29.777000 Z-0.125000
G00 Z5.000000

(End cutting path id: path732)


(Start cutting path id: path732)
(Change tool to Default tool)

G00 Z5.000000
G00 X128.783000 Y34.496000

G01 Z-0.125000 F100.0(Penetrate)
G01 X128.783000 Y27.117000 Z-0.125000 F400.000000
G01 X135.635000 Y27.117000 Z-0.125000
G01 X135.665000 Y28.087000 Z-0.125000
G01 X135.626000 Y28.518000 Z-0.125000
G01 X135.335000 Y28.697000 Z-0.125000
G01 X130.770000 Y28.697000 Z-0.125000
G01 X130.770000 Y41.875000 Z-0.125000
G01 X128.783000 Y41.875000 Z-0.125000
G01 X128.783000 Y34.496000 Z-0.125000
G01 X128.783000 Y34.496000 Z-0.125000
G00 Z5.000000

(End cutting path id: path732)


(Start cutting path id: path732)
(Change tool to Default tool)

G00 Z5.000000
G00 X128.520000 Y34.496000

G01 Z-0.125000 F100.0(Penetrate)
G01 X128.520000 Y26.853000 Z-0.125000 F400.000000
G01 X135.898000 Y26.853000 Z-0.125000
G01 X135.898000 Y28.960000 Z-0.125000
G01 X131.033000 Y28.960000 Z-0.125000
G01 X131.033000 Y42.138000 Z-0.125000
G01 X128.520000 Y42.138000 Z-0.125000
G01 X128.520000 Y34.496000 Z-0.125000
G01 X128.520000 Y34.496000 Z-0.125000
G00 Z5.000000

(End cutting path id: path732)


(Start cutting path id: path732)
(Change tool to Default tool)

G00 Z5.000000
G00 X128.257000 Y34.495000

G01 Z-0.125000 F100.0(Penetrate)
G01 X128.257000 Y42.401000 Z-0.125000 F400.000000
G01 X129.777000 Y42.401000 Z-0.125000
G01 X131.298000 Y42.401000 Z-0.125000
G01 X131.298000 Y35.813000 Z-0.125000
G01 X131.298000 Y29.224000 Z-0.125000
G01 X133.730000 Y29.224000 Z-0.125000
G01 X136.163000 Y29.224000 Z-0.125000
G01 X136.163000 Y27.906000 Z-0.125000
G01 X136.163000 Y26.589000 Z-0.125000
G01 X132.210000 Y26.589000 Z-0.125000
G01 X128.257000 Y26.589000 Z-0.125000
G01 X128.257000 Y34.495000 Z-0.125000
G00 Z5.000000

(End cutting path id: path732)


(Start cutting path id: path732)
(Change tool to Default tool)

G00 Z5.000000
G00 X121.058000 Y35.518000

G01 Z-0.125000 F100.0(Penetrate)
G01 X121.720000 Y35.776000 Z-0.125000 F400.000000
G01 X122.194000 Y36.225000 Z-0.125000
G01 X122.480000 Y36.863000 Z-0.125000
G01 X122.576000 Y37.688000 Z-0.125000
G01 X122.502000 Y38.422000 Z-0.125000
G01 X122.281000 Y39.017000 Z-0.125000
G01 X121.918000 Y39.469000 Z-0.125000
G01 X121.415000 Y39.771000 Z-0.125000
G01 X119.920000 Y39.943000 Z-0.125000
G01 X118.729000 Y39.996000 Z-0.125000
G01 X118.729000 Y37.702000 Z-0.125000
G01 X118.729000 Y35.407000 Z-0.125000
G01 X119.636000 Y35.407000 Z-0.125000
G01 X121.058000 Y35.518000 Z-0.125000
G01 X121.058000 Y35.518000 Z-0.125000
G00 Z5.000000

(End cutting path id: path732)


(Start cutting path id: path732)
(Change tool to Default tool)

G00 Z5.000000
G00 X116.215000 Y34.503000

G01 Z-0.125000 F100.0(Penetrate)
G01 X116.215000 Y27.115000 Z-0.125000 F400.000000
G01 X118.201000 Y27.115000 Z-0.125000
G01 X118.201000 Y33.503000 Z-0.125000
G01 X121.296000 Y33.567000 Z-0.125000
G01 X122.775000 Y33.915000 Z-0.125000
G01 X123.447000 Y34.262000 Z-0.125000
G01 X124.055000 Y34.757000 Z-0.125000
G01 X124.777000 Y35.851000 Z-0.125000
G01 X125.085000 Y37.125000 Z-0.125000
G01 X125.042000 Y38.457000 Z-0.125000
G01 X124.710000 Y39.723000 Z-0.125000
G01 X123.911000 Y40.760000 Z-0.125000
G01 X122.811000 Y41.442000 Z-0.125000
G01 X121.541000 Y41.790000 Z-0.125000
G01 X120.233000 Y41.826000 Z-0.125000
G01 X116.215000 Y41.882000 Z-0.125000
G01 X116.215000 Y34.503000 Z-0.125000
G01 X116.215000 Y34.503000 Z-0.125000
G00 Z5.000000

(End cutting path id: path732)


(Start cutting path id: path732)
(Change tool to Default tool)

G00 Z5.000000
G00 X115.951000 Y34.503000

G01 Z-0.125000 F100.0(Penetrate)
G01 X115.951000 Y26.851000 Z-0.125000 F400.000000
G01 X118.465000 Y26.851000 Z-0.125000
G01 X118.465000 Y33.238000 Z-0.125000
G01 X120.002000 Y33.237000 Z-0.125000
G01 X121.565000 Y33.335000 Z-0.125000
G01 X123.034000 Y33.729000 Z-0.125000
G01 X123.697000 Y34.100000 Z-0.125000
G01 X124.291000 Y34.619000 Z-0.125000
G01 X124.983000 Y35.636000 Z-0.125000
G01 X125.310000 Y36.817000 Z-0.125000
G01 X125.346000 Y38.065000 Z-0.125000
G01 X125.167000 Y39.282000 Z-0.125000
G01 X124.892000 Y39.956000 Z-0.125000
G01 X124.492000 Y40.543000 Z-0.125000
G01 X123.402000 Y41.447000 Z-0.125000
G01 X122.062000 Y41.969000 Z-0.125000
G01 X120.636000 Y42.083000 Z-0.125000
G01 X115.951000 Y42.150000 Z-0.125000
G01 X115.951000 Y34.503000 Z-0.125000
G01 X115.951000 Y34.503000 Z-0.125000
G00 Z5.000000

(End cutting path id: path732)


(Start cutting path id: path732)
(Change tool to Default tool)

G00 Z5.000000
G00 X115.688000 Y34.503000

G01 Z-0.125000 F100.0(Penetrate)
G01 X115.688000 Y42.417000 Z-0.125000 F400.000000
G01 X118.805000 Y42.377000 Z-0.125000
G01 X121.561000 Y42.310000 Z-0.125000
G01 X122.580000 Y42.106000 Z-0.125000
G01 X123.444000 Y41.728000 Z-0.125000
G01 X124.156000 Y41.258000 Z-0.125000
G01 X124.724000 Y40.689000 Z-0.125000
G01 X125.153000 Y40.015000 Z-0.125000
G01 X125.517000 Y38.985000 Z-0.125000
G01 X125.616000 Y37.688000 Z-0.125000
G01 X125.545000 Y36.617000 Z-0.125000
G01 X125.319000 Y35.723000 Z-0.125000
G01 X124.922000 Y34.961000 Z-0.125000
G01 X124.337000 Y34.285000 Z-0.125000
G01 X123.541000 Y33.684000 Z-0.125000
G01 X122.600000 Y33.279000 Z-0.125000
G01 X121.449000 Y33.050000 Z-0.125000
G01 X120.021000 Y32.976000 Z-0.125000
G01 X118.729000 Y32.974000 Z-0.125000
G01 X118.729000 Y29.781000 Z-0.125000
G01 X118.729000 Y26.588000 Z-0.125000
G01 X117.208000 Y26.588000 Z-0.125000
G01 X115.688000 Y26.588000 Z-0.125000
G01 X115.688000 Y34.503000 Z-0.125000
G00 Z5.000000

(End cutting path id: path732)


(Start cutting path id: path732)
(Change tool to Default tool)

G00 Z5.000000
G00 X118.740000 Y40.259000

G01 Z-0.125000 F100.0(Penetrate)
G01 X120.491000 Y40.186000 Z-0.125000 F400.000000
G01 X121.345000 Y40.048000 Z-0.125000
G01 X122.109000 Y39.652000 Z-0.125000
G01 X122.635000 Y38.856000 Z-0.125000
G01 X122.847000 Y37.915000 Z-0.125000
G01 X122.764000 Y36.946000 Z-0.125000
G01 X122.402000 Y36.062000 Z-0.125000
G01 X121.624000 Y35.434000 Z-0.125000
G01 X120.664000 Y35.187000 Z-0.125000
G01 X118.629000 Y35.144000 Z-0.125000
G01 X118.459000 Y35.431000 Z-0.125000
G01 X118.445000 Y35.874000 Z-0.125000
G01 X118.465000 Y36.808000 Z-0.125000
G01 X118.465000 Y40.273000 Z-0.125000
G01 X118.740000 Y40.259000 Z-0.125000
G01 X118.740000 Y40.259000 Z-0.125000
G00 Z5.000000

(End cutting path id: path732)


(Start cutting path id: path732)
(Change tool to Default tool)

G00 Z5.000000
G00 X118.479000 Y40.537000

G01 Z-0.125000 F100.0(Penetrate)
G01 X120.608000 Y40.444000 Z-0.125000 F400.000000
G01 X121.627000 Y40.229000 Z-0.125000
G01 X122.486000 Y39.629000 Z-0.125000
G01 X123.007000 Y38.558000 Z-0.125000
G01 X123.108000 Y37.349000 Z-0.125000
G01 X122.772000 Y36.204000 Z-0.125000
G01 X122.434000 Y35.717000 Z-0.125000
G01 X121.979000 Y35.322000 Z-0.125000
G01 X121.163000 Y35.004000 Z-0.125000
G01 X120.298000 Y34.894000 Z-0.125000
G01 X118.537000 Y34.879000 Z-0.125000
G01 X118.222000 Y35.326000 Z-0.125000
G01 X118.171000 Y35.872000 Z-0.125000
G01 X118.201000 Y37.008000 Z-0.125000
G01 X118.201000 Y40.550000 Z-0.125000
G01 X118.479000 Y40.537000 Z-0.125000
G01 X118.479000 Y40.537000 Z-0.125000
G00 Z5.000000

(End cutting path id: path732)


(Start cutting path id: path732)
(Change tool to Default tool)

G00 Z5.000000
G00 X108.894000 Y35.518000

G01 Z-0.125000 F100.0(Penetrate)
G01 X109.556000 Y35.776000 Z-0.125000 F400.000000
G01 X110.031000 Y36.225000 Z-0.125000
G01 X110.317000 Y36.863000 Z-0.125000
G01 X110.412000 Y37.688000 Z-0.125000
G01 X110.253000 Y38.751000 Z-0.125000
G01 X109.739000 Y39.456000 Z-0.125000
G01 X108.811000 Y39.848000 Z-0.125000
G01 X107.413000 Y39.969000 Z-0.125000
G01 X106.565000 Y39.969000 Z-0.125000
G01 X106.565000 Y37.688000 Z-0.125000
G01 X106.565000 Y35.407000 Z-0.125000
G01 X107.472000 Y35.407000 Z-0.125000
G01 X108.894000 Y35.518000 Z-0.125000
G01 X108.894000 Y35.518000 Z-0.125000
G00 Z5.000000

(End cutting path id: path732)


(Start cutting path id: path732)
(Change tool to Default tool)

G00 Z5.000000
G00 X104.051000 Y34.496000

G01 Z-0.125000 F100.0(Penetrate)
G01 X104.051000 Y27.115000 Z-0.125000 F400.000000
G01 X106.037000 Y27.115000 Z-0.125000
G01 X106.037000 Y33.503000 Z-0.125000
G01 X109.082000 Y33.559000 Z-0.125000
G01 X110.543000 Y33.889000 Z-0.125000
G01 X111.212000 Y34.218000 Z-0.125000
G01 X111.822000 Y34.689000 Z-0.125000
G01 X112.601000 Y35.846000 Z-0.125000
G01 X112.929000 Y37.204000 Z-0.125000
G01 X112.852000 Y38.617000 Z-0.125000
G01 X112.414000 Y39.939000 Z-0.125000
G01 X111.571000 Y40.895000 Z-0.125000
G01 X110.470000 Y41.503000 Z-0.125000
G01 X109.227000 Y41.807000 Z-0.125000
G01 X107.955000 Y41.850000 Z-0.125000
G01 X104.051000 Y41.875000 Z-0.125000
G01 X104.051000 Y34.496000 Z-0.125000
G01 X104.051000 Y34.496000 Z-0.125000
G00 Z5.000000

(End cutting path id: path732)


(Start cutting path id: path732)
(Change tool to Default tool)

G00 Z5.000000
G00 X103.787000 Y34.496000

G01 Z-0.125000 F100.0(Penetrate)
G01 X103.787000 Y26.851000 Z-0.125000 F400.000000
G01 X106.301000 Y26.851000 Z-0.125000
G01 X106.301000 Y33.238000 Z-0.125000
G01 X107.792000 Y33.234000 Z-0.125000
G01 X109.305000 Y33.320000 Z-0.125000
G01 X110.740000 Y33.677000 Z-0.125000
G01 X111.396000 Y34.015000 Z-0.125000
G01 X111.996000 Y34.489000 Z-0.125000
G01 X112.773000 Y35.560000 Z-0.125000
G01 X113.146000 Y36.823000 Z-0.125000
G01 X113.177000 Y38.162000 Z-0.125000
G01 X112.928000 Y39.458000 Z-0.125000
G01 X112.250000 Y40.612000 Z-0.125000
G01 X111.227000 Y41.444000 Z-0.125000
G01 X109.987000 Y41.942000 Z-0.125000
G01 X108.660000 Y42.095000 Z-0.125000
G01 X103.787000 Y42.138000 Z-0.125000
G01 X103.787000 Y34.495000 Z-0.125000
G01 X103.787000 Y34.496000 Z-0.125000
G00 Z5.000000

(End cutting path id: path732)


(Start cutting path id: path732)
(Change tool to Default tool)

G00 Z5.000000
G00 X103.524000 Y34.495000

G01 Z-0.125000 F100.0(Penetrate)
G01 X103.524000 Y42.401000 Z-0.125000 F400.000000
G01 X106.317000 Y42.401000 Z-0.125000
G01 X109.449000 Y42.298000 Z-0.125000
G01 X110.334000 Y42.123000 Z-0.125000
G01 X111.095000 Y41.828000 Z-0.125000
G01 X111.851000 Y41.360000 Z-0.125000
G01 X112.489000 Y40.733000 Z-0.125000
G01 X112.986000 Y39.977000 Z-0.125000
G01 X113.316000 Y39.122000 Z-0.125000
G01 X113.450000 Y37.692000 Z-0.125000
G01 X113.319000 Y36.269000 Z-0.125000
G01 X112.843000 Y35.129000 Z-0.125000
G01 X112.094000 Y34.216000 Z-0.125000
G01 X111.083000 Y33.543000 Z-0.125000
G01 X109.825000 Y33.121000 Z-0.125000
G01 X107.857000 Y32.976000 Z-0.125000
G01 X106.565000 Y32.974000 Z-0.125000
G01 X106.565000 Y29.781000 Z-0.125000
G01 X106.565000 Y26.588000 Z-0.125000
G01 X105.044000 Y26.588000 Z-0.125000
G01 X103.524000 Y26.588000 Z-0.125000
G01 X103.524000 Y34.495000 Z-0.125000
G00 Z5.000000

(End cutting path id: path732)


(Start cutting path id: path732)
(Change tool to Default tool)

G00 Z5.000000
G00 X106.564000 Y40.232000

G01 Z-0.125000 F100.0(Penetrate)
G01 X108.611000 Y40.157000 Z-0.125000 F400.000000
G01 X109.566000 Y39.864000 Z-0.125000
G01 X110.322000 Y39.199000 Z-0.125000
G01 X110.618000 Y38.369000 Z-0.125000
G01 X110.685000 Y37.471000 Z-0.125000
G01 X110.503000 Y36.598000 Z-0.125000
G01 X110.052000 Y35.841000 Z-0.125000
G01 X109.222000 Y35.341000 Z-0.125000
G01 X108.271000 Y35.164000 Z-0.125000
G01 X106.301000 Y35.144000 Z-0.125000
G01 X106.301000 Y40.232000 Z-0.125000
G01 X106.564000 Y40.232000 Z-0.125000
G01 X106.564000 Y40.232000 Z-0.125000
G00 Z5.000000

(End cutting path id: path732)


(Start cutting path id: path732)
(Change tool to Default tool)

G00 Z5.000000
G00 X106.301000 Y40.496000

G01 Z-0.125000 F100.0(Penetrate)
G01 X108.598000 Y40.424000 Z-0.125000 F400.000000
G01 X109.671000 Y40.103000 Z-0.125000
G01 X110.531000 Y39.361000 Z-0.125000
G01 X110.916000 Y38.214000 Z-0.125000
G01 X110.888000 Y36.978000 Z-0.125000
G01 X110.410000 Y35.879000 Z-0.125000
G01 X109.992000 Y35.453000 Z-0.125000
G01 X109.448000 Y35.146000 Z-0.125000
G01 X108.616000 Y34.936000 Z-0.125000
G01 X107.760000 Y34.882000 Z-0.125000
G01 X106.037000 Y34.873000 Z-0.125000
G01 X106.037000 Y40.496000 Z-0.125000
G01 X106.301000 Y40.496000 Z-0.125000
G01 X106.301000 Y40.496000 Z-0.125000
G00 Z5.000000

(End cutting path id: path732)


(Start cutting path id: path732)
(Change tool to Default tool)

G00 Z5.000000
G00 X98.952700 Y60.598000

G01 Z-0.125000 F100.0(Penetrate)
G01 X98.254200 Y59.402100 Z-0.125000 F400.000000
G01 X96.994800 Y58.403100 Z-0.125000
G01 X95.619000 Y57.902500 Z-0.125000
G01 X94.655900 Y57.902500 Z-0.125000
G01 X94.359500 Y58.403100 Z-0.125000
G01 X94.761700 Y59.666700 Z-0.125000
G01 X95.756500 Y61.169500 Z-0.125000
G01 X96.889000 Y62.100900 Z-0.125000
G01 X97.619200 Y62.471300 Z-0.125000
G01 X98.360000 Y62.365500 Z-0.125000
G01 X98.952700 Y61.899800 Z-0.125000
G01 X99.122000 Y57.169100 Z-0.125000
G01 X98.995000 Y55.571000 Z-0.125000
G01 X98.624600 Y54.565600 Z-0.125000
G01 X98.159000 Y53.898800 Z-0.125000
G01 X97.725000 Y53.539000 Z-0.125000
G01 X97.153500 Y53.433100 Z-0.125000
G01 X96.719600 Y53.401400 Z-0.125000
G01 X95.523700 Y53.433100 Z-0.125000
G00 Z5.000000

(End cutting path id: path732)


(Start cutting path id: path732)
(Change tool to Default tool)

G00 Z5.000000
G00 X90.464900 Y60.767400

G01 Z-0.125000 F100.0(Penetrate)
G01 X89.861700 Y59.433900 Z-0.125000 F400.000000
G01 X88.888000 Y58.535400 Z-0.125000
G01 X88.189500 Y58.136400 Z-0.125000
G01 X87.522800 Y57.902500 Z-0.125000
G01 X86.591500 Y58.003000 Z-0.125000
G01 X86.094000 Y58.335300 Z-0.125000
G01 X85.956500 Y59.370400 Z-0.125000
G01 X86.464500 Y60.407500 Z-0.125000
G01 X87.120600 Y61.402400 Z-0.125000
G01 X88.189500 Y62.132600 Z-0.125000
G01 X88.993900 Y62.503000 Z-0.125000
G01 X89.597100 Y62.503000 Z-0.125000
G01 X90.327400 Y62.365500 Z-0.125000
G01 X90.464900 Y61.868000 Z-0.125000
G01 X90.591900 Y57.869100 Z-0.125000
G00 Z5.000000

(End cutting path id: path732)


(Start cutting path id: path732)
(Change tool to Default tool)

G00 Z5.000000
G00 X92.592200 Y62.566500

G01 Z-0.125000 F100.0(Penetrate)
G01 X92.687400 Y58.302500 Z-0.125000 F400.000000
G01 X92.888500 Y58.102500 Z-0.125000
G00 Z5.000000

(End cutting path id: path732)


(Start cutting path id: path732)
(Change tool to Default tool)

G00 Z5.000000
G00 X92.327600 Y64.566800

G01 Z-0.125000 F100.0(Penetrate)
G01 X92.518100 Y64.566800 Z-0.125000 F400.000000
G00 Z5.000000

(End cutting path id: path732)


(Start cutting path id: path732)
(Change tool to Default tool)

G00 Z5.000000
G00 X99.888300 Y62.598300

G01 Z-0.125000 F100.0(Penetrate)
G01 X99.921100 Y58.035800 Z-0.125000 F400.000000
G01 X99.888300 Y61.264800 Z-0.125000
G01 X101.122000 Y62.069100 Z-0.125000
G01 X102.318000 Y62.640600 Z-0.125000
G01 X103.091000 Y62.704100 Z-0.125000
G01 X103.652000 Y62.640600 Z-0.125000
G01 X104.022000 Y62.238500 Z-0.125000
G01 X104.287000 Y61.074300 Z-0.125000
G01 X104.255000 Y57.935800 Z-0.125000
G00 Z5.000000

(End cutting path id: path732)


(Start cutting path id: path732)
(Change tool to Default tool)

G00 Z5.000000
G00 X104.731000 Y75.594500

G01 Z-0.125000 F100.0(Penetrate)
G01 X104.393000 Y75.933200 Z-0.125000 F400.000000
G01 X103.398000 Y75.933200 Z-0.125000
G01 X102.265000 Y75.700400 Z-0.125000
G01 X101.228000 Y75.160600 Z-0.125000
G01 X100.794000 Y74.462100 Z-0.125000
G01 X100.794000 Y73.700100 Z-0.125000
G01 X101.228000 Y73.361500 Z-0.125000
G01 X102.191000 Y73.361500 Z-0.125000
G01 X103.228000 Y73.562600 Z-0.125000
G01 X103.895000 Y73.530800 Z-0.125000
G01 X104.424000 Y73.329700 Z-0.125000
G01 X104.763000 Y73.033400 Z-0.125000
G01 X104.668000 Y72.536000 Z-0.125000
G01 X103.631000 Y71.731600 Z-0.125000
G01 X102.297000 Y71.365500 Z-0.125000
G01 X101.525000 Y71.064900 Z-0.125000
G01 X101.197000 Y71.098200 Z-0.125000
G00 Z5.000000

(End cutting path id: path732)


(Start cutting path id: path732)
(Change tool to Default tool)

G00 Z5.000000
G00 X94.730100 Y78.166300

G01 Z-0.125000 F100.0(Penetrate)
G01 X94.793600 Y71.497800 Z-0.125000 F400.000000
G01 X95.291000 Y71.298800 Z-0.125000
G01 X96.158800 Y71.464900 Z-0.125000
G01 X97.460600 Y71.998300 Z-0.125000
G01 X99.058700 Y73.266200 Z-0.125000
G01 X99.693700 Y74.366900 Z-0.125000
G01 X99.926500 Y75.234700 Z-0.125000
G01 X99.725400 Y75.700400 Z-0.125000
G01 X99.228000 Y75.901500 Z-0.125000
G01 X98.063800 Y75.795600 Z-0.125000
G01 X97.026700 Y75.097100 Z-0.125000
G01 X95.894300 Y74.303400 Z-0.125000
G01 X94.867700 Y72.832300 Z-0.125000
G00 Z5.000000

(End cutting path id: path732)


(Start cutting path id: path732)
(Change tool to Default tool)

G00 Z5.000000
G00 X89.322100 Y75.933200

G01 Z-0.125000 F100.0(Penetrate)
G01 X89.057500 Y74.398600 Z-0.125000 F400.000000
G01 X88.962200 Y72.631200 Z-0.125000
G01 X89.364400 Y71.598300 Z-0.125000
G01 X90.189900 Y71.164900 Z-0.125000
G01 X91.597500 Y71.264900 Z-0.125000
G01 X92.391200 Y71.764500 Z-0.125000
G01 X92.825100 Y71.965500 Z-0.125000
G01 X93.259000 Y72.567700 Z-0.125000
G01 X93.566000 Y73.202700 Z-0.125000
G01 X93.322500 Y76.060200 Z-0.125000
G01 X93.661200 Y71.198200 Z-0.125000
G00 Z5.000000

(End cutting path id: path732)


(Start cutting path id: path732)
(Change tool to Default tool)

G00 Z5.000000
G00 X88.263700 Y75.594500

G01 Z-0.125000 F100.0(Penetrate)
G01 X87.925100 Y75.933200 Z-0.125000 F400.000000
G01 X86.930300 Y75.933200 Z-0.125000
G01 X85.797800 Y75.700400 Z-0.125000
G01 X84.760700 Y75.160600 Z-0.125000
G01 X84.326800 Y74.462100 Z-0.125000
G01 X84.326800 Y73.700100 Z-0.125000
G01 X84.760700 Y73.361500 Z-0.125000
G01 X85.723800 Y73.361500 Z-0.125000
G01 X86.760900 Y73.562600 Z-0.125000
G01 X87.427700 Y73.530800 Z-0.125000
G01 X87.956800 Y73.329700 Z-0.125000
G01 X88.295500 Y73.033400 Z-0.125000
G01 X88.200200 Y72.536000 Z-0.125000
G01 X87.163100 Y71.731600 Z-0.125000
G01 X85.829600 Y71.365500 Z-0.125000
G01 X85.057000 Y71.064900 Z-0.125000
G01 X84.728900 Y71.098200 Z-0.125000
G00 Z5.000000

(End cutting path id: path732)


(Start cutting path id: path732)
(Change tool to Default tool)

G00 Z5.000000
G00 X80.453100 Y62.503000

G01 Z-0.125000 F100.0(Penetrate)
G01 X80.516600 Y53.835300 Z-0.125000 F400.000000
G01 X80.484900 Y61.836300 Z-0.125000
G01 X81.691400 Y62.503000 Z-0.125000
G01 X83.056600 Y62.799400 Z-0.125000
G01 X84.591200 Y62.566500 Z-0.125000
G01 X85.088600 Y61.836300 Z-0.125000
G01 X84.993300 Y60.703900 Z-0.125000
G01 X84.517100 Y59.931300 Z-0.125000
G01 X83.554000 Y59.105800 Z-0.125000
G01 X82.559200 Y58.602000 Z-0.125000
G01 X80.558900 Y58.102500 Z-0.125000
G00 Z5.000000

(End cutting path id: path732)


(Start cutting path id: path732)
(Change tool to Default tool)

G00 Z5.000000
G00 X71.658400 Y62.735900

G01 Z-0.125000 F100.0(Penetrate)
G01 X71.721900 Y57.869100 Z-0.125000 F400.000000
G01 X72.124100 Y61.201300 Z-0.125000
G01 X72.790900 Y62.206700 Z-0.125000
G01 X73.955000 Y62.704100 Z-0.125000
G01 X74.653500 Y62.735900 Z-0.125000
G01 X75.119200 Y62.439500 Z-0.125000
G01 X75.489600 Y61.540000 Z-0.125000
G01 X75.352000 Y57.869100 Z-0.125000
G01 X75.722400 Y61.264800 Z-0.125000
G01 X76.526800 Y62.175000 Z-0.125000
G01 X77.659200 Y62.704100 Z-0.125000
G01 X78.622300 Y62.704100 Z-0.125000
G01 X79.225500 Y62.439500 Z-0.125000
G01 X79.352500 Y61.603500 Z-0.125000
G01 X79.394800 Y60.037100 Z-0.125000
G01 X79.458300 Y57.969200 Z-0.125000
G00 Z5.000000

(End cutting path id: path732)


(Start cutting path id: path732)
(Change tool to Default tool)

G00 Z5.000000
G00 X70.399000 Y60.767400

G01 Z-0.125000 F100.0(Penetrate)
G01 X69.795800 Y59.433900 Z-0.125000 F400.000000
G01 X68.822100 Y58.535400 Z-0.125000
G01 X68.123600 Y58.136400 Z-0.125000
G01 X67.456900 Y57.902500 Z-0.125000
G01 X66.525600 Y58.003000 Z-0.125000
G01 X66.028100 Y58.335300 Z-0.125000
G01 X65.890600 Y59.370400 Z-0.125000
G01 X66.398600 Y60.407500 Z-0.125000
G01 X67.054700 Y61.402400 Z-0.125000
G01 X68.123600 Y62.132600 Z-0.125000
G01 X68.928000 Y62.503000 Z-0.125000
G01 X69.531200 Y62.503000 Z-0.125000
G01 X70.261500 Y62.365500 Z-0.125000
G01 X70.399000 Y61.868000 Z-0.125000
G01 X70.526000 Y57.869100 Z-0.125000
G00 Z5.000000

(End cutting path id: path732)


(Start cutting path id: path732)
(Change tool to Default tool)

G00 Z5.000000
G00 X64.027800 Y62.238500

G01 Z-0.125000 F100.0(Penetrate)
G01 X63.689200 Y62.534800 Z-0.125000 F400.000000
G01 X62.694300 Y62.640600 Z-0.125000
G01 X61.625400 Y62.238500 Z-0.125000
G01 X60.725900 Y61.571700 Z-0.125000
G01 X59.752200 Y60.301700 Z-0.125000
G01 X59.455900 Y58.968200 Z-0.125000
G01 X60.090900 Y58.202000 Z-0.125000
G01 X61.392600 Y57.802500 Z-0.125000
G01 X62.789600 Y57.869100 Z-0.125000
G01 X63.784400 Y58.102500 Z-0.125000
G01 X64.853300 Y58.669800 Z-0.125000
G00 Z5.000000

(End cutting path id: path732)


(Start cutting path id: path732)
(Change tool to Default tool)

G00 Z5.000000
G00 X50.184900 Y62.799400

G01 Z-0.125000 F100.0(Penetrate)
G01 X50.057900 Y58.003000 Z-0.125000 F400.000000
G01 X50.386000 Y60.703900 Z-0.125000
G01 X51.190400 Y61.741000 Z-0.125000
G01 X52.216900 Y62.333700 Z-0.125000
G01 X53.053000 Y62.672400 Z-0.125000
G01 X53.423400 Y62.704100 Z-0.125000
G01 X54.524100 Y62.598300 Z-0.125000
G01 X54.651100 Y62.503000 Z-0.125000
G00 Z5.000000

(End cutting path id: path732)


(Start cutting path id: path732)
(Change tool to Default tool)

G00 Z5.000000
G00 X44.946100 Y62.704100

G01 Z-0.125000 F100.0(Penetrate)
G01 X44.681600 Y61.169500 Z-0.125000 F400.000000
G01 X44.586300 Y59.402100 Z-0.125000
G01 X44.988500 Y58.369200 Z-0.125000
G01 X45.814000 Y57.935800 Z-0.125000
G01 X47.221500 Y58.035800 Z-0.125000
G01 X48.015300 Y58.535400 Z-0.125000
G01 X48.449200 Y58.736400 Z-0.125000
G01 X48.883100 Y59.338600 Z-0.125000
G01 X49.190000 Y59.973600 Z-0.125000
G01 X48.946600 Y62.831100 Z-0.125000
G01 X49.285300 Y57.969100 Z-0.125000
G00 Z5.000000

(End cutting path id: path732)


(Start cutting path id: path732)
(Change tool to Default tool)

G00 Z5.000000
G00 X41.316100 Y62.799400

G01 Z-0.125000 F100.0(Penetrate)
G01 X39.982600 Y62.206700 Z-0.125000 F400.000000
G01 X39.284100 Y61.201300 Z-0.125000
G01 X38.818500 Y60.206500 Z-0.125000
G01 X39.051300 Y58.869800 Z-0.125000
G01 X39.485200 Y58.136400 Z-0.125000
G01 X40.892800 Y57.902500 Z-0.125000
G01 X42.056900 Y58.202000 Z-0.125000
G01 X43.252900 Y58.968200 Z-0.125000
G01 X43.919600 Y60.206500 Z-0.125000
G01 X43.686800 Y61.741000 Z-0.125000
G01 X43.157600 Y62.333700 Z-0.125000
G01 X42.554400 Y62.704100 Z-0.125000
G01 X41.316100 Y62.799400 Z-0.125000
G00 Z5.000000

(End cutting path id: path732)


(Start cutting path id: path732)
(Change tool to Default tool)

G00 Z5.000000
G00 X31.452500 Y62.799400

G01 Z-0.125000 F100.0(Penetrate)
G01 X30.119000 Y62.206700 Z-0.125000 F400.000000
G01 X29.420500 Y61.201300 Z-0.125000
G01 X28.954900 Y60.206500 Z-0.125000
G01 X29.187700 Y58.869800 Z-0.125000
G01 X29.621600 Y58.136400 Z-0.125000
G01 X31.029200 Y57.902500 Z-0.125000
G01 X32.193300 Y58.202000 Z-0.125000
G01 X33.389300 Y58.968200 Z-0.125000
G01 X34.056000 Y60.206500 Z-0.125000
G01 X33.823200 Y61.741000 Z-0.125000
G01 X33.294000 Y62.333700 Z-0.125000
G01 X32.690800 Y62.704100 Z-0.125000
G01 X31.452500 Y62.799400 Z-0.125000
G00 Z5.000000

(End cutting path id: path732)


(Start cutting path id: path732)
(Change tool to Default tool)

G00 Z5.000000
G00 X26.287800 Y64.937200

G01 Z-0.125000 F100.0(Penetrate)
G01 X26.457100 Y57.902500 Z-0.125000 F400.000000
G01 X26.361900 Y61.836300 Z-0.125000
G01 X24.323500 Y61.836300 Z-0.125000
G01 X28.118700 Y61.868000 Z-0.125000
G00 Z5.000000

(End cutting path id: path732)


(Start cutting path id: path732)
(Change tool to Default tool)

G00 Z5.000000
G00 X25.399000 Y73.996500

G01 Z-0.125000 F100.0(Penetrate)
G01 X24.795700 Y72.663000 Z-0.125000 F400.000000
G01 X23.822000 Y71.764500 Z-0.125000
G01 X23.123500 Y71.365500 Z-0.125000
G01 X22.456800 Y71.131600 Z-0.125000
G01 X21.525500 Y71.232100 Z-0.125000
G01 X21.028100 Y71.564400 Z-0.125000
G01 X20.890500 Y72.599500 Z-0.125000
G01 X21.398500 Y73.636600 Z-0.125000
G01 X22.054600 Y74.631500 Z-0.125000
G01 X23.123500 Y75.361700 Z-0.125000
G01 X23.927900 Y75.732100 Z-0.125000
G01 X24.531100 Y75.732100 Z-0.125000
G01 X25.261400 Y75.594600 Z-0.125000
G01 X25.399000 Y75.097100 Z-0.125000
G01 X25.526000 Y71.098200 Z-0.125000
G00 Z5.000000

(End cutting path id: path732)


(Start cutting path id: path732)
(Change tool to Default tool)

G00 Z5.000000
G00 X26.323900 Y75.827400

G01 Z-0.125000 F100.0(Penetrate)
G01 X26.356700 Y71.264900 Z-0.125000 F400.000000
G01 X26.323900 Y74.493900 Z-0.125000
G01 X27.557900 Y75.298200 Z-0.125000
G01 X28.753800 Y75.869700 Z-0.125000
G01 X29.526400 Y75.933200 Z-0.125000
G01 X30.087300 Y75.869700 Z-0.125000
G01 X30.457800 Y75.467600 Z-0.125000
G01 X30.722300 Y74.303400 Z-0.125000
G01 X30.690600 Y71.164900 Z-0.125000
G00 Z5.000000

(End cutting path id: path732)


(Start cutting path id: path732)
(Change tool to Default tool)

G00 Z5.000000
G00 X31.456800 Y78.198000

G01 Z-0.125000 F100.0(Penetrate)
G01 X31.653700 Y74.165800 Z-0.125000 F400.000000
G01 X31.653700 Y71.198200 Z-0.125000
G01 X31.727800 Y73.668400 Z-0.125000
G01 X32.659100 Y74.462100 Z-0.125000
G01 X35.061500 Y76.060200 Z-0.125000
G01 X31.823000 Y73.795400 Z-0.125000
G01 X33.093000 Y72.864100 Z-0.125000
G01 X35.961100 Y71.298800 Z-0.125000
G00 Z5.000000

(End cutting path id: path732)


(Start cutting path id: path732)
(Change tool to Default tool)

G00 Z5.000000
G00 X40.988100 Y75.562800

G01 Z-0.125000 F100.0(Penetrate)
G01 X44.427700 Y70.664800 Z-0.125000 F400.000000
G01 X46.322100 Y75.668600 Z-0.125000
G01 X42.861400 Y66.567000 Z-0.125000
G00 Z5.000000

(End cutting path id: path732)


(Start cutting path id: path732)
(Change tool to Default tool)

G00 Z5.000000
G00 X49.687600 Y76.028500

G01 Z-0.125000 F100.0(Penetrate)
G01 X48.354100 Y75.435800 Z-0.125000 F400.000000
G01 X47.655600 Y74.430400 Z-0.125000
G01 X47.190000 Y73.435600 Z-0.125000
G01 X47.422800 Y72.098900 Z-0.125000
G01 X47.856700 Y71.365500 Z-0.125000
G01 X49.264300 Y71.131600 Z-0.125000
G01 X50.428500 Y71.431100 Z-0.125000
G01 X51.624400 Y72.197300 Z-0.125000
G01 X52.291100 Y73.435600 Z-0.125000
G01 X52.058300 Y74.970100 Z-0.125000
G01 X51.529100 Y75.562800 Z-0.125000
G01 X50.925900 Y75.933200 Z-0.125000
G01 X49.687600 Y76.028500 Z-0.125000
G00 Z5.000000

(End cutting path id: path732)


(Start cutting path id: path732)
(Change tool to Default tool)

G00 Z5.000000
G00 X53.317700 Y75.933200

G01 Z-0.125000 F100.0(Penetrate)
G01 X53.053100 Y74.398600 Z-0.125000 F400.000000
G01 X52.957800 Y72.631200 Z-0.125000
G01 X53.360000 Y71.598300 Z-0.125000
G01 X54.185500 Y71.164900 Z-0.125000
G01 X55.593100 Y71.264900 Z-0.125000
G01 X56.386800 Y71.764500 Z-0.125000
G01 X56.820700 Y71.965500 Z-0.125000
G01 X57.254600 Y72.567700 Z-0.125000
G01 X57.561600 Y73.202700 Z-0.125000
G01 X57.318100 Y76.060200 Z-0.125000
G01 X57.656800 Y71.198200 Z-0.125000
G00 Z5.000000

(End cutting path id: path732)


(Start cutting path id: path732)
(Change tool to Default tool)

G00 Z5.000000
G00 X67.658000 Y76.801000

G01 Z-0.125000 F100.0(Penetrate)
G01 X66.726700 Y77.795900 Z-0.125000 F400.000000
G01 X65.626000 Y78.303900 Z-0.125000
G01 X64.895800 Y78.367400 Z-0.125000
G01 X64.027900 Y77.795900 Z-0.125000
G01 X63.625800 Y76.896300 Z-0.125000
G01 X63.625800 Y75.933200 Z-0.125000
G01 X63.795100 Y75.033600 Z-0.125000
G01 X64.154900 Y73.001600 Z-0.125000
G01 X64.292500 Y71.331600 Z-0.125000
G01 X64.027900 Y73.763600 Z-0.125000
G01 X62.058400 Y73.467300 Z-0.125000
G01 X65.795300 Y73.964700 Z-0.125000
G01 X67.520400 Y74.197600 Z-0.125000
G00 Z5.000000

(End cutting path id: path732)


(Start cutting path id: path732)
(Change tool to Default tool)

G00 Z5.000000
G00 X71.224600 Y76.028500

G01 Z-0.125000 F100.0(Penetrate)
G01 X69.891100 Y75.435800 Z-0.125000 F400.000000
G01 X69.192600 Y74.430400 Z-0.125000
G01 X68.727000 Y73.435600 Z-0.125000
G01 X68.959800 Y72.098900 Z-0.125000
G01 X69.393700 Y71.365500 Z-0.125000
G01 X70.801300 Y71.131600 Z-0.125000
G01 X71.965500 Y71.431100 Z-0.125000
G01 X73.161400 Y72.197300 Z-0.125000
G01 X73.828100 Y73.435600 Z-0.125000
G01 X73.595300 Y74.970100 Z-0.125000
G01 X73.066100 Y75.562800 Z-0.125000
G01 X72.462900 Y75.933200 Z-0.125000
G01 X71.224600 Y76.028500 Z-0.125000
G00 Z5.000000

(End cutting path id: path732)


(Start cutting path id: path732)
(Change tool to Default tool)

G00 Z5.000000
G00 X74.791200 Y76.028500

G01 Z-0.125000 F100.0(Penetrate)
G01 X74.664200 Y71.232100 Z-0.125000 F400.000000
G01 X74.992200 Y73.933000 Z-0.125000
G01 X75.796600 Y74.970100 Z-0.125000
G01 X76.823200 Y75.562800 Z-0.125000
G01 X77.659200 Y75.901500 Z-0.125000
G01 X78.029600 Y75.933200 Z-0.125000
G01 X79.130300 Y75.827400 Z-0.125000
G01 X79.257300 Y75.732100 Z-0.125000
G00 Z5.000000

(End cutting path id: path732)


(Start cutting path id: path732)
(Change tool to Default tool)

G00 Z5.000000
G00 X90.603900 Y90.461900

G01 Z-0.125000 F100.0(Penetrate)
G01 X88.797900 Y88.655900 Z-0.125000 F400.000000
G00 Z5.000000

(End cutting path id: path732)


(Start cutting path id: path732)
(Change tool to Default tool)

G00 Z5.000000
G00 X92.193500 Y95.259700

G01 Z-0.125000 F100.0(Penetrate)
G01 X91.998800 Y93.572700 Z-0.125000 F400.000000
G01 X91.436500 Y91.799300 Z-0.125000
G01 X90.420000 Y90.134000 Z-0.125000
G01 X89.744200 Y89.377000 Z-0.125000
G01 X88.927700 Y88.706600 Z-0.125000
G01 X87.992300 Y88.160500 Z-0.125000
G01 X86.916400 Y87.733300 Z-0.125000
G01 X85.694400 Y87.457600 Z-0.125000
G01 X84.321100 Y87.365700 Z-0.125000
G01 X74.177800 Y87.365700 Z-0.125000
G01 X72.490900 Y87.538700 Z-0.125000
G01 X70.717500 Y88.122600 Z-0.125000
G01 X69.052100 Y89.117500 Z-0.125000
G01 X67.624700 Y90.609800 Z-0.125000
G01 X67.078600 Y91.561400 Z-0.125000
G01 X66.651500 Y92.642800 Z-0.125000
G01 X66.375800 Y93.880900 Z-0.125000
G01 X66.283800 Y95.259700 Z-0.125000
G01 X66.283800 Y120.628600 Z-0.125000
G01 X71.907000 Y120.628600 Z-0.125000
G01 X71.907000 Y95.259700 Z-0.125000
G01 X72.069200 Y94.324300 Z-0.125000
G01 X72.555800 Y93.594400 Z-0.125000
G01 X73.285700 Y93.140200 Z-0.125000
G01 X74.177800 Y92.988800 Z-0.125000
G01 X84.321100 Y92.988800 Z-0.125000
G01 X85.261900 Y93.145600 Z-0.125000
G01 X85.964800 Y93.616000 Z-0.125000
G01 X86.418900 Y94.340500 Z-0.125000
G01 X86.570300 Y95.259700 Z-0.125000
G01 X86.570300 Y102.872500 Z-0.125000
G01 X86.413500 Y103.813300 Z-0.125000
G01 X85.943100 Y104.516200 Z-0.125000
G01 X85.224000 Y104.970400 Z-0.125000
G01 X84.321100 Y105.121800 Z-0.125000
G01 X74.177800 Y105.121800 Z-0.125000
G01 X74.177800 Y110.744900 Z-0.125000
G01 X84.321100 Y110.744900 Z-0.125000
G01 X86.008000 Y110.550200 Z-0.125000
G01 X87.759800 Y109.987900 Z-0.125000
G01 X89.446800 Y108.971400 Z-0.125000
G01 X90.198300 Y108.295600 Z-0.125000
G01 X90.852600 Y107.479100 Z-0.125000
G01 X91.398600 Y106.543800 Z-0.125000
G01 X91.825800 Y105.467800 Z-0.125000
G01 X92.101500 Y104.245900 Z-0.125000
G01 X92.193500 Y102.872500 Z-0.125000
G01 X92.193500 Y95.259700 Z-0.125000
G00 Z5.000000

(End cutting path id: path732)


(Start cutting path id: path732)
(Change tool to Default tool)

G00 Z5.000000
G00 X92.061200 Y99.402700

G01 Z-0.125000 F100.0(Penetrate)
G01 X80.437000 Y87.778600 Z-0.125000 F400.000000
G01 X80.343500 Y87.568100 Z-0.125000
G01 X80.530600 Y87.498000 Z-0.125000
G01 X81.185400 Y87.778600 Z-0.125000
G01 X91.780500 Y98.373700 Z-0.125000
G01 X91.991000 Y98.467300 Z-0.125000
G01 X92.061200 Y98.280200 Z-0.125000
G01 X91.780500 Y97.625400 Z-0.125000
G01 X81.933700 Y87.778600 Z-0.125000
G01 X81.840200 Y87.568100 Z-0.125000
G01 X82.027300 Y87.498000 Z-0.125000
G01 X82.682100 Y87.778600 Z-0.125000
G01 X91.780500 Y96.877000 Z-0.125000
G01 X91.991000 Y96.970600 Z-0.125000
G01 X92.061200 Y96.783500 Z-0.125000
G01 X91.780500 Y96.128700 Z-0.125000
G01 X83.430400 Y87.778600 Z-0.125000
G01 X83.336900 Y87.568100 Z-0.125000
G01 X83.524000 Y87.498000 Z-0.125000
G01 X84.178800 Y87.778600 Z-0.125000
G01 X91.780500 Y95.380300 Z-0.125000
G01 X91.989300 Y95.472200 Z-0.125000
G01 X92.055800 Y95.281400 Z-0.125000
G01 X91.769700 Y94.621200 Z-0.125000
G01 X84.932500 Y87.783900 Z-0.125000
G01 X84.845600 Y87.580100 Z-0.125000
G01 X85.047300 Y87.524500 Z-0.125000
G01 X85.723300 Y87.826400 Z-0.125000
G01 X91.676800 Y93.779900 Z-0.125000
G01 X91.856400 Y93.842600 Z-0.125000
G01 X91.858600 Y93.587500 Z-0.125000
G01 X91.479200 Y92.833900 Z-0.125000
G01 X86.640700 Y87.995400 Z-0.125000
G01 X86.602700 Y87.840500 Z-0.125000
G01 X86.912100 Y87.892600 Z-0.125000
G01 X87.744700 Y88.351100 Z-0.125000
G01 X91.363100 Y91.969500 Z-0.125000
G00 Z5.000000

(End cutting path id: path732)


(Start cutting path id: path732)
(Change tool to Default tool)

G00 Z5.000000
G00 X97.225900 Y106.064100

G01 Z-0.125000 F100.0(Penetrate)
G01 X100.823000 Y109.661600 Z-0.125000 F400.000000
G01 X101.658000 Y110.121800 Z-0.125000
G01 X101.968000 Y110.175000 Z-0.125000
G01 X101.931000 Y110.020600 Z-0.125000
G01 X97.129800 Y105.219800 Z-0.125000
G01 X96.756100 Y104.471900 Z-0.125000
G01 X96.762300 Y104.220800 Z-0.125000
G01 X96.943700 Y104.285300 Z-0.125000
G01 X102.886000 Y110.227500 Z-0.125000
G01 X103.592000 Y110.559300 Z-0.125000
G01 X103.814000 Y110.524200 Z-0.125000
G01 X103.737000 Y110.329700 Z-0.125000
G01 X96.940600 Y103.533800 Z-0.125000
G01 X96.655600 Y102.874600 Z-0.125000
G01 X96.722700 Y102.684500 Z-0.125000
G01 X96.931800 Y102.776700 Z-0.125000
G01 X104.487000 Y110.332000 Z-0.125000
G01 X105.142000 Y110.612600 Z-0.125000
G01 X105.329000 Y110.542400 Z-0.125000
G01 X105.235000 Y110.332000 Z-0.125000
G01 X96.931900 Y102.028400 Z-0.125000
G01 X96.651200 Y101.373600 Z-0.125000
G01 X96.721400 Y101.186500 Z-0.125000
G01 X96.931900 Y101.280000 Z-0.125000
G01 X105.984000 Y110.332000 Z-0.125000
G01 X106.639000 Y110.612600 Z-0.125000
G01 X106.826000 Y110.542400 Z-0.125000
G01 X106.732000 Y110.332000 Z-0.125000
G01 X96.931900 Y100.531700 Z-0.125000
G01 X96.651200 Y99.876800 Z-0.125000
G01 X96.721400 Y99.689800 Z-0.125000
G01 X96.931900 Y99.783300 Z-0.125000
G01 X107.481000 Y110.332000 Z-0.125000
G01 X108.135000 Y110.612600 Z-0.125000
G01 X108.322000 Y110.542400 Z-0.125000
G01 X108.229000 Y110.332000 Z-0.125000
G01 X96.931900 Y99.034900 Z-0.125000
G01 X96.651200 Y98.380100 Z-0.125000
G01 X96.721400 Y98.193000 Z-0.125000
G01 X96.931900 Y98.286600 Z-0.125000
G01 X101.765000 Y103.119900 Z-0.125000
G01 X101.970000 Y103.207800 Z-0.125000
G01 X102.028000 Y103.008300 Z-0.125000
G01 X101.729000 Y102.335500 Z-0.125000
G01 X96.931900 Y97.538200 Z-0.125000
G01 X96.651200 Y96.883400 Z-0.125000
G01 X96.721400 Y96.696300 Z-0.125000
G01 X96.931900 Y96.789900 Z-0.125000
G01 X101.729000 Y101.587200 Z-0.125000
G01 X101.940000 Y101.680700 Z-0.125000
G01 X102.010000 Y101.493600 Z-0.125000
G01 X101.729000 Y100.838800 Z-0.125000
G01 X96.931900 Y96.041500 Z-0.125000
G01 X96.654000 Y95.389500 Z-0.125000
G01 X96.726000 Y95.204300 Z-0.125000
G01 X96.937400 Y95.298700 Z-0.125000
G01 X101.729000 Y100.090400 Z-0.125000
G01 X101.940000 Y100.184000 Z-0.125000
G01 X102.010000 Y99.996900 Z-0.125000
G01 X101.729000 Y99.342100 Z-0.125000
G01 X96.963200 Y94.576200 Z-0.125000
G01 X96.767400 Y94.263400 Z-0.125000
G01 X96.729400 Y93.968200 Z-0.125000
G01 X96.831800 Y93.813400 Z-0.125000
G01 X97.056900 Y93.921500 Z-0.125000
G01 X101.729000 Y98.593700 Z-0.125000
G01 X101.940000 Y98.687300 Z-0.125000
G01 X102.010000 Y98.500200 Z-0.125000
G01 X101.729000 Y97.845400 Z-0.125000
G01 X97.184400 Y93.300600 Z-0.125000
G01 X96.999700 Y92.999000 Z-0.125000
G01 X96.986400 Y92.728500 Z-0.125000
G01 X97.113400 Y92.598200 Z-0.125000
G01 X97.349700 Y92.717600 Z-0.125000
G01 X101.729000 Y97.097000 Z-0.125000
G01 X101.940000 Y97.190600 Z-0.125000
G01 X102.010000 Y97.003500 Z-0.125000
G01 X101.729000 Y96.348700 Z-0.125000
G01 X97.564000 Y92.183600 Z-0.125000
G01 X97.393100 Y91.895700 Z-0.125000
G01 X97.409800 Y91.655200 Z-0.125000
G01 X97.566900 Y91.555100 Z-0.125000
G01 X97.816900 Y91.688100 Z-0.125000
G01 X101.729000 Y95.600300 Z-0.125000
G01 X101.945000 Y95.699300 Z-0.125000
G01 X102.027000 Y95.524300 Z-0.125000
G01 X101.969000 Y95.208900 Z-0.125000
G01 X101.764000 Y94.887000 Z-0.125000
G01 X98.098600 Y91.221400 Z-0.125000
G01 X97.936600 Y90.942500 Z-0.125000
G01 X97.973000 Y90.721600 Z-0.125000
G01 X98.149800 Y90.641100 Z-0.125000
G01 X98.408700 Y90.783100 Z-0.125000
G01 X101.816000 Y94.190000 Z-0.125000
G01 X102.058000 Y94.315900 Z-0.125000
G01 X102.200000 Y94.199900 Z-0.125000
G01 X102.201000 Y93.943600 Z-0.125000
G01 X102.022000 Y93.648500 Z-0.125000
G01 X98.742400 Y90.368500 Z-0.125000
G01 X98.588000 Y90.097200 Z-0.125000
G01 X98.641400 Y89.893300 Z-0.125000
G01 X98.835000 Y89.829700 Z-0.125000
G01 X99.101700 Y89.979400 Z-0.125000
G01 X102.337000 Y93.214800 Z-0.125000
G01 X102.614000 Y93.374800 Z-0.125000
G01 X102.830000 Y93.333800 Z-0.125000
G01 X102.906000 Y93.152500 Z-0.125000
G01 X102.762000 Y92.891500 Z-0.125000
G01 X99.490900 Y89.620300 Z-0.125000
G01 X99.346000 Y89.358400 Z-0.125000
G01 X99.420000 Y89.175200 Z-0.125000
G01 X99.634300 Y89.132300 Z-0.125000
G01 X99.910300 Y89.291300 Z-0.125000
G01 X103.298000 Y92.679300 Z-0.125000
G01 X103.611000 Y92.874700 Z-0.125000
G01 X103.905000 Y92.911600 Z-0.125000
G01 X104.059000 Y92.808200 Z-0.125000
G01 X103.950000 Y92.582600 Z-0.125000
G01 X100.361000 Y88.993400 Z-0.125000
G01 X100.224000 Y88.740300 Z-0.125000
G01 X100.318000 Y88.576300 Z-0.125000
G01 X100.551000 Y88.552600 Z-0.125000
G01 X100.836000 Y88.720500 Z-0.125000
G01 X104.692000 Y92.575900 Z-0.125000
G01 X105.346000 Y92.856500 Z-0.125000
G01 X105.533000 Y92.786300 Z-0.125000
G01 X105.440000 Y92.575900 Z-0.125000
G01 X101.345000 Y88.480600 Z-0.125000
G01 X101.219000 Y88.237600 Z-0.125000
G01 X101.334000 Y88.095800 Z-0.125000
G01 X101.590000 Y88.094400 Z-0.125000
G01 X101.885000 Y88.272300 Z-0.125000
G01 X106.188000 Y92.575900 Z-0.125000
G01 X106.843000 Y92.856500 Z-0.125000
G01 X107.030000 Y92.786300 Z-0.125000
G01 X106.937000 Y92.575900 Z-0.125000
G01 X102.460000 Y88.099100 Z-0.125000
G01 X102.344000 Y87.866200 Z-0.125000
G01 X102.482000 Y87.746700 Z-0.125000
G01 X102.760000 Y87.767600 Z-0.125000
G01 X103.065000 Y87.955600 Z-0.125000
G01 X107.685000 Y92.575900 Z-0.125000
G01 X108.340000 Y92.856500 Z-0.125000
G01 X108.527000 Y92.786300 Z-0.125000
G01 X108.433000 Y92.575900 Z-0.125000
G01 X103.704000 Y87.846500 Z-0.125000
G01 X103.601000 Y87.626300 Z-0.125000
G01 X103.766000 Y87.534800 Z-0.125000
G01 X104.072000 Y87.583600 Z-0.125000
G01 X104.390000 Y87.784400 Z-0.125000
G01 X109.182000 Y92.575900 Z-0.125000
G01 X109.836000 Y92.856500 Z-0.125000
G01 X110.024000 Y92.786300 Z-0.125000
G01 X109.930000 Y92.575900 Z-0.125000
G01 X105.133000 Y87.778600 Z-0.125000
G01 X105.039000 Y87.568100 Z-0.125000
G01 X105.226000 Y87.498000 Z-0.125000
G01 X105.881000 Y87.778600 Z-0.125000
G01 X110.678000 Y92.575900 Z-0.125000
G01 X111.333000 Y92.856500 Z-0.125000
G01 X111.520000 Y92.786300 Z-0.125000
G01 X111.427000 Y92.575900 Z-0.125000
G01 X106.629000 Y87.778600 Z-0.125000
G01 X106.536000 Y87.568100 Z-0.125000
G01 X106.723000 Y87.498000 Z-0.125000
G01 X107.378000 Y87.778600 Z-0.125000
G01 X112.175000 Y92.575900 Z-0.125000
G01 X112.830000 Y92.856500 Z-0.125000
G01 X113.017000 Y92.786300 Z-0.125000
G01 X112.923000 Y92.575900 Z-0.125000
G01 X108.126000 Y87.778600 Z-0.125000
G01 X108.033000 Y87.568100 Z-0.125000
G01 X108.220000 Y87.498000 Z-0.125000
G01 X108.875000 Y87.778600 Z-0.125000
G01 X113.672000 Y92.575900 Z-0.125000
G01 X114.340000 Y92.870200 Z-0.125000
G01 X114.537000 Y92.809500 Z-0.125000
G01 X114.448000 Y92.603300 Z-0.125000
G01 X109.623000 Y87.778600 Z-0.125000
G01 X109.529000 Y87.568100 Z-0.125000
G01 X109.716000 Y87.498000 Z-0.125000
G01 X110.371000 Y87.778600 Z-0.125000
G01 X115.676000 Y93.083100 Z-0.125000
G00 Z5.000000

(End cutting path id: path732)


(Start cutting path id: path732)
(Change tool to Default tool)

G00 Z5.000000
G00 X122.429000 Y95.259700

G01 Z-0.125000 F100.0(Penetrate)
G01 X122.337000 Y93.880900 Z-0.125000 F400.000000
G01 X122.061000 Y92.642800 Z-0.125000
G01 X121.634000 Y91.561400 Z-0.125000
G01 X121.088000 Y90.609800 Z-0.125000
G01 X120.433000 Y89.804200 Z-0.125000
G01 X119.682000 Y89.117500 Z-0.125000
G01 X117.995000 Y88.122600 Z-0.125000
G01 X116.221000 Y87.538700 Z-0.125000
G01 X114.535000 Y87.365700 Z-0.125000
G01 X104.391000 Y87.365700 Z-0.125000
G01 X103.169000 Y87.468400 Z-0.125000
G01 X101.839000 Y87.776600 Z-0.125000
G01 X100.504000 Y88.317300 Z-0.125000
G01 X99.265600 Y89.117500 Z-0.125000
G01 X98.189700 Y90.204300 Z-0.125000
G01 X97.297500 Y91.561400 Z-0.125000
G01 X96.713600 Y93.242900 Z-0.125000
G01 X96.518900 Y95.259700 Z-0.125000
G01 X96.518900 Y102.872500 Z-0.125000
G01 X96.713600 Y104.867600 Z-0.125000
G01 X97.297500 Y106.527500 Z-0.125000
G01 X98.189700 Y107.895500 Z-0.125000
G01 X99.265600 Y108.971400 Z-0.125000
G01 X100.504000 Y109.787900 Z-0.125000
G01 X101.839000 Y110.334000 Z-0.125000
G01 X103.169000 Y110.642200 Z-0.125000
G01 X104.391000 Y110.744900 Z-0.125000
G01 X114.535000 Y110.744900 Z-0.125000
G01 X116.535000 Y110.550200 Z-0.125000
G01 X118.211000 Y109.966300 Z-0.125000
G01 X119.579000 Y109.085000 Z-0.125000
G01 X120.655000 Y107.998200 Z-0.125000
G01 X121.455000 Y106.776300 Z-0.125000
G01 X121.996000 Y105.446200 Z-0.125000
G01 X122.320000 Y104.110700 Z-0.125000
G01 X122.429000 Y102.872500 Z-0.125000
G01 X122.429000 Y95.259700 Z-0.125000
G00 Z5.000000

(End cutting path id: path732)


(Start cutting path id: path732)
(Change tool to Default tool)

G00 Z5.000000
G00 X116.805000 Y102.829300

G01 Z-0.125000 F100.0(Penetrate)
G01 X116.659000 Y103.845700 Z-0.125000 F400.000000
G01 X116.221000 Y104.559500 Z-0.125000
G01 X115.508000 Y104.981200 Z-0.125000
G01 X114.535000 Y105.121800 Z-0.125000
G01 X104.435000 Y105.121800 Z-0.125000
G01 X103.445000 Y104.975800 Z-0.125000
G01 X102.726000 Y104.537800 Z-0.125000
G01 X102.288000 Y103.840300 Z-0.125000
G01 X102.142000 Y102.872500 Z-0.125000
G01 X102.142000 Y95.259700 Z-0.125000
G01 X102.288000 Y94.286400 Z-0.125000
G01 X102.726000 Y93.572700 Z-0.125000
G01 X103.445000 Y93.134800 Z-0.125000
G01 X104.435000 Y92.988800 Z-0.125000
G01 X114.535000 Y92.988800 Z-0.125000
G01 X115.535000 Y93.134800 Z-0.125000
G01 X116.243000 Y93.572700 Z-0.125000
G01 X116.665000 Y94.286400 Z-0.125000
G01 X116.805000 Y95.259700 Z-0.125000
G01 X116.805000 Y102.829300 Z-0.125000
G00 Z5.000000

(End cutting path id: path732)


(Start cutting path id: path732)
(Change tool to Default tool)

G00 Z5.000000
G00 X128.412000 Y107.315600

G01 Z-0.125000 F100.0(Penetrate)
G01 X130.209000 Y109.113100 Z-0.125000 F400.000000
G00 Z5.000000

(End cutting path id: path732)


(Start cutting path id: path732)
(Change tool to Default tool)

G00 Z5.000000
G00 X131.884000 Y110.039900

G01 Z-0.125000 F100.0(Penetrate)
G01 X127.948000 Y106.104000 Z-0.125000 F400.000000
G01 X127.538000 Y105.319400 Z-0.125000
G01 X127.519000 Y105.043000 Z-0.125000
G01 X127.689000 Y105.096000 Z-0.125000
G01 X132.646000 Y110.052900 Z-0.125000
G01 X133.394000 Y110.426800 Z-0.125000
G01 X133.645000 Y110.420800 Z-0.125000
G01 X133.581000 Y110.239500 Z-0.125000
G01 X127.544000 Y104.203100 Z-0.125000
G01 X127.239000 Y103.524000 Z-0.125000
G01 X127.293000 Y103.320200 Z-0.125000
G01 X127.495000 Y103.406100 Z-0.125000
G01 X134.413000 Y110.323400 Z-0.125000
G01 X135.072000 Y110.608300 Z-0.125000
G01 X135.262000 Y110.541100 Z-0.125000
G01 X135.170000 Y110.332000 Z-0.125000
G01 X127.491000 Y102.653700 Z-0.125000
G01 X127.211000 Y101.998900 Z-0.125000
G01 X127.281000 Y101.811800 Z-0.125000
G01 X127.491000 Y101.905300 Z-0.125000
G01 X135.918000 Y110.332000 Z-0.125000
G01 X136.573000 Y110.612600 Z-0.125000
G01 X136.760000 Y110.542400 Z-0.125000
G01 X136.666000 Y110.332000 Z-0.125000
G01 X127.491000 Y101.157000 Z-0.125000
G01 X127.211000 Y100.502200 Z-0.125000
G01 X127.281000 Y100.315100 Z-0.125000
G01 X127.491000 Y100.408600 Z-0.125000
G01 X137.415000 Y110.332000 Z-0.125000
G01 X138.070000 Y110.612600 Z-0.125000
G01 X138.257000 Y110.542400 Z-0.125000
G01 X138.163000 Y110.332000 Z-0.125000
G01 X127.491000 Y99.660300 Z-0.125000
G01 X127.211000 Y99.005500 Z-0.125000
G01 X127.281000 Y98.818400 Z-0.125000
G01 X127.491000 Y98.911900 Z-0.125000
G01 X138.911000 Y110.332000 Z-0.125000
G01 X139.566000 Y110.612600 Z-0.125000
G01 X139.753000 Y110.542400 Z-0.125000
G01 X139.660000 Y110.332000 Z-0.125000
G01 X134.830000 Y105.501700 Z-0.125000
G01 X134.741000 Y105.296400 Z-0.125000
G01 X134.940000 Y105.237600 Z-0.125000
G01 X135.611000 Y105.534700 Z-0.125000
G01 X140.408000 Y110.332000 Z-0.125000
G01 X141.063000 Y110.612600 Z-0.125000
G01 X141.250000 Y110.542400 Z-0.125000
G01 X141.157000 Y110.332000 Z-0.125000
G01 X136.359000 Y105.534700 Z-0.125000
G01 X136.266000 Y105.324200 Z-0.125000
G01 X136.453000 Y105.254100 Z-0.125000
G01 X137.108000 Y105.534700 Z-0.125000
G01 X141.905000 Y110.332000 Z-0.125000
G01 X142.560000 Y110.612600 Z-0.125000
G01 X142.747000 Y110.542400 Z-0.125000
G01 X142.653000 Y110.332000 Z-0.125000
G01 X137.856000 Y105.534700 Z-0.125000
G01 X137.762000 Y105.324200 Z-0.125000
G01 X137.949000 Y105.254100 Z-0.125000
G01 X138.604000 Y105.534700 Z-0.125000
G01 X143.402000 Y110.332000 Z-0.125000
G01 X144.056000 Y110.612600 Z-0.125000
G01 X144.243000 Y110.542400 Z-0.125000
G01 X144.150000 Y110.332000 Z-0.125000
G01 X139.353000 Y105.534700 Z-0.125000
G01 X139.259000 Y105.324200 Z-0.125000
G01 X139.446000 Y105.254100 Z-0.125000
G01 X140.101000 Y105.534700 Z-0.125000
G01 X144.898000 Y110.332000 Z-0.125000
G01 X145.553000 Y110.612600 Z-0.125000
G01 X145.740000 Y110.542400 Z-0.125000
G01 X145.647000 Y110.332000 Z-0.125000
G01 X140.849000 Y105.534700 Z-0.125000
G01 X140.756000 Y105.324200 Z-0.125000
G01 X140.943000 Y105.254100 Z-0.125000
G01 X141.598000 Y105.534700 Z-0.125000
G01 X146.395000 Y110.332000 Z-0.125000
G01 X147.050000 Y110.612600 Z-0.125000
G01 X147.237000 Y110.542400 Z-0.125000
G01 X147.143000 Y110.332000 Z-0.125000
G01 X142.346000 Y105.534700 Z-0.125000
G01 X142.253000 Y105.324200 Z-0.125000
G01 X142.440000 Y105.254100 Z-0.125000
G01 X143.094000 Y105.534700 Z-0.125000
G01 X147.255000 Y109.695100 Z-0.125000
G01 X147.465000 Y109.788600 Z-0.125000
G01 X147.535000 Y109.601500 Z-0.125000
G01 X147.255000 Y108.946700 Z-0.125000
G01 X143.843000 Y105.534700 Z-0.125000
G01 X143.749000 Y105.324200 Z-0.125000
G01 X143.936000 Y105.254100 Z-0.125000
G01 X144.591000 Y105.534700 Z-0.125000
G01 X147.255000 Y108.198400 Z-0.125000
G01 X147.465000 Y108.291900 Z-0.125000
G01 X147.535000 Y108.104800 Z-0.125000
G01 X147.255000 Y107.450000 Z-0.125000
G01 X145.339000 Y105.534700 Z-0.125000
G01 X145.246000 Y105.324200 Z-0.125000
G01 X145.433000 Y105.254100 Z-0.125000
G01 X146.088000 Y105.534700 Z-0.125000
G01 X147.255000 Y106.701700 Z-0.125000
G01 X147.465000 Y106.795200 Z-0.125000
G01 X147.535000 Y106.608100 Z-0.125000
G01 X147.255000 Y105.953300 Z-0.125000
G01 X146.671000 Y105.369800 Z-0.125000
G01 X146.701000 Y105.283000 Z-0.125000
G01 X146.930000 Y105.254100 Z-0.125000
G01 X147.420000 Y105.369800 Z-0.125000
G01 X147.535000 Y105.485600 Z-0.125000
G00 Z5.000000

(End cutting path id: path732)


(Start cutting path id: path732)
(Change tool to Default tool)

G00 Z5.000000
G00 X147.668000 Y105.121800

G01 Z-0.125000 F100.0(Penetrate)
G01 X135.016000 Y105.121800 Z-0.125000 F400.000000
G01 X134.010000 Y104.975800 Z-0.125000
G01 X133.286000 Y104.537800 Z-0.125000
G01 X132.848000 Y103.840300 Z-0.125000
G01 X132.702000 Y102.872500 Z-0.125000
G01 X132.702000 Y87.365700 Z-0.125000
G01 X127.078000 Y87.365700 Z-0.125000
G01 X127.078000 Y102.872500 Z-0.125000
G01 X127.170000 Y104.245900 Z-0.125000
G01 X127.446000 Y105.467800 Z-0.125000
G01 X127.873000 Y106.543800 Z-0.125000
G01 X128.419000 Y107.479100 Z-0.125000
G01 X129.090000 Y108.295600 Z-0.125000
G01 X129.847000 Y108.971400 Z-0.125000
G01 X131.512000 Y109.987900 Z-0.125000
G01 X133.286000 Y110.550200 Z-0.125000
G01 X134.972000 Y110.744900 Z-0.125000
G01 X147.668000 Y110.744900 Z-0.125000
G01 X147.668000 Y105.121800 Z-0.125000
G00 Z5.000000

(End cutting path id: path732)


(Start cutting path id: path732)
(Change tool to Default tool)

G00 Z5.000000
G00 X132.631000 Y103.303600

G01 Z-0.125000 F100.0(Penetrate)
G01 X127.491000 Y98.163600 Z-0.125000 F400.000000
G01 X127.211000 Y97.508700 Z-0.125000
G01 X127.281000 Y97.321700 Z-0.125000
G01 X127.491000 Y97.415200 Z-0.125000
G01 X132.289000 Y102.212500 Z-0.125000
G01 X132.499000 Y102.306000 Z-0.125000
G01 X132.569000 Y102.118900 Z-0.125000
G01 X132.289000 Y101.464100 Z-0.125000
G01 X127.491000 Y96.666800 Z-0.125000
G01 X127.211000 Y96.012000 Z-0.125000
G01 X127.281000 Y95.824900 Z-0.125000
G01 X127.491000 Y95.918500 Z-0.125000
G01 X132.289000 Y100.715800 Z-0.125000
G01 X132.499000 Y100.809300 Z-0.125000
G01 X132.569000 Y100.622200 Z-0.125000
G01 X132.289000 Y99.967400 Z-0.125000
G01 X127.491000 Y95.170100 Z-0.125000
G01 X127.211000 Y94.515300 Z-0.125000
G01 X127.281000 Y94.328200 Z-0.125000
G01 X127.491000 Y94.421800 Z-0.125000
G01 X132.289000 Y99.219100 Z-0.125000
G01 X132.499000 Y99.312600 Z-0.125000
G01 X132.569000 Y99.125500 Z-0.125000
G01 X132.289000 Y98.470700 Z-0.125000
G01 X127.491000 Y93.673400 Z-0.125000
G01 X127.211000 Y93.018600 Z-0.125000
G01 X127.281000 Y92.831500 Z-0.125000
G01 X127.491000 Y92.925100 Z-0.125000
G01 X132.289000 Y97.722300 Z-0.125000
G01 X132.499000 Y97.815900 Z-0.125000
G01 X132.569000 Y97.628800 Z-0.125000
G01 X132.289000 Y96.974000 Z-0.125000
G01 X127.491000 Y92.176700 Z-0.125000
G01 X127.211000 Y91.521900 Z-0.125000
G01 X127.281000 Y91.334800 Z-0.125000
G01 X127.491000 Y91.428400 Z-0.125000
G01 X132.289000 Y96.225600 Z-0.125000
G01 X132.499000 Y96.319200 Z-0.125000
G01 X132.569000 Y96.132100 Z-0.125000
G01 X132.289000 Y95.477300 Z-0.125000
G01 X127.491000 Y90.680000 Z-0.125000
G01 X127.211000 Y90.025200 Z-0.125000
G01 X127.281000 Y89.838100 Z-0.125000
G01 X127.491000 Y89.931700 Z-0.125000
G01 X132.289000 Y94.728900 Z-0.125000
G01 X132.499000 Y94.822500 Z-0.125000
G01 X132.569000 Y94.635400 Z-0.125000
G01 X132.289000 Y93.980600 Z-0.125000
G01 X127.491000 Y89.183300 Z-0.125000
G01 X127.211000 Y88.528500 Z-0.125000
G01 X127.281000 Y88.341400 Z-0.125000
G01 X127.491000 Y88.434900 Z-0.125000
G01 X132.289000 Y93.232200 Z-0.125000
G01 X132.499000 Y93.325800 Z-0.125000
G01 X132.569000 Y93.138700 Z-0.125000
G01 X132.289000 Y92.483900 Z-0.125000
G01 X127.583000 Y87.778600 Z-0.125000
G01 X127.490000 Y87.568100 Z-0.125000
G01 X127.677000 Y87.498000 Z-0.125000
G01 X128.332000 Y87.778600 Z-0.125000
G01 X132.289000 Y91.735500 Z-0.125000
G01 X132.499000 Y91.829000 Z-0.125000
G01 X132.569000 Y91.642000 Z-0.125000
G01 X132.289000 Y90.987100 Z-0.125000
G01 X129.080000 Y87.778600 Z-0.125000
G01 X128.987000 Y87.568100 Z-0.125000
G01 X129.174000 Y87.498000 Z-0.125000
G01 X129.828000 Y87.778600 Z-0.125000
G01 X132.289000 Y90.238800 Z-0.125000
G01 X132.499000 Y90.332300 Z-0.125000
G01 X132.569000 Y90.145200 Z-0.125000
G01 X132.289000 Y89.490400 Z-0.125000
G01 X130.577000 Y87.778600 Z-0.125000
G01 X130.483000 Y87.568100 Z-0.125000
G01 X130.670000 Y87.498000 Z-0.125000
G01 X131.325000 Y87.778600 Z-0.125000
G01 X132.289000 Y88.742100 Z-0.125000
G01 X132.499000 Y88.835600 Z-0.125000
G01 X132.569000 Y88.648500 Z-0.125000
G01 X132.289000 Y87.993700 Z-0.125000
G01 X131.793000 Y87.498000 Z-0.125000
G00 Z5.000000

(End cutting path id: path732)


(Start cutting path id: path732)
(Change tool to Default tool)

G00 Z5.000000
G00 X127.072000 Y77.795900

G01 Z-0.125000 F100.0(Penetrate)
G01 X127.263000 Y77.795900 Z-0.125000 F400.000000
G00 Z5.000000

(End cutting path id: path732)


(Start cutting path id: path732)
(Change tool to Default tool)

G00 Z5.000000
G00 X127.337000 Y75.795600

G01 Z-0.125000 F100.0(Penetrate)
G01 X127.432000 Y71.531600 Z-0.125000 F400.000000
G01 X127.633000 Y71.331600 Z-0.125000
G00 Z5.000000

(End cutting path id: path732)


(Start cutting path id: path732)
(Change tool to Default tool)

G00 Z5.000000
G00 X128.802000 Y75.827400

G01 Z-0.125000 F100.0(Penetrate)
G01 X128.834000 Y71.264900 Z-0.125000 F400.000000
G01 X128.802000 Y74.493900 Z-0.125000
G01 X130.036000 Y75.298200 Z-0.125000
G01 X131.232000 Y75.869700 Z-0.125000
G01 X132.004000 Y75.933200 Z-0.125000
G01 X132.565000 Y75.869700 Z-0.125000
G01 X132.935000 Y75.467500 Z-0.125000
G01 X133.200000 Y74.303400 Z-0.125000
G01 X133.168000 Y71.164900 Z-0.125000
G00 Z5.000000

(End cutting path id: path732)


(Start cutting path id: path732)
(Change tool to Default tool)

G00 Z5.000000
G00 X138.830000 Y73.827100

G01 Z-0.125000 F100.0(Penetrate)
G01 X138.132000 Y72.631200 Z-0.125000 F400.000000
G01 X136.873000 Y71.632200 Z-0.125000
G01 X135.497000 Y71.131600 Z-0.125000
G01 X134.534000 Y71.131600 Z-0.125000
G01 X134.237000 Y71.632200 Z-0.125000
G01 X134.639000 Y72.895800 Z-0.125000
G01 X135.634000 Y74.398600 Z-0.125000
G01 X136.767000 Y75.330000 Z-0.125000
G01 X137.497000 Y75.700400 Z-0.125000
G01 X138.238000 Y75.594500 Z-0.125000
G01 X138.830000 Y75.128900 Z-0.125000
G01 X139.000000 Y70.398100 Z-0.125000
G01 X138.873000 Y68.800100 Z-0.125000
G01 X138.502000 Y67.794700 Z-0.125000
G01 X138.037000 Y67.127900 Z-0.125000
G01 X137.603000 Y66.768100 Z-0.125000
G01 X137.031000 Y66.662200 Z-0.125000
G01 X136.597000 Y66.630500 Z-0.125000
G01 X135.401000 Y66.662200 Z-0.125000
G00 Z5.000000

(End cutting path id: path732)


(Start cutting path id: path732)
(Change tool to Default tool)

G00 Z5.000000
G00 X120.469000 Y78.166300

G01 Z-0.125000 F100.0(Penetrate)
G01 X120.532000 Y71.497800 Z-0.125000 F400.000000
G01 X121.030000 Y71.298800 Z-0.125000
G01 X121.898000 Y71.464900 Z-0.125000
G01 X123.199000 Y71.998300 Z-0.125000
G01 X124.798000 Y73.266200 Z-0.125000
G01 X125.433000 Y74.366900 Z-0.125000
G01 X125.665000 Y75.234700 Z-0.125000
G01 X125.464000 Y75.700400 Z-0.125000
G01 X124.967000 Y75.901500 Z-0.125000
G01 X123.803000 Y75.795600 Z-0.125000
G01 X122.766000 Y75.097100 Z-0.125000
G01 X121.633000 Y74.303400 Z-0.125000
G01 X120.607000 Y72.832300 Z-0.125000
G00 Z5.000000

(End cutting path id: path732)


(Start cutting path id: path732)
(Change tool to Default tool)

G00 Z5.000000
G00 X118.437000 Y75.795600

G01 Z-0.125000 F100.0(Penetrate)
G01 X118.532000 Y71.531600 Z-0.125000 F400.000000
G01 X118.733000 Y71.331600 Z-0.125000
G00 Z5.000000

(End cutting path id: path732)


(Start cutting path id: path732)
(Change tool to Default tool)

G00 Z5.000000
G00 X118.172000 Y77.795900

G01 Z-0.125000 F100.0(Penetrate)
G01 X118.363000 Y77.795900 Z-0.125000 F400.000000
G00 Z5.000000

(End cutting path id: path732)


(Start cutting path id: path732)
(Change tool to Default tool)

G00 Z5.000000
G00 X112.098000 Y76.028500

G01 Z-0.125000 F100.0(Penetrate)
G01 X111.971000 Y71.232100 Z-0.125000 F400.000000
G01 X112.299000 Y73.933000 Z-0.125000
G01 X113.103000 Y74.970100 Z-0.125000
G01 X114.130000 Y75.562800 Z-0.125000
G01 X114.966000 Y75.901500 Z-0.125000
G01 X115.336000 Y75.933200 Z-0.125000
G01 X116.437000 Y75.827400 Z-0.125000
G01 X116.564000 Y75.732100 Z-0.125000
G00 Z5.000000

(End cutting path id: path732)


(Start cutting path id: path732)
(Change tool to Default tool)

G00 Z5.000000
G00 X110.034000 Y75.467500

G01 Z-0.125000 F100.0(Penetrate)
G01 X109.695000 Y75.763900 Z-0.125000 F400.000000
G01 X108.700000 Y75.869700 Z-0.125000
G01 X107.631000 Y75.467500 Z-0.125000
G01 X106.732000 Y74.800800 Z-0.125000
G01 X105.758000 Y73.530800 Z-0.125000
G01 X105.462000 Y72.197300 Z-0.125000
G01 X106.097000 Y71.431100 Z-0.125000
G01 X107.398000 Y71.031600 Z-0.125000
G01 X108.795000 Y71.098200 Z-0.125000
G01 X109.790000 Y71.331600 Z-0.125000
G01 X110.859000 Y71.898900 Z-0.125000
G00 Z5.000000

(End cutting path id: path732)


(Start cutting path id: path732)
(Change tool to Default tool)

G00 Z5.000000
G00 X103.856000 Y105.210300

G01 Z-0.125000 F100.0(Penetrate)
G01 X108.977000 Y110.332000 Z-0.125000 F400.000000
G01 X109.632000 Y110.612600 Z-0.125000
G01 X109.819000 Y110.542400 Z-0.125000
G01 X109.726000 Y110.332000 Z-0.125000
G01 X104.928000 Y105.534700 Z-0.125000
G01 X104.835000 Y105.324200 Z-0.125000
G01 X105.022000 Y105.254100 Z-0.125000
G01 X105.677000 Y105.534700 Z-0.125000
G01 X110.474000 Y110.332000 Z-0.125000
G01 X111.129000 Y110.612600 Z-0.125000
G01 X111.316000 Y110.542400 Z-0.125000
G01 X111.222000 Y110.332000 Z-0.125000
G01 X106.425000 Y105.534700 Z-0.125000
G01 X106.331000 Y105.324200 Z-0.125000
G01 X106.519000 Y105.254100 Z-0.125000
G01 X107.173000 Y105.534700 Z-0.125000
G01 X111.971000 Y110.332000 Z-0.125000
G01 X112.625000 Y110.612600 Z-0.125000
G01 X112.813000 Y110.542400 Z-0.125000
G01 X112.719000 Y110.332000 Z-0.125000
G01 X107.922000 Y105.534700 Z-0.125000
G01 X107.828000 Y105.324200 Z-0.125000
G01 X108.015000 Y105.254100 Z-0.125000
G01 X108.670000 Y105.534700 Z-0.125000
G01 X113.467000 Y110.332000 Z-0.125000
G01 X114.123000 Y110.613000 Z-0.125000
G01 X114.310000 Y110.543100 Z-0.125000
G01 X114.217000 Y110.332800 Z-0.125000
G01 X109.418000 Y105.534700 Z-0.125000
G01 X109.325000 Y105.324200 Z-0.125000
G01 X109.512000 Y105.254100 Z-0.125000
G01 X110.167000 Y105.534700 Z-0.125000
G01 X114.940000 Y110.308300 Z-0.125000
G01 X115.257000 Y110.508400 Z-0.125000
G01 X115.562000 Y110.555600 Z-0.125000
G01 X115.726000 Y110.462500 Z-0.125000
G01 X115.622000 Y110.241600 Z-0.125000
G01 X110.915000 Y105.534700 Z-0.125000
G01 X110.822000 Y105.324200 Z-0.125000
G01 X111.009000 Y105.254100 Z-0.125000
G01 X111.664000 Y105.534700 Z-0.125000
G01 X116.261000 Y110.131900 Z-0.125000
G01 X116.564000 Y110.317900 Z-0.125000
G01 X116.837000 Y110.334200 Z-0.125000
G01 X116.970000 Y110.210200 Z-0.125000
G01 X116.852000 Y109.975200 Z-0.125000
G01 X112.412000 Y105.534700 Z-0.125000
G01 X112.318000 Y105.324200 Z-0.125000
G01 X112.505000 Y105.254100 Z-0.125000
G01 X113.160000 Y105.534700 Z-0.125000
G01 X117.405000 Y109.779300 Z-0.125000
G01 X117.695000 Y109.952800 Z-0.125000
G01 X117.941000 Y109.941600 Z-0.125000
G01 X118.047000 Y109.790100 Z-0.125000
G01 X117.917000 Y109.542700 Z-0.125000
G01 X113.909000 Y105.534700 Z-0.125000
G01 X113.815000 Y105.324200 Z-0.125000
G01 X114.002000 Y105.254100 Z-0.125000
G01 X114.657000 Y105.534700 Z-0.125000
G01 X118.394000 Y109.272200 Z-0.125000
G01 X118.676000 Y109.436500 Z-0.125000
G01 X118.902000 Y109.405100 Z-0.125000
G01 X118.987000 Y109.233500 Z-0.125000
G01 X118.847000 Y108.976800 Z-0.125000
G01 X115.367000 Y105.496800 Z-0.125000
G01 X115.249000 Y105.261500 Z-0.125000
G01 X115.382000 Y105.136800 Z-0.125000
G01 X115.654000 Y105.152400 Z-0.125000
G01 X115.957000 Y105.338100 Z-0.125000
G01 X119.272000 Y108.653100 Z-0.125000
G01 X119.544000 Y108.808400 Z-0.125000
G01 X119.750000 Y108.757200 Z-0.125000
G01 X119.816000 Y108.565700 Z-0.125000
G01 X119.667000 Y108.300000 Z-0.125000
G01 X116.438000 Y105.070800 Z-0.125000
G01 X116.285000 Y104.800300 Z-0.125000
G01 X116.340000 Y104.598300 Z-0.125000
G01 X116.535000 Y104.536500 Z-0.125000
G01 X116.803000 Y104.687100 Z-0.125000
G01 X120.035000 Y107.919400 Z-0.125000
G01 X120.298000 Y108.065200 Z-0.125000
G01 X120.483000 Y107.993100 Z-0.125000
G01 X120.528000 Y107.780600 Z-0.125000
G01 X120.369000 Y107.505500 Z-0.125000
G01 X117.058000 Y104.194300 Z-0.125000
G01 X116.869000 Y103.887600 Z-0.125000
G01 X116.844000 Y103.605700 Z-0.125000
G01 X116.960000 Y103.464100 Z-0.125000
G01 X117.191000 Y103.578300 Z-0.125000
G01 X120.682000 Y107.069100 Z-0.125000
G01 X120.936000 Y107.206800 Z-0.125000
G01 X121.103000 Y107.116600 Z-0.125000
G01 X121.130000 Y106.886200 Z-0.125000
G01 X120.964000 Y106.602900 Z-0.125000
G01 X117.218000 Y102.857600 Z-0.125000
G01 X116.938000 Y102.202800 Z-0.125000
G01 X117.008000 Y102.015700 Z-0.125000
G01 X117.218000 Y102.109300 Z-0.125000
G01 X121.218000 Y106.109200 Z-0.125000
G01 X121.463000 Y106.236800 Z-0.125000
G01 X121.608000 Y106.124700 Z-0.125000
G01 X121.613000 Y105.872300 Z-0.125000
G01 X121.436000 Y105.578900 Z-0.125000
G01 X117.218000 Y101.360900 Z-0.125000
G01 X116.938000 Y100.706100 Z-0.125000
G01 X117.008000 Y100.519000 Z-0.125000
G01 X117.218000 Y100.612600 Z-0.125000
G01 X121.622000 Y105.015900 Z-0.125000
G01 X121.857000 Y105.134600 Z-0.125000
G01 X121.983000 Y105.002900 Z-0.125000
G01 X121.968000 Y104.730900 Z-0.125000
G01 X121.783000 Y104.428600 Z-0.125000
G01 X117.218000 Y99.864200 Z-0.125000
G01 X116.938000 Y99.209400 Z-0.125000
G01 X117.008000 Y99.022300 Z-0.125000
G01 X117.218000 Y99.115900 Z-0.125000
G01 X121.910000 Y103.807000 Z-0.125000
G01 X122.133000 Y103.913700 Z-0.125000
G01 X122.232000 Y103.755700 Z-0.125000
G01 X122.191000 Y103.457200 Z-0.125000
G01 X121.994000 Y103.143000 Z-0.125000
G01 X117.218000 Y98.367500 Z-0.125000
G01 X116.938000 Y97.712700 Z-0.125000
G01 X117.008000 Y97.525600 Z-0.125000
G01 X117.218000 Y97.619200 Z-0.125000
G01 X122.016000 Y102.416400 Z-0.125000
G01 X122.226000 Y102.510000 Z-0.125000
G01 X122.296000 Y102.322900 Z-0.125000
G01 X122.016000 Y101.668100 Z-0.125000
G01 X117.218000 Y96.870800 Z-0.125000
G01 X116.938000 Y96.216000 Z-0.125000
G01 X117.008000 Y96.028900 Z-0.125000
G01 X117.218000 Y96.122500 Z-0.125000
G01 X122.016000 Y100.919700 Z-0.125000
G01 X122.226000 Y101.013300 Z-0.125000
G01 X122.296000 Y100.826200 Z-0.125000
G01 X122.016000 Y100.171400 Z-0.125000
G01 X117.198000 Y95.353400 Z-0.125000
G01 X116.750000 Y94.531600 Z-0.125000
G01 X116.705000 Y94.229700 Z-0.125000
G01 X116.864000 Y94.271000 Z-0.125000
G01 X122.016000 Y99.423000 Z-0.125000
G01 X122.226000 Y99.516600 Z-0.125000
G01 X122.296000 Y99.329500 Z-0.125000
G01 X122.016000 Y98.674700 Z-0.125000
G01 X111.120000 Y87.778600 Z-0.125000
G01 X111.026000 Y87.568100 Z-0.125000
G01 X111.213000 Y87.498000 Z-0.125000
G01 X111.868000 Y87.778600 Z-0.125000
G01 X122.016000 Y97.926300 Z-0.125000
G01 X122.226000 Y98.019900 Z-0.125000
G01 X122.296000 Y97.832800 Z-0.125000
G01 X122.016000 Y97.178000 Z-0.125000
G01 X112.616000 Y87.778600 Z-0.125000
G01 X112.523000 Y87.568100 Z-0.125000
G01 X112.710000 Y87.498000 Z-0.125000
G01 X113.365000 Y87.778600 Z-0.125000
G01 X122.016000 Y96.429600 Z-0.125000
G01 X122.226000 Y96.523100 Z-0.125000
G01 X122.296000 Y96.336100 Z-0.125000
G01 X122.016000 Y95.681200 Z-0.125000
G01 X114.113000 Y87.778600 Z-0.125000
G01 X114.020000 Y87.568100 Z-0.125000
G01 X114.207000 Y87.498000 Z-0.125000
G01 X114.861000 Y87.778600 Z-0.125000
G01 X122.016000 Y94.932900 Z-0.125000
G01 X122.226000 Y95.026500 Z-0.125000
G01 X122.297000 Y94.839700 Z-0.125000
G01 X122.016000 Y94.185200 Z-0.125000
G01 X115.655000 Y87.823600 Z-0.125000
G01 X115.583000 Y87.634500 Z-0.125000
G01 X115.817000 Y87.611200 Z-0.125000
G01 X116.540000 Y87.960000 Z-0.125000
G01 X121.873000 Y93.293400 Z-0.125000
G01 X122.045000 Y93.349000 Z-0.125000
G01 X122.032000 Y93.078400 Z-0.125000
G01 X121.630000 Y92.302200 Z-0.125000
G01 X117.490000 Y88.162000 Z-0.125000
G01 X117.484000 Y88.038700 Z-0.125000
G01 X117.862000 Y88.160400 Z-0.125000
G01 X118.796000 Y88.720200 Z-0.125000
G01 X121.345000 Y91.268500 Z-0.125000
G00 Z5.000000

(End cutting path id: path732)


(Start cutting path id: path732)
(Change tool to Default tool)

G00 Z5.000000
G00 X98.067400 Y107.654000

G01 Z-0.125000 F100.0(Penetrate)
G01 X99.494400 Y109.081100 Z-0.125000 F400.000000
G00 Z5.000000

(End cutting path id: path732)


(Start cutting path id: path732)
(Change tool to Default tool)

G00 Z5.000000
G00 X98.858600 Y132.003300

G01 Z-0.125000 F100.0(Penetrate)
G01 X97.515000 Y132.003300 Z-0.125000 F400.000000
G01 X97.515000 Y137.589500 Z-0.125000
G01 X98.858600 Y137.589500 Z-0.125000
G01 X98.858600 Y132.003300 Z-0.125000
G00 Z5.000000

(End cutting path id: path732)


(Start cutting path id: path732)
(Change tool to Default tool)

G00 Z5.000000
G00 X98.858600 Y138.736700

G01 Z-0.125000 F100.0(Penetrate)
G01 X97.515000 Y138.736700 Z-0.125000 F400.000000
G01 X97.515000 Y139.951100 Z-0.125000
G01 X98.858600 Y139.951100 Z-0.125000
G01 X98.858600 Y138.736700 Z-0.125000
G00 Z5.000000

(End cutting path id: path732)


(Start cutting path id: path732)
(Change tool to Default tool)

G00 Z5.000000
G00 X96.533200 Y139.413700

G01 Z-0.125000 F100.0(Penetrate)
G01 X95.293000 Y132.468400 Z-0.125000 F400.000000
G01 X95.106900 Y132.111800 Z-0.125000
G01 X94.755500 Y131.920600 Z-0.125000
G01 X94.352400 Y131.967100 Z-0.125000
G01 X94.057900 Y132.225500 Z-0.125000
G01 X91.598100 Y136.266600 Z-0.125000
G01 X89.133100 Y132.225500 Z-0.125000
G01 X88.890300 Y131.992900 Z-0.125000
G01 X88.564700 Y131.910300 Z-0.125000
G01 X88.135800 Y132.065300 Z-0.125000
G01 X87.908400 Y132.468400 Z-0.125000
G01 X86.657900 Y139.413700 Z-0.125000
G01 X88.022100 Y139.413700 Z-0.125000
G01 X88.910900 Y134.519900 Z-0.125000
G01 X91.029700 Y137.899500 Z-0.125000
G01 X91.267400 Y138.132100 Z-0.125000
G01 X91.598100 Y138.214800 Z-0.125000
G01 X91.923700 Y138.132100 Z-0.125000
G01 X92.171700 Y137.899500 Z-0.125000
G01 X94.280100 Y134.519900 Z-0.125000
G01 X95.168900 Y139.413700 Z-0.125000
G01 X96.533200 Y139.413700 Z-0.125000
G00 Z5.000000

(End cutting path id: path732)


(Start cutting path id: path732)
(Change tool to Default tool)

G00 Z5.000000
G00 X105.225000 Y136.245900

G01 Z-0.125000 F100.0(Penetrate)
G01 X102.879000 Y136.245900 Z-0.125000 F400.000000
G01 X102.879000 Y132.003300 Z-0.125000
G01 X101.520000 Y132.003300 Z-0.125000
G01 X101.520000 Y136.245900 Z-0.125000
G01 X99.773300 Y136.245900 Z-0.125000
G01 X99.773300 Y137.589500 Z-0.125000
G01 X101.520000 Y137.589500 Z-0.125000
G01 X101.520000 Y139.413700 Z-0.125000
G01 X102.879000 Y139.413700 Z-0.125000
G01 X102.879000 Y137.589500 Z-0.125000
G01 X105.225000 Y137.589500 Z-0.125000
G01 X105.225000 Y136.245900 Z-0.125000
G00 Z5.000000

(End cutting path id: path732)


(Start cutting path id: path732)
(Change tool to Default tool)

G00 Z5.000000
G00 X107.473000 Y132.003300

G01 Z-0.125000 F100.0(Penetrate)
G01 X106.129000 Y132.003300 Z-0.125000 F400.000000
G01 X106.129000 Y139.951100 Z-0.125000
G01 X107.473000 Y139.951100 Z-0.125000
G01 X107.473000 Y132.003300 Z-0.125000
G00 Z5.000000

(End cutting path id: path732)


(Start cutting path id: path732)
(Change tool to Default tool)

G00 Z5.000000
G00 X112.320000 Y132.003300

G01 Z-0.125000 F100.0(Penetrate)
G01 X110.977000 Y132.003300 Z-0.125000 F400.000000
G01 X110.977000 Y135.708500 Z-0.125000
G01 X110.842000 Y136.106400 Z-0.125000
G01 X110.439000 Y136.245900 Z-0.125000
G01 X108.016000 Y136.245900 Z-0.125000
G01 X108.016000 Y137.589500 Z-0.125000
G01 X110.439000 Y137.589500 Z-0.125000
G01 X110.842000 Y137.543000 Z-0.125000
G01 X111.261000 Y137.408600 Z-0.125000
G01 X111.664000 Y137.165700 Z-0.125000
G01 X112.000000 Y136.809200 Z-0.125000
G01 X112.232000 Y136.328600 Z-0.125000
G01 X112.320000 Y135.708500 Z-0.125000
G01 X112.320000 Y132.003300 Z-0.125000
G00 Z5.000000

(End cutting path id: path732)


(Start cutting path id: path732)
(Change tool to Default tool)

G00 Z5.000000
G00 X82.678800 Y136.245900

G01 Z-0.125000 F100.0(Penetrate)
G01 X80.332700 Y136.245900 Z-0.125000 F400.000000
G01 X80.332700 Y132.003300 Z-0.125000
G01 X78.973600 Y132.003300 Z-0.125000
G01 X78.973600 Y136.245900 Z-0.125000
G01 X77.226900 Y136.245900 Z-0.125000
G01 X77.226900 Y137.589500 Z-0.125000
G01 X78.973600 Y137.589500 Z-0.125000
G01 X78.973600 Y139.413700 Z-0.125000
G01 X80.332700 Y139.413700 Z-0.125000
G01 X80.332700 Y137.589500 Z-0.125000
G01 X82.678800 Y137.589500 Z-0.125000
G01 X82.678800 Y136.245900 Z-0.125000
G00 Z5.000000

(End cutting path id: path732)


(Start cutting path id: path732)
(Change tool to Default tool)

G00 Z5.000000
G00 X76.622300 Y137.589500

G01 Z-0.125000 F100.0(Penetrate)
G01 X74.209000 Y134.954000 Z-0.125000 F400.000000
G01 X76.927200 Y132.003300 Z-0.125000
G01 X75.077200 Y132.003300 Z-0.125000
G01 X73.289200 Y133.951500 Z-0.125000
G01 X71.501200 Y132.003300 Z-0.125000
G01 X69.646000 Y132.003300 Z-0.125000
G01 X72.359000 Y134.964300 Z-0.125000
G01 X69.956100 Y137.589500 Z-0.125000
G01 X71.795800 Y137.589500 Z-0.125000
G01 X73.278900 Y135.972000 Z-0.125000
G01 X74.772300 Y137.589500 Z-0.125000
G01 X76.622300 Y137.589500 Z-0.125000
G00 Z5.000000

(End cutting path id: path732)


(Start cutting path id: path732)
(Change tool to Default tool)

G00 Z5.000000
G00 X69.553000 Y135.739500

G01 Z-0.125000 F100.0(Penetrate)
G01 X69.454800 Y135.134900 Z-0.125000 F400.000000
G01 X69.134400 Y134.535400 Z-0.125000
G01 X68.560800 Y134.075500 Z-0.125000
G01 X67.703000 Y133.889500 Z-0.125000
G01 X65.279400 Y133.889500 Z-0.125000
G01 X65.279400 Y135.165900 Z-0.125000
G01 X67.703000 Y135.165900 Z-0.125000
G01 X68.126700 Y135.331200 Z-0.125000
G01 X68.276600 Y135.749800 Z-0.125000
G01 X68.106100 Y136.163200 Z-0.125000
G01 X67.703000 Y136.313100 Z-0.125000
G01 X65.279400 Y136.313100 Z-0.125000
G01 X64.855600 Y136.142500 Z-0.125000
G01 X64.705800 Y135.729100 Z-0.125000
G01 X64.705800 Y133.853300 Z-0.125000
G01 X64.871100 Y133.434700 Z-0.125000
G01 X65.289700 Y133.284800 Z-0.125000
G01 X67.703000 Y133.284800 Z-0.125000
G01 X67.703000 Y132.003300 Z-0.125000
G01 X65.279400 Y132.003300 Z-0.125000
G01 X64.674800 Y132.101500 Z-0.125000
G01 X64.075300 Y132.416700 Z-0.125000
G01 X63.615400 Y132.990300 Z-0.125000
G01 X63.429400 Y133.853300 Z-0.125000
G01 X63.429400 Y135.739500 Z-0.125000
G01 X63.527500 Y136.338900 Z-0.125000
G01 X63.842800 Y136.938400 Z-0.125000
G01 X64.416400 Y137.403400 Z-0.125000
G01 X65.279400 Y137.589500 Z-0.125000
G01 X67.703000 Y137.589500 Z-0.125000
G01 X68.302400 Y137.491300 Z-0.125000
G01 X68.901900 Y137.170900 Z-0.125000
G01 X69.367000 Y136.597300 Z-0.125000
G01 X69.553000 Y135.739500 Z-0.125000
G01 X69.553000 Y135.739500 Z-0.125000
G00 Z5.000000

(End cutting path id: path732)


(Start cutting path id: path732)
(Change tool to Default tool)

G00 Z5.000000
G00 X63.295000 Y138.070100

G01 Z-0.125000 F100.0(Penetrate)
G01 X60.334000 Y138.070100 Z-0.125000 F400.000000
G01 X60.334000 Y132.003300 Z-0.125000
G01 X58.990400 Y132.003300 Z-0.125000
G01 X58.990400 Y138.070100 Z-0.125000
G01 X56.024200 Y138.070100 Z-0.125000
G01 X56.024200 Y139.413700 Z-0.125000
G01 X63.295000 Y139.413700 Z-0.125000
G01 X63.295000 Y138.070100 Z-0.125000
G00 Z5.000000

(End cutting path id: path732)


(Start cutting path id: path732)
(Change tool to Default tool)

G00 Z5.000000
G00 X51.890100 Y131.465800

G01 Z-0.125000 F100.0(Penetrate)
G01 X51.802200 Y130.845700 Z-0.125000 F400.000000
G01 X51.569700 Y130.360000 Z-0.125000
G01 X51.233800 Y130.003400 Z-0.125000
G01 X50.830700 Y129.760500 Z-0.125000
G01 X50.406900 Y129.626200 Z-0.125000
G01 X50.003900 Y129.579700 Z-0.125000
G01 X47.580300 Y129.579700 Z-0.125000
G01 X47.580300 Y130.923200 Z-0.125000
G01 X50.003900 Y130.923200 Z-0.125000
G01 X50.412100 Y131.062800 Z-0.125000
G01 X50.546500 Y131.465800 Z-0.125000
G01 X50.546500 Y135.708500 Z-0.125000
G01 X50.412100 Y136.106400 Z-0.125000
G01 X50.003900 Y136.245900 Z-0.125000
G01 X47.580300 Y136.245900 Z-0.125000
G01 X47.187500 Y136.090900 Z-0.125000
G01 X47.042800 Y135.708500 Z-0.125000
G01 X47.042800 Y133.889500 Z-0.125000
G01 X47.182300 Y133.486400 Z-0.125000
G01 X47.590600 Y133.346900 Z-0.125000
G01 X50.003900 Y133.346900 Z-0.125000
G01 X50.003900 Y132.003300 Z-0.125000
G01 X47.580300 Y132.003300 Z-0.125000
G01 X47.177200 Y132.044600 Z-0.125000
G01 X46.753400 Y132.184100 Z-0.125000
G01 X46.355500 Y132.421900 Z-0.125000
G01 X46.019600 Y132.778400 Z-0.125000
G01 X45.787100 Y133.264200 Z-0.125000
G01 X45.699200 Y133.889500 Z-0.125000
G01 X45.699200 Y135.708500 Z-0.125000
G01 X45.740600 Y136.111500 Z-0.125000
G01 X45.880100 Y136.530100 Z-0.125000
G01 X46.117800 Y136.933200 Z-0.125000
G01 X46.474400 Y137.269100 Z-0.125000
G01 X46.960100 Y137.501600 Z-0.125000
G01 X47.580300 Y137.589500 Z-0.125000
G01 X50.003900 Y137.589500 Z-0.125000
G01 X50.406900 Y137.543000 Z-0.125000
G01 X50.830700 Y137.408600 Z-0.125000
G01 X51.233800 Y137.165700 Z-0.125000
G01 X51.569700 Y136.809200 Z-0.125000
G01 X51.802200 Y136.328600 Z-0.125000
G01 X51.890100 Y135.708500 Z-0.125000
G01 X51.890100 Y131.465800 Z-0.125000
G00 Z5.000000

(End cutting path id: path732)


(Start cutting path id: path732)
(Change tool to Default tool)

G00 Z5.000000
G00 X44.634700 Y132.003300

G01 Z-0.125000 F100.0(Penetrate)
G01 X43.291100 Y132.003300 Z-0.125000 F400.000000
G01 X43.291100 Y135.103900 Z-0.125000
G01 X43.198100 Y135.574100 Z-0.125000
G01 X42.955200 Y135.935800 Z-0.125000
G01 X42.588300 Y136.163200 Z-0.125000
G01 X42.138700 Y136.245900 Z-0.125000
G01 X39.787500 Y136.245900 Z-0.125000
G01 X39.787500 Y132.003300 Z-0.125000
G01 X38.443900 Y132.003300 Z-0.125000
G01 X38.443900 Y136.922900 Z-0.125000
G01 X38.495600 Y137.181200 Z-0.125000
G01 X38.640300 Y137.393100 Z-0.125000
G01 X38.857300 Y137.537800 Z-0.125000
G01 X39.120900 Y137.589500 Z-0.125000
G01 X42.149100 Y137.589500 Z-0.125000
G01 X42.681300 Y137.532600 Z-0.125000
G01 X43.239500 Y137.346600 Z-0.125000
G01 X43.766500 Y137.026200 Z-0.125000
G01 X44.211000 Y136.556000 Z-0.125000
G01 X44.521000 Y135.920300 Z-0.125000
G01 X44.634700 Y135.103900 Z-0.125000
G01 X44.634700 Y132.003300 Z-0.125000
G00 Z5.000000

(End cutting path id: path732)


(Start cutting path id: path732)
(Change tool to Default tool)

G00 Z5.000000
G00 X37.157200 Y132.003300

G01 Z-0.125000 F100.0(Penetrate)
G01 X35.813600 Y132.003300 Z-0.125000 F400.000000
G01 X35.813600 Y137.589500 Z-0.125000
G01 X37.157200 Y137.589500 Z-0.125000
G01 X37.157200 Y132.003300 Z-0.125000
G00 Z5.000000

(End cutting path id: path732)


(Start cutting path id: path732)
(Change tool to Default tool)

G00 Z5.000000
G00 X35.327800 Y137.589500

G01 Z-0.125000 F100.0(Penetrate)
G01 X34.635400 Y136.173600 Z-0.125000 F400.000000
G01 X33.855000 Y134.861000 Z-0.125000
G01 X33.028200 Y133.713800 Z-0.125000
G01 X32.185900 Y132.809400 Z-0.125000
G01 X31.374600 Y132.215100 Z-0.125000
G01 X30.630400 Y132.003300 Z-0.125000
G01 X30.361700 Y132.055000 Z-0.125000
G01 X30.144700 Y132.194500 Z-0.125000
G01 X30.000000 Y132.411500 Z-0.125000
G01 X29.948300 Y132.680200 Z-0.125000
G01 X29.948300 Y135.186500 Z-0.125000
G01 X27.281800 Y132.204800 Z-0.125000
G01 X27.054400 Y132.049800 Z-0.125000
G01 X26.806400 Y132.003300 Z-0.125000
G01 X26.542800 Y132.055000 Z-0.125000
G01 X26.331000 Y132.194500 Z-0.125000
G01 X26.181100 Y132.411500 Z-0.125000
G01 X26.129400 Y132.680200 Z-0.125000
G01 X26.129400 Y137.589500 Z-0.125000
G01 X27.473000 Y137.589500 Z-0.125000
G01 X27.473000 Y134.406200 Z-0.125000
G01 X30.149800 Y137.398300 Z-0.125000
G01 X30.490900 Y137.579200 Z-0.125000
G01 X30.883600 Y137.537800 Z-0.125000
G01 X31.183400 Y137.289800 Z-0.125000
G01 X31.297100 Y136.922900 Z-0.125000
G01 X31.297100 Y133.729300 Z-0.125000
G01 X32.082500 Y134.612900 Z-0.125000
G01 X32.733700 Y135.568900 Z-0.125000
G01 X33.302100 Y136.571500 Z-0.125000
G01 X33.824000 Y137.589500 Z-0.125000
G01 X35.327800 Y137.589500 Z-0.125000
G00 Z5.000000

(End cutting path id: path732)


(Start cutting path id: path732)
(Change tool to Default tool)

G00 Z5.000000
G00 X37.157200 Y138.736700

G01 Z-0.125000 F100.0(Penetrate)
G01 X35.813600 Y138.736700 Z-0.125000 F400.000000
G01 X35.813600 Y139.951100 Z-0.125000
G01 X37.157200 Y139.951100 Z-0.125000
G01 X37.157200 Y138.736700 Z-0.125000
G00 Z5.000000

(End cutting path id: path732)


(Start cutting path id: path732)
(Change tool to Default tool)

G00 Z5.000000
G00 X24.982200 Y133.853300

G01 Z-0.125000 F100.0(Penetrate)
G01 X24.884000 Y133.248700 Z-0.125000 F400.000000
G01 X24.563700 Y132.649200 Z-0.125000
G01 X23.990000 Y132.189300 Z-0.125000
G01 X23.132200 Y132.003300 Z-0.125000
G01 X20.708600 Y132.003300 Z-0.125000
G01 X20.104000 Y132.101500 Z-0.125000
G01 X19.504500 Y132.416700 Z-0.125000
G01 X19.044600 Y132.990300 Z-0.125000
G01 X18.858600 Y133.853300 Z-0.125000
G01 X18.956800 Y134.457900 Z-0.125000
G01 X19.272000 Y135.057300 Z-0.125000
G01 X19.845600 Y135.522400 Z-0.125000
G01 X20.708600 Y135.708500 Z-0.125000
G01 X23.132200 Y135.708500 Z-0.125000
G01 X23.132200 Y134.426900 Z-0.125000
G01 X20.708600 Y134.426900 Z-0.125000
G01 X20.284900 Y134.256400 Z-0.125000
G01 X20.135000 Y133.843000 Z-0.125000
G01 X20.305500 Y133.429500 Z-0.125000
G01 X20.718900 Y133.284900 Z-0.125000
G01 X23.132200 Y133.284900 Z-0.125000
G01 X23.556000 Y133.450200 Z-0.125000
G01 X23.705800 Y133.863600 Z-0.125000
G01 X23.705800 Y135.739500 Z-0.125000
G01 X23.540500 Y136.158100 Z-0.125000
G01 X23.132200 Y136.313100 Z-0.125000
G01 X20.181500 Y136.313100 Z-0.125000
G01 X20.181500 Y137.589500 Z-0.125000
G01 X23.132200 Y137.589500 Z-0.125000
G01 X23.731700 Y137.491300 Z-0.125000
G01 X24.331100 Y137.170900 Z-0.125000
G01 X24.796200 Y136.597300 Z-0.125000
G01 X24.982200 Y135.739500 Z-0.125000
G01 X24.982200 Y133.853300 Z-0.125000
G00 Z5.000000

(End cutting path id: path732)


(Start cutting path id: path732)
(Change tool to Default tool)

G00 Z5.000000
G00 X18.765600 Y136.245900

G01 Z-0.125000 F100.0(Penetrate)
G01 X15.742500 Y136.245900 Z-0.125000 F400.000000
G01 X15.329100 Y136.106400 Z-0.125000
G01 X15.189600 Y135.708500 Z-0.125000
G01 X15.189600 Y132.003300 Z-0.125000
G01 X13.846000 Y132.003300 Z-0.125000
G01 X13.846000 Y135.708500 Z-0.125000
G01 X13.933800 Y136.328600 Z-0.125000
G01 X14.166400 Y136.809200 Z-0.125000
G01 X14.507400 Y137.165700 Z-0.125000
G01 X14.905400 Y137.408600 Z-0.125000
G01 X15.329100 Y137.543000 Z-0.125000
G01 X15.732200 Y137.589500 Z-0.125000
G01 X18.765600 Y137.589500 Z-0.125000
G01 X18.765600 Y136.245900 Z-0.125000
G00 Z5.000000

(End cutting path id: path732)


(Start cutting path id: path732)
(Change tool to Default tool)

G00 Z5.000000
G00 X12.734900 Y135.103900

G01 Z-0.125000 F100.0(Penetrate)
G01 X12.497200 Y133.858500 Z-0.125000 F400.000000
G01 X11.851300 Y132.876600 Z-0.125000
G01 X10.869400 Y132.235800 Z-0.125000
G01 X9.634370 Y132.003300 Z-0.125000
G01 X6.006700 Y132.003300 Z-0.125000
G01 X5.737980 Y132.055000 Z-0.125000
G01 X5.520940 Y132.194500 Z-0.125000
G01 X5.381420 Y132.411500 Z-0.125000
G01 X5.329740 Y132.680200 Z-0.125000
G01 X5.329740 Y138.736700 Z-0.125000
G01 X5.381420 Y139.000200 Z-0.125000
G01 X5.520940 Y139.217300 Z-0.125000
G01 X5.737980 Y139.362000 Z-0.125000
G01 X6.006700 Y139.413700 Z-0.125000
G01 X9.634370 Y139.413700 Z-0.125000
G01 X10.869400 Y139.181100 Z-0.125000
G01 X11.851300 Y138.535200 Z-0.125000
G01 X12.497200 Y137.553300 Z-0.125000
G01 X12.734900 Y136.313100 Z-0.125000
G01 X12.734900 Y135.103900 Z-0.125000
G00 Z5.000000

(End cutting path id: path732)


(Start cutting path id: path732)
(Change tool to Default tool)

G00 Z5.000000
G00 X11.391400 Y136.313100

G01 Z-0.125000 F100.0(Penetrate)
G01 X11.262200 Y137.031400 Z-0.125000 F400.000000
G01 X10.905600 Y137.584300 Z-0.125000
G01 X10.347500 Y137.940900 Z-0.125000
G01 X9.634370 Y138.070100 Z-0.125000
G01 X6.673320 Y138.070100 Z-0.125000
G01 X6.673320 Y133.346900 Z-0.125000
G01 X9.634370 Y133.346900 Z-0.125000
G01 X10.347500 Y133.470900 Z-0.125000
G01 X10.905600 Y133.827400 Z-0.125000
G01 X11.262200 Y134.380400 Z-0.125000
G01 X11.391400 Y135.103900 Z-0.125000
G01 X11.391400 Y136.313100 Z-0.125000
G00 Z5.000000

(End cutting path id: path732)


(Start cutting path id: path732)
(Change tool to Default tool)

G00 Z5.000000
G00 X4.864570 Y117.724100

G01 Z-0.125000 F100.0(Penetrate)
G01 X5.126040 Y117.985600 Z-0.125000 F400.000000
G01 X5.761680 Y118.247100 Z-0.125000
G01 X5.953560 Y118.181700 Z-0.125000
G01 X5.874390 Y117.985600 Z-0.125000
G01 X5.145210 Y117.256400 Z-0.125000
G01 X4.864570 Y116.601600 Z-0.125000
G01 X4.934730 Y116.414500 Z-0.125000
G01 X5.145210 Y116.508100 Z-0.125000
G01 X6.603580 Y117.966400 Z-0.125000
G01 X7.258390 Y118.247100 Z-0.125000
G01 X7.445470 Y118.176900 Z-0.125000
G01 X7.351930 Y117.966400 Z-0.125000
G01 X5.145210 Y115.759700 Z-0.125000
