%
(Header)
(Generated by gcodetools from Inkscape.)
(Using default header. To add your own header create file "header" in the output dir.)
M3
(Header end.)
G21 (All units in mm)

(Start cutting path id: path1488)
(Change tool to Default tool)

G00 Z5.000000
G00 X80.064495 Y76.722416

G01 Z-0.125000 F100.0(Penetrate)
G01 X77.567054 Y74.224980 Z-0.125000 F400.000000
G03 X77.076805 Y73.360548 Z-0.125000 I1.319699 J-1.319682
G03 X77.315568 Y73.225136 Z-0.125000 I0.138083 J-0.034731
G01 X80.830357 Y76.739925 Z-0.125000
G02 X81.533444 Y77.068835 Z-0.125000 I0.805118 J-0.805118
G02 X81.652697 Y76.813913 Z-0.125000 I0.013413 J-0.149080
G01 X77.240365 Y72.401580 Z-0.125000
G03 X77.010644 Y71.797684 Z-0.125000 I0.557844 J-0.557844
G03 X77.281717 Y71.694565 Z-0.125000 I0.158680 J0.009279
G01 X82.358250 Y76.771098 Z-0.125000
G02 X82.897477 Y76.936147 Z-0.125000 I0.424940 J-0.424940
G02 X82.985167 Y76.649658 Z-0.125000 I-0.032261 J-0.166539
G01 X77.392713 Y71.057204 Z-0.125000
G03 X77.283778 Y70.574093 Z-0.125000 I0.327738 J-0.327738
G03 X77.589110 Y70.505243 Z-0.125000 I0.174423 J0.062062
G01 X83.547780 Y76.463918 Z-0.125000
G02 X84.003919 Y76.545878 Z-0.125000 I0.287002 J-0.287002
G02 X84.060911 Y76.228692 Z-0.125000 I-0.081785 J-0.178409
G01 X77.825978 Y69.993763 Z-0.125000
G03 X77.773851 Y69.567460 Z-0.125000 I0.246477 J-0.246477
G03 X78.107263 Y69.526690 Z-0.125000 I0.182649 J0.109995
G01 X84.529950 Y75.949378 Z-0.125000
G02 X84.931371 Y75.976622 Z-0.125000 I0.216317 J-0.216317
G02 X84.955153 Y75.626228 Z-0.125000 I-0.141036 J-0.185577
G01 X78.429832 Y69.100907 Z-0.125000
G03 X78.423862 Y68.720767 Z-0.125000 I0.193150 J-0.193150
G03 X78.792256 Y68.714978 Z-0.125000 I0.187002 J0.175610
G01 X85.340534 Y75.263256 Z-0.125000
G02 X85.701061 Y75.249606 Z-0.125000 I0.173936 J-0.173936
G02 X85.686335 Y74.860705 Z-0.125000 I-0.217115 J-0.186509
G01 X79.194226 Y68.368591 Z-0.125000
G03 X79.225191 Y68.025381 Z-0.125000 I0.158685 J-0.158685
G03 X79.636474 Y68.062485 Z-0.125000 I0.183410 J0.264981
G01 X85.991807 Y74.417818 Z-0.125000
G02 X86.318435 Y74.370271 Z-0.125000 I0.145583 J-0.145583
G02 X86.254686 Y73.932345 Z-0.125000 I-0.325447 J-0.176227
G01 X80.123225 Y67.800879 Z-0.125000
G03 X80.186611 Y67.490089 Z-0.125000 I0.134438 J-0.134440
G03 X80.656654 Y67.585956 Z-0.125000 I0.162526 J0.403385
G01 X86.471009 Y73.400310 Z-0.125000
G02 X86.770763 Y73.325891 Z-0.125000 I0.127469 J-0.127469
G02 X86.647185 Y72.828139 Z-0.125000 I-0.475051 J-0.146274
G01 X81.242626 Y67.423580 Z-0.125000
G03 X81.336623 Y67.143398 Z-0.125000 I0.116705 J-0.116705
G03 X81.899709 Y67.332305 Z-0.125000 I0.091718 J0.660276
G01 X86.724287 Y72.156883 Z-0.125000
G02 X86.988817 Y72.047196 Z-0.125000 I0.109572 J-0.109572
G02 X86.723803 Y71.407944 Z-0.125000 I-0.905101 J0.000668
G01 X82.647675 Y67.331821 Z-0.125000
G03 X82.768989 Y67.078958 Z-0.125000 I0.105106 J-0.105106
G03 X83.488236 Y67.424030 Z-0.125000 I-0.131133 J1.195441
G01 X86.571067 Y70.506861 Z-0.125000
G02 X86.805060 Y70.366675 Z-0.125000 I0.099424 J-0.099424
G02 X86.245893 Y69.433329 Z-0.125000 I-2.141036 J0.648522
G01 X84.408228 Y67.595664 Z-0.125000
G00 Z5.000000

(End cutting path id: path1488)


(Start cutting path id: path1488)
(Change tool to Default tool)

G00 Z5.000000
G00 X86.954758 Y63.886391

G01 Z-0.125000 F100.0(Penetrate)
G01 X78.880819 Y55.812452 Z-0.125000 F400.000000
G00 Z5.000000

(End cutting path id: path1488)


(Start cutting path id: path1488)
(Change tool to Default tool)

G00 Z5.000000
G00 X76.591295 Y61.755061

G01 Z-0.125000 F100.0(Penetrate)
G01 X77.411980 Y62.575745 Z-0.125000 F400.000000
G02 X78.125736 Y62.915322 Z-0.125000 I0.834841 J-0.834841
G02 X78.246363 Y62.661775 Z-0.125000 I0.015280 J-0.148199
G01 X76.491940 Y60.907352 Z-0.125000
G03 X76.071186 Y60.112420 Z-0.125000 I1.080969 J-1.080969
G03 X76.315860 Y59.982915 Z-0.125000 I0.142267 J-0.027098
G01 X78.883129 Y62.550184 Z-0.125000
G02 X79.393466 Y62.686344 Z-0.125000 I0.372797 J-0.372797
G02 X79.472272 Y62.390974 Z-0.125000 I-0.046073 J-0.170491
G01 X76.326513 Y59.245215 Z-0.125000
G03 X76.154336 Y58.698861 Z-0.125000 I0.438493 J-0.438493
G03 X76.438850 Y58.609200 Z-0.125000 I0.165603 J0.029250
G01 X80.103203 Y62.273547 Z-0.125000
G02 X80.660228 Y62.456399 Z-0.125000 I0.459296 J-0.459296
G02 X80.752703 Y62.174695 Z-0.125000 I-0.024995 J-0.164236
G01 X76.597852 Y58.019848 Z-0.125000
G03 X76.499551 Y57.547371 Z-0.125000 I0.311214 J-0.311214
G03 X76.809289 Y57.482928 Z-0.125000 I0.175992 J0.069304
G01 X81.457646 Y62.131285 Z-0.125000
G02 X82.103036 Y62.402500 Z-0.125000 I0.654888 J-0.654888
G02 X82.213756 Y62.139033 Z-0.125000 I0.001583 J-0.154333
G01 X77.079088 Y57.004364 Z-0.125000
G03 X77.063428 Y56.614533 Z-0.125000 I0.203401 J-0.203401
G03 X77.423156 Y56.600080 Z-0.125000 I0.186533 J0.158747
G01 X83.055397 Y62.232321 Z-0.125000
G02 X83.890508 Y62.693253 Z-0.125000 I1.215820 J-1.215820
G02 X84.023583 Y62.452150 Z-0.125000 I0.031733 J-0.139762
G01 X77.859098 Y56.287670 Z-0.125000
G03 X77.930305 Y55.984698 Z-0.125000 I0.129433 J-0.129433
G03 X78.419445 Y56.099659 Z-0.125000 I0.151769 J0.452333
G01 X85.310280 Y62.990494 Z-0.125000
G00 Z5.000000

(End cutting path id: path1488)


(Start cutting path id: path1488)
(Change tool to Default tool)

G00 Z5.000000
G00 X91.739926 Y73.161908

G01 Z-0.125000 F100.0(Penetrate)
G01 X92.593067 Y74.015049 Z-0.125000 F400.000000
G02 X93.160834 Y74.208642 Z-0.125000 I0.480842 J-0.480842
G02 X93.255975 Y73.929610 Z-0.125000 I-0.020995 J-0.162895
G01 X91.925767 Y72.599401 Z-0.125000
G03 X91.651154 Y71.950608 Z-0.125000 I0.663243 J-0.663243
G03 X91.914049 Y71.839335 Z-0.125000 I0.153992 J-0.002373
G01 X93.904435 Y73.829721 Z-0.125000
G02 X94.529095 Y74.080207 Z-0.125000 I0.605257 J-0.605257
G02 X94.636203 Y73.813113 Z-0.125000 I-0.003547 J-0.156446
G01 X91.835156 Y71.012065 Z-0.125000
G03 X91.415540 Y70.218272 Z-0.125000 I1.077276 J-1.077276
G03 X91.660321 Y70.088877 Z-0.125000 I0.142341 J-0.026957
G01 X95.491315 Y73.919872 Z-0.125000
G02 X96.528987 Y74.583366 Z-0.125000 I2.027092 J-2.027092
G02 X96.674923 Y74.355127 Z-0.125000 I0.047867 J-0.130169
G01 X91.297088 Y68.977292 Z-0.125000
G03 X90.395201 Y67.701226 Z-0.125000 I3.262801 J-3.262801
G03 X90.614433 Y67.546279 Z-0.125000 I0.122926 J-0.058641
G01 X110.515643 Y87.447513 Z-0.125000
G02 X110.780226 Y87.337920 Z-0.125000 I0.109594 J-0.109594
G02 X110.515643 Y86.699159 Z-0.125000 I-0.903345 J-0.000000
G01 X80.185684 Y56.369201 Z-0.125000
G03 X80.313272 Y56.122612 Z-0.125000 I0.103006 J-0.103006
G03 X81.088627 Y56.523792 Z-0.125000 I-0.243031 J1.419552
G01 X110.515643 Y85.950805 Z-0.125000
G02 X110.780226 Y85.841211 Z-0.125000 I0.109594 J-0.109594
G02 X110.515643 Y85.202451 Z-0.125000 I-0.903345 J-0.000000
G01 X81.896296 Y56.583108 Z-0.125000
G03 X82.006899 Y56.319534 Z-0.125000 I0.109179 J-0.109179
G03 X82.651621 Y56.590081 Z-0.125000 I-0.008524 J0.923784
G01 X110.515643 Y84.454102 Z-0.125000
G02 X110.780226 Y84.344508 Z-0.125000 I0.109594 J-0.109594
G02 X110.515643 Y83.705748 Z-0.125000 I-0.903345 J-0.000000
G01 X83.349102 Y56.539209 Z-0.125000
G03 X83.441759 Y56.257687 Z-0.125000 I0.117377 J-0.117377
G03 X83.999508 Y56.441257 Z-0.125000 I0.097030 J0.644289
G01 X110.515643 Y82.957394 Z-0.125000
G02 X110.780226 Y82.847800 Z-0.125000 I0.109594 J-0.109594
G02 X110.515643 Y82.209040 Z-0.125000 I-0.903345 J-0.000000
G01 X84.615322 Y56.308718 Z-0.125000
G03 X84.692795 Y56.012018 Z-0.125000 I0.125655 J-0.125655
G03 X85.199202 Y56.144250 Z-0.125000 I0.140358 J0.498277
G01 X110.515643 Y81.460686 Z-0.125000
G02 X110.780226 Y81.351093 Z-0.125000 I0.109594 J-0.109594
G02 X110.515643 Y80.712332 Z-0.125000 I-0.903345 J0.000000
G01 X85.747801 Y55.944493 Z-0.125000
G03 X85.809852 Y55.632367 Z-0.125000 I0.135327 J-0.135327
G03 X86.276873 Y55.725211 Z-0.125000 I0.164051 J0.395814
G01 X110.515643 Y79.963978 Z-0.125000
G02 X110.780226 Y79.854385 Z-0.125000 I0.109594 J-0.109594
G02 X110.515643 Y79.215624 Z-0.125000 I-0.903345 J-0.000000
G01 X86.777681 Y55.477662 Z-0.125000
G03 X86.822953 Y55.148758 Z-0.125000 I0.147293 J-0.147293
G03 X87.256854 Y55.208482 Z-0.125000 I0.177555 J0.316071
G01 X110.515643 Y78.467270 Z-0.125000
G02 X110.780226 Y78.357676 Z-0.125000 I0.109594 J-0.109594
G02 X110.515643 Y77.718916 Z-0.125000 I-0.903345 J0.000000
G01 X87.713691 Y54.916966 Z-0.125000
G03 X87.741381 Y54.570478 Z-0.125000 I0.161450 J-0.161448
G03 X88.148055 Y54.602978 Z-0.125000 I0.184264 J0.254907
G01 X110.515643 Y76.970561 Z-0.125000
G02 X110.780226 Y76.860967 Z-0.125000 I0.109594 J-0.109594
G02 X110.515643 Y76.222208 Z-0.125000 I-0.903342 J-0.000000
G01 X88.561584 Y54.268149 Z-0.125000
G03 X88.570947 Y53.903333 Z-0.125000 I0.177960 J-0.177960
G03 X88.954978 Y53.913191 Z-0.125000 I0.186827 J0.207059
G01 X110.515643 Y75.473855 Z-0.125000
G02 X110.780225 Y75.364262 Z-0.125000 I0.109594 J-0.109594
G02 X110.515643 Y74.725498 Z-0.125000 I-0.903355 J-0.000000
G01 X89.326317 Y53.536177 Z-0.125000
G03 X89.314764 Y53.150437 Z-0.125000 I0.199003 J-0.199003
G03 X89.678055 Y53.139562 Z-0.125000 I0.186767 J0.165638
G01 X110.515643 Y73.977145 Z-0.125000
G02 X110.780226 Y73.867551 Z-0.125000 I0.109594 J-0.109594
G02 X110.515643 Y73.228792 Z-0.125000 I-0.903342 J-0.000000
G01 X90.008434 Y52.721584 Z-0.125000
G03 X89.972846 Y52.311819 Z-0.125000 I0.226061 J-0.226061
G03 X90.317126 Y52.281917 Z-0.125000 I0.184701 J0.129678
G01 X110.515643 Y72.480439 Z-0.125000
G02 X110.780227 Y72.370845 Z-0.125000 I0.109594 J-0.109594
G02 X110.515643 Y71.732082 Z-0.125000 I-0.903348 J0.000000
G01 X90.604715 Y51.821159 Z-0.125000
G03 X90.542634 Y51.384899 Z-0.125000 I0.259470 J-0.259470
G03 X90.870200 Y51.338286 Z-0.125000 I0.181283 J0.099670
G01 X110.515643 Y70.983729 Z-0.125000
G02 X110.780226 Y70.874135 Z-0.125000 I0.109594 J-0.109594
G02 X110.515643 Y70.235376 Z-0.125000 I-0.903342 J-0.000000
G01 X91.109561 Y50.829295 Z-0.125000
G03 X91.013920 Y50.359477 Z-0.125000 I0.307171 J-0.307175
G03 X91.324809 Y50.296190 Z-0.125000 I0.176384 J0.071218
G01 X110.515643 Y69.487019 Z-0.125000
G02 X110.780226 Y69.377426 Z-0.125000 I0.109594 J-0.109593
G02 X110.515643 Y68.738666 Z-0.125000 I-0.903343 J0.000000
G01 X91.513037 Y49.736056 Z-0.125000
G03 X91.376281 Y49.225123 Z-0.125000 I0.373820 J-0.373825
G03 X91.671453 Y49.146118 Z-0.125000 I0.170407 J0.045760
G01 X110.515643 Y67.990308 Z-0.125000
G02 X110.780226 Y67.880715 Z-0.125000 I0.109594 J-0.109594
G02 X110.515643 Y67.241956 Z-0.125000 I-0.903342 J0.000000
G01 X91.796428 Y48.522741 Z-0.125000
G03 X91.603867 Y47.956004 Z-0.125000 I0.478746 J-0.478746
G03 X91.883151 Y47.861111 Z-0.125000 I0.163023 J0.021368
G01 X110.515643 Y66.493598 Z-0.125000
G02 X110.780226 Y66.384004 Z-0.125000 I0.109594 J-0.109594
G02 X110.515643 Y65.745245 Z-0.125000 I-0.903342 J-0.000000
G01 X91.925128 Y47.154735 Z-0.125000
G03 X91.689719 Y46.545147 Z-0.125000 I0.570601 J-0.570601
G03 X91.959652 Y46.440907 Z-0.125000 I0.158046 J0.007645
G01 X110.515638 Y64.996893 Z-0.125000
G02 X110.780220 Y64.887299 Z-0.125000 I0.109594 J-0.109594
G02 X110.515638 Y64.248535 Z-0.125000 I-0.903355 J0.000000
G01 X92.096225 Y45.829127 Z-0.125000
G03 X92.008749 Y45.367472 Z-0.125000 I0.295016 J-0.295016
G03 X92.323321 Y45.307865 Z-0.125000 I0.177594 J0.077372
G01 X110.515638 Y63.500182 Z-0.125000
G02 X110.780221 Y63.390589 Z-0.125000 I0.109594 J-0.109594
G02 X110.515638 Y62.751830 Z-0.125000 I-0.903342 J0.000000
G01 X92.675049 Y44.911246 Z-0.125000
G03 X92.742271 Y44.604288 Z-0.125000 I0.131944 J-0.131944
G03 X93.221369 Y44.709207 Z-0.125000 I0.157670 J0.426347
G01 X110.515638 Y62.003477 Z-0.125000
G02 X110.780222 Y61.893882 Z-0.125000 I0.109594 J-0.109594
G02 X110.515638 Y61.255119 Z-0.125000 I-0.903348 J0.000000
G01 X94.109064 Y44.848550 Z-0.125000
G03 X94.227571 Y44.592878 Z-0.125000 I0.106115 J-0.106115
G03 X94.925032 Y44.916160 Z-0.125000 I-0.092220 J1.112963
G01 X110.515638 Y60.506767 Z-0.125000
G02 X110.780221 Y60.397173 Z-0.125000 I0.109594 J-0.109594
G02 X110.515638 Y59.758414 Z-0.125000 I-0.903342 J0.000000
G01 X95.628401 Y44.871177 Z-0.125000
G03 X95.716046 Y44.584646 Z-0.125000 I0.119973 J-0.119973
G03 X96.255115 Y44.749538 Z-0.125000 I0.114424 J0.589536
G01 X110.515638 Y59.010056 Z-0.125000
G02 X110.780221 Y58.900463 Z-0.125000 I0.109594 J-0.109593
G02 X110.515638 Y58.261703 Z-0.125000 I-0.903343 J0.000000
G01 X96.823485 Y44.569555 Z-0.125000
G03 X96.882260 Y44.254151 Z-0.125000 I0.137547 J-0.137547
G03 X97.342136 Y44.339849 Z-0.125000 I0.167462 J0.378111
G01 X110.515638 Y57.513351 Z-0.125000
G02 X110.780221 Y57.403757 Z-0.125000 I0.109594 J-0.109594
G02 X110.515638 Y56.764998 Z-0.125000 I-0.903342 J0.000000
G01 X97.816937 Y44.066297 Z-0.125000
G03 X97.844827 Y43.720008 Z-0.125000 I0.161279 J-0.161279
G03 X98.251776 Y43.752783 Z-0.125000 I0.184216 J0.255508
G01 X110.515638 Y56.016640 Z-0.125000
G02 X110.780221 Y55.907047 Z-0.125000 I0.109594 J-0.109594
G02 X110.515638 Y55.268288 Z-0.125000 I-0.903342 J0.000000
G01 X98.648081 Y43.400730 Z-0.125000
G03 X98.640064 Y43.018528 Z-0.125000 I0.195281 J-0.195281
G03 X99.006549 Y43.010846 Z-0.125000 I0.186925 J0.171868
G01 X110.515638 Y54.519935 Z-0.125000
G02 X110.780221 Y54.410341 Z-0.125000 I0.109594 J-0.109594
G02 X110.515638 Y53.771582 Z-0.125000 I-0.903342 J0.000000
G01 X99.326557 Y42.582501 Z-0.125000
G03 X99.273627 Y42.155392 Z-0.125000 I0.247506 J-0.247506
G03 X99.606548 Y42.114135 Z-0.125000 I0.182540 J0.109124
G01 X110.515638 Y53.023225 Z-0.125000
G02 X110.780221 Y52.913631 Z-0.125000 I0.109594 J-0.109594
G02 X110.515638 Y52.274872 Z-0.125000 I-0.903342 J0.000000
G01 X99.843658 Y41.602897 Z-0.125000
G03 X99.731277 Y41.116337 Z-0.125000 I0.333224 J-0.333224
G03 X100.035247 Y41.046128 Z-0.125000 I0.173916 J0.059846
G01 X110.515638 Y51.526519 Z-0.125000
G02 X110.780220 Y51.416926 Z-0.125000 I0.109594 J-0.109594
G02 X110.515638 Y50.778162 Z-0.125000 I-0.903355 J0.000000
G01 X100.165419 Y40.427947 Z-0.125000
G03 X99.952465 Y39.840817 Z-0.125000 I0.521239 J-0.521239
G03 X100.227049 Y39.741225 Z-0.125000 I0.160580 J0.014411
G01 X110.515638 Y50.029809 Z-0.125000
G02 X110.780221 Y49.920215 Z-0.125000 I0.109594 J-0.109594
G02 X110.515638 Y49.281456 Z-0.125000 I-0.903342 J0.000000
G01 X100.185373 Y38.951191 Z-0.125000
G03 X99.729215 Y38.120858 Z-0.125000 I1.199349 J-1.199349
G03 X99.970721 Y37.988181 Z-0.125000 I0.140048 J-0.031217
G01 X110.515638 Y48.533103 Z-0.125000
G02 X110.780222 Y48.423509 Z-0.125000 I0.109594 J-0.109594
G02 X110.515638 Y47.784746 Z-0.125000 I-0.903348 J0.000000
G01 X71.448580 Y8.717687 Z-0.125000
G03 X71.558173 Y8.453105 Z-0.125000 I0.109594 J-0.109594
G03 X72.196932 Y8.717687 Z-0.125000 I0.000000 J0.903342
G01 X110.515638 Y47.036393 Z-0.125000
G02 X110.780221 Y46.926799 Z-0.125000 I0.109594 J-0.109594
G02 X110.515638 Y46.288040 Z-0.125000 I-0.903342 J0.000000
G01 X72.945285 Y8.717687 Z-0.125000
G03 X73.054879 Y8.453105 Z-0.125000 I0.109594 J-0.109594
G03 X73.693643 Y8.717687 Z-0.125000 I-0.000000 J0.903355
G01 X110.515638 Y45.539683 Z-0.125000
G02 X110.780221 Y45.430090 Z-0.125000 I0.109594 J-0.109593
G02 X110.515638 Y44.791330 Z-0.125000 I-0.903343 J0.000000
G01 X74.441995 Y8.717687 Z-0.125000
G03 X74.551589 Y8.453105 Z-0.125000 I0.109594 J-0.109594
G03 X75.190348 Y8.717687 Z-0.125000 I-0.000000 J0.903342
G01 X110.515638 Y44.042977 Z-0.125000
G02 X110.780221 Y43.933384 Z-0.125000 I0.109594 J-0.109594
G02 X110.515638 Y43.294625 Z-0.125000 I-0.903342 J0.000000
G01 X75.938701 Y8.717687 Z-0.125000
G03 X76.048294 Y8.453105 Z-0.125000 I0.109594 J-0.109594
G03 X76.687058 Y8.717687 Z-0.125000 I-0.000000 J0.903355
G01 X110.515638 Y42.546267 Z-0.125000
G02 X110.780221 Y42.436673 Z-0.125000 I0.109594 J-0.109594
G02 X110.515638 Y41.797914 Z-0.125000 I-0.903342 J0.000000
G01 X77.435411 Y8.717687 Z-0.125000
G03 X77.545005 Y8.453105 Z-0.125000 I0.109594 J-0.109594
G03 X78.183764 Y8.717687 Z-0.125000 I0.000000 J0.903342
G01 X110.515638 Y41.049561 Z-0.125000
G02 X110.780220 Y40.939968 Z-0.125000 I0.109594 J-0.109594
G02 X110.515638 Y40.301204 Z-0.125000 I-0.903355 J0.000000
G01 X78.932117 Y8.717687 Z-0.125000
G03 X79.041710 Y8.453105 Z-0.125000 I0.109594 J-0.109594
G03 X79.680474 Y8.717687 Z-0.125000 I-0.000000 J0.903355
G01 X110.515638 Y39.552851 Z-0.125000
G02 X110.780221 Y39.443257 Z-0.125000 I0.109594 J-0.109594
G02 X110.515638 Y38.804498 Z-0.125000 I-0.903342 J0.000000
G01 X80.428827 Y8.717687 Z-0.125000
G03 X80.538421 Y8.453105 Z-0.125000 I0.109594 J-0.109594
G03 X81.177180 Y8.717687 Z-0.125000 I0.000000 J0.903342
G01 X110.515638 Y38.056146 Z-0.125000
G02 X110.780220 Y37.946552 Z-0.125000 I0.109594 J-0.109594
G02 X110.515638 Y37.307788 Z-0.125000 I-0.903355 J0.000000
G01 X81.925537 Y8.717687 Z-0.125000
G03 X82.035130 Y8.453104 Z-0.125000 I0.109593 J-0.109594
G03 X82.673890 Y8.717687 Z-0.125000 I0.000000 J0.903343
G01 X110.515638 Y36.559435 Z-0.125000
G02 X110.780221 Y36.449842 Z-0.125000 I0.109594 J-0.109594
G02 X110.515638 Y35.811083 Z-0.125000 I-0.903342 J0.000000
G01 X83.422243 Y8.717687 Z-0.125000
G03 X83.531836 Y8.453105 Z-0.125000 I0.109594 J-0.109594
G03 X84.170595 Y8.717687 Z-0.125000 I0.000000 J0.903342
G01 X110.515638 Y35.062725 Z-0.125000
G02 X110.780221 Y34.953132 Z-0.125000 I0.109594 J-0.109593
G02 X110.515638 Y34.314372 Z-0.125000 I-0.903343 J-0.000000
G01 X84.918953 Y8.717687 Z-0.125000
G03 X85.028546 Y8.453104 Z-0.125000 I0.109593 J-0.109594
G03 X85.667306 Y8.717687 Z-0.125000 I0.000000 J0.903343
G01 X110.515638 Y33.566020 Z-0.125000
G02 X110.780221 Y33.456426 Z-0.125000 I0.109594 J-0.109594
G02 X110.515638 Y32.817667 Z-0.125000 I-0.903342 J0.000000
G01 X86.415658 Y8.717687 Z-0.125000
G03 X86.525252 Y8.453105 Z-0.125000 I0.109594 J-0.109594
G03 X87.164011 Y8.717687 Z-0.125000 I-0.000000 J0.903342
G01 X110.515638 Y32.069309 Z-0.125000
G02 X110.780221 Y31.959716 Z-0.125000 I0.109594 J-0.109594
G02 X110.515638 Y31.320957 Z-0.125000 I-0.903342 J0.000000
G01 X87.912369 Y8.717687 Z-0.125000
G03 X88.021963 Y8.453105 Z-0.125000 I0.109594 J-0.109594
G03 X88.660722 Y8.717687 Z-0.125000 I0.000000 J0.903342
G01 X110.515638 Y30.572604 Z-0.125000
G02 X110.780220 Y30.463010 Z-0.125000 I0.109594 J-0.109594
G02 X110.515638 Y29.824246 Z-0.125000 I-0.903355 J0.000000
G01 X89.409074 Y8.717687 Z-0.125000
G03 X89.518668 Y8.453105 Z-0.125000 I0.109594 J-0.109594
G03 X90.157432 Y8.717687 Z-0.125000 I0.000000 J0.903355
G01 X110.515638 Y29.075893 Z-0.125000
G02 X110.780221 Y28.966300 Z-0.125000 I0.109594 J-0.109594
G02 X110.515638 Y28.327541 Z-0.125000 I-0.903342 J0.000000
G01 X90.905785 Y8.717687 Z-0.125000
G03 X91.015378 Y8.453105 Z-0.125000 I0.109594 J-0.109594
G03 X91.654137 Y8.717687 Z-0.125000 I-0.000000 J0.903342
G01 X110.515638 Y27.579188 Z-0.125000
G02 X110.780220 Y27.469594 Z-0.125000 I0.109594 J-0.109594
G02 X110.515638 Y26.830830 Z-0.125000 I-0.903355 J0.000000
G01 X92.402490 Y8.717687 Z-0.125000
G03 X92.512085 Y8.453103 Z-0.125000 I0.109595 J-0.109594
G03 X93.150848 Y8.717687 Z-0.125000 I0.000000 J0.903346
G01 X110.515638 Y26.082478 Z-0.125000
G02 X110.780221 Y25.972884 Z-0.125000 I0.109594 J-0.109594
G02 X110.515638 Y25.334125 Z-0.125000 I-0.903342 J0.000000
G01 X93.899200 Y8.717682 Z-0.125000
G03 X94.008794 Y8.453100 Z-0.125000 I0.109594 J-0.109594
G03 X94.647553 Y8.717682 Z-0.125000 I0.000000 J0.903342
G01 X110.515638 Y24.585767 Z-0.125000
G02 X110.780221 Y24.476175 Z-0.125000 I0.109594 J-0.109593
G02 X110.515638 Y23.837415 Z-0.125000 I-0.903343 J0.000000
G01 X95.395906 Y8.717682 Z-0.125000
G03 X95.505499 Y8.453100 Z-0.125000 I0.109594 J-0.109594
G03 X96.144263 Y8.717682 Z-0.125000 I0.000000 J0.903355
G01 X110.515638 Y23.089062 Z-0.125000
G02 X110.780221 Y22.979468 Z-0.125000 I0.109594 J-0.109594
G02 X110.515638 Y22.340709 Z-0.125000 I-0.903342 J-0.000000
G01 X96.892616 Y8.717682 Z-0.125000
G03 X97.002210 Y8.453100 Z-0.125000 I0.109594 J-0.109594
G03 X97.640969 Y8.717682 Z-0.125000 I0.000000 J0.903342
G01 X110.515638 Y21.592352 Z-0.125000
G02 X110.780221 Y21.482758 Z-0.125000 I0.109594 J-0.109594
G02 X110.515638 Y20.843999 Z-0.125000 I-0.903342 J0.000000
G01 X98.389326 Y8.717682 Z-0.125000
G03 X98.498919 Y8.453099 Z-0.125000 I0.109593 J-0.109594
G03 X99.137679 Y8.717682 Z-0.125000 I0.000000 J0.903343
G01 X110.515638 Y20.095646 Z-0.125000
G02 X110.780221 Y19.986052 Z-0.125000 I0.109594 J-0.109594
G02 X110.515638 Y19.347293 Z-0.125000 I-0.903342 J0.000000
G01 X99.886032 Y8.717682 Z-0.125000
G03 X99.995626 Y8.453100 Z-0.125000 I0.109594 J-0.109594
G03 X100.634385 Y8.717682 Z-0.125000 I0.000000 J0.903342
G01 X110.515638 Y18.598936 Z-0.125000
G02 X110.780222 Y18.489340 Z-0.125000 I0.109594 J-0.109595
G02 X110.515638 Y17.850583 Z-0.125000 I-0.903333 J0.000000
G01 X101.382742 Y8.717682 Z-0.125000
G03 X101.492336 Y8.453100 Z-0.125000 I0.109594 J-0.109594
G03 X102.131095 Y8.717682 Z-0.125000 I0.000000 J0.903342
G01 X110.515638 Y17.102230 Z-0.125000
G02 X110.780222 Y16.992635 Z-0.125000 I0.109594 J-0.109595
G02 X110.515638 Y16.353873 Z-0.125000 I-0.903346 J0.000000
G01 X102.879448 Y8.717682 Z-0.125000
G03 X102.989041 Y8.453100 Z-0.125000 I0.109594 J-0.109594
G03 X103.627805 Y8.717682 Z-0.125000 I0.000000 J0.903355
G01 X110.515638 Y15.605520 Z-0.125000
G02 X110.780222 Y15.495925 Z-0.125000 I0.109594 J-0.109595
G02 X110.515638 Y14.857167 Z-0.125000 I-0.903333 J0.000000
G01 X104.376158 Y8.717682 Z-0.125000
G03 X104.485752 Y8.453100 Z-0.125000 I0.109594 J-0.109594
G03 X105.124511 Y8.717682 Z-0.125000 I0.000000 J0.903342
G01 X110.515638 Y14.108815 Z-0.125000
G02 X110.780224 Y13.999218 Z-0.125000 I0.109595 J-0.109596
G02 X110.515638 Y13.360457 Z-0.125000 I-0.903339 J0.000000
G01 X105.872864 Y8.717682 Z-0.125000
G03 X105.982457 Y8.453100 Z-0.125000 I0.109594 J-0.109594
G03 X106.621221 Y8.717682 Z-0.125000 I0.000000 J0.903355
G01 X110.515643 Y12.612104 Z-0.125000
G02 X110.780226 Y12.502510 Z-0.125000 I0.109594 J-0.109594
G02 X110.515643 Y11.863751 Z-0.125000 I-0.903342 J-0.000000
G01 X107.369574 Y8.717682 Z-0.125000
G03 X107.479168 Y8.453100 Z-0.125000 I0.109594 J-0.109594
G03 X108.117927 Y8.717682 Z-0.125000 I0.000000 J0.903342
G01 X110.515643 Y11.115399 Z-0.125000
G02 X110.780227 Y11.005804 Z-0.125000 I0.109594 J-0.109594
G02 X110.515643 Y10.367041 Z-0.125000 I-0.903348 J0.000000
G01 X108.866284 Y8.717682 Z-0.125000
G03 X108.997172 Y8.474399 Z-0.125000 I0.101983 J-0.101984
G03 X109.807097 Y8.910143 Z-0.125000 I-0.320364 J1.566048
G01 X110.604114 Y9.707164 Z-0.125000
G00 Z5.000000

(End cutting path id: path1488)


(Start cutting path id: path1488)
(Change tool to Default tool)

G00 Z5.000000
G00 X127.262557 Y15.819770

G01 Z-0.125000 F100.0(Penetrate)
G01 X127.262557 Y31.212449 Z-0.125000 F400.000000
G03 X127.066861 Y32.209143 Z-0.125000 I-2.635962 J0.000000
G03 X126.518320 Y33.034062 Z-0.125000 I-2.318824 J-0.947092
G03 X125.693408 Y33.582735 Z-0.125000 I-1.769721 J-1.766268
G03 X124.696707 Y33.778299 Z-0.125000 I-0.996701 J-2.442085
G03 X123.700633 Y33.582725 Z-0.125000 I0.000000 J-2.634323
G03 X122.875094 Y33.034062 Z-0.125000 I0.948798 J-2.323000
G03 X122.327053 Y32.210023 Z-0.125000 I1.774266 J-1.774266
G03 X122.130857 Y31.212449 Z-0.125000 I2.438021 J-0.997574
G01 X122.130857 Y15.819770 Z-0.125000
G03 X122.326760 Y14.823953 Z-0.125000 I2.628932 J-0.000000
G03 X122.875094 Y13.999126 Z-0.125000 I2.327541 J0.952641
G03 X123.700013 Y13.450585 Z-0.125000 I1.772012 J1.770283
G03 X124.696707 Y13.254889 Z-0.125000 I0.996694 J2.440266
G03 X125.692788 Y13.450331 Z-0.125000 I0.000000 J2.636007
G03 X126.518320 Y13.999126 Z-0.125000 I-0.946510 J2.319108
G03 X127.067221 Y14.824343 Z-0.125000 I-1.767139 J1.770590
G03 X127.262557 Y15.819770 Z-0.125000 I-2.438667 J0.995427
G01 X127.262557 Y15.819770 Z-0.125000
G00 Z5.000000

(End cutting path id: path1488)


(Start cutting path id: path1488)
(Change tool to Default tool)

G00 Z5.000000
G00 X127.262557 Y15.819770

G01 Z-0.125000 F100.0(Penetrate)
G01 X127.262557 Y31.212449 Z-0.125000 F400.000000
G03 X127.066861 Y32.209143 Z-0.125000 I-2.635962 J0.000000
G03 X126.518320 Y33.034062 Z-0.125000 I-2.318824 J-0.947092
G03 X125.693408 Y33.582735 Z-0.125000 I-1.769721 J-1.766268
G03 X124.696707 Y33.778299 Z-0.125000 I-0.996701 J-2.442085
G03 X123.700633 Y33.582725 Z-0.125000 I0.000000 J-2.634323
G03 X122.875094 Y33.034062 Z-0.125000 I0.948798 J-2.323000
G03 X122.327053 Y32.210023 Z-0.125000 I1.774266 J-1.774266
G03 X122.130857 Y31.212449 Z-0.125000 I2.438021 J-0.997574
G01 X122.130857 Y15.819770 Z-0.125000
G03 X122.326760 Y14.823953 Z-0.125000 I2.628932 J-0.000000
G03 X122.875094 Y13.999126 Z-0.125000 I2.327541 J0.952641
G03 X123.700013 Y13.450585 Z-0.125000 I1.772012 J1.770283
G03 X124.696707 Y13.254889 Z-0.125000 I0.996694 J2.440266
G03 X125.692788 Y13.450331 Z-0.125000 I0.000000 J2.636007
G03 X126.518320 Y13.999126 Z-0.125000 I-0.946510 J2.319108
G03 X127.067221 Y14.824343 Z-0.125000 I-1.767139 J1.770590
G03 X127.262557 Y15.819770 Z-0.125000 I-2.438667 J0.995427
G01 X127.262557 Y15.819770 Z-0.125000
G00 Z5.000000

(End cutting path id: path1488)


(Start cutting path id: path1488)
(Change tool to Default tool)

G00 Z5.000000
G00 X132.394257 Y15.819770

G01 Z-0.125000 F100.0(Penetrate)
G02 X131.808218 Y12.880564 Z-0.125000 I-7.663633 J-0.000000 F400.000000
G02 X130.135883 Y10.381079 Z-0.125000 I-7.128765 J2.960457
G02 X127.635453 Y8.709011 Z-0.125000 I-5.457815 J5.456060
G02 X124.697191 Y8.123673 Z-0.125000 I-2.938262 J7.082035
G02 X121.758929 Y8.709011 Z-0.125000 I0.000000 J7.667372
G02 X119.258500 Y10.381079 Z-0.125000 I2.957385 J7.128128
G02 X117.586741 Y12.880760 Z-0.125000 I5.456063 J5.457819
G02 X117.001094 Y15.819770 Z-0.125000 I7.081732 J2.939010
G01 X117.001094 Y31.212449 Z-0.125000
G02 X117.586880 Y34.151151 Z-0.125000 I7.664155 J0.000000
G02 X119.258500 Y36.651141 Z-0.125000 I7.135992 J-2.962625
G02 X121.758969 Y38.323484 Z-0.125000 I5.467139 J-5.468899
G02 X124.697191 Y38.909515 Z-0.125000 I2.938222 J-7.072764
G02 X127.636034 Y38.323227 Z-0.125000 I0.000000 J-7.658803
G02 X130.135883 Y36.651141 Z-0.125000 I-2.967297 J-7.140991
G02 X131.808336 Y34.150726 Z-0.125000 I-5.464735 J-5.464735
G02 X132.394257 Y31.212449 Z-0.125000 I-7.074484 J-2.938277
G01 X132.394257 Y15.819770 Z-0.125000
G00 Z5.000000

(End cutting path id: path1488)


(Start cutting path id: path1488)
(Change tool to Default tool)

G00 Z5.000000
G00 X132.394257 Y15.819770

G01 Z-0.125000 F100.0(Penetrate)
G02 X131.808218 Y12.880564 Z-0.125000 I-7.663633 J0.000000 F400.000000
G02 X130.135883 Y10.381079 Z-0.125000 I-7.128765 J2.960457
G02 X127.635453 Y8.709011 Z-0.125000 I-5.457815 J5.456060
G02 X124.697191 Y8.123673 Z-0.125000 I-2.938262 J7.082035
G02 X121.758929 Y8.709011 Z-0.125000 I0.000000 J7.667372
G02 X119.258500 Y10.381079 Z-0.125000 I2.957385 J7.128128
G02 X117.586741 Y12.880760 Z-0.125000 I5.456063 J5.457819
G02 X117.001094 Y15.819770 Z-0.125000 I7.081732 J2.939010
G01 X117.001094 Y31.212449 Z-0.125000
G02 X117.586880 Y34.151151 Z-0.125000 I7.664155 J0.000000
G02 X119.258500 Y36.651141 Z-0.125000 I7.135992 J-2.962625
G02 X121.758969 Y38.323484 Z-0.125000 I5.467139 J-5.468899
G02 X124.697191 Y38.909515 Z-0.125000 I2.938222 J-7.072764
G02 X127.636034 Y38.323227 Z-0.125000 I0.000000 J-7.658803
G02 X130.135883 Y36.651141 Z-0.125000 I-2.967297 J-7.140991
G02 X131.808336 Y34.150726 Z-0.125000 I-5.464735 J-5.464735
G02 X132.394257 Y31.212449 Z-0.125000 I-7.074484 J-2.938277
G01 X132.394257 Y15.819770 Z-0.125000
G00 Z5.000000

(End cutting path id: path1488)


(Start cutting path id: path1488)
(Change tool to Default tool)

G00 Z5.000000
G00 X132.261960 Y18.749948

G01 Z-0.125000 F100.0(Penetrate)
G01 X122.456980 Y8.944963 Z-0.125000 F400.000000
G03 X122.532787 Y8.646593 Z-0.125000 I0.126640 J-0.126640
G03 X123.034410 Y8.774040 Z-0.125000 I0.143679 J0.485392
G01 X131.981329 Y17.720959 Z-0.125000
G02 X132.245912 Y17.611365 Z-0.125000 I0.109594 J-0.109594
G02 X131.981329 Y16.972606 Z-0.125000 I-0.903342 J-0.000000
G01 X123.653589 Y8.644866 Z-0.125000
G03 X123.743441 Y8.360542 Z-0.125000 I0.118812 J-0.118812
G03 X124.290500 Y8.533424 Z-0.125000 I0.107211 J0.612730
G01 X131.981329 Y16.224249 Z-0.125000
G02 X132.245912 Y16.114656 Z-0.125000 I0.109594 J-0.109593
G02 X131.981329 Y15.475896 Z-0.125000 I-0.903343 J0.000000
G01 X125.040644 Y8.535211 Z-0.125000
G03 X125.155977 Y8.276372 Z-0.125000 I0.107302 J-0.107303
G03 X125.830872 Y8.577096 Z-0.125000 I-0.054594 J1.030194
G01 X131.940868 Y14.687092 Z-0.125000
G02 X132.187758 Y14.559806 Z-0.125000 I0.103102 J-0.103102
G02 X131.789551 Y13.787422 Z-0.125000 I-1.407284 J0.236693
G01 X126.730653 Y8.728524 Z-0.125000
G03 X126.871678 Y8.495367 Z-0.125000 I0.099217 J-0.099217
G03 X127.818624 Y9.068137 Z-0.125000 I-0.689614 J2.209287
G01 X131.730603 Y12.980117 Z-0.125000
G00 Z5.000000

(End cutting path id: path1488)


(Start cutting path id: path1488)
(Change tool to Default tool)

G00 Z5.000000
G00 X129.017334 Y9.518495

G01 Z-0.125000 F100.0(Penetrate)
G01 X130.998341 Y11.499502 Z-0.125000 F400.000000
G00 Z5.000000

(End cutting path id: path1488)


(Start cutting path id: path1488)
(Change tool to Default tool)

G00 Z5.000000
G00 X141.312874 Y22.082212

G01 Z-0.125000 F100.0(Penetrate)
G01 X136.602934 Y17.372272 Z-0.125000 F400.000000
G03 X136.338351 Y16.733512 Z-0.125000 I0.638760 J-0.638760
G03 X136.602934 Y16.623919 Z-0.125000 I0.154989 J-0.000000
G01 X140.908787 Y20.929768 Z-0.125000
G02 X141.173370 Y20.820174 Z-0.125000 I0.109594 J-0.109594
G02 X140.908787 Y20.181415 Z-0.125000 I-0.903342 J-0.000000
G01 X136.602934 Y15.875561 Z-0.125000
G03 X136.338351 Y15.236802 Z-0.125000 I0.638759 J-0.638759
G03 X136.602934 Y15.127209 Z-0.125000 I0.154989 J0.000000
G01 X140.908787 Y19.433057 Z-0.125000
G02 X141.173370 Y19.323464 Z-0.125000 I0.109594 J-0.109593
G02 X140.908787 Y18.684705 Z-0.125000 I-0.903343 J0.000000
G01 X136.602934 Y14.378856 Z-0.125000
G03 X136.338349 Y13.740093 Z-0.125000 I0.638763 J-0.638763
G03 X136.602934 Y13.630498 Z-0.125000 I0.154990 J-0.000000
G01 X140.908787 Y17.936352 Z-0.125000
G02 X141.173370 Y17.826758 Z-0.125000 I0.109594 J-0.109594
G02 X140.908787 Y17.187999 Z-0.125000 I-0.903342 J-0.000000
G01 X136.602934 Y12.882146 Z-0.125000
G03 X136.338351 Y12.243387 Z-0.125000 I0.638759 J-0.638759
G03 X136.602934 Y12.133793 Z-0.125000 I0.154989 J-0.000000
G01 X140.908787 Y16.439642 Z-0.125000
G02 X141.173370 Y16.330048 Z-0.125000 I0.109594 J-0.109594
G02 X140.908787 Y15.691289 Z-0.125000 I-0.903342 J-0.000000
G01 X136.602934 Y11.385435 Z-0.125000
G03 X136.338351 Y10.746676 Z-0.125000 I0.638759 J-0.638759
G03 X136.602934 Y10.637082 Z-0.125000 I0.154989 J0.000000
G01 X140.908787 Y14.942936 Z-0.125000
G02 X141.173370 Y14.833343 Z-0.125000 I0.109594 J-0.109594
G02 X140.908787 Y14.194579 Z-0.125000 I-0.903355 J0.000000
G01 X136.602934 Y9.888730 Z-0.125000
G03 X136.338351 Y9.249970 Z-0.125000 I0.638760 J-0.638760
G03 X136.602934 Y9.140377 Z-0.125000 I0.154989 J-0.000000
G01 X140.908787 Y13.446226 Z-0.125000
G02 X141.173370 Y13.336632 Z-0.125000 I0.109594 J-0.109594
G02 X140.908787 Y12.697873 Z-0.125000 I-0.903342 J-0.000000
G01 X136.747026 Y8.536112 Z-0.125000
G03 X136.856620 Y8.271529 Z-0.125000 I0.109594 J-0.109594
G03 X137.495379 Y8.536112 Z-0.125000 I0.000000 J0.903342
G01 X140.908787 Y11.949520 Z-0.125000
G02 X141.173372 Y11.839926 Z-0.125000 I0.109594 J-0.109594
G02 X140.908787 Y11.201163 Z-0.125000 I-0.903348 J0.000000
G01 X138.243732 Y8.536112 Z-0.125000
G03 X138.353325 Y8.271530 Z-0.125000 I0.109594 J-0.109594
G03 X138.992089 Y8.536112 Z-0.125000 I0.000000 J0.903355
G01 X140.908787 Y10.452810 Z-0.125000
G02 X141.173370 Y10.343216 Z-0.125000 I0.109594 J-0.109594
G02 X140.908787 Y9.704457 Z-0.125000 I-0.903342 J-0.000000
G01 X139.740442 Y8.536112 Z-0.125000
G03 X139.850036 Y8.271529 Z-0.125000 I0.109594 J-0.109594
G03 X140.488795 Y8.536112 Z-0.125000 I0.000000 J0.903342
G01 X141.072970 Y9.120282 Z-0.125000
G02 X141.337552 Y9.010688 Z-0.125000 I0.109594 J-0.109594
G02 X141.072970 Y8.371929 Z-0.125000 I-0.903342 J0.000000
G01 X140.956516 Y8.255476 Z-0.125000
G00 Z5.000000

(End cutting path id: path1488)


(Start cutting path id: path1488)
(Change tool to Default tool)

G00 Z5.000000
G00 X151.584142 Y8.123189

G01 Z-0.125000 F100.0(Penetrate)
G01 X146.452442 Y8.123189 Z-0.125000 F400.000000
G01 X142.039800 Y21.360631 Z-0.125000
G03 X141.670808 Y22.200781 Z-0.125000 I-4.721792 J-1.572694
G03 X141.527017 Y22.285480 Z-0.125000 I-0.143791 J-0.079706
G03 X141.438396 Y22.215303 Z-0.125000 I0.000000 J-0.091045
G03 X141.321710 Y21.412442 Z-0.125000 I4.547488 J-1.070828
G01 X141.321710 Y8.123189 Z-0.125000
G01 X136.190011 Y8.123189 Z-0.125000
G01 X136.190011 Y38.909515 Z-0.125000
G01 X141.321710 Y38.909515 Z-0.125000
G01 X145.836522 Y25.414955 Z-0.125000
G03 X146.101065 Y24.828910 Z-0.125000 I2.427534 J0.743069
G03 X146.247135 Y24.747224 Z-0.125000 I0.146071 J0.089757
G03 X146.362686 Y24.835871 Z-0.125000 I0.000000 J0.119633
G03 X146.452442 Y25.517124 Z-0.125000 I-2.540490 J0.681253
G01 X146.452442 Y38.909515 Z-0.125000
G01 X151.584142 Y38.909515 Z-0.125000
G01 X151.584142 Y8.123189 Z-0.125000
G00 Z5.000000

(End cutting path id: path1488)


(Start cutting path id: path1488)
(Change tool to Default tool)

G00 Z5.000000
G00 X151.584142 Y8.123189

G01 Z-0.125000 F100.0(Penetrate)
G01 X146.452442 Y8.123189 Z-0.125000 F400.000000
G01 X142.039800 Y21.360631 Z-0.125000
G03 X141.670808 Y22.200781 Z-0.125000 I-4.721792 J-1.572694
G03 X141.527017 Y22.285480 Z-0.125000 I-0.143791 J-0.079706
G03 X141.438396 Y22.215303 Z-0.125000 I0.000000 J-0.091045
G03 X141.321710 Y21.412442 Z-0.125000 I4.547488 J-1.070828
G01 X141.321710 Y8.123189 Z-0.125000
G01 X136.190011 Y8.123189 Z-0.125000
G01 X136.190011 Y38.909515 Z-0.125000
G01 X141.321710 Y38.909515 Z-0.125000
G01 X145.836522 Y25.414955 Z-0.125000
G03 X146.101065 Y24.828910 Z-0.125000 I2.427534 J0.743069
G03 X146.247135 Y24.747224 Z-0.125000 I0.146071 J0.089757
G03 X146.362686 Y24.835871 Z-0.125000 I0.000000 J0.119633
G03 X146.452442 Y25.517124 Z-0.125000 I-2.540490 J0.681253
G01 X146.452442 Y38.909515 Z-0.125000
G01 X151.584142 Y38.909515 Z-0.125000
G01 X151.584142 Y8.123189 Z-0.125000
G00 Z5.000000

(End cutting path id: path1488)


(Start cutting path id: path1488)
(Change tool to Default tool)

G00 Z5.000000
G00 X160.404129 Y19.739579

G01 Z-0.125000 F100.0(Penetrate)
G01 X155.792654 Y15.128104 Z-0.125000 F400.000000
G03 X155.528071 Y14.489345 Z-0.125000 I0.638759 J-0.638759
G03 X155.792654 Y14.379752 Z-0.125000 I0.154989 J0.000000
G01 X160.097539 Y18.684632 Z-0.125000
G02 X160.362122 Y18.575039 Z-0.125000 I0.109594 J-0.109593
G02 X160.097539 Y17.936279 Z-0.125000 I-0.903343 J0.000000
G01 X155.792654 Y13.631399 Z-0.125000
G03 X155.528070 Y12.992636 Z-0.125000 I0.638763 J-0.638763
G03 X155.792654 Y12.883041 Z-0.125000 I0.154990 J-0.000000
G01 X160.097539 Y17.187927 Z-0.125000
G02 X160.362122 Y17.078333 Z-0.125000 I0.109594 J-0.109594
G02 X160.097539 Y16.439574 Z-0.125000 I-0.903342 J-0.000000
G01 X155.792654 Y12.134689 Z-0.125000
G03 X155.528071 Y11.495930 Z-0.125000 I0.638759 J-0.638759
G03 X155.792654 Y11.386336 Z-0.125000 I0.154989 J0.000000
G01 X160.097539 Y15.691216 Z-0.125000
G02 X160.362122 Y15.581622 Z-0.125000 I0.109594 J-0.109594
G02 X160.097539 Y14.942863 Z-0.125000 I-0.903342 J-0.000000
G01 X155.812105 Y10.657429 Z-0.125000
G03 X155.664513 Y10.135664 Z-0.125000 I0.392888 J-0.392893
G03 X155.956188 Y10.053159 Z-0.125000 I0.168898 J0.040272
G01 X160.097539 Y14.194511 Z-0.125000
G02 X160.383877 Y14.106672 Z-0.125000 I0.119870 J-0.119870
G02 X160.218297 Y13.566916 Z-0.125000 I-0.591513 J-0.113818
G01 X156.222287 Y9.570906 Z-0.125000
G03 X156.210417 Y9.184864 Z-0.125000 I0.199336 J-0.199333
G03 X156.573435 Y9.173696 Z-0.125000 I0.186760 J0.165098
G01 X160.533453 Y13.133714 Z-0.125000
G02 X160.985299 Y13.211386 Z-0.125000 I0.280882 J-0.280882
G02 X161.040183 Y12.892096 Z-0.125000 I-0.085367 J-0.179036
G01 X157.002095 Y8.854003 Z-0.125000
G03 X157.062131 Y8.539863 Z-0.125000 I0.136685 J-0.136685
G03 X157.524712 Y8.628267 Z-0.125000 I0.166201 J0.384785
G01 X161.739034 Y12.842590 Z-0.125000
G02 X162.377797 Y13.107174 Z-0.125000 I0.638762 J-0.638762
G02 X162.487392 Y12.842590 Z-0.125000 I0.000000 J-0.154990
G01 X158.183543 Y8.538746 Z-0.125000
G03 X158.292837 Y8.273891 Z-0.125000 I0.109707 J-0.109707
G03 X158.929896 Y8.536809 Z-0.125000 I0.002387 J0.897483
G01 X163.235745 Y12.842658 Z-0.125000
G02 X163.874504 Y13.107241 Z-0.125000 I0.638759 J-0.638759
G02 X163.984097 Y12.842658 Z-0.125000 I0.000000 J-0.154989
G01 X159.678249 Y8.536809 Z-0.125000
G03 X159.787842 Y8.272226 Z-0.125000 I0.109594 J-0.109594
G03 X160.426601 Y8.536809 Z-0.125000 I0.000000 J0.903342
G01 X164.732455 Y12.842658 Z-0.125000
G02 X165.371214 Y13.107241 Z-0.125000 I0.638759 J-0.638759
G02 X165.480808 Y12.842658 Z-0.125000 I0.000000 J-0.154989
G01 X161.174954 Y8.536809 Z-0.125000
G03 X161.284549 Y8.272225 Z-0.125000 I0.109594 J-0.109594
G03 X161.923312 Y8.536809 Z-0.125000 I-0.000000 J0.903348
G01 X166.229161 Y12.842658 Z-0.125000
G02 X166.867920 Y13.107241 Z-0.125000 I0.638760 J-0.638760
G02 X166.977513 Y12.842658 Z-0.125000 I0.000000 J-0.154989
G01 X162.671664 Y8.536809 Z-0.125000
G03 X162.781258 Y8.272226 Z-0.125000 I0.109594 J-0.109594
G03 X163.420017 Y8.536809 Z-0.125000 I0.000000 J0.903342
G01 X167.725871 Y12.842658 Z-0.125000
G02 X168.364630 Y13.107241 Z-0.125000 I0.638759 J-0.638759
G02 X168.474224 Y12.842658 Z-0.125000 I0.000000 J-0.154989
G01 X164.168375 Y8.536809 Z-0.125000
G03 X164.277968 Y8.272226 Z-0.125000 I0.109593 J-0.109594
G03 X164.916728 Y8.536809 Z-0.125000 I-0.000000 J0.903343
G01 X169.222576 Y12.842658 Z-0.125000
G02 X169.861339 Y13.107242 Z-0.125000 I0.638763 J-0.638763
G02 X169.970934 Y12.842658 Z-0.125000 I0.000000 J-0.154990
G01 X165.665080 Y8.536809 Z-0.125000
G03 X165.774674 Y8.272226 Z-0.125000 I0.109594 J-0.109594
G03 X166.413433 Y8.536809 Z-0.125000 I0.000000 J0.903342
G01 X170.359487 Y12.482858 Z-0.125000
G02 X170.624069 Y12.373264 Z-0.125000 I0.109594 J-0.109594
G02 X170.359487 Y11.734505 Z-0.125000 I-0.903342 J0.000000
G01 X167.161791 Y8.536809 Z-0.125000
G03 X167.271384 Y8.272226 Z-0.125000 I0.109594 J-0.109594
G03 X167.910143 Y8.536809 Z-0.125000 I0.000000 J0.903342
G01 X170.359487 Y10.986152 Z-0.125000
G02 X170.624069 Y10.876559 Z-0.125000 I0.109594 J-0.109594
G02 X170.359487 Y10.237795 Z-0.125000 I-0.903355 J0.000000
G01 X168.658496 Y8.536809 Z-0.125000
G03 X168.768090 Y8.272226 Z-0.125000 I0.109594 J-0.109594
G03 X169.406849 Y8.536809 Z-0.125000 I0.000000 J0.903342
G01 X170.359487 Y9.489442 Z-0.125000
G02 X170.624069 Y9.379848 Z-0.125000 I0.109594 J-0.109594
G02 X170.359487 Y8.741089 Z-0.125000 I-0.903342 J-0.000000
G01 X169.874570 Y8.256173 Z-0.125000
G00 Z5.000000

(End cutting path id: path1488)


(Start cutting path id: path1488)
(Change tool to Default tool)

G00 Z5.000000
G00 X170.772574 Y33.778299

G01 Z-0.125000 F100.0(Penetrate)
G01 X161.793794 Y33.778299 Z-0.125000 F400.000000
G03 X160.886014 Y33.402307 Z-0.125000 I-0.000000 J-1.283852
G03 X160.510627 Y32.496100 Z-0.125000 I0.906127 J-0.906207
G01 X160.510627 Y27.365369 Z-0.125000
G03 X160.886640 Y26.457851 Z-0.125000 I1.283167 J-0.000000
G03 X161.793794 Y26.082202 Z-0.125000 I0.907155 J0.907518
G01 X168.207693 Y26.082202 Z-0.125000
G01 X168.207693 Y20.951470 Z-0.125000
G01 X161.793794 Y20.951470 Z-0.125000
G03 X160.886014 Y20.575479 Z-0.125000 I-0.000000 J-1.283852
G03 X160.510627 Y19.669271 Z-0.125000 I0.906127 J-0.906207
G01 X160.510627 Y14.537572 Z-0.125000
G03 X160.886740 Y13.630638 Z-0.125000 I1.281515 J0.000000
G03 X161.793794 Y13.255373 Z-0.125000 I0.907054 J0.908588
G01 X170.772574 Y13.255373 Z-0.125000
G01 X170.772574 Y8.123673 Z-0.125000
G01 X157.945746 Y8.123673 Z-0.125000
G02 X156.949052 Y8.319369 Z-0.125000 I0.000000 J2.635962
G02 X156.124132 Y8.867910 Z-0.125000 I0.947092 J2.318824
G02 X155.575552 Y9.693005 Z-0.125000 I1.775171 J1.775171
G02 X155.379896 Y10.688554 Z-0.125000 I2.434973 J0.995550
G01 X155.379896 Y36.344149 Z-0.125000
G02 X155.575338 Y37.340230 Z-0.125000 I2.636007 J-0.000000
G02 X156.124132 Y38.165762 Z-0.125000 I2.319108 J-0.946510
G02 X156.948172 Y38.713803 Z-0.125000 I1.774266 J-1.774266
G02 X157.945746 Y38.909999 Z-0.125000 I0.997574 J-2.438021
G01 X170.772574 Y38.909999 Z-0.125000
G01 X170.772574 Y33.778299 Z-0.125000
G00 Z5.000000

(End cutting path id: path1488)


(Start cutting path id: path1488)
(Change tool to Default tool)

G00 Z5.000000
G00 X170.772574 Y33.778299

G01 Z-0.125000 F100.0(Penetrate)
G01 X161.793794 Y33.778299 Z-0.125000 F400.000000
G03 X160.886014 Y33.402307 Z-0.125000 I0.000000 J-1.283852
G03 X160.510627 Y32.496100 Z-0.125000 I0.906127 J-0.906207
G01 X160.510627 Y27.365369 Z-0.125000
G03 X160.886640 Y26.457851 Z-0.125000 I1.283167 J0.000000
G03 X161.793794 Y26.082202 Z-0.125000 I0.907155 J0.907518
G01 X168.207693 Y26.082202 Z-0.125000
G01 X168.207693 Y20.951470 Z-0.125000
G01 X161.793794 Y20.951470 Z-0.125000
G03 X160.886014 Y20.575479 Z-0.125000 I0.000000 J-1.283852
G03 X160.510627 Y19.669271 Z-0.125000 I0.906127 J-0.906207
G01 X160.510627 Y14.537572 Z-0.125000
G03 X160.886740 Y13.630638 Z-0.125000 I1.281515 J0.000000
G03 X161.793794 Y13.255373 Z-0.125000 I0.907054 J0.908588
G01 X170.772574 Y13.255373 Z-0.125000
G01 X170.772574 Y8.123673 Z-0.125000
G01 X157.945746 Y8.123673 Z-0.125000
G02 X156.949052 Y8.319369 Z-0.125000 I0.000000 J2.635962
G02 X156.124132 Y8.867910 Z-0.125000 I0.947092 J2.318824
G02 X155.575552 Y9.693005 Z-0.125000 I1.775171 J1.775171
G02 X155.379896 Y10.688554 Z-0.125000 I2.434973 J0.995550
G01 X155.379896 Y36.344149 Z-0.125000
G02 X155.575338 Y37.340230 Z-0.125000 I2.636007 J0.000000
G02 X156.124132 Y38.165762 Z-0.125000 I2.319108 J-0.946510
G02 X156.948172 Y38.713803 Z-0.125000 I1.774266 J-1.774266
G02 X157.945746 Y38.909999 Z-0.125000 I0.997574 J-2.438021
G01 X170.772574 Y38.909999 Z-0.125000
G01 X170.772574 Y33.778299 Z-0.125000
G00 Z5.000000

(End cutting path id: path1488)


(Start cutting path id: path1488)
(Change tool to Default tool)

G00 Z5.000000
G00 X166.720386 Y38.777731

G01 Z-0.125000 F100.0(Penetrate)
G01 X162.135959 Y34.193304 Z-0.125000 F400.000000
G03 X162.245242 Y33.928459 Z-0.125000 I0.109703 J-0.109703
G03 X162.882254 Y34.191367 Z-0.125000 I0.002431 J0.897285
G01 X167.188108 Y38.497221 Z-0.125000
G02 X167.826867 Y38.761804 Z-0.125000 I0.638759 J-0.638759
G02 X167.936460 Y38.497221 Z-0.125000 I0.000000 J-0.154989
G01 X163.630607 Y34.191367 Z-0.125000
G03 X163.740201 Y33.926783 Z-0.125000 I0.109594 J-0.109594
G03 X164.378964 Y34.191367 Z-0.125000 I-0.000000 J0.903348
G01 X168.684813 Y38.497221 Z-0.125000
G02 X169.323576 Y38.761805 Z-0.125000 I0.638763 J-0.638763
G02 X169.433171 Y38.497221 Z-0.125000 I0.000000 J-0.154990
G01 X165.127317 Y34.191367 Z-0.125000
G03 X165.236911 Y33.926785 Z-0.125000 I0.109594 J-0.109594
G03 X165.875670 Y34.191367 Z-0.125000 I0.000000 J0.903342
G01 X170.181523 Y38.497221 Z-0.125000
G02 X170.481756 Y38.423277 Z-0.125000 I0.127757 J-0.127757
G02 X170.359487 Y37.926832 Z-0.125000 I-0.471580 J-0.147134
G01 X166.624027 Y34.191367 Z-0.125000
G03 X166.733620 Y33.926784 Z-0.125000 I0.109593 J-0.109594
G03 X167.372380 Y34.191367 Z-0.125000 I-0.000000 J0.903343
G01 X170.359487 Y37.178474 Z-0.125000
G02 X170.624070 Y37.068881 Z-0.125000 I0.109594 J-0.109593
G02 X170.359487 Y36.430121 Z-0.125000 I-0.903343 J0.000000
G01 X168.120733 Y34.191367 Z-0.125000
G03 X168.230327 Y33.926785 Z-0.125000 I0.109594 J-0.109594
G03 X168.869086 Y34.191367 Z-0.125000 I0.000000 J0.903342
G01 X170.359487 Y35.681768 Z-0.125000
G02 X170.624069 Y35.572175 Z-0.125000 I0.109594 J-0.109594
G02 X170.359487 Y34.933416 Z-0.125000 I-0.903342 J-0.000000
G01 X169.614286 Y34.188215 Z-0.125000
G03 X169.723882 Y33.923631 Z-0.125000 I0.109595 J-0.109594
G03 X170.362639 Y34.188215 Z-0.125000 I0.000000 J0.903333
G01 X170.640118 Y34.465694 Z-0.125000
G00 Z5.000000

(End cutting path id: path1488)


(Start cutting path id: path1488)
(Change tool to Default tool)

G00 Z5.000000
G00 X167.383076 Y43.857688

G01 Z-0.125000 F100.0(Penetrate)
G01 X162.252345 Y43.857688 Z-0.125000 F400.000000
G01 X162.252345 Y55.402318 Z-0.125000
G03 X161.876514 Y56.309654 Z-0.125000 I-1.283167 J-0.000000
G03 X160.969178 Y56.685485 Z-0.125000 I-0.907336 J-0.907336
G01 X158.404296 Y56.685485 Z-0.125000
G03 X157.496415 Y56.309109 Z-0.125000 I-0.000000 J-1.283167
G03 X157.121129 Y55.402318 Z-0.125000 I0.907881 J-0.906791
G01 X157.121129 Y43.857688 Z-0.125000
G01 X151.990398 Y43.857688 Z-0.125000
G01 X151.990398 Y66.946948 Z-0.125000
G02 X152.576375 Y69.885469 Z-0.125000 I7.660935 J0.000000
G02 X154.247803 Y72.385640 Z-0.125000 I7.144128 J-2.967250
G02 X156.748590 Y74.057719 Z-0.125000 I5.467276 J-5.470796
G02 X159.686495 Y74.643530 Z-0.125000 I2.937905 J-7.074047
G02 X162.625951 Y74.057343 Z-0.125000 I0.000000 J-7.663095
G02 X165.125187 Y72.385640 Z-0.125000 I-2.963246 J-7.134185
G02 X166.797116 Y69.884902 Z-0.125000 I-5.464365 J-5.462608
G02 X167.382592 Y66.946948 Z-0.125000 I-7.078671 J-2.937954
G01 X167.382592 Y43.857688 Z-0.125000
G01 X167.383076 Y43.857688 Z-0.125000
G00 Z5.000000

(End cutting path id: path1488)


(Start cutting path id: path1488)
(Change tool to Default tool)

G00 Z5.000000
G00 X167.383076 Y43.857698

G01 Z-0.125000 F100.0(Penetrate)
G01 X162.252345 Y43.857698 Z-0.125000 F400.000000
G01 X162.252345 Y55.402328 Z-0.125000
G03 X161.876514 Y56.309664 Z-0.125000 I-1.283167 J-0.000000
G03 X160.969178 Y56.685495 Z-0.125000 I-0.907336 J-0.907336
G01 X158.404296 Y56.685495 Z-0.125000
G03 X157.496415 Y56.309119 Z-0.125000 I0.000000 J-1.283167
G03 X157.121129 Y55.402328 Z-0.125000 I0.907881 J-0.906791
G01 X157.121129 Y43.857698 Z-0.125000
G01 X151.990398 Y43.857698 Z-0.125000
G01 X151.990398 Y66.946958 Z-0.125000
G02 X152.576375 Y69.885479 Z-0.125000 I7.660935 J0.000000
G02 X154.247803 Y72.385650 Z-0.125000 I7.144128 J-2.967250
G02 X156.748590 Y74.057728 Z-0.125000 I5.467276 J-5.470796
G02 X159.686495 Y74.643540 Z-0.125000 I2.937905 J-7.074047
G02 X162.625951 Y74.057352 Z-0.125000 I0.000000 J-7.663095
G02 X165.125187 Y72.385650 Z-0.125000 I-2.963246 J-7.134185
G02 X166.797116 Y69.884912 Z-0.125000 I-5.464365 J-5.462608
G02 X167.382592 Y66.946958 Z-0.125000 I-7.078671 J-2.937954
G01 X167.382592 Y43.857698 Z-0.125000
G01 X167.383076 Y43.857698 Z-0.125000
G00 Z5.000000

(End cutting path id: path1488)


(Start cutting path id: path1488)
(Change tool to Default tool)

G00 Z5.000000
G00 X156.678214 Y38.463970

G01 Z-0.125000 F100.0(Penetrate)
G01 X156.106042 Y37.891803 Z-0.125000 F400.000000
G03 X155.567117 Y36.978700 Z-0.125000 I1.502226 J-1.502226
G03 X155.802416 Y36.839824 Z-0.125000 I0.135543 J-0.039121
G01 X157.450056 Y38.487459 Z-0.125000
G02 X158.097050 Y38.760277 Z-0.125000 I0.658821 J-0.658821
G02 X158.208020 Y38.497095 Z-0.125000 I0.001957 J-0.154161
G01 X155.792819 Y36.081889 Z-0.125000
G03 X155.528236 Y35.443130 Z-0.125000 I0.638759 J-0.638759
G03 X155.792819 Y35.333536 Z-0.125000 I0.154989 J0.000000
G01 X158.956378 Y38.497095 Z-0.125000
G02 X159.595137 Y38.761678 Z-0.125000 I0.638759 J-0.638759
G02 X159.704730 Y38.497095 Z-0.125000 I0.000000 J-0.154989
G01 X155.792819 Y34.585184 Z-0.125000
G03 X155.528236 Y33.946424 Z-0.125000 I0.638760 J-0.638760
G03 X155.792819 Y33.836831 Z-0.125000 I0.154989 J0.000000
G01 X160.453083 Y38.497095 Z-0.125000
G02 X161.091843 Y38.761678 Z-0.125000 I0.638760 J-0.638760
G02 X161.201436 Y38.497095 Z-0.125000 I0.000000 J-0.154989
G01 X155.792819 Y33.088473 Z-0.125000
G03 X155.528236 Y32.449714 Z-0.125000 I0.638759 J-0.638759
G03 X155.792819 Y32.340120 Z-0.125000 I0.154989 J0.000000
G01 X161.949793 Y38.497095 Z-0.125000
G02 X162.588552 Y38.761678 Z-0.125000 I0.638759 J-0.638759
G02 X162.698146 Y38.497095 Z-0.125000 I0.000000 J-0.154989
G01 X155.792819 Y31.591768 Z-0.125000
G03 X155.528234 Y30.953005 Z-0.125000 I0.638763 J-0.638763
G03 X155.792819 Y30.843410 Z-0.125000 I0.154990 J0.000000
G01 X163.446499 Y38.497095 Z-0.125000
G02 X164.085263 Y38.761677 Z-0.125000 I0.638764 J-0.638772
G02 X164.194856 Y38.497095 Z-0.125000 I0.000000 J-0.154989
G01 X155.792819 Y30.095057 Z-0.125000
G03 X155.528236 Y29.456298 Z-0.125000 I0.638759 J-0.638759
G03 X155.792819 Y29.346705 Z-0.125000 I0.154989 J-0.000000
G01 X164.943209 Y38.497095 Z-0.125000
G02 X165.581968 Y38.761678 Z-0.125000 I0.638759 J-0.638759
G02 X165.691562 Y38.497095 Z-0.125000 I0.000000 J-0.154989
G01 X155.792819 Y28.598352 Z-0.125000
G03 X155.528234 Y27.959589 Z-0.125000 I0.638763 J-0.638763
G03 X155.792819 Y27.849994 Z-0.125000 I0.154990 J0.000000
G01 X160.095612 Y32.152788 Z-0.125000
G02 X160.360452 Y32.043513 Z-0.125000 I0.109700 J-0.109700
G02 X160.097549 Y31.406527 Z-0.125000 I-0.897166 J-0.002460
G01 X155.792669 Y27.101642 Z-0.125000
G03 X155.528084 Y26.462884 Z-0.125000 I0.638749 J-0.638757
G03 X155.792669 Y26.353289 Z-0.125000 I0.154990 J0.000000
G01 X160.097549 Y30.658169 Z-0.125000
G02 X160.362132 Y30.548576 Z-0.125000 I0.109594 J-0.109593
G02 X160.097549 Y29.909817 Z-0.125000 I-0.903343 J-0.000000
G01 X155.792669 Y25.604936 Z-0.125000
G03 X155.528083 Y24.966175 Z-0.125000 I0.638753 J-0.638761
G03 X155.792669 Y24.856579 Z-0.125000 I0.154991 J0.000000
G01 X160.097549 Y29.161464 Z-0.125000
G02 X160.362132 Y29.051870 Z-0.125000 I0.109594 J-0.109594
G02 X160.097549 Y28.413111 Z-0.125000 I-0.903342 J0.000000
G01 X155.792669 Y24.108226 Z-0.125000
G03 X155.528084 Y23.469469 Z-0.125000 I0.638749 J-0.638757
G03 X155.792669 Y23.359873 Z-0.125000 I0.154990 J0.000000
G01 X160.097549 Y27.664753 Z-0.125000
G02 X160.362895 Y27.555927 Z-0.125000 I0.109912 J-0.109912
G02 X160.102730 Y26.921592 Z-0.125000 I-0.888283 J-0.006201
G01 X155.792659 Y22.611516 Z-0.125000
G03 X155.528075 Y21.972758 Z-0.125000 I0.638749 J-0.638757
G03 X155.792659 Y21.863163 Z-0.125000 I0.154990 J-0.000000
G01 X160.247989 Y26.318493 Z-0.125000
G02 X160.608366 Y26.304703 Z-0.125000 I0.173801 J-0.173801
G02 X160.593481 Y25.915637 Z-0.125000 I-0.217460 J-0.186498
G01 X155.792659 Y21.114810 Z-0.125000
G03 X155.528075 Y20.476053 Z-0.125000 I0.638749 J-0.638757
G03 X155.792659 Y20.366457 Z-0.125000 I0.154990 J-0.000000
G01 X161.127995 Y25.701793 Z-0.125000
G02 X161.739280 Y25.938902 Z-0.125000 I0.574447 J-0.574447
G02 X161.843852 Y25.669303 Z-0.125000 I-0.007166 J-0.157860
G01 X155.792659 Y19.618109 Z-0.125000
G03 X155.528075 Y18.979352 Z-0.125000 I0.638749 J-0.638757
G03 X155.792659 Y18.869757 Z-0.125000 I0.154990 J-0.000000
G01 X162.592205 Y25.669303 Z-0.125000
G02 X163.230964 Y25.933885 Z-0.125000 I0.638759 J-0.638759
G02 X163.340558 Y25.669303 Z-0.125000 I0.000000 J-0.154989
G01 X155.792659 Y18.121404 Z-0.125000
G03 X155.528073 Y17.482643 Z-0.125000 I0.638753 J-0.638761
G03 X155.792659 Y17.373046 Z-0.125000 I0.154991 J-0.000000
G01 X164.088910 Y25.669303 Z-0.125000
G02 X164.727674 Y25.933887 Z-0.125000 I0.638763 J-0.638763
G02 X164.837268 Y25.669303 Z-0.125000 I0.000000 J-0.154990
G01 X155.792659 Y16.624694 Z-0.125000
G03 X155.528075 Y15.985936 Z-0.125000 I0.638749 J-0.638757
G03 X155.792659 Y15.876341 Z-0.125000 I0.154990 J-0.000000
G01 X165.585621 Y25.669303 Z-0.125000
G02 X166.224380 Y25.933885 Z-0.125000 I0.638759 J-0.638759
G02 X166.333974 Y25.669303 Z-0.125000 I0.000000 J-0.154989
G01 X162.003619 Y21.338948 Z-0.125000
G03 X162.116794 Y21.077945 Z-0.125000 I0.108144 J-0.108146
G03 X162.777446 Y21.364418 Z-0.125000 I-0.032234 J0.979359
G01 X167.082326 Y25.669298 Z-0.125000
G02 X167.690617 Y25.903412 Z-0.125000 I0.567683 J-0.567683
G02 X167.794605 Y25.633224 Z-0.125000 I-0.008012 J-0.158189
G01 X163.525799 Y21.364418 Z-0.125000
G03 X163.635394 Y21.099833 Z-0.125000 I0.109595 J-0.109594
G03 X164.274151 Y21.364418 Z-0.125000 I0.000000 J0.903333
G01 X167.794605 Y24.884866 Z-0.125000
G02 X168.059188 Y24.775273 Z-0.125000 I0.109594 J-0.109594
G02 X167.794605 Y24.136514 Z-0.125000 I-0.903342 J0.000000
G01 X165.022509 Y21.364418 Z-0.125000
G03 X165.132104 Y21.099833 Z-0.125000 I0.109595 J-0.109594
G03 X165.770862 Y21.364418 Z-0.125000 I0.000000 J0.903333
G01 X167.794605 Y23.388161 Z-0.125000
G02 X168.059187 Y23.278567 Z-0.125000 I0.109594 J-0.109594
G02 X167.794605 Y22.639803 Z-0.125000 I-0.903355 J0.000000
G01 X166.519214 Y21.364418 Z-0.125000
G03 X166.628810 Y21.099834 Z-0.125000 I0.109595 J-0.109594
G03 X167.267572 Y21.364418 Z-0.125000 I0.000000 J0.903346
G01 X167.905267 Y22.002113 Z-0.125000
G02 X168.169852 Y21.892518 Z-0.125000 I0.109594 J-0.109594
G02 X167.905267 Y21.253755 Z-0.125000 I-0.903348 J0.000000
G01 X167.735289 Y21.083782 Z-0.125000
G00 Z5.000000

(End cutting path id: path1488)


(Start cutting path id: path1488)
(Change tool to Default tool)

G00 Z5.000000
G00 X151.451850 Y29.227772

G01 Z-0.125000 F100.0(Penetrate)
G01 X142.811254 Y20.587177 Z-0.125000 F400.000000
G03 X142.695631 Y20.097375 Z-0.125000 I0.338441 J-0.338441
G03 X142.998350 Y20.025914 Z-0.125000 I0.173442 J0.057817
G01 X151.171219 Y28.198783 Z-0.125000
G02 X151.435801 Y28.089190 Z-0.125000 I0.109594 J-0.109594
G02 X151.171219 Y27.450431 Z-0.125000 I-0.903342 J-0.000000
G01 X143.185440 Y19.464657 Z-0.125000
G03 X143.069817 Y18.974855 Z-0.125000 I0.338441 J-0.338441
G03 X143.372536 Y18.903395 Z-0.125000 I0.173442 J0.057817
G01 X151.171219 Y26.702078 Z-0.125000
G02 X151.435803 Y26.592484 Z-0.125000 I0.109594 J-0.109594
G02 X151.171219 Y25.953720 Z-0.125000 I-0.903348 J0.000000
G01 X143.559631 Y18.342133 Z-0.125000
G03 X143.444008 Y17.852335 Z-0.125000 I0.338439 J-0.338439
G03 X143.746722 Y17.780876 Z-0.125000 I0.173440 J0.057815
G01 X151.171219 Y25.205368 Z-0.125000
G02 X151.435801 Y25.095774 Z-0.125000 I0.109594 J-0.109594
G02 X151.171219 Y24.457015 Z-0.125000 I-0.903342 J-0.000000
G01 X143.933817 Y17.219613 Z-0.125000
G03 X143.818194 Y16.729813 Z-0.125000 I0.338441 J-0.338441
G03 X144.120913 Y16.658351 Z-0.125000 I0.173443 J0.057816
G01 X151.171219 Y23.708662 Z-0.125000
G02 X151.435803 Y23.599068 Z-0.125000 I0.109594 J-0.109594
G02 X151.171219 Y22.960305 Z-0.125000 I-0.903348 J0.000000
G01 X144.308003 Y16.097094 Z-0.125000
G03 X144.192380 Y15.607292 Z-0.125000 I0.338441 J-0.338441
G03 X144.495099 Y15.535832 Z-0.125000 I0.173442 J0.057817
G01 X151.171219 Y22.211952 Z-0.125000
G02 X151.435801 Y22.102358 Z-0.125000 I0.109594 J-0.109594
G02 X151.171219 Y21.463599 Z-0.125000 I-0.903342 J-0.000000
G01 X144.682190 Y14.974575 Z-0.125000
G03 X144.566568 Y14.484772 Z-0.125000 I0.338445 J-0.338440
G03 X144.869285 Y14.413313 Z-0.125000 I0.173441 J0.057816
G01 X151.171219 Y20.715246 Z-0.125000
G02 X151.435803 Y20.605652 Z-0.125000 I0.109594 J-0.109594
G02 X151.171219 Y19.966889 Z-0.125000 I-0.903348 J0.000000
G01 X145.056380 Y13.852050 Z-0.125000
G03 X144.940757 Y13.362253 Z-0.125000 I0.338439 J-0.338439
G03 X145.243471 Y13.290793 Z-0.125000 I0.173440 J0.057815
G01 X151.171219 Y19.218536 Z-0.125000
G02 X151.435801 Y19.108942 Z-0.125000 I0.109594 J-0.109594
G02 X151.171219 Y18.470183 Z-0.125000 I-0.903342 J0.000000
G01 X145.430566 Y12.729531 Z-0.125000
G03 X145.314943 Y12.239731 Z-0.125000 I0.338441 J-0.338441
G03 X145.617662 Y12.168269 Z-0.125000 I0.173443 J0.057816
G01 X151.171219 Y17.721831 Z-0.125000
G02 X151.435803 Y17.612236 Z-0.125000 I0.109594 J-0.109594
G02 X151.171219 Y16.973473 Z-0.125000 I-0.903348 J0.000000
G01 X145.804753 Y11.607012 Z-0.125000
G03 X145.689129 Y11.117210 Z-0.125000 I0.338441 J-0.338441
G03 X145.991848 Y11.045749 Z-0.125000 I0.173442 J0.057817
G01 X151.171219 Y16.225120 Z-0.125000
G02 X151.435801 Y16.115527 Z-0.125000 I0.109594 J-0.109594
G02 X151.171219 Y15.476768 Z-0.125000 I-0.903342 J0.000000
G01 X146.178939 Y10.484492 Z-0.125000
G03 X146.063315 Y9.994690 Z-0.125000 I0.338441 J-0.338441
G03 X146.366034 Y9.923230 Z-0.125000 I0.173442 J0.057817
G01 X151.171219 Y14.728415 Z-0.125000
G02 X151.435803 Y14.618820 Z-0.125000 I0.109594 J-0.109594
G02 X151.171219 Y13.980057 Z-0.125000 I-0.903348 J-0.000000
G01 X146.553129 Y9.361968 Z-0.125000
G03 X146.437506 Y8.872170 Z-0.125000 I0.338439 J-0.338439
G03 X146.740220 Y8.800711 Z-0.125000 I0.173440 J0.057815
G01 X151.171219 Y13.231704 Z-0.125000
G02 X151.435801 Y13.122111 Z-0.125000 I0.109594 J-0.109594
G02 X151.171219 Y12.483352 Z-0.125000 I-0.903342 J0.000000
G01 X147.223979 Y8.536112 Z-0.125000
G03 X147.333573 Y8.271530 Z-0.125000 I0.109594 J-0.109594
G03 X147.972337 Y8.536112 Z-0.125000 I0.000000 J0.903355
G01 X151.171219 Y11.734999 Z-0.125000
G02 X151.435801 Y11.625405 Z-0.125000 I0.109594 J-0.109594
G02 X151.171219 Y10.986641 Z-0.125000 I-0.903355 J-0.000000
G01 X148.720689 Y8.536112 Z-0.125000
G03 X148.830283 Y8.271529 Z-0.125000 I0.109594 J-0.109594
G03 X149.469042 Y8.536112 Z-0.125000 I0.000000 J0.903342
G01 X151.171219 Y10.238289 Z-0.125000
G02 X151.435801 Y10.128695 Z-0.125000 I0.109594 J-0.109594
G02 X151.171219 Y9.489936 Z-0.125000 I-0.903342 J-0.000000
G01 X150.217395 Y8.536112 Z-0.125000
G03 X150.326989 Y8.271527 Z-0.125000 I0.109594 J-0.109594
G03 X150.965752 Y8.536112 Z-0.125000 I-0.000000 J0.903348
G01 X151.451850 Y9.022214 Z-0.125000
G00 Z5.000000

(End cutting path id: path1488)


(Start cutting path id: path1488)
(Change tool to Default tool)

G00 Z5.000000
G00 X146.782579 Y38.777223

G01 Z-0.125000 F100.0(Penetrate)
G01 X146.683654 Y38.678303 Z-0.125000 F400.000000
G03 X146.419070 Y38.039539 Z-0.125000 I0.638763 J-0.638763
G03 X146.683654 Y37.929945 Z-0.125000 I0.154990 J-0.000000
G01 X147.250301 Y38.496592 Z-0.125000
G02 X147.889060 Y38.761174 Z-0.125000 I0.638759 J-0.638759
G02 X147.998654 Y38.496592 Z-0.125000 I0.000000 J-0.154989
G01 X146.865365 Y37.363303 Z-0.125000
G03 X146.600783 Y36.724544 Z-0.125000 I0.638759 J-0.638759
G03 X146.865365 Y36.614951 Z-0.125000 I0.154989 J-0.000000
G01 X148.747006 Y38.496592 Z-0.125000
G02 X149.385766 Y38.761175 Z-0.125000 I0.638760 J-0.638760
G02 X149.495359 Y38.496592 Z-0.125000 I0.000000 J-0.154989
G01 X146.865365 Y35.866598 Z-0.125000
G03 X146.600781 Y35.227835 Z-0.125000 I0.638763 J-0.638763
G03 X146.865365 Y35.118240 Z-0.125000 I0.154990 J0.000000
G01 X150.243717 Y38.496592 Z-0.125000
G02 X150.882476 Y38.761174 Z-0.125000 I0.638759 J-0.638759
G02 X150.992069 Y38.496592 Z-0.125000 I-0.000000 J-0.154989
G01 X146.865365 Y34.369887 Z-0.125000
G03 X146.600783 Y33.731128 Z-0.125000 I0.638759 J-0.638759
G03 X146.865365 Y33.621535 Z-0.125000 I0.154989 J0.000000
G01 X151.171219 Y37.927384 Z-0.125000
G02 X151.435801 Y37.817790 Z-0.125000 I0.109594 J-0.109594
G02 X151.171219 Y37.179031 Z-0.125000 I-0.903342 J-0.000000
G01 X146.865365 Y32.873182 Z-0.125000
G03 X146.600783 Y32.234418 Z-0.125000 I0.638772 J-0.638764
G03 X146.865365 Y32.124824 Z-0.125000 I0.154989 J0.000000
G01 X151.171219 Y36.430678 Z-0.125000
G02 X151.435801 Y36.321084 Z-0.125000 I0.109594 J-0.109594
G02 X151.171219 Y35.682320 Z-0.125000 I-0.903355 J0.000000
G01 X146.865365 Y31.376472 Z-0.125000
G03 X146.600783 Y30.737713 Z-0.125000 I0.638759 J-0.638759
G03 X146.865365 Y30.628119 Z-0.125000 I0.154989 J0.000000
G01 X151.171219 Y34.933968 Z-0.125000
G02 X151.435801 Y34.824374 Z-0.125000 I0.109594 J-0.109594
G02 X151.171219 Y34.185615 Z-0.125000 I-0.903342 J-0.000000
G01 X146.865365 Y29.879761 Z-0.125000
G03 X146.600783 Y29.241002 Z-0.125000 I0.638759 J-0.638759
G03 X146.865365 Y29.131409 Z-0.125000 I0.154989 J0.000000
G01 X151.171219 Y33.437262 Z-0.125000
G02 X151.435803 Y33.327668 Z-0.125000 I0.109594 J-0.109594
G02 X151.171219 Y32.688905 Z-0.125000 I-0.903348 J0.000000
G01 X146.865365 Y28.383056 Z-0.125000
G03 X146.600781 Y27.744293 Z-0.125000 I0.638763 J-0.638763
G03 X146.865365 Y27.634698 Z-0.125000 I0.154990 J-0.000000
G01 X151.171219 Y31.940552 Z-0.125000
G02 X151.435801 Y31.830958 Z-0.125000 I0.109594 J-0.109594
G02 X151.171219 Y31.192199 Z-0.125000 I-0.903342 J-0.000000
G01 X146.865365 Y26.886346 Z-0.125000
G03 X146.600783 Y26.247587 Z-0.125000 I0.638759 J-0.638759
G03 X146.865365 Y26.137993 Z-0.125000 I0.154989 J0.000000
G01 X151.171219 Y30.443842 Z-0.125000
G02 X151.435801 Y30.334248 Z-0.125000 I0.109594 J-0.109594
G02 X151.171219 Y29.695489 Z-0.125000 I-0.903342 J-0.000000
G01 X146.503241 Y25.027511 Z-0.125000
G00 Z5.000000

(End cutting path id: path1488)


(Start cutting path id: path1488)
(Change tool to Default tool)

G00 Z5.000000
G00 X137.053974 Y38.777223

G01 Z-0.125000 F100.0(Penetrate)
G01 X136.602934 Y38.326182 Z-0.125000 F400.000000
G03 X136.338351 Y37.687423 Z-0.125000 I0.638759 J-0.638759
G03 X136.602934 Y37.577829 Z-0.125000 I0.154989 J0.000000
G01 X137.521696 Y38.496592 Z-0.125000
G02 X138.160456 Y38.761175 Z-0.125000 I0.638760 J-0.638760
G02 X138.270049 Y38.496592 Z-0.125000 I0.000000 J-0.154989
G01 X136.602934 Y36.829472 Z-0.125000
G03 X136.338351 Y36.190713 Z-0.125000 I0.638759 J-0.638759
G03 X136.602934 Y36.081119 Z-0.125000 I0.154989 J-0.000000
G01 X139.018406 Y38.496592 Z-0.125000
G02 X139.657165 Y38.761174 Z-0.125000 I0.638759 J-0.638759
G02 X139.766759 Y38.496592 Z-0.125000 I0.000000 J-0.154989
G01 X136.602934 Y35.332766 Z-0.125000
G03 X136.338351 Y34.694007 Z-0.125000 I0.638759 J-0.638759
G03 X136.602934 Y34.584414 Z-0.125000 I0.154989 J0.000000
G01 X140.515112 Y38.496592 Z-0.125000
G02 X140.969384 Y38.576685 Z-0.125000 I0.284328 J-0.284328
G02 X141.025468 Y38.258591 Z-0.125000 I-0.083328 J-0.178683
G01 X136.602934 Y33.836056 Z-0.125000
G03 X136.338351 Y33.197297 Z-0.125000 I0.638759 J-0.638759
G03 X136.602934 Y33.087703 Z-0.125000 I0.154989 J0.000000
G01 X141.213072 Y37.697842 Z-0.125000
G02 X141.515933 Y37.626524 Z-0.125000 I0.129364 J-0.129364
G02 X141.400681 Y37.137093 Z-0.125000 I-0.453092 J-0.151590
G01 X136.602934 Y32.339351 Z-0.125000
G03 X136.338351 Y31.700591 Z-0.125000 I0.638760 J-0.638760
G03 X136.602934 Y31.590998 Z-0.125000 I0.154989 J-0.000000
G01 X141.588285 Y36.576344 Z-0.125000
G02 X141.891144 Y36.505027 Z-0.125000 I0.129364 J-0.129363
G02 X141.775894 Y36.015600 Z-0.125000 I-0.453089 J-0.151590
G01 X136.602934 Y30.842640 Z-0.125000
G03 X136.338351 Y30.203881 Z-0.125000 I0.638759 J-0.638759
G03 X136.602934 Y30.094288 Z-0.125000 I0.154989 J0.000000
G01 X141.963497 Y35.454851 Z-0.125000
G02 X142.266359 Y35.383531 Z-0.125000 I0.129364 J-0.129366
G02 X142.151106 Y34.894102 Z-0.125000 I-0.453093 J-0.151588
G01 X136.602934 Y29.345935 Z-0.125000
G03 X136.338349 Y28.707172 Z-0.125000 I0.638763 J-0.638763
G03 X136.602934 Y28.597577 Z-0.125000 I0.154990 J-0.000000
G01 X142.338715 Y34.333354 Z-0.125000
G02 X142.641571 Y34.262036 Z-0.125000 I0.129363 J-0.129361
G02 X142.526319 Y33.772609 Z-0.125000 I-0.453093 J-0.151587
G01 X136.602939 Y27.849224 Z-0.125000
G03 X136.338354 Y27.210467 Z-0.125000 I0.638749 J-0.638757
G03 X136.602939 Y27.100872 Z-0.125000 I0.154990 J0.000000
G01 X142.713927 Y33.211861 Z-0.125000
G02 X143.016786 Y33.140542 Z-0.125000 I0.129363 J-0.129363
G02 X142.901531 Y32.651112 Z-0.125000 I-0.453092 J-0.151589
G01 X136.602939 Y26.352514 Z-0.125000
G03 X136.338354 Y25.713757 Z-0.125000 I0.638749 J-0.638757
G03 X136.602939 Y25.604161 Z-0.125000 I0.154990 J-0.000000
G01 X143.089140 Y32.090368 Z-0.125000
G02 X143.392001 Y32.019050 Z-0.125000 I0.129364 J-0.129364
G02 X143.276749 Y31.529619 Z-0.125000 I-0.453092 J-0.151590
G01 X136.602939 Y24.855809 Z-0.125000
G03 X136.338354 Y24.217051 Z-0.125000 I0.638750 J-0.638758
G03 X136.602939 Y24.107456 Z-0.125000 I0.154990 J0.000000
G01 X143.464353 Y30.968870 Z-0.125000
G02 X143.767211 Y30.897553 Z-0.125000 I0.129364 J-0.129364
G02 X143.651961 Y30.408121 Z-0.125000 I-0.453094 J-0.151592
G01 X136.602939 Y23.359098 Z-0.125000
G03 X136.338356 Y22.720339 Z-0.125000 I0.638759 J-0.638759
G03 X136.602939 Y22.610746 Z-0.125000 I0.154989 J-0.000000
G01 X143.839565 Y29.847377 Z-0.125000
G02 X144.142426 Y29.776059 Z-0.125000 I0.129364 J-0.129364
G02 X144.027174 Y29.286628 Z-0.125000 I-0.453092 J-0.151590
G01 X136.602939 Y21.862393 Z-0.125000
G03 X136.338354 Y21.223630 Z-0.125000 I0.638763 J-0.638763
G03 X136.602939 Y21.114035 Z-0.125000 I0.154990 J0.000000
G01 X144.214778 Y28.725879 Z-0.125000
G02 X144.517637 Y28.654560 Z-0.125000 I0.129364 J-0.129365
G02 X144.402386 Y28.165135 Z-0.125000 I-0.453088 J-0.151588
G01 X136.602939 Y20.365683 Z-0.125000
G03 X136.338356 Y19.726924 Z-0.125000 I0.638759 J-0.638759
G03 X136.602939 Y19.617330 Z-0.125000 I0.154989 J-0.000000
G01 X144.589995 Y27.604387 Z-0.125000
G02 X144.892853 Y27.533068 Z-0.125000 I0.129363 J-0.129363
G02 X144.777599 Y27.043638 Z-0.125000 I-0.453096 J-0.151588
G01 X136.602939 Y18.868977 Z-0.125000
G03 X136.338356 Y18.230213 Z-0.125000 I0.638772 J-0.638764
G03 X136.602939 Y18.120620 Z-0.125000 I0.154989 J0.000000
G01 X144.965208 Y26.482889 Z-0.125000
G02 X145.268064 Y26.411571 Z-0.125000 I0.129362 J-0.129362
G02 X145.152812 Y25.922145 Z-0.125000 I-0.453091 J-0.151587
G01 X141.896952 Y22.666285 Z-0.125000
G03 X141.874535 Y22.269680 Z-0.125000 I0.210854 J-0.210854
G03 X142.228692 Y22.249667 Z-0.125000 I0.186014 J0.148121
G01 X145.340420 Y25.361396 Z-0.125000
G02 X145.644219 Y25.291019 Z-0.125000 I0.129948 J-0.129948
G02 X145.531404 Y24.804027 Z-0.125000 I-0.446733 J-0.153074
G01 X142.437073 Y21.709691 Z-0.125000
G03 X142.321449 Y21.219893 Z-0.125000 I0.338435 J-0.338439
G03 X142.624164 Y21.148434 Z-0.125000 I0.173440 J0.057816
G01 X146.114814 Y24.639084 Z-0.125000
G00 Z5.000000

(End cutting path id: path1488)


(Start cutting path id: path1488)
(Change tool to Default tool)

G00 Z5.000000
G00 X130.998602 Y47.233270

G01 Z-0.125000 F100.0(Penetrate)
G01 X129.017528 Y45.252195 Z-0.125000 F400.000000
G00 Z5.000000

(End cutting path id: path1488)


(Start cutting path id: path1488)
(Change tool to Default tool)

G00 Z5.000000
G00 X132.394257 Y51.554279

G01 Z-0.125000 F100.0(Penetrate)
G02 X131.808290 Y48.615174 Z-0.125000 I-7.663995 J-0.000000 F400.000000
G02 X130.135883 Y46.114619 Z-0.125000 I-7.136239 J2.963277
G02 X127.635695 Y44.443443 Z-0.125000 I-5.458092 J5.459848
G02 X124.697191 Y43.858182 Z-0.125000 I-2.938504 J7.084254
G02 X121.758687 Y44.443443 Z-0.125000 I0.000000 J7.669516
G02 X119.258500 Y46.114619 Z-0.125000 I2.957904 J7.131024
G02 X117.586669 Y48.615370 Z-0.125000 I5.463464 J5.461707
G02 X117.001094 Y51.554279 Z-0.125000 I7.082166 J2.938909
G01 X122.131825 Y51.554279 Z-0.125000
G03 X122.327909 Y50.557953 Z-0.125000 I2.629267 J0.000000
G03 X122.876062 Y49.732666 Z-0.125000 I2.334638 J0.955975
G03 X123.700722 Y49.184503 Z-0.125000 I1.776603 J1.778339
G03 X124.697675 Y48.988429 Z-0.125000 I0.996954 J2.436505
G03 X126.216057 Y49.491234 Z-0.125000 I0.000000 J2.544023
G03 X127.109061 Y50.784379 Z-0.125000 I-1.460624 J1.963572
G03 X127.201661 Y51.459476 Z-0.125000 I-3.687153 J0.849648
G03 X127.263041 Y54.119161 Z-0.125000 I-57.593089 J2.659685
G03 X127.067635 Y55.115190 Z-0.125000 I-2.636193 J0.000000
G03 X126.518804 Y55.941258 Z-0.125000 I-2.322767 J-0.947868
G03 X125.694153 Y56.489553 Z-0.125000 I-1.774295 J-1.774295
G03 X124.697191 Y56.685495 Z-0.125000 I-0.996961 J-2.438318
G02 X121.758687 Y57.270756 Z-0.125000 I0.000000 J7.669516
G02 X119.258500 Y58.941932 Z-0.125000 I2.957904 J7.131024
G02 X117.586659 Y61.442065 Z-0.125000 I5.455161 J5.456917
G02 X117.001094 Y64.381592 Z-0.125000 I7.085406 J2.939528
G01 X117.001094 Y66.946474 Z-0.125000
G02 X117.586885 Y69.884866 Z-0.125000 I7.662543 J0.000000
G02 X119.258500 Y72.385165 Z-0.125000 I7.140145 J-2.964715
G02 X121.758976 Y74.057249 Z-0.125000 I5.464875 J-5.466633
G02 X124.697191 Y74.643055 Z-0.125000 I2.938215 J-7.075665
G02 X127.636027 Y74.056992 Z-0.125000 I-0.000000 J-7.661479
G02 X130.135883 Y72.385165 Z-0.125000 I-2.965024 J-7.138465
G02 X131.808331 Y69.884442 Z-0.125000 I-5.468894 J-5.467135
G02 X132.394257 Y66.946474 Z-0.125000 I-7.072867 J-2.937968
G01 X127.262557 Y66.946474 Z-0.125000
G03 X127.067068 Y67.941979 Z-0.125000 I-2.632497 J0.000000
G03 X126.518320 Y68.767603 Z-0.125000 I-2.323516 J-0.949144
G03 X125.693408 Y69.316276 Z-0.125000 I-1.769721 J-1.766268
G03 X124.696707 Y69.511840 Z-0.125000 I-0.996701 J-2.442085
G03 X123.178645 Y69.009012 Z-0.125000 I0.000000 J-2.542966
G03 X122.285321 Y67.716374 Z-0.125000 I1.462876 J-1.965974
G03 X122.193011 Y67.041912 Z-0.125000 I3.704734 J-0.850597
G03 X122.131341 Y64.381592 Z-0.125000 I57.349894 J-2.660320
G03 X122.327343 Y63.384742 Z-0.125000 I2.632951 J0.000000
G03 X122.875578 Y62.559011 Z-0.125000 I2.333874 J0.954686
G03 X123.700252 Y62.011360 Z-0.125000 I1.772249 J1.773981
G03 X124.697191 Y61.815742 Z-0.125000 I0.996940 J2.442579
G02 X127.636020 Y61.229903 Z-0.125000 I0.000000 J-7.664156
G02 X130.135883 Y59.558337 Z-0.125000 I-2.962754 J-7.135941
G02 X131.808419 Y57.057471 Z-0.125000 I-5.463829 J-5.463829
G02 X132.394257 Y54.118677 Z-0.125000 I-7.078153 J-2.938795
G01 X132.394257 Y51.554279 Z-0.125000
G00 Z5.000000

(End cutting path id: path1488)


(Start cutting path id: path1488)
(Change tool to Default tool)

G00 Z5.000000
G00 X132.394257 Y51.554279

G01 Z-0.125000 F100.0(Penetrate)
G02 X131.808290 Y48.615174 Z-0.125000 I-7.663995 J0.000000 F400.000000
G02 X130.135883 Y46.114619 Z-0.125000 I-7.136239 J2.963277
G02 X127.635695 Y44.443443 Z-0.125000 I-5.458092 J5.459848
G02 X124.697191 Y43.858182 Z-0.125000 I-2.938504 J7.084254
G02 X121.758687 Y44.443443 Z-0.125000 I0.000000 J7.669516
G02 X119.258500 Y46.114619 Z-0.125000 I2.957904 J7.131024
G02 X117.586669 Y48.615370 Z-0.125000 I5.463464 J5.461707
G02 X117.001094 Y51.554279 Z-0.125000 I7.082166 J2.938909
G01 X122.131825 Y51.554279 Z-0.125000
G03 X122.327909 Y50.557953 Z-0.125000 I2.629267 J0.000000
G03 X122.876062 Y49.732666 Z-0.125000 I2.334638 J0.955975
G03 X123.700722 Y49.184503 Z-0.125000 I1.776603 J1.778339
G03 X124.697675 Y48.988429 Z-0.125000 I0.996954 J2.436505
G03 X126.216057 Y49.491234 Z-0.125000 I0.000000 J2.544023
G03 X127.109061 Y50.784379 Z-0.125000 I-1.460624 J1.963572
G03 X127.201661 Y51.459476 Z-0.125000 I-3.687153 J0.849648
G03 X127.263041 Y54.119161 Z-0.125000 I-57.593089 J2.659685
G03 X127.067635 Y55.115190 Z-0.125000 I-2.636193 J0.000000
G03 X126.518804 Y55.941258 Z-0.125000 I-2.322767 J-0.947868
G03 X125.694153 Y56.489553 Z-0.125000 I-1.774295 J-1.774295
G03 X124.697191 Y56.685495 Z-0.125000 I-0.996961 J-2.438318
G02 X121.758687 Y57.270756 Z-0.125000 I0.000000 J7.669516
G02 X119.258500 Y58.941932 Z-0.125000 I2.957904 J7.131024
G02 X117.586659 Y61.442065 Z-0.125000 I5.455161 J5.456917
G02 X117.001094 Y64.381592 Z-0.125000 I7.085406 J2.939528
G01 X117.001094 Y66.946474 Z-0.125000
G02 X117.586885 Y69.884866 Z-0.125000 I7.662543 J0.000000
G02 X119.258500 Y72.385165 Z-0.125000 I7.140145 J-2.964715
G02 X121.758976 Y74.057249 Z-0.125000 I5.464875 J-5.466633
G02 X124.697191 Y74.643055 Z-0.125000 I2.938215 J-7.075665
G02 X127.636027 Y74.056992 Z-0.125000 I-0.000000 J-7.661479
G02 X130.135883 Y72.385165 Z-0.125000 I-2.965024 J-7.138465
G02 X131.808331 Y69.884442 Z-0.125000 I-5.468894 J-5.467135
G02 X132.394257 Y66.946474 Z-0.125000 I-7.072867 J-2.937968
G01 X127.262557 Y66.946474 Z-0.125000
G03 X127.067068 Y67.941979 Z-0.125000 I-2.632497 J0.000000
G03 X126.518320 Y68.767603 Z-0.125000 I-2.323516 J-0.949144
G03 X125.693408 Y69.316276 Z-0.125000 I-1.769721 J-1.766268
G03 X124.696707 Y69.511840 Z-0.125000 I-0.996701 J-2.442085
G03 X123.178645 Y69.009012 Z-0.125000 I0.000000 J-2.542966
G03 X122.285321 Y67.716374 Z-0.125000 I1.462876 J-1.965974
G03 X122.193011 Y67.041912 Z-0.125000 I3.704734 J-0.850597
G03 X122.131341 Y64.381592 Z-0.125000 I57.349894 J-2.660320
G03 X122.327343 Y63.384742 Z-0.125000 I2.632951 J0.000000
G03 X122.875578 Y62.559011 Z-0.125000 I2.333874 J0.954686
G03 X123.700252 Y62.011360 Z-0.125000 I1.772249 J1.773981
G03 X124.697191 Y61.815742 Z-0.125000 I0.996940 J2.442579
G02 X127.636020 Y61.229903 Z-0.125000 I0.000000 J-7.664156
G02 X130.135883 Y59.558337 Z-0.125000 I-2.962754 J-7.135941
G02 X131.808419 Y57.057471 Z-0.125000 I-5.463829 J-5.463829
G02 X132.394257 Y54.118677 Z-0.125000 I-7.078153 J-2.938795
G01 X132.394257 Y51.554279 Z-0.125000
G00 Z5.000000

(End cutting path id: path1488)


(Start cutting path id: path1488)
(Change tool to Default tool)

G00 Z5.000000
G00 X132.217078 Y55.186954

G01 Z-0.125000 F100.0(Penetrate)
G01 X121.923933 Y44.893809 Z-0.125000 F400.000000
G03 X121.987383 Y44.583083 Z-0.125000 I0.134398 J-0.134398
G03 X122.457571 Y44.679094 Z-0.125000 I0.162452 J0.403747
G01 X131.974516 Y54.196039 Z-0.125000
G02 X132.240090 Y54.087432 Z-0.125000 I0.110007 J-0.110007
G02 X131.981198 Y53.454349 Z-0.125000 I-0.884054 J-0.007953
G01 X123.035112 Y44.508268 Z-0.125000
G03 X123.121097 Y44.220077 Z-0.125000 I0.120862 J-0.120862
G03 X123.654388 Y44.379191 Z-0.125000 I0.119428 J0.572972
G01 X131.981198 Y52.705997 Z-0.125000
G02 X132.245781 Y52.596403 Z-0.125000 I0.109594 J-0.109594
G02 X131.981198 Y51.957644 Z-0.125000 I-0.903342 J-0.000000
G01 X124.321659 Y44.298105 Z-0.125000
G03 X124.426891 Y44.029162 Z-0.125000 I0.111450 J-0.111450
G03 X125.041584 Y44.269681 Z-0.125000 I0.032486 J0.822719
G01 X131.981198 Y51.209296 Z-0.125000
G02 X132.240216 Y51.094132 Z-0.125000 I0.107371 J-0.107371
G02 X131.940670 Y50.420400 Z-0.125000 I-1.026032 J0.052725
G01 X125.831927 Y44.311658 Z-0.125000
G03 X125.959242 Y44.064796 Z-0.125000 I0.103093 J-0.103093
G03 X126.731902 Y44.463280 Z-0.125000 I-0.237283 J1.408427
G01 X131.789140 Y49.520513 Z-0.125000
G02 X132.022278 Y49.379472 Z-0.125000 I0.099212 J-0.099212
G02 X131.449236 Y48.432256 Z-0.125000 I-2.210670 J0.690455
G01 X127.539469 Y44.522490 Z-0.125000
G00 Z5.000000

(End cutting path id: path1488)


(Start cutting path id: path1488)
(Change tool to Default tool)

G00 Z5.000000
G00 X121.801466 Y38.223621

G01 Z-0.125000 F100.0(Penetrate)
G01 X117.966922 Y34.389077 Z-0.125000 F400.000000
G03 X117.382887 Y33.430860 Z-0.125000 I1.682763 J-1.682741
G03 X117.615363 Y33.289165 Z-0.125000 I0.133427 J-0.042646
G01 X122.621177 Y38.294979 Z-0.125000
G02 X123.422369 Y38.721993 Z-0.125000 I1.101411 J-1.101411
G02 X123.552461 Y38.477906 Z-0.125000 I0.027865 J-0.141860
G01 X117.432291 Y32.357741 Z-0.125000
G03 X117.139477 Y31.690752 Z-0.125000 I0.709046 J-0.709046
G03 X117.399510 Y31.576592 Z-0.125000 I0.152269 J-0.006392
G01 X124.333111 Y38.510193 Z-0.125000
G02 X124.939256 Y38.742161 Z-0.125000 I0.562863 J-0.562863
G02 X125.042813 Y38.471553 Z-0.125000 I-0.008627 J-0.158420
G01 X117.414027 Y30.842766 Z-0.125000
G03 X117.149444 Y30.204007 Z-0.125000 I0.638759 J-0.638759
G03 X117.414027 Y30.094413 Z-0.125000 I0.154989 J0.000000
G01 X125.712443 Y38.392829 Z-0.125000
G02 X126.247358 Y38.553568 Z-0.125000 I0.416878 J-0.416878
G02 X126.333815 Y38.265849 Z-0.125000 I-0.034150 J-0.167111
G01 X117.414027 Y29.346061 Z-0.125000
G03 X117.149442 Y28.707298 Z-0.125000 I0.638763 J-0.638763
G03 X117.414027 Y28.597703 Z-0.125000 I0.154990 J0.000000
G01 X126.910359 Y38.094035 Z-0.125000
G02 X127.383105 Y38.192605 Z-0.125000 I0.311624 J-0.311624
G02 X127.447662 Y37.882986 Z-0.125000 I-0.069112 J-0.175950
G01 X117.414027 Y27.849350 Z-0.125000
G03 X117.149444 Y27.210591 Z-0.125000 I0.638759 J-0.638759
G03 X117.414027 Y27.100998 Z-0.125000 I0.154989 J-0.000000
G01 X121.760099 Y31.447070 Z-0.125000
G02 X122.018901 Y31.331701 Z-0.125000 I0.107289 J-0.107289
G02 X121.717924 Y30.656557 Z-0.125000 I-1.031074 J0.054990
G01 X117.414007 Y26.352645 Z-0.125000
G03 X117.149425 Y25.713881 Z-0.125000 I0.638772 J-0.638764
G03 X117.414007 Y25.604287 Z-0.125000 I0.154989 J-0.000000
G01 X121.717924 Y29.908204 Z-0.125000
G02 X121.982506 Y29.798611 Z-0.125000 I0.109594 J-0.109594
G02 X121.717924 Y29.159847 Z-0.125000 I-0.903355 J0.000000
G01 X117.414007 Y24.855935 Z-0.125000
G03 X117.149425 Y24.217176 Z-0.125000 I0.638759 J-0.638759
G03 X117.414007 Y24.107582 Z-0.125000 I0.154989 J-0.000000
G01 X121.717924 Y28.411494 Z-0.125000
G02 X121.982507 Y28.301900 Z-0.125000 I0.109594 J-0.109594
G02 X121.717924 Y27.663141 Z-0.125000 I-0.903342 J-0.000000
G01 X117.414007 Y23.359224 Z-0.125000
G03 X117.149425 Y22.720465 Z-0.125000 I0.638759 J-0.638759
G03 X117.414007 Y22.610872 Z-0.125000 I0.154989 J-0.000000
G01 X121.717924 Y26.914788 Z-0.125000
G02 X121.982509 Y26.805194 Z-0.125000 I0.109594 J-0.109594
G02 X121.717924 Y26.166431 Z-0.125000 I-0.903348 J-0.000000
G01 X117.414007 Y21.862519 Z-0.125000
G03 X117.149423 Y21.223756 Z-0.125000 I0.638763 J-0.638763
G03 X117.414007 Y21.114161 Z-0.125000 I0.154990 J-0.000000
G01 X121.717924 Y25.418078 Z-0.125000
G02 X121.982507 Y25.308484 Z-0.125000 I0.109594 J-0.109594
G02 X121.717924 Y24.669725 Z-0.125000 I-0.903342 J-0.000000
G01 X117.414007 Y20.365808 Z-0.125000
G03 X117.149425 Y19.727049 Z-0.125000 I0.638759 J-0.638759
G03 X117.414007 Y19.617456 Z-0.125000 I0.154989 J-0.000000
G01 X121.717924 Y23.921368 Z-0.125000
G02 X121.982507 Y23.811774 Z-0.125000 I0.109594 J-0.109594
G02 X121.717924 Y23.173015 Z-0.125000 I-0.903342 J-0.000000
G01 X117.414007 Y18.869103 Z-0.125000
G03 X117.149425 Y18.230339 Z-0.125000 I0.638772 J-0.638764
G03 X117.414007 Y18.120745 Z-0.125000 I0.154989 J-0.000000
G01 X121.717924 Y22.424662 Z-0.125000
G02 X121.982506 Y22.315069 Z-0.125000 I0.109594 J-0.109594
G02 X121.717924 Y21.676305 Z-0.125000 I-0.903355 J0.000000
G01 X117.414007 Y17.372393 Z-0.125000
G03 X117.149425 Y16.733634 Z-0.125000 I0.638759 J-0.638759
G03 X117.414007 Y16.624040 Z-0.125000 I0.154989 J-0.000000
G01 X121.717924 Y20.927952 Z-0.125000
G02 X121.982507 Y20.818358 Z-0.125000 I0.109594 J-0.109594
G02 X121.717924 Y20.179599 Z-0.125000 I-0.903342 J-0.000000
G01 X117.418961 Y15.880636 Z-0.125000
G03 X117.194310 Y15.281809 Z-0.125000 I0.546618 J-0.546618
G03 X117.466414 Y15.179726 Z-0.125000 I0.159245 J0.010780
G01 X121.717934 Y19.431246 Z-0.125000
G02 X121.982516 Y19.321653 Z-0.125000 I0.109594 J-0.109594
G02 X121.717934 Y18.682889 Z-0.125000 I-0.903355 J-0.000000
G01 X117.566099 Y14.531059 Z-0.125000
G03 X117.419194 Y14.009975 Z-0.125000 I0.391671 J-0.391671
G03 X117.711082 Y13.927685 Z-0.125000 I0.168992 J0.040607
G01 X121.717934 Y17.934536 Z-0.125000
G02 X121.982517 Y17.824942 Z-0.125000 I0.109594 J-0.109594
G02 X121.717934 Y17.186183 Z-0.125000 I-0.903342 J-0.000000
G01 X117.902725 Y13.370974 Z-0.125000
G03 X117.813534 Y12.907607 Z-0.125000 I0.297539 J-0.297539
G03 X118.127313 Y12.847209 Z-0.125000 I0.177339 J0.076042
G01 X121.717934 Y16.437831 Z-0.125000
G02 X121.982518 Y16.328236 Z-0.125000 I0.109594 J-0.109594
G02 X121.717934 Y15.689473 Z-0.125000 I-0.903348 J-0.000000
G01 X118.388018 Y12.359558 Z-0.125000
G03 X118.340581 Y11.937944 Z-0.125000 I0.240540 J-0.240540
G03 X118.676915 Y11.900101 Z-0.125000 I0.183261 J0.115231
G01 X121.767571 Y14.990757 Z-0.125000
G02 X122.068502 Y14.917512 Z-0.125000 I0.128181 J-0.128181
G02 X121.948129 Y14.422963 Z-0.125000 I-0.466551 J-0.148366
G01 X118.996060 Y11.470894 Z-0.125000
G03 X118.979593 Y11.080260 Z-0.125000 I0.204276 J-0.204276
G03 X119.338642 Y11.065118 Z-0.125000 I0.186483 J0.157435
G01 X122.224204 Y13.950685 Z-0.125000
G02 X122.588037 Y13.940351 Z-0.125000 I0.177035 J-0.177035
G02 X122.577104 Y13.555232 Z-0.125000 I-0.209289 J-0.186773
G01 X119.706523 Y10.684652 Z-0.125000
G03 X119.714393 Y10.318352 Z-0.125000 I0.179380 J-0.179380
G03 X120.096790 Y10.326566 Z-0.125000 I0.186911 J0.203704
G01 X123.000530 Y13.230300 Z-0.125000
G02 X123.453151 Y13.308745 Z-0.125000 I0.281979 J-0.281979
G02 X123.508422 Y12.989840 Z-0.125000 I-0.084711 J-0.178924
G01 X120.509433 Y9.990850 Z-0.125000
G03 X120.540611 Y9.647853 Z-0.125000 I0.158508 J-0.158508
G03 X120.952203 Y9.685268 Z-0.125000 I0.183347 J0.265657
G01 X124.121727 Y12.854787 Z-0.125000
G02 X124.777109 Y13.135998 Z-0.125000 I0.679635 J-0.679626
G02 X124.889463 Y12.874156 Z-0.125000 I0.003871 J-0.153365
G01 X121.420365 Y9.405063 Z-0.125000
G03 X121.474019 Y9.084538 Z-0.125000 I0.141129 J-0.141129
G03 X121.923425 Y9.159765 Z-0.125000 I0.171965 J0.352668
G01 X131.981334 Y19.217674 Z-0.125000
G03 X132.245916 Y19.856433 Z-0.125000 I-0.638759 J0.638759
G03 X131.981334 Y19.966027 Z-0.125000 I-0.154989 J0.000000
G01 X127.643614 Y15.628312 Z-0.125000
G02 X127.383467 Y15.742343 Z-0.125000 I-0.107809 J0.107809
G02 X127.675475 Y16.408531 Z-0.125000 I0.999006 J-0.040800
G01 X131.981329 Y20.714380 Z-0.125000
G03 X132.245911 Y21.353144 Z-0.125000 I-0.638772 J0.638764
G03 X131.981329 Y21.462737 Z-0.125000 I-0.154989 J0.000000
G01 X127.675475 Y17.156884 Z-0.125000
G02 X127.410893 Y17.266477 Z-0.125000 I-0.109594 J0.109594
G02 X127.675475 Y17.905241 Z-0.125000 I0.903355 J0.000000
G01 X131.981329 Y22.211090 Z-0.125000
G03 X132.245912 Y22.849849 Z-0.125000 I-0.638759 J0.638759
G03 X131.981329 Y22.959443 Z-0.125000 I-0.154989 J0.000000
G01 X127.675475 Y18.653594 Z-0.125000
G02 X127.410893 Y18.763188 Z-0.125000 I-0.109594 J0.109594
G02 X127.675475 Y19.401947 Z-0.125000 I0.903342 J0.000000
G01 X131.981329 Y23.707800 Z-0.125000
G03 X132.245912 Y24.346559 Z-0.125000 I-0.638759 J0.638759
G03 X131.981329 Y24.456153 Z-0.125000 I-0.154989 J0.000000
G01 X127.675475 Y20.150299 Z-0.125000
G02 X127.410891 Y20.259894 Z-0.125000 I-0.109594 J0.109594
G02 X127.675475 Y20.898657 Z-0.125000 I0.903348 J-0.000000
G01 X131.981329 Y25.204506 Z-0.125000
G03 X132.245913 Y25.843269 Z-0.125000 I-0.638763 J0.638763
G03 X131.981329 Y25.952863 Z-0.125000 I-0.154990 J-0.000000
G01 X127.675475 Y21.647010 Z-0.125000
G02 X127.410893 Y21.756603 Z-0.125000 I-0.109594 J0.109594
G02 X127.675475 Y22.395362 Z-0.125000 I0.903342 J0.000000
G01 X131.981329 Y26.701216 Z-0.125000
G03 X132.245912 Y27.339975 Z-0.125000 I-0.638759 J0.638759
G03 X131.981329 Y27.449569 Z-0.125000 I-0.154989 J0.000000
G01 X127.675475 Y23.143720 Z-0.125000
G02 X127.410893 Y23.253314 Z-0.125000 I-0.109594 J0.109594
G02 X127.675475 Y23.892073 Z-0.125000 I0.903342 J0.000000
G01 X131.981329 Y28.197922 Z-0.125000
G03 X132.245911 Y28.836686 Z-0.125000 I-0.638772 J0.638764
G03 X131.981329 Y28.946279 Z-0.125000 I-0.154989 J0.000000
G01 X127.675475 Y24.640425 Z-0.125000
G02 X127.410893 Y24.750019 Z-0.125000 I-0.109594 J0.109594
G02 X127.675475 Y25.388783 Z-0.125000 I0.903355 J0.000000
G01 X131.981329 Y29.694632 Z-0.125000
G03 X132.245912 Y30.333391 Z-0.125000 I-0.638759 J0.638759
G03 X131.981329 Y30.442985 Z-0.125000 I-0.154989 J0.000000
G01 X127.675475 Y26.137136 Z-0.125000
G02 X127.410893 Y26.246729 Z-0.125000 I-0.109594 J0.109594
G02 X127.675475 Y26.885489 Z-0.125000 I0.903342 J0.000000
G01 X131.975610 Y31.185624 Z-0.125000
G03 X132.197871 Y31.782061 Z-0.125000 I-0.541372 J0.541372
G03 X131.925276 Y31.883642 Z-0.125000 I-0.159511 J-0.011502
G01 X127.675475 Y27.633841 Z-0.125000
G02 X127.410891 Y27.743436 Z-0.125000 I-0.109594 J0.109594
G02 X127.675475 Y28.382199 Z-0.125000 I0.903348 J0.000000
G01 X131.822928 Y32.529652 Z-0.125000
G03 X131.967972 Y33.048869 Z-0.125000 I-0.388355 J0.388355
G03 X131.675499 Y33.130571 Z-0.125000 I-0.169247 J-0.041523
G01 X127.675475 Y29.130552 Z-0.125000
G02 X127.410893 Y29.240145 Z-0.125000 I-0.109594 J0.109594
G02 X127.675475 Y29.878904 Z-0.125000 I0.903342 J0.000000
G01 X131.482651 Y33.686080 Z-0.125000
G03 X131.570362 Y34.147970 Z-0.125000 I-0.295361 J0.295361
G03 X131.255899 Y34.207685 Z-0.125000 I-0.177559 J-0.077189
G01 X127.675475 Y30.627262 Z-0.125000
G02 X127.410892 Y30.736855 Z-0.125000 I-0.109594 J0.109593
G02 X127.675475 Y31.375615 Z-0.125000 I0.903343 J0.000000
G01 X130.994143 Y34.694282 Z-0.125000
G03 X131.040431 Y35.114747 Z-0.125000 I-0.239103 J0.239103
G03 X130.703362 Y35.151854 Z-0.125000 I-0.183408 J-0.116553
G01 X127.622062 Y32.070554 Z-0.125000
G02 X127.319437 Y32.142105 Z-0.125000 I-0.129219 J0.129219
G02 X127.435300 Y32.632150 Z-0.125000 I0.454699 J0.151213
G01 X130.383336 Y35.580180 Z-0.125000
G03 X130.399361 Y35.970378 Z-0.125000 I-0.203798 J0.203798
G03 X130.039941 Y35.985143 Z-0.125000 I-0.186511 J-0.158151
G01 X127.155735 Y33.100937 Z-0.125000
G02 X126.790381 Y33.109767 Z-0.125000 I-0.178470 J0.178468
G02 X126.799653 Y33.493208 Z-0.125000 I0.205851 J0.186855
G01 X129.670539 Y36.364094 Z-0.125000
G03 X129.662257 Y36.729988 Z-0.125000 I-0.178990 J0.178990
G03 X129.279415 Y36.721323 Z-0.125000 I-0.186887 J-0.204620
G01 X126.373027 Y33.814935 Z-0.125000
G02 X125.917857 Y33.733941 Z-0.125000 I-0.285613 J0.285613
G02 X125.861334 Y34.051594 Z-0.125000 I0.082580 J0.178550
G01 X128.864589 Y37.054854 Z-0.125000
G03 X128.833277 Y37.397719 Z-0.125000 I-0.158395 J0.158397
G03 X128.421494 Y37.360112 Z-0.125000 I-0.183309 J-0.266081
G01 X125.241123 Y34.179741 Z-0.125000
G02 X124.575954 Y33.888748 Z-0.125000 I-0.704384 J0.704384
G02 X124.462086 Y34.149042 Z-0.125000 I-0.006005 J0.152427
G01 X128.233140 Y37.920096 Z-0.125000
G00 Z5.000000

(End cutting path id: path1488)


(Start cutting path id: path1488)
(Change tool to Default tool)

G00 Z5.000000
G00 X120.361859 Y37.532367

G01 Z-0.125000 F100.0(Penetrate)
G01 X118.377249 Y35.547757 Z-0.125000 F400.000000
G00 Z5.000000

(End cutting path id: path1488)


(Start cutting path id: path1488)
(Change tool to Default tool)

G00 Z5.000000
G00 X117.975119 Y51.421953

G01 Z-0.125000 F100.0(Penetrate)
G01 X117.466375 Y50.913209 Z-0.125000 F400.000000
G03 X117.284252 Y50.356909 Z-0.125000 I0.457857 J-0.457857
G03 X117.566143 Y50.264624 Z-0.125000 I0.164327 J0.025277
G01 X118.442841 Y51.141322 Z-0.125000
G02 X119.081601 Y51.405905 Z-0.125000 I0.638760 J-0.638760
G02 X119.191194 Y51.141322 Z-0.125000 I-0.000000 J-0.154989
G01 X117.711189 Y49.661312 Z-0.125000
G03 X117.598861 Y49.174808 Z-0.125000 I0.333136 J-0.333136
G03 X117.902850 Y49.104621 Z-0.125000 I0.173923 J0.059879
G01 X119.939551 Y51.141322 Z-0.125000
G02 X120.578310 Y51.405905 Z-0.125000 I0.638759 J-0.638759
G02 X120.687904 Y51.141322 Z-0.125000 I0.000000 J-0.154989
G01 X118.127473 Y48.580890 Z-0.125000
G03 X118.062314 Y48.141555 Z-0.125000 I0.263594 J-0.263594
G03 X118.388164 Y48.093229 Z-0.125000 I0.180846 J0.096675
G01 X121.436257 Y51.141322 Z-0.125000
G02 X121.790570 Y51.121461 Z-0.125000 I0.168280 J-0.168280
G02 X121.768350 Y50.725063 Z-0.125000 I-0.232849 J-0.185770
G01 X118.677051 Y47.633758 Z-0.125000
G03 X118.647489 Y47.230021 Z-0.125000 I0.218985 J-0.218985
G03 X118.996138 Y47.204493 Z-0.125000 I0.185347 J0.137774
G01 X121.948836 Y50.157191 Z-0.125000
G02 X122.280251 Y50.114429 Z-0.125000 I0.149213 J-0.149213
G02 X122.224819 Y49.684821 Z-0.125000 I-0.306164 J-0.178876
G01 X119.338637 Y46.798634 Z-0.125000
G03 X119.335437 Y46.421255 Z-0.125000 I0.190317 J-0.190317
G03 X119.706465 Y46.418110 Z-0.125000 I0.187061 J0.180820
G01 X122.577540 Y49.289184 Z-0.125000
G02 X122.978020 Y49.315488 Z-0.125000 I0.215241 J-0.215241
G02 X123.001082 Y48.964373 Z-0.125000 I-0.142386 J-0.185667
G01 X120.096853 Y46.060145 Z-0.125000
G03 X120.115152 Y45.704260 Z-0.125000 I0.169688 J-0.169688
G03 X120.509607 Y45.724546 Z-0.125000 I0.185985 J0.228747
G01 X123.508843 Y48.723782 Z-0.125000
G02 X124.037243 Y48.878006 Z-0.125000 I0.404879 J-0.404879
G02 X124.121780 Y48.588367 Z-0.125000 I-0.037114 J-0.167989
G01 X120.952498 Y45.419084 Z-0.125000
G03 X120.993717 Y45.086125 Z-0.125000 I0.150411 J-0.150411
G03 X121.420762 Y45.138991 Z-0.125000 I0.179620 J0.300291
G01 X125.166796 Y48.885025 Z-0.125000
G00 Z5.000000

(End cutting path id: path1488)


(Start cutting path id: path1488)
(Change tool to Default tool)

G00 Z5.000000
G00 X124.125175 Y69.545672

G01 Z-0.125000 F100.0(Penetrate)
G01 X127.952649 Y73.373146 Z-0.125000 F400.000000
G02 X128.380161 Y73.426479 Z-0.125000 I0.248025 J-0.248028
G02 X128.421664 Y73.093808 Z-0.125000 I-0.108685 J-0.182484
G01 X125.241104 Y69.913243 Z-0.125000
G03 X125.327293 Y69.625259 Z-0.125000 I0.120751 J-0.120751
G03 X125.861285 Y69.785072 Z-0.125000 I0.118830 J0.574980
G01 X128.864773 Y72.788564 Z-0.125000
G02 X129.260375 Y72.809980 Z-0.125000 I0.209735 J-0.209738
G02 X129.279589 Y72.455023 Z-0.125000 I-0.149639 J-0.186099
G01 X126.372964 Y69.548398 Z-0.125000
G03 X126.397354 Y69.198611 Z-0.125000 I0.164288 J-0.164288
G03 X126.799576 Y69.226657 Z-0.125000 I0.184986 J0.245282
G01 X129.670703 Y72.097784 Z-0.125000
G02 X130.042479 Y72.095381 Z-0.125000 I0.184702 J-0.184702
G02 X130.040042 Y71.718771 Z-0.125000 I-0.191971 J-0.187071
G01 X127.155555 Y68.834279 Z-0.125000
G03 X127.102349 Y68.406899 Z-0.125000 I0.247858 J-0.247858
G03 X127.435102 Y68.365473 Z-0.125000 I0.182503 J0.108825
G01 X130.383389 Y71.313764 Z-0.125000
G02 X130.732430 Y71.288627 Z-0.125000 I0.163641 J-0.163641
G02 X130.703391 Y70.885409 Z-0.125000 I-0.247421 J-0.184836
G01 X127.621921 Y67.803939 Z-0.125000
G03 X127.583439 Y67.391280 Z-0.125000 I0.229528 J-0.229528
G03 X127.925698 Y67.359363 Z-0.125000 I0.184366 J0.125976
G01 X130.994143 Y70.427808 Z-0.125000
G02 X131.320369 Y70.379858 Z-0.125000 I0.145284 J-0.145282
G02 X131.255894 Y69.941207 Z-0.125000 I-0.327149 J-0.175978
G01 X128.674055 Y67.359363 Z-0.125000
G03 X128.783648 Y67.094780 Z-0.125000 I0.109593 J-0.109594
G03 X129.422408 Y67.359363 Z-0.125000 I-0.000000 J0.903343
G01 X131.482632 Y69.419587 Z-0.125000
G02 X131.786954 Y69.349732 Z-0.125000 I0.130275 J-0.130275
G02 X131.675475 Y68.864077 Z-0.125000 I-0.443258 J-0.153875
G01 X130.170761 Y67.359363 Z-0.125000
G03 X130.280355 Y67.094780 Z-0.125000 I0.109594 J-0.109594
G03 X130.919114 Y67.359363 Z-0.125000 I0.000000 J0.903342
G01 X131.822880 Y68.263129 Z-0.125000
G02 X132.105292 Y68.171365 Z-0.125000 I0.117828 J-0.117828
G02 X131.925189 Y67.617086 Z-0.125000 I-0.633982 J-0.100399
G01 X131.447299 Y67.139191 Z-0.125000
G03 X131.556889 Y66.874607 Z-0.125000 I0.109590 J-0.109596
G03 X132.195652 Y67.139191 Z-0.125000 I-0.000000 J0.903347
G01 X132.256111 Y67.199655 Z-0.125000
G00 Z5.000000

(End cutting path id: path1488)


(Start cutting path id: path1488)
(Change tool to Default tool)

G00 Z5.000000
G00 X135.118125 Y74.511238

G01 Z-0.125000 F100.0(Penetrate)
G01 X134.667046 Y74.060159 Z-0.125000 F400.000000
G03 X134.402463 Y73.421399 Z-0.125000 I0.638759 J-0.638759
G03 X134.667046 Y73.311806 Z-0.125000 I0.154989 J0.000000
G01 X135.585847 Y74.230607 Z-0.125000
G02 X136.224610 Y74.495191 Z-0.125000 I0.638763 J-0.638763
G02 X136.334205 Y74.230607 Z-0.125000 I0.000000 J-0.154990
G01 X134.667046 Y72.563448 Z-0.125000
G03 X134.402463 Y71.924689 Z-0.125000 I0.638759 J-0.638759
G03 X134.667046 Y71.815095 Z-0.125000 I0.154989 J0.000000
G01 X137.082557 Y74.230607 Z-0.125000
G02 X137.721316 Y74.495189 Z-0.125000 I0.638759 J-0.638759
G02 X137.830910 Y74.230607 Z-0.125000 I0.000000 J-0.154989
G01 X134.667046 Y71.066743 Z-0.125000
G03 X134.402462 Y70.427980 Z-0.125000 I0.638763 J-0.638763
G03 X134.667046 Y70.318385 Z-0.125000 I0.154990 J0.000000
G01 X138.579263 Y74.230607 Z-0.125000
G02 X139.218026 Y74.495191 Z-0.125000 I0.638763 J-0.638763
G02 X139.327620 Y74.230607 Z-0.125000 I0.000000 J-0.154990
G01 X135.022251 Y69.925237 Z-0.125000
G03 X135.131845 Y69.660655 Z-0.125000 I0.109594 J-0.109594
G03 X135.770604 Y69.925237 Z-0.125000 I0.000000 J0.903342
G01 X140.075973 Y74.230607 Z-0.125000
G02 X140.714732 Y74.495189 Z-0.125000 I0.638759 J-0.638759
G02 X140.824326 Y74.230607 Z-0.125000 I0.000000 J-0.154989
G01 X136.518961 Y69.925237 Z-0.125000
G03 X136.628555 Y69.660655 Z-0.125000 I0.109594 J-0.109594
G03 X137.267314 Y69.925237 Z-0.125000 I0.000000 J0.903342
G01 X141.572679 Y74.230607 Z-0.125000
G02 X142.211443 Y74.495189 Z-0.125000 I0.638764 J-0.638772
G02 X142.321036 Y74.230607 Z-0.125000 I0.000000 J-0.154989
G01 X138.015667 Y69.925237 Z-0.125000
G03 X138.121438 Y69.656823 Z-0.125000 I0.111220 J-0.111220
G03 X138.738957 Y69.900155 Z-0.125000 I0.028842 J0.832032
G01 X143.069389 Y74.230592 Z-0.125000
G02 X143.708148 Y74.495175 Z-0.125000 I0.638759 J-0.638759
G02 X143.817742 Y74.230592 Z-0.125000 I0.000000 J-0.154989
G01 X139.280661 Y69.693507 Z-0.125000
G03 X139.269083 Y69.307742 Z-0.125000 I0.199030 J-0.199030
G03 X139.632351 Y69.296844 Z-0.125000 I0.186766 J0.165595
G01 X144.566099 Y74.230592 Z-0.125000
G02 X145.204858 Y74.495175 Z-0.125000 I0.638759 J-0.638759
G02 X145.314452 Y74.230592 Z-0.125000 I0.000000 J-0.154989
G01 X139.791967 Y68.708102 Z-0.125000
G03 X139.532749 Y68.074711 Z-0.125000 I0.625871 J-0.625880
G03 X139.798262 Y67.966049 Z-0.125000 I0.155532 J0.001320
G01 X146.062805 Y74.230592 Z-0.125000
G02 X146.701565 Y74.495175 Z-0.125000 I0.638760 J-0.638760
G02 X146.811157 Y74.230592 Z-0.125000 I0.000000 J-0.154989
G01 X139.798262 Y67.217697 Z-0.125000
G03 X139.533678 Y66.578933 Z-0.125000 I0.638763 J-0.638763
G03 X139.798262 Y66.469339 Z-0.125000 I0.154990 J0.000000
G01 X147.559515 Y74.230592 Z-0.125000
G02 X148.198274 Y74.495175 Z-0.125000 I0.638759 J-0.638759
G02 X148.307868 Y74.230592 Z-0.125000 I0.000000 J-0.154989
G01 X139.798262 Y65.720986 Z-0.125000
G03 X139.533679 Y65.082227 Z-0.125000 I0.638759 J-0.638759
G03 X139.798262 Y64.972634 Z-0.125000 I0.154989 J0.000000
G01 X149.056221 Y74.230587 Z-0.125000
G02 X149.356631 Y74.156822 Z-0.125000 I0.127865 J-0.127864
G02 X149.234847 Y73.660861 Z-0.125000 I-0.470294 J-0.147451
G01 X139.798262 Y64.224276 Z-0.125000
G03 X139.533679 Y63.585517 Z-0.125000 I0.638759 J-0.638759
G03 X139.798262 Y63.475923 Z-0.125000 I0.154989 J0.000000
G01 X144.103147 Y67.780808 Z-0.125000
G02 X144.367729 Y67.671215 Z-0.125000 I0.109594 J-0.109594
G02 X144.103147 Y67.032451 Z-0.125000 I-0.903355 J0.000000
G01 X139.798262 Y62.727570 Z-0.125000
G03 X139.533679 Y62.088811 Z-0.125000 I0.638760 J-0.638760
G03 X139.798262 Y61.979218 Z-0.125000 I0.154989 J-0.000000
G01 X144.103147 Y66.284098 Z-0.125000
G02 X144.367730 Y66.174504 Z-0.125000 I0.109594 J-0.109594
G02 X144.103147 Y65.535745 Z-0.125000 I-0.903342 J0.000000
G01 X139.798262 Y61.230860 Z-0.125000
G03 X139.533679 Y60.592101 Z-0.125000 I0.638759 J-0.638759
G03 X139.798262 Y60.482507 Z-0.125000 I0.154989 J0.000000
G01 X144.103147 Y64.787388 Z-0.125000
G02 X144.367730 Y64.677795 Z-0.125000 I0.109594 J-0.109593
G02 X144.103147 Y64.039035 Z-0.125000 I-0.903343 J0.000000
G01 X139.798262 Y59.734155 Z-0.125000
G03 X139.533678 Y59.095392 Z-0.125000 I0.638763 J-0.638763
G03 X139.798262 Y58.985797 Z-0.125000 I0.154990 J-0.000000
G01 X144.103147 Y63.290682 Z-0.125000
G02 X144.367730 Y63.181089 Z-0.125000 I0.109594 J-0.109594
G02 X144.103147 Y62.542330 Z-0.125000 I-0.903342 J0.000000
G01 X139.798262 Y58.237444 Z-0.125000
G03 X139.533679 Y57.598685 Z-0.125000 I0.638759 J-0.638759
G03 X139.798262 Y57.489092 Z-0.125000 I0.154989 J0.000000
G01 X144.103147 Y61.793972 Z-0.125000
G02 X144.367730 Y61.684378 Z-0.125000 I0.109594 J-0.109594
G02 X144.103147 Y61.045619 Z-0.125000 I-0.903342 J0.000000
G01 X139.798262 Y56.740734 Z-0.125000
G03 X139.533679 Y56.101975 Z-0.125000 I0.638759 J-0.638759
G03 X139.798262 Y55.992381 Z-0.125000 I0.154989 J0.000000
G01 X144.103147 Y60.297267 Z-0.125000
G02 X144.367729 Y60.187673 Z-0.125000 I0.109594 J-0.109594
G02 X144.103147 Y59.548909 Z-0.125000 I-0.903355 J0.000000
G01 X139.798262 Y55.244029 Z-0.125000
G03 X139.533679 Y54.605269 Z-0.125000 I0.638760 J-0.638760
G03 X139.798262 Y54.495676 Z-0.125000 I0.154989 J-0.000000
G01 X144.103147 Y58.800556 Z-0.125000
G02 X144.367730 Y58.690962 Z-0.125000 I0.109594 J-0.109594
G02 X144.103147 Y58.052203 Z-0.125000 I-0.903342 J0.000000
G01 X139.798262 Y53.747318 Z-0.125000
G03 X139.533679 Y53.108559 Z-0.125000 I0.638759 J-0.638759
G03 X139.798262 Y52.998966 Z-0.125000 I0.154989 J0.000000
G01 X144.103147 Y57.303846 Z-0.125000
G02 X144.367730 Y57.194253 Z-0.125000 I0.109594 J-0.109593
G02 X144.103147 Y56.555493 Z-0.125000 I-0.903343 J0.000000
G01 X139.798262 Y52.250613 Z-0.125000
G03 X139.533678 Y51.611850 Z-0.125000 I0.638763 J-0.638763
G03 X139.798262 Y51.502255 Z-0.125000 I0.154990 J-0.000000
G01 X144.103147 Y55.807140 Z-0.125000
G02 X144.367730 Y55.697547 Z-0.125000 I0.109594 J-0.109594
G02 X144.103147 Y55.058788 Z-0.125000 I-0.903342 J0.000000
G01 X139.798262 Y50.753902 Z-0.125000
G03 X139.533679 Y50.115143 Z-0.125000 I0.638759 J-0.638759
G03 X139.798262 Y50.005550 Z-0.125000 I0.154989 J0.000000
G01 X144.103147 Y54.310430 Z-0.125000
G02 X144.367730 Y54.200836 Z-0.125000 I0.109594 J-0.109594
G02 X144.103147 Y53.562077 Z-0.125000 I-0.903342 J0.000000
G01 X139.798262 Y49.257192 Z-0.125000
G03 X139.533679 Y48.618433 Z-0.125000 I0.638759 J-0.638759
G03 X139.798262 Y48.508839 Z-0.125000 I0.154989 J0.000000
G01 X144.103147 Y52.813725 Z-0.125000
G02 X144.367729 Y52.704131 Z-0.125000 I0.109594 J-0.109594
G02 X144.103147 Y52.065367 Z-0.125000 I-0.903355 J0.000000
G01 X139.798262 Y47.760487 Z-0.125000
G03 X139.533679 Y47.121727 Z-0.125000 I0.638760 J-0.638760
G03 X139.798262 Y47.012134 Z-0.125000 I0.154989 J-0.000000
G01 X144.103147 Y51.317014 Z-0.125000
G02 X144.367730 Y51.207421 Z-0.125000 I0.109594 J-0.109594
G02 X144.103147 Y50.568662 Z-0.125000 I-0.903342 J0.000000
G01 X139.798262 Y46.263776 Z-0.125000
G03 X139.533679 Y45.625017 Z-0.125000 I0.638759 J-0.638759
G03 X139.798262 Y45.515424 Z-0.125000 I0.154989 J0.000000
G01 X144.103147 Y49.820304 Z-0.125000
G02 X144.367730 Y49.710711 Z-0.125000 I0.109594 J-0.109593
G02 X144.103147 Y49.071951 Z-0.125000 I-0.903343 J0.000000
G01 X139.798262 Y44.767071 Z-0.125000
G03 X139.727689 Y44.322319 Z-0.125000 I0.270973 J-0.270973
G03 X140.050625 Y44.271076 Z-0.125000 I0.180072 J0.091621
G01 X144.103147 Y48.323599 Z-0.125000
G02 X144.367730 Y48.214005 Z-0.125000 I0.109594 J-0.109594
G02 X144.103147 Y47.575246 Z-0.125000 I-0.903342 J0.000000
G01 X140.798977 Y44.271076 Z-0.125000
G03 X140.908571 Y44.006493 Z-0.125000 I0.109594 J-0.109594
G03 X141.547330 Y44.271076 Z-0.125000 I0.000000 J0.903342
G01 X144.103147 Y46.826888 Z-0.125000
G02 X144.367730 Y46.717294 Z-0.125000 I0.109594 J-0.109594
G02 X144.103147 Y46.078535 Z-0.125000 I-0.903342 J0.000000
G01 X142.295688 Y44.271076 Z-0.125000
G03 X142.405281 Y44.006493 Z-0.125000 I0.109594 J-0.109594
G03 X143.044040 Y44.271076 Z-0.125000 I0.000000 J0.903342
G01 X144.103147 Y45.330183 Z-0.125000
G02 X144.367730 Y45.220589 Z-0.125000 I0.109594 J-0.109594
G02 X144.103147 Y44.581830 Z-0.125000 I-0.903342 J0.000000
G01 X143.573596 Y44.052274 Z-0.125000
G03 X143.683186 Y43.787690 Z-0.125000 I0.109590 J-0.109596
G03 X144.321949 Y44.052274 Z-0.125000 I-0.000000 J0.903347
G01 X144.383778 Y44.114108 Z-0.125000
G00 Z5.000000

(End cutting path id: path1488)


(Start cutting path id: path1488)
(Change tool to Default tool)

G00 Z5.000000
G00 X158.333829 Y56.791911

G01 Z-0.125000 F100.0(Penetrate)
G01 X166.969679 Y65.427756 Z-0.125000 F400.000000
G02 X167.234262 Y65.318163 Z-0.125000 I0.109594 J-0.109593
G02 X166.969679 Y64.679403 Z-0.125000 I-0.903343 J-0.000000
G01 X159.388669 Y57.098394 Z-0.125000
G03 X159.498263 Y56.833811 Z-0.125000 I0.109594 J-0.109594
G03 X160.137022 Y57.098394 Z-0.125000 I0.000000 J0.903342
G01 X166.969679 Y63.931050 Z-0.125000
G02 X167.234261 Y63.821457 Z-0.125000 I0.109594 J-0.109594
G02 X166.969679 Y63.182698 Z-0.125000 I-0.903342 J0.000000
G01 X160.885375 Y57.098394 Z-0.125000
G03 X160.991092 Y56.829941 Z-0.125000 I0.111237 J-0.111237
G03 X161.608340 Y57.073021 Z-0.125000 I0.029180 J0.831125
G01 X166.969679 Y62.434355 Z-0.125000
G02 X167.234261 Y62.324761 Z-0.125000 I0.109594 J-0.109594
G02 X166.969679 Y61.686002 Z-0.125000 I-0.903342 J0.000000
G01 X162.148970 Y56.865293 Z-0.125000
G03 X162.137004 Y56.479139 Z-0.125000 I0.199443 J-0.199443
G03 X162.499928 Y56.467899 Z-0.125000 I0.186744 J0.164928
G01 X166.969679 Y60.937649 Z-0.125000
G02 X167.234261 Y60.828055 Z-0.125000 I0.109594 J-0.109594
G02 X166.969679 Y60.189296 Z-0.125000 I-0.903342 J0.000000
G01 X162.659022 Y55.878635 Z-0.125000
G03 X162.399767 Y55.245206 Z-0.125000 I0.625958 J-0.625966
G03 X162.665268 Y55.136543 Z-0.125000 I0.155524 J0.001311
G01 X166.969669 Y59.440939 Z-0.125000
G02 X167.234252 Y59.331345 Z-0.125000 I0.109594 J-0.109594
G02 X166.969669 Y58.692586 Z-0.125000 I-0.903342 J-0.000000
G01 X162.665268 Y54.388185 Z-0.125000
G03 X162.400685 Y53.749426 Z-0.125000 I0.638759 J-0.638759
G03 X162.665268 Y53.639832 Z-0.125000 I0.154989 J-0.000000
G01 X166.969669 Y57.944233 Z-0.125000
G02 X167.234251 Y57.834640 Z-0.125000 I0.109594 J-0.109594
G02 X166.969669 Y57.195876 Z-0.125000 I-0.903355 J0.000000
G01 X162.665268 Y52.891480 Z-0.125000
G03 X162.400685 Y52.252720 Z-0.125000 I0.638760 J-0.638760
G03 X162.665268 Y52.143127 Z-0.125000 I0.154989 J0.000000
G01 X166.969669 Y56.447523 Z-0.125000
G02 X167.234252 Y56.337929 Z-0.125000 I0.109594 J-0.109594
G02 X166.969669 Y55.699170 Z-0.125000 I-0.903342 J-0.000000
G01 X162.665268 Y51.394769 Z-0.125000
G03 X162.400685 Y50.756010 Z-0.125000 I0.638759 J-0.638759
G03 X162.665268 Y50.646417 Z-0.125000 I0.154989 J-0.000000
G01 X166.969669 Y54.950813 Z-0.125000
G02 X167.234252 Y54.841220 Z-0.125000 I0.109594 J-0.109593
G02 X166.969669 Y54.202460 Z-0.125000 I-0.903343 J0.000000
G01 X162.665268 Y49.898064 Z-0.125000
G03 X162.400684 Y49.259301 Z-0.125000 I0.638763 J-0.638763
G03 X162.665268 Y49.149706 Z-0.125000 I0.154990 J0.000000
G01 X166.969669 Y53.454107 Z-0.125000
