%
(Header)
(Generated by gcodetools from Inkscape.)
(Using default header. To add your own header create file "header" in the output dir.)
M3
(Header end.)
G21 (All units in mm)

(Start cutting path id: path2)
(Change tool to Default tool)

G00 Z5.000000
G00 X37.546500 Y134.814200

G01 Z-0.125000 F100.0(Penetrate)
G01 X33.318100 Y130.585800 Z-0.125000 F400.000000
G00 Z5.000000

(End cutting path id: path2)


(Start cutting path id: path2)
(Change tool to Default tool)

G00 Z5.000000
G00 X30.176300 Y126.695600

G01 Z-0.125000 F100.0(Penetrate)
G01 X41.377100 Y137.896400 Z-0.125000 F400.000000
G00 Z5.000000

(End cutting path id: path2)


(Start cutting path id: path2)
(Change tool to Default tool)

G00 Z5.000000
G00 X43.702900 Y139.473900

G01 Z-0.125000 F100.0(Penetrate)
G01 X28.013200 Y123.784200 Z-0.125000 F400.000000
G00 Z5.000000

(End cutting path id: path2)


(Start cutting path id: path2)
(Change tool to Default tool)

G00 Z5.000000
G00 X26.704000 Y121.726600

G01 Z-0.125000 F100.0(Penetrate)
G01 X45.967000 Y140.989600 Z-0.125000 F400.000000
G00 Z5.000000

(End cutting path id: path2)


(Start cutting path id: path2)
(Change tool to Default tool)

G00 Z5.000000
G00 X47.747600 Y142.021900

G01 Z-0.125000 F100.0(Penetrate)
G01 X25.861400 Y120.135600 Z-0.125000 F400.000000
G00 Z5.000000

(End cutting path id: path2)


(Start cutting path id: path2)
(Change tool to Default tool)

G00 Z5.000000
G00 X24.965600 Y118.491500

G01 Z-0.125000 F100.0(Penetrate)
G01 X49.235300 Y142.761160 Z-0.125000 F400.000000
G01 X50.168600 Y143.320270 Z-0.125000
G01 X50.547100 Y143.441570 Z-0.125000
G01 X50.540600 Y143.318120 Z-0.125000
G01 X24.498600 Y117.276200 Z-0.125000
G01 X23.889500 Y116.292800 Z-0.125000
G01 X23.733800 Y115.879900 Z-0.125000
G01 X23.747000 Y115.808400 Z-0.125000
G01 X23.841600 Y115.870800 Z-0.125000
G01 X51.952800 Y143.981970 Z-0.125000
G01 X52.900400 Y144.555430 Z-0.125000
G01 X53.288800 Y144.686590 Z-0.125000
G01 X53.286800 Y144.567630 Z-0.125000
G01 X23.168900 Y114.449800 Z-0.125000
G01 X22.674400 Y113.581000 Z-0.125000
G01 X22.597500 Y113.246900 Z-0.125000
G01 X22.741100 Y113.273500 Z-0.125000
G01 X54.552900 Y145.085360 Z-0.125000
G01 X55.440700 Y145.598940 Z-0.125000
G01 X55.787900 Y145.688940 Z-0.125000
G01 X55.767100 Y145.551260 Z-0.125000
G01 X22.282700 Y112.066800 Z-0.125000
G01 X21.795600 Y111.205600 Z-0.125000
G01 X21.723800 Y110.876500 Z-0.125000
G01 X21.869800 Y110.905500 Z-0.125000
G01 X56.934800 Y145.970540 Z-0.125000
G01 X57.779100 Y146.440660 Z-0.125000
G01 X58.096400 Y146.500780 Z-0.125000
G01 X58.062100 Y146.349520 Z-0.125000
G01 X21.496700 Y109.784100 Z-0.125000
G01 X21.047100 Y108.960400 Z-0.125000
G01 X21.001100 Y108.657100 Z-0.125000
G01 X21.158800 Y108.697900 Z-0.125000
G01 X59.145700 Y146.684700 Z-0.125000
G01 X59.953200 Y147.118080 Z-0.125000
G01 X60.245300 Y147.152930 Z-0.125000
G01 X60.199500 Y146.990190 Z-0.125000
G01 X20.839100 Y107.629800 Z-0.125000
G01 X20.429500 Y106.846000 Z-0.125000
G01 X20.410900 Y106.570200 Z-0.125000
G01 X20.581100 Y106.623400 Z-0.125000
G01 X61.225600 Y147.267950 Z-0.125000
G01 X62.007000 Y147.675180 Z-0.125000
G01 X62.281100 Y147.692060 Z-0.125000
G01 X62.227200 Y147.521140 Z-0.125000
G01 X20.332200 Y105.626200 Z-0.125000
G01 X19.938700 Y104.858500 Z-0.125000
G01 X19.931300 Y104.593900 Z-0.125000
G01 X20.106500 Y104.652200 Z-0.125000
G01 X38.991000 Y123.536600 Z-0.125000
G00 Z5.000000

(End cutting path id: path2)


(Start cutting path id: path2)
(Change tool to Default tool)

G00 Z5.000000
G00 X35.928000 Y119.725300

G01 Z-0.125000 F100.0(Penetrate)
G01 X19.902000 Y103.699300 Z-0.125000 F400.000000
G01 X19.528600 Y102.951700 Z-0.125000
G01 X19.535100 Y102.700900 Z-0.125000
G01 X19.716600 Y102.765500 Z-0.125000
G01 X34.400200 Y117.449100 Z-0.125000
G00 Z5.000000

(End cutting path id: path2)


(Start cutting path id: path2)
(Change tool to Default tool)

G00 Z5.000000
G00 X33.361000 Y115.661600

G01 Z-0.125000 F100.0(Penetrate)
G01 X19.507800 Y101.808300 Z-0.125000 F400.000000
G01 X19.176900 Y101.103300 Z-0.125000
G01 X19.212500 Y100.881700 Z-0.125000
G01 X19.407300 Y100.959500 Z-0.125000
G01 X32.184000 Y113.736200 Z-0.125000
G01 X32.294900 Y113.730200 Z-0.125000
G01 X32.146000 Y113.324100 Z-0.125000
G01 X31.546800 Y112.350700 Z-0.125000
G01 X19.277000 Y100.080800 Z-0.125000
G01 X18.938000 Y99.367600 Z-0.125000
G01 X18.968000 Y99.140400 Z-0.125000
G01 X19.160200 Y99.215700 Z-0.125000
G01 X30.850200 Y110.905700 Z-0.125000
G01 X30.977500 Y110.916100 Z-0.125000
G01 X30.864700 Y110.546000 Z-0.125000
G01 X30.317900 Y109.625000 Z-0.125000
G01 X19.060800 Y98.368000 Z-0.125000
G01 X18.737800 Y97.670700 Z-0.125000
G01 X18.778800 Y97.454500 Z-0.125000
G01 X18.976000 Y97.534800 Z-0.125000
G01 X29.852600 Y108.411400 Z-0.125000
G01 X30.016000 Y108.457900 Z-0.125000
G01 X29.982600 Y108.167200 Z-0.125000
G01 X29.551200 Y107.361600 Z-0.125000
G01 X18.901900 Y96.712300 Z-0.125000
G01 X18.576700 Y96.012900 Z-0.125000
G01 X18.616200 Y95.795200 Z-0.125000
G01 X18.812700 Y95.874800 Z-0.125000
G01 X29.078000 Y106.140100 Z-0.125000
G01 X29.238600 Y106.183800 Z-0.125000
G01 X29.199100 Y105.887000 Z-0.125000
G01 X28.759000 Y105.072700 Z-0.125000
G01 X18.793600 Y95.107400 Z-0.125000
G01 X18.493900 Y94.433500 Z-0.125000
G01 X18.551000 Y94.233300 Z-0.125000
G01 X18.755500 Y94.320900 Z-0.125000
G01 X28.474400 Y104.039800 Z-0.125000
G01 X28.645100 Y104.093500 Z-0.125000
G01 X28.627800 Y103.819000 Z-0.125000
G01 X28.219900 Y103.036900 Z-0.125000
G01 X18.728300 Y93.545300 Z-0.125000
G01 X18.440600 Y92.883400 Z-0.125000
G01 X18.505900 Y92.691500 Z-0.125000
G01 X18.714200 Y92.782800 Z-0.125000
G01 X27.996900 Y102.065500 Z-0.125000
G01 X28.176200 Y102.127900 Z-0.125000
G01 X28.177700 Y101.872200 Z-0.125000
G01 X27.797400 Y101.117700 Z-0.125000
G01 X18.706800 Y92.027100 Z-0.125000
G01 X18.428300 Y91.374500 Z-0.125000
G01 X18.499900 Y91.188900 Z-0.125000
G01 X18.711100 Y91.283100 Z-0.125000
G01 X27.623500 Y100.195600 Z-0.125000
G01 X27.810100 Y100.265200 Z-0.125000
G01 X27.827600 Y100.025400 Z-0.125000
G01 X27.470400 Y99.294100 Z-0.125000
G01 X18.724900 Y90.548500 Z-0.125000
G01 X18.517400 Y90.224100 Z-0.125000
G01 X18.453900 Y89.903300 Z-0.125000
G01 X18.530600 Y89.722900 Z-0.125000
G01 X18.744100 Y89.819400 Z-0.125000
G01 X27.336100 Y98.411400 Z-0.125000
G01 X27.528900 Y98.487300 Z-0.125000
G01 X27.560400 Y98.261500 Z-0.125000
G01 X27.223500 Y97.550400 Z-0.125000
G01 X18.777600 Y89.104600 Z-0.125000
G01 X18.573100 Y88.783100 Z-0.125000
G01 X18.516000 Y88.468800 Z-0.125000
G01 X18.599300 Y88.294800 Z-0.125000
G01 X18.815700 Y88.394300 Z-0.125000
G01 X27.126500 Y96.705100 Z-0.125000
G01 X27.324200 Y96.785900 Z-0.125000
G01 X27.366400 Y96.570800 Z-0.125000
G01 X27.045000 Y95.875200 Z-0.125000
G01 X18.863000 Y87.693300 Z-0.125000
G01 X18.661300 Y87.374600 Z-0.125000
G01 X18.610300 Y87.066300 Z-0.125000
G01 X18.699600 Y86.898400 Z-0.125000
G01 X18.918800 Y87.000700 Z-0.125000
G01 X27.004400 Y95.086300 Z-0.125000
G01 X27.203200 Y95.168100 Z-0.125000
G01 X27.247500 Y94.955200 Z-0.125000
G01 X26.929400 Y94.263000 Z-0.125000
G01 X18.978200 Y86.311700 Z-0.125000
G01 X18.779200 Y85.995800 Z-0.125000
G01 X18.734400 Y85.693700 Z-0.125000
G01 X18.829800 Y85.531900 Z-0.125000
G01 X19.051800 Y85.636900 Z-0.125000
G01 X26.892000 Y93.477100 Z-0.125000
G01 X27.098600 Y93.566800 Z-0.125000
G01 X27.160200 Y93.371200 Z-0.125000
G01 X26.867100 Y92.703900 Z-0.125000
G01 X19.127100 Y84.963900 Z-0.125000
G01 X18.930100 Y84.650000 Z-0.125000
G01 X18.889500 Y84.352200 Z-0.125000
G01 X18.989300 Y84.194700 Z-0.125000
G01 X19.213200 Y84.301600 Z-0.125000
G01 X26.854300 Y91.942800 Z-0.125000
G01 X27.064600 Y92.036100 Z-0.125000
G01 X27.134300 Y91.848600 Z-0.125000
G01 X26.853000 Y91.193100 Z-0.125000
G01 X19.303500 Y83.643700 Z-0.125000
G01 X19.108400 Y83.331600 Z-0.125000
G01 X19.072000 Y83.038000 Z-0.125000
G01 X19.175900 Y82.884600 Z-0.125000
G01 X19.401800 Y82.993500 Z-0.125000
G01 X26.888600 Y90.480400 Z-0.125000
G01 X27.098600 Y90.573500 Z-0.125000
G01 X27.167800 Y90.385400 Z-0.125000
G01 X26.885600 Y89.729100 Z-0.125000
G01 X19.506300 Y82.349700 Z-0.125000
G01 X19.313000 Y82.039500 Z-0.125000
G01 X19.280700 Y81.749900 Z-0.125000
G01 X19.388700 Y81.600700 Z-0.125000
G01 X19.616300 Y81.711400 Z-0.125000
G01 X26.917100 Y89.012200 Z-0.125000
G01 X27.134000 Y89.112100 Z-0.125000
G01 X27.218300 Y88.939200 Z-0.125000
G01 X27.162300 Y88.626000 Z-0.125000
G01 X26.958300 Y88.305000 Z-0.125000
G01 X19.734200 Y81.081000 Z-0.125000
G01 X19.542800 Y80.772600 Z-0.125000
G01 X19.514400 Y80.487000 Z-0.125000
G01 X19.626300 Y80.341700 Z-0.125000
G01 X19.855800 Y80.454200 Z-0.125000
G01 X27.008800 Y87.607200 Z-0.125000
G01 X27.228600 Y87.710100 Z-0.125000
G01 X27.319300 Y87.543500 Z-0.125000
G01 X27.269700 Y87.236600 Z-0.125000
G01 X27.068500 Y86.918500 Z-0.125000
G01 X19.986400 Y79.836400 Z-0.125000
G01 X19.796300 Y79.529400 Z-0.125000
G01 X19.770900 Y79.246700 Z-0.125000
G01 X19.885700 Y79.104400 Z-0.125000
G01 X20.116600 Y79.218200 Z-0.125000
G01 X27.136900 Y86.238600 Z-0.125000
G01 X27.359400 Y86.344200 Z-0.125000
G01 X27.456000 Y86.183500 Z-0.125000
G01 X27.412300 Y85.882600 Z-0.125000
G01 X27.213900 Y85.567200 Z-0.125000
G01 X20.261900 Y78.615200 Z-0.125000
G01 X20.073800 Y78.310200 Z-0.125000
G01 X20.052900 Y78.032100 Z-0.125000
G01 X20.172400 Y77.894300 Z-0.125000
G01 X20.405300 Y78.010200 Z-0.125000
G01 X27.299000 Y84.904000 Z-0.125000
G01 X27.524100 Y85.012100 Z-0.125000
G01 X27.626200 Y84.857000 Z-0.125000
G01 X27.588100 Y84.561600 Z-0.125000
G01 X27.392200 Y84.248800 Z-0.125000
G01 X20.559700 Y77.416300 Z-0.125000
G01 X20.373400 Y77.113100 Z-0.125000
G01 X20.356400 Y76.838800 Z-0.125000
G01 X20.479700 Y76.704800 Z-0.125000
G01 X20.714300 Y76.822500 Z-0.125000
G01 X27.493100 Y83.601300 Z-0.125000
G01 X27.720500 Y83.711800 Z-0.125000
G01 X27.827900 Y83.562000 Z-0.125000
G01 X27.795000 Y83.271800 Z-0.125000
G01 X27.601500 Y82.961400 Z-0.125000
G01 X20.879200 Y76.239100 Z-0.125000
G01 X20.694600 Y75.937500 Z-0.125000
G01 X20.681200 Y75.666900 Z-0.125000
G01 X20.808100 Y75.536600 Z-0.125000
G01 X21.044400 Y75.656000 Z-0.125000
G01 X27.717200 Y82.328700 Z-0.125000
G01 X27.946800 Y82.441400 Z-0.125000
G01 X28.059200 Y82.296600 Z-0.125000
G01 X28.031300 Y82.011400 Z-0.125000
G01 X27.840000 Y81.703200 Z-0.125000
G01 X21.219600 Y75.082800 Z-0.125000
G01 X21.036500 Y74.782800 Z-0.125000
G01 X21.026700 Y74.515700 Z-0.125000
G01 X21.157100 Y74.388900 Z-0.125000
G01 X21.395000 Y74.509800 Z-0.125000
G01 X27.969800 Y81.084600 Z-0.125000
G01 X28.201600 Y81.199400 Z-0.125000
G01 X28.318700 Y81.059300 Z-0.125000
G01 X28.295500 Y80.778800 Z-0.125000
G01 X28.106300 Y80.472700 Z-0.125000
G01 X21.580400 Y73.946700 Z-0.125000
G01 X21.398800 Y73.648300 Z-0.125000
G01 X21.392200 Y73.384500 Z-0.125000
G01 X21.526000 Y73.261000 Z-0.125000
G01 X21.765400 Y73.383400 Z-0.125000
G01 X28.249400 Y79.867400 Z-0.125000
G01 X28.483200 Y79.984300 Z-0.125000
G01 X28.604800 Y79.848600 Z-0.125000
G01 X28.586000 Y79.572600 Z-0.125000
G01 X28.398900 Y79.268600 Z-0.125000
G01 X21.960600 Y72.830300 Z-0.125000
G01 X21.780300 Y72.533000 Z-0.125000
G01 X21.776500 Y72.272000 Z-0.125000
G01 X21.912900 Y72.151200 Z-0.125000
G01 X22.153600 Y72.274900 Z-0.125000
G01 X28.554700 Y78.676000 Z-0.125000
G01 X28.790400 Y78.794800 Z-0.125000
G01 X28.916200 Y78.663400 Z-0.125000
G01 X28.901700 Y78.391600 Z-0.125000
G01 X28.716600 Y78.089500 Z-0.125000
G01 X22.359900 Y71.732900 Z-0.125000
G01 X22.181400 Y71.437500 Z-0.125000
G01 X22.181700 Y71.180500 Z-0.125000
G01 X22.322300 Y71.063900 Z-0.125000
G01 X22.564800 Y71.189400 Z-0.125000
G01 X28.887000 Y77.511600 Z-0.125000
G01 X29.124200 Y77.631900 Z-0.125000
G01 X29.253200 Y77.503700 Z-0.125000
G01 X29.242000 Y77.235100 Z-0.125000
G01 X29.058200 Y76.934500 Z-0.125000
G01 X22.777700 Y70.653900 Z-0.125000
G01 X22.600700 Y70.360100 Z-0.125000
G01 X22.604300 Y70.106400 Z-0.125000
G01 X22.748200 Y69.993000 Z-0.125000
G01 X22.992200 Y70.120100 Z-0.125000
G01 X29.238400 Y76.366300 Z-0.125000
G01 X29.478000 Y76.488900 Z-0.125000
G01 X29.612000 Y76.365700 Z-0.125000
G01 X29.605700 Y76.102200 Z-0.125000
G01 X29.424300 Y75.803900 Z-0.125000
G01 X23.213500 Y69.593000 Z-0.125000
G01 X23.038000 Y69.300600 Z-0.125000
G01 X23.044800 Y69.050200 Z-0.125000
G01 X23.192000 Y68.940100 Z-0.125000
G01 X23.437400 Y69.068600 Z-0.125000
G01 X29.615700 Y75.246900 Z-0.125000
G01 X29.856900 Y75.371200 Z-0.125000
G01 X29.994800 Y75.251800 Z-0.125000
G01 X29.992300 Y74.992000 Z-0.125000
G01 X29.812500 Y74.695400 Z-0.125000
G01 X23.666900 Y68.549700 Z-0.125000
G01 X23.492800 Y68.258700 Z-0.125000
G01 X23.502900 Y68.011500 Z-0.125000
G01 X23.653200 Y67.904600 Z-0.125000
G01 X23.900100 Y68.034600 Z-0.125000
G01 X30.014700 Y74.149200 Z-0.125000
G01 X30.257600 Y74.275200 Z-0.125000
G01 X30.399100 Y74.159400 Z-0.125000
G01 X30.400200 Y73.903300 Z-0.125000
G01 X30.222100 Y73.608300 Z-0.125000
G01 X24.137300 Y67.523500 Z-0.125000
G01 X23.964700 Y67.234000 Z-0.125000
G01 X23.977900 Y66.989900 Z-0.125000
G01 X24.131400 Y66.886100 Z-0.125000
G01 X24.379800 Y67.017600 Z-0.125000
G01 X30.434700 Y73.072500 Z-0.125000
G01 X30.679100 Y73.200000 Z-0.125000
G01 X30.824000 Y73.087600 Z-0.125000
G01 X30.828600 Y72.834900 Z-0.125000
G01 X30.652100 Y72.541500 Z-0.125000
G01 X24.624600 Y66.514000 Z-0.125000
G01 X24.453400 Y66.225900 Z-0.125000
G01 X24.469700 Y65.984900 Z-0.125000
G01 X24.626300 Y65.884300 Z-0.125000
G01 X24.876100 Y66.017200 Z-0.125000
G01 X30.875600 Y72.016700 Z-0.125000
G01 X31.121800 Y72.145900 Z-0.125000
G01 X31.270500 Y72.037400 Z-0.125000
G01 X31.278900 Y71.788500 Z-0.125000
G01 X31.104100 Y71.496800 Z-0.125000
G01 X25.128100 Y65.520800 Z-0.125000
G01 X24.958300 Y65.234100 Z-0.125000
G01 X24.977700 Y64.996300 Z-0.125000
G01 X25.137500 Y64.898700 Z-0.125000
G01 X25.388600 Y65.033000 Z-0.125000
G01 X31.337400 Y70.981800 Z-0.125000
G01 X31.585100 Y71.112500 Z-0.125000
G01 X31.737100 Y71.007300 Z-0.125000
G01 X31.748800 Y70.761700 Z-0.125000
G01 X31.575500 Y70.471500 Z-0.125000
G01 X25.649100 Y64.545200 Z-0.125000
G01 X25.480500 Y64.259600 Z-0.125000
G01 X25.502500 Y64.024300 Z-0.125000
G01 X25.664800 Y63.929300 Z-0.125000
G01 X25.917100 Y64.064700 Z-0.125000
G01 X31.818300 Y69.965900 Z-0.125000
G01 X32.067400 Y70.098100 Z-0.125000
G01 X32.222600 Y69.996100 Z-0.125000
G01 X32.237500 Y69.753700 Z-0.125000
G01 X32.065700 Y69.465000 Z-0.125000
G01 X26.186500 Y63.585800 Z-0.125000
G01 X26.018900 Y63.301300 Z-0.125000
G01 X26.043200 Y63.068300 Z-0.125000
G01 X26.207800 Y62.975600 Z-0.125000
G01 X26.461200 Y63.112100 Z-0.125000
G01 X32.318000 Y68.969000 Z-0.125000
G01 X32.568800 Y69.102800 Z-0.125000
G01 X32.727500 Y69.004200 Z-0.125000
G01 X32.745900 Y68.765400 Z-0.125000
G01 X32.575700 Y68.478200 Z-0.125000
G01 X26.739400 Y62.642000 Z-0.125000
G01 X26.572800 Y62.358500 Z-0.125000
G01 X26.599300 Y62.127700 Z-0.125000
G01 X26.766100 Y62.037300 Z-0.125000
G01 X27.020500 Y62.174800 Z-0.125000
G01 X32.837700 Y67.992000 Z-0.125000
G01 X33.089800 Y68.127100 Z-0.125000
G01 X33.251600 Y68.031700 Z-0.125000
G01 X33.273000 Y67.795800 Z-0.125000
G01 X33.104200 Y67.510100 Z-0.125000
G01 X27.307500 Y61.713400 Z-0.125000
G01 X27.141900 Y61.430900 Z-0.125000
G01 X27.170600 Y61.202300 Z-0.125000
G01 X27.339500 Y61.114000 Z-0.125000
G01 X27.594900 Y61.252400 Z-0.125000
G01 X33.375000 Y67.032500 Z-0.125000
G01 X33.628400 Y67.169000 Z-0.125000
G01 X33.793100 Y67.076400 Z-0.125000
G01 X33.817400 Y66.843500 Z-0.125000
G01 X33.649800 Y66.559000 Z-0.125000
G01 X27.890500 Y60.799700 Z-0.125000
G01 X27.726300 Y60.518500 Z-0.125000
G01 X27.757700 Y60.292700 Z-0.125000
G01 X27.929500 Y60.207200 Z-0.125000
G01 X28.186200 Y60.347000 Z-0.125000
G01 X33.930500 Y66.091300 Z-0.125000
G01 X34.185400 Y66.229300 Z-0.125000
G01 X34.353500 Y66.140100 Z-0.125000
G01 X34.381300 Y65.910700 Z-0.125000
G01 X34.215300 Y65.627800 Z-0.125000
G01 X28.486900 Y59.899300 Z-0.125000
G01 X28.323900 Y59.619500 Z-0.125000
G01 X28.358300 Y59.396600 Z-0.125000
G01 X28.533000 Y59.314100 Z-0.125000
G01 X28.791000 Y59.455100 Z-0.125000
G01 X34.504300 Y65.168400 Z-0.125000
G01 X34.760600 Y65.307700 Z-0.125000
G01 X34.931500 Y65.221400 Z-0.125000
G01 X34.962100 Y64.994700 Z-0.125000
G01 X34.797400 Y64.713100 Z-0.125000
G01 X29.098100 Y59.013900 Z-0.125000
G01 X28.936400 Y58.735200 Z-0.125000
G01 X28.973500 Y58.515100 Z-0.125000
G01 X29.150900 Y58.435200 Z-0.125000
G01 X29.410100 Y58.577500 Z-0.125000
G01 X35.094600 Y64.262000 Z-0.125000
G01 X35.352300 Y64.402700 Z-0.125000
G01 X35.526300 Y64.319500 Z-0.125000
G01 X35.560000 Y64.096000 Z-0.125000
G01 X35.396800 Y63.815800 Z-0.125000
G01 X29.725000 Y58.144000 Z-0.125000
G01 X29.564100 Y57.866300 Z-0.125000
G01 X29.603200 Y57.648100 Z-0.125000
G01 X29.782600 Y57.570200 Z-0.125000
G01 X30.042700 Y57.713400 Z-0.125000
G01 X35.703400 Y63.374100 Z-0.125000
G01 X35.962400 Y63.516200 Z-0.125000
G01 X36.139300 Y63.435800 Z-0.125000
G01 X36.175900 Y63.215200 Z-0.125000
G01 X36.014000 Y62.936300 Z-0.125000
G01 X30.364300 Y57.286600 Z-0.125000
G01 X30.204700 Y57.010100 Z-0.125000
G01 X30.246400 Y56.794600 Z-0.125000
G01 X30.428400 Y56.719300 Z-0.125000
G01 X30.689800 Y56.863700 Z-0.125000
G01 X36.328500 Y62.502500 Z-0.125000
G01 X36.588700 Y62.645800 Z-0.125000
G01 X36.768300 Y62.568200 Z-0.125000
G01 X36.807600 Y62.350200 Z-0.125000
G01 X36.646900 Y62.072500 Z-0.125000
G01 X31.018100 Y56.443700 Z-0.125000
G01 X30.859400 Y56.168100 Z-0.125000
G01 X30.903100 Y55.954600 Z-0.125000
G01 X31.087100 Y55.881300 Z-0.125000
G01 X31.349400 Y56.026600 Z-0.125000
G01 X36.970700 Y61.648000 Z-0.125000
G01 X37.232400 Y61.792700 Z-0.125000
G01 X37.415200 Y61.718200 Z-0.125000
G01 X37.457600 Y61.503500 Z-0.125000
G01 X37.298300 Y61.227200 Z-0.125000
G01 X31.685200 Y55.614100 Z-0.125000
G01 X31.527700 Y55.339600 Z-0.125000
G01 X31.574000 Y55.128700 Z-0.125000
G01 X31.760600 Y55.058100 Z-0.125000
G01 X32.024100 Y55.204600 Z-0.125000
G01 X37.629800 Y60.810300 Z-0.125000
G01 X37.892600 Y60.956300 Z-0.125000
G01 X38.078000 Y60.884400 Z-0.125000
G01 X38.123100 Y60.672300 Z-0.125000
G01 X37.965000 Y60.397200 Z-0.125000
G01 X32.365800 Y54.798000 Z-0.125000
G01 X32.209300 Y54.524600 Z-0.125000
G01 X32.257800 Y54.315800 Z-0.125000
G01 X32.446700 Y54.247400 Z-0.125000
G01 X32.711100 Y54.394900 Z-0.125000
G01 X38.304800 Y59.988700 Z-0.125000
G01 X38.569100 Y60.136000 Z-0.125000
G01 X38.757600 Y60.067300 Z-0.125000
G01 X38.805800 Y59.858300 Z-0.125000
G01 X38.649200 Y59.584700 Z-0.125000
G01 X33.060400 Y53.995900 Z-0.125000
G01 X32.905000 Y53.723600 Z-0.125000
G01 X32.955900 Y53.517200 Z-0.125000
G01 X33.147200 Y53.451200 Z-0.125000
G01 X33.412700 Y53.599800 Z-0.125000
G01 X38.997200 Y59.184400 Z-0.125000
G01 X39.262700 Y59.332900 Z-0.125000
G01 X39.453700 Y59.266700 Z-0.125000
G01 X39.504500 Y59.060200 Z-0.125000
G01 X39.349000 Y58.787800 Z-0.125000
G01 X33.767800 Y53.206600 Z-0.125000
G01 X33.613500 Y52.935300 Z-0.125000
G01 X33.666800 Y52.731400 Z-0.125000
G01 X33.860500 Y52.667900 Z-0.125000
G01 X34.127200 Y52.817600 Z-0.125000
G01 X39.704700 Y58.395200 Z-0.125000
G01 X39.971600 Y58.545100 Z-0.125000
G01 X40.165800 Y58.482000 Z-0.125000
G01 X40.219600 Y58.278600 Z-0.125000
G01 X40.065500 Y58.007600 Z-0.125000
G01 X34.489800 Y52.431900 Z-0.125000
G01 X34.336500 Y52.162000 Z-0.125000
G01 X34.392000 Y51.960000 Z-0.125000
G01 X34.587800 Y51.898000 Z-0.125000
G01 X34.855400 Y52.049000 Z-0.125000
G01 X40.429900 Y57.623700 Z-0.125000
G01 X40.697900 Y57.774700 Z-0.125000
G01 X40.894600 Y57.714200 Z-0.125000
G01 X40.951000 Y57.513300 Z-0.125000
G01 X40.798000 Y57.243400 Z-0.125000
G01 X35.224200 Y51.670000 Z-0.125000
G01 X35.072000 Y51.400000 Z-0.125000
G01 X35.130100 Y51.201000 Z-0.125000
G01 X35.328600 Y51.142000 Z-0.125000
G01 X35.597300 Y51.294000 Z-0.125000
G01 X41.169700 Y56.866700 Z-0.125000
G01 X41.439100 Y57.019200 Z-0.125000
G01 X41.638800 Y56.961700 Z-0.125000
G01 X41.698300 Y56.763900 Z-0.125000
G01 X41.546700 Y56.495400 Z-0.125000
G01 X35.973400 Y50.922000 Z-0.125000
G01 X35.822100 Y50.654000 Z-0.125000
G01 X35.882200 Y50.457000 Z-0.125000
G01 X36.082600 Y50.400000 Z-0.125000
G01 X36.352300 Y50.553000 Z-0.125000
G01 X41.927300 Y56.127600 Z-0.125000
G01 X42.197800 Y56.281200 Z-0.125000
G01 X42.400100 Y56.226200 Z-0.125000
G01 X42.462000 Y56.030800 Z-0.125000
G01 X42.311500 Y55.763500 Z-0.125000
G01 X36.735100 Y50.187000 Z-0.125000
G01 X36.585100 Y49.920000 Z-0.125000
G01 X36.647800 Y49.726000 Z-0.125000
G01 X36.850800 Y49.671000 Z-0.125000
G01 X37.121700 Y49.825000 Z-0.125000
G01 X42.699300 Y55.402900 Z-0.125000
G01 X42.971200 Y55.557800 Z-0.125000
G01 X43.176400 Y55.505900 Z-0.125000
G01 X43.241400 Y55.313600 Z-0.125000
G01 X43.092300 Y55.047600 Z-0.125000
G01 X37.511200 Y49.466000 Z-0.125000
G01 X37.362000 Y49.200000 Z-0.125000
G01 X37.426700 Y49.008000 Z-0.125000
G01 X37.631800 Y48.956000 Z-0.125000
G01 X37.903500 Y49.110000 Z-0.125000
G01 X43.489000 Y54.695900 Z-0.125000
G01 X43.762000 Y54.852000 Z-0.125000
G01 X43.969700 Y54.802500 Z-0.125000
G01 X44.037200 Y54.612600 Z-0.125000
G01 X43.889200 Y54.347800 Z-0.125000
G01 X38.300500 Y48.759000 Z-0.125000
G01 X38.152500 Y48.494000 Z-0.125000
G01 X38.219900 Y48.304000 Z-0.125000
G01 X38.427500 Y48.255000 Z-0.125000
G01 X38.700500 Y48.411000 Z-0.125000
G01 X44.293000 Y54.003200 Z-0.125000
G01 X44.567400 Y54.160700 Z-0.125000
G01 X44.778200 Y54.114200 Z-0.125000
G01 X44.848700 Y53.927400 Z-0.125000
G01 X44.702100 Y53.663900 Z-0.125000
G01 X39.103500 Y48.065000 Z-0.125000
G01 X38.956500 Y47.801000 Z-0.125000
G01 X39.026100 Y47.614000 Z-0.125000
G01 X39.235900 Y47.566000 Z-0.125000
G01 X39.509900 Y47.723000 Z-0.125000
G01 X45.114800 Y53.328300 Z-0.125000
G01 X45.390300 Y53.486900 Z-0.125000
G01 X45.603600 Y53.442900 Z-0.125000
G01 X45.676500 Y53.258500 Z-0.125000
G01 X45.531100 Y52.996200 Z-0.125000
G01 X39.920600 Y47.386000 Z-0.125000
G01 X39.774800 Y47.123000 Z-0.125000
G01 X39.846800 Y46.938000 Z-0.125000
G01 X40.059200 Y46.893000 Z-0.125000
G01 X40.334300 Y47.051000 Z-0.125000
G01 X45.950800 Y52.667600 Z-0.125000
G01 X46.227800 Y52.827600 Z-0.125000
G01 X46.444100 Y52.786700 Z-0.125000
G01 X46.520200 Y52.605500 Z-0.125000
G01 X46.376200 Y52.345000 Z-0.125000
G01 X40.751000 Y46.719000 Z-0.125000
G01 X40.606300 Y46.458000 Z-0.125000
G01 X40.680700 Y46.275000 Z-0.125000
G01 X40.895400 Y46.232000 Z-0.125000
G01 X41.171600 Y46.392000 Z-0.125000
G01 X46.804900 Y52.025000 Z-0.125000
G01 X47.082900 Y52.186000 Z-0.125000
G01 X47.301700 Y52.148000 Z-0.125000
G01 X47.380100 Y51.969000 Z-0.125000
G01 X47.237200 Y51.709000 Z-0.125000
G01 X41.596100 Y46.068000 Z-0.125000
G01 X41.452500 Y45.807000 Z-0.125000
G01 X41.529300 Y45.627000 Z-0.125000
G01 X41.746400 Y45.587000 Z-0.125000
G01 X42.023700 Y45.747000 Z-0.125000
G01 X47.673400 Y51.397000 Z-0.125000
G01 X47.952900 Y51.559000 Z-0.125000
G01 X48.174900 Y51.524000 Z-0.125000
G01 X48.256600 Y51.349000 Z-0.125000
G01 X48.115100 Y51.090000 Z-0.125000
G01 X42.454300 Y45.429000 Z-0.125000
G01 X42.311800 Y45.170000 Z-0.125000
G01 X42.391200 Y44.992000 Z-0.125000
G01 X42.610900 Y44.954000 Z-0.125000
G01 X42.889300 Y45.116000 Z-0.125000
G01 X48.561900 Y50.789000 Z-0.125000
G01 X48.843000 Y50.953000 Z-0.125000
G01 X49.068400 Y50.921000 Z-0.125000
G01 X49.153600 Y50.749000 Z-0.125000
G01 X49.013700 Y50.492000 Z-0.125000
G01 X43.327900 Y44.806000 Z-0.125000
G01 X43.186400 Y44.548000 Z-0.125000
G01 X43.268100 Y44.372000 Z-0.125000
G01 X43.490100 Y44.337000 Z-0.125000
G01 X43.769600 Y44.500000 Z-0.125000
G01 X49.470300 Y50.200000 Z-0.125000
G01 X49.752800 Y50.366000 Z-0.125000
G01 X49.981500 Y50.337000 Z-0.125000
G01 X50.069900 Y50.168000 Z-0.125000
G01 X49.931500 Y49.913000 Z-0.125000
G01 X44.214300 Y44.196000 Z-0.125000
G01 X44.074100 Y43.939000 Z-0.125000
G01 X44.158500 Y43.766000 Z-0.125000
G01 X44.383300 Y43.733000 Z-0.125000
G01 X44.664000 Y43.897000 Z-0.125000
G01 X50.398200 Y49.631000 Z-0.125000
G01 X50.682300 Y49.799000 Z-0.125000
G01 X50.914600 Y49.774000 Z-0.125000
G01 X51.006600 Y49.608000 Z-0.125000
G01 X50.869800 Y49.355000 Z-0.125000
G01 X45.116900 Y43.602000 Z-0.125000
G01 X44.977700 Y43.346000 Z-0.125000
G01 X45.064400 Y43.175000 Z-0.125000
G01 X45.291300 Y43.145000 Z-0.125000
G01 X45.573100 Y43.310000 Z-0.125000
G01 X51.345700 Y49.082000 Z-0.125000
G01 X51.631300 Y49.251000 Z-0.125000
G01 X51.866500 Y49.229000 Z-0.125000
G01 X51.961500 Y49.067000 Z-0.125000
G01 X51.826000 Y48.814000 Z-0.125000
G01 X46.032500 Y43.021000 Z-0.125000
G01 X45.894600 Y42.766000 Z-0.125000
G01 X45.984000 Y42.598000 Z-0.125000
G01 X46.213800 Y42.571000 Z-0.125000
G01 X46.496900 Y42.737000 Z-0.125000
G01 X52.310600 Y48.550000 Z-0.125000
G01 X52.597500 Y48.720000 Z-0.125000
G01 X52.835800 Y48.701000 Z-0.125000
G01 X52.933800 Y48.542000 Z-0.125000
G01 X52.799800 Y48.291000 Z-0.125000
G01 X46.964500 Y42.456000 Z-0.125000
G01 X46.827700 Y42.202000 Z-0.125000
G01 X46.919400 Y42.037000 Z-0.125000
G01 X47.151500 Y42.011000 Z-0.125000
G01 X47.435600 Y42.179000 Z-0.125000
G01 X53.294000 Y48.037000 Z-0.125000
G01 X53.582400 Y48.209000 Z-0.125000
G01 X53.823800 Y48.193000 Z-0.125000
G01 X53.925000 Y48.037000 Z-0.125000
G01 X53.792400 Y47.787000 Z-0.125000
G01 X47.909900 Y41.905000 Z-0.125000
G01 X47.774400 Y41.652000 Z-0.125000
G01 X47.869000 Y41.490000 Z-0.125000
G01 X48.104000 Y41.467000 Z-0.125000
G01 X48.389400 Y41.636000 Z-0.125000
G01 X54.294800 Y47.541000 Z-0.125000
G01 X54.584400 Y47.714000 Z-0.125000
G01 X54.828700 Y47.701000 Z-0.125000
G01 X54.932700 Y47.548000 Z-0.125000
G01 X54.801400 Y47.299000 Z-0.125000
G01 X48.872200 Y41.370000 Z-0.125000
G01 X48.737800 Y41.119000 Z-0.125000
G01 X48.834800 Y40.959000 Z-0.125000
G01 X49.072100 Y40.939000 Z-0.125000
G01 X49.358600 Y41.108000 Z-0.125000
G01 X55.312100 Y47.062000 Z-0.125000
G01 X55.603200 Y47.236000 Z-0.125000
G01 X55.850900 Y47.226000 Z-0.125000
G01 X55.958300 Y47.077000 Z-0.125000
G01 X55.828500 Y46.830000 Z-0.125000
G01 X49.848200 Y40.850000 Z-0.125000
G01 X49.715100 Y40.599000 Z-0.125000
G01 X49.815100 Y40.442000 Z-0.125000
G01 X50.055400 Y40.425000 Z-0.125000
G01 X50.343300 Y40.596000 Z-0.125000
G01 X56.348800 Y46.602000 Z-0.125000
G01 X56.641200 Y46.777000 Z-0.125000
G01 X56.891700 Y46.770000 Z-0.125000
G01 X57.001800 Y46.623000 Z-0.125000
G01 X56.873300 Y46.378000 Z-0.125000
G01 X50.841900 Y40.346000 Z-0.125000
G01 X50.709900 Y40.098000 Z-0.125000
G01 X50.812400 Y39.943000 Z-0.125000
G01 X51.055200 Y39.928000 Z-0.125000
G01 X51.344100 Y40.100000 Z-0.125000
G01 X57.402000 Y46.158000 Z-0.125000
G01 X57.695800 Y46.335000 Z-0.125000
G01 X57.949200 Y46.331000 Z-0.125000
G01 X58.062200 Y46.187000 Z-0.125000
G01 X57.935100 Y45.943000 Z-0.125000
G01 X51.850100 Y39.858000 Z-0.125000
G01 X51.719400 Y39.610000 Z-0.125000
G01 X51.824700 Y39.458000 Z-0.125000
G01 X52.070400 Y39.447000 Z-0.125000
G01 X52.360600 Y39.620000 Z-0.125000
G01 X58.473600 Y45.733000 Z-0.125000
G01 X58.768900 Y45.912000 Z-0.125000
G01 X59.025800 Y45.911000 Z-0.125000
G01 X59.142300 Y45.770000 Z-0.125000
G01 X59.016700 Y45.528000 Z-0.125000
G01 X52.875600 Y39.387000 Z-0.125000
G01 X52.746200 Y39.140000 Z-0.125000
G01 X52.854400 Y38.991000 Z-0.125000
G01 X53.102900 Y38.983000 Z-0.125000
G01 X53.394400 Y39.157000 Z-0.125000
G01 X59.564400 Y45.327000 Z-0.125000
G01 X59.861200 Y45.507000 Z-0.125000
G01 X60.121300 Y45.510000 Z-0.125000
G01 X60.241000 Y45.372000 Z-0.125000
G01 X60.116900 Y45.131000 Z-0.125000
G01 X53.917100 Y38.932000 Z-0.125000
G01 X53.788900 Y38.686000 Z-0.125000
G01 X53.899800 Y38.540000 Z-0.125000
G01 X54.151000 Y38.534000 Z-0.125000
G01 X54.443800 Y38.710000 Z-0.125000
G01 X60.674100 Y44.940000 Z-0.125000
G01 X60.972500 Y45.122000 Z-0.125000
G01 X61.235900 Y45.128000 Z-0.125000
G01 X61.359100 Y44.994000 Z-0.125000
G01 X61.236400 Y44.754000 Z-0.125000
G01 X54.975900 Y38.494000 Z-0.125000
G01 X54.849200 Y38.250000 Z-0.125000
G01 X54.963300 Y38.107000 Z-0.125000
G01 X55.217800 Y38.104000 Z-0.125000
G01 X55.512000 Y38.281000 Z-0.125000
G01 X61.811800 Y44.581000 Z-0.125000
G01 X62.110800 Y44.763000 Z-0.125000
G01 X62.375800 Y44.771000 Z-0.125000
G01 X62.500400 Y44.638000 Z-0.125000
G01 X62.378500 Y44.400000 Z-0.125000
G01 X56.052300 Y38.073000 Z-0.125000
G01 X55.926800 Y37.831000 Z-0.125000
G01 X56.043800 Y37.691000 Z-0.125000
G01 X56.301100 Y37.691000 Z-0.125000
G01 X56.596600 Y37.869000 Z-0.125000
G01 X62.958000 Y44.231000 Z-0.125000
G01 X63.259900 Y44.416000 Z-0.125000
G01 X63.531300 Y44.430000 Z-0.125000
G01 X63.662400 Y44.304000 Z-0.125000
G01 X63.543400 Y44.068000 Z-0.125000
G01 X57.145700 Y37.670000 Z-0.125000
G01 X57.021800 Y37.429000 Z-0.125000
G01 X57.142200 Y37.292000 Z-0.125000
G01 X57.402900 Y37.296000 Z-0.125000
G01 X57.700000 Y37.476000 Z-0.125000
G01 X64.135000 Y43.911000 Z-0.125000
G01 X64.438900 Y44.098000 Z-0.125000
G01 X64.714700 Y44.117000 Z-0.125000
G01 X64.850200 Y43.995000 Z-0.125000
G01 X64.733100 Y43.761000 Z-0.125000
G01 X58.258700 Y37.286000 Z-0.125000
G01 X58.136200 Y37.047000 Z-0.125000
G01 X58.259600 Y36.913000 Z-0.125000
G01 X58.523300 Y36.920000 Z-0.125000
G01 X58.821800 Y37.101000 Z-0.125000
G01 X65.338200 Y43.618000 Z-0.125000
G01 X65.644400 Y43.807000 Z-0.125000
G01 X65.925100 Y43.830000 Z-0.125000
G01 X66.065500 Y43.713000 Z-0.125000
G01 X65.950700 Y43.482000 Z-0.125000
G01 X59.389400 Y36.920000 Z-0.125000
G01 X59.268400 Y36.682000 Z-0.125000
G01 X59.395000 Y36.552000 Z-0.125000
G01 X59.661900 Y36.561000 Z-0.125000
G01 X59.961800 Y36.744000 Z-0.125000
G01 X66.571100 Y43.354000 Z-0.125000
G01 X66.879900 Y43.546000 Z-0.125000
G01 X67.166300 Y43.575000 Z-0.125000
G01 X67.312300 Y43.463000 Z-0.125000
G01 X67.200100 Y43.234000 Z-0.125000
G01 X60.540100 Y36.574000 Z-0.125000
G01 X60.420700 Y36.338000 Z-0.125000
G01 X60.550900 Y36.211000 Z-0.125000
G01 X60.821400 Y36.224000 Z-0.125000
G01 X61.123000 Y36.409000 Z-0.125000
G01 X67.839400 Y43.125000 Z-0.125000
G01 X68.151500 Y43.320000 Z-0.125000
G01 X68.445100 Y43.357000 Z-0.125000
G01 X68.598400 Y43.253000 Z-0.125000
G01 X68.489600 Y43.027000 Z-0.125000
G01 X61.710800 Y36.248000 Z-0.125000
G01 X61.592900 Y36.014000 Z-0.125000
G01 X61.726500 Y35.890000 Z-0.125000
G01 X62.000400 Y35.907000 Z-0.125000
G01 X62.303500 Y36.093000 Z-0.125000
G01 X69.157600 Y42.947000 Z-0.125000
G01 X69.473900 Y43.146000 Z-0.125000
G01 X69.777100 Y43.192000 Z-0.125000
G01 X69.939900 Y43.098000 Z-0.125000
G01 X69.835300 Y42.876000 Z-0.125000
G01 X62.897800 Y35.939000 Z-0.125000
G01 X62.782100 Y35.706000 Z-0.125000
G01 X62.920600 Y35.587000 Z-0.125000
G01 X63.199400 Y35.609000 Z-0.125000
G01 X63.504600 Y35.797000 Z-0.125000
G01 X70.521900 Y42.814000 Z-0.125000
G01 X70.845400 Y43.021000 Z-0.125000
G01 X71.164300 Y43.083000 Z-0.125000
G01 X71.342800 Y43.004000 Z-0.125000
G01 X71.245400 Y42.789000 Z-0.125000
G01 X64.113900 Y35.658000 Z-0.125000
G01 X63.999500 Y35.427000 Z-0.125000
G01 X64.140600 Y35.311000 Z-0.125000
G01 X64.422100 Y35.335000 Z-0.125000
G01 X64.728600 Y35.524000 Z-0.125000
G01 X71.924900 Y42.721000 Z-0.125000
G01 X72.246800 Y42.926000 Z-0.125000
G01 X72.562000 Y42.984000 Z-0.125000
G01 X72.736900 Y42.901000 Z-0.125000
G01 X72.637800 Y42.685000 Z-0.125000
G01 X65.348600 Y35.396000 Z-0.125000
G01 X65.235900 Y35.166000 Z-0.125000
G01 X65.380800 Y35.054000 Z-0.125000
G01 X65.666000 Y35.082000 Z-0.125000
G01 X65.974200 Y35.273000 Z-0.125000
G01 X73.356700 Y42.656000 Z-0.125000
G01 X74.002900 Y42.928000 Z-0.125000
G01 X74.184000 Y42.852000 Z-0.125000
G01 X74.087700 Y42.638000 Z-0.125000
G01 X66.606000 Y35.157000 Z-0.125000
G01 X66.496200 Y34.930000 Z-0.125000
G01 X66.647300 Y34.824000 Z-0.125000
G01 X66.938800 Y34.858000 Z-0.125000
G01 X67.249900 Y35.052000 Z-0.125000
G01 X74.823200 Y42.626000 Z-0.125000
G01 X75.474500 Y42.903000 Z-0.125000
G01 X75.659100 Y42.830000 Z-0.125000
G01 X75.564400 Y42.619000 Z-0.125000
G01 X67.906500 Y34.961000 Z-0.125000
G01 X67.800400 Y34.738000 Z-0.125000
G01 X67.959800 Y34.640000 Z-0.125000
G01 X68.259500 Y34.682000 Z-0.125000
G01 X68.574400 Y34.880000 Z-0.125000
G01 X76.317200 Y42.623000 Z-0.125000
G01 X76.977100 Y42.909000 Z-0.125000
G01 X77.167700 Y42.842000 Z-0.125000
G01 X77.075700 Y42.633000 Z-0.125000
G01 X69.252300 Y34.810000 Z-0.125000
G01 X69.149100 Y34.590000 Z-0.125000
G01 X69.315100 Y34.498000 Z-0.125000
G01 X69.621400 Y34.547000 Z-0.125000
G01 X69.939300 Y34.748000 Z-0.125000
G01 X77.840900 Y42.650000 Z-0.125000
G01 X78.509800 Y42.945000 Z-0.125000
G01 X78.706600 Y42.884000 Z-0.125000
G01 X78.617400 Y42.678000 Z-0.125000
G01 X70.637900 Y34.699000 Z-0.125000
G01 X70.536800 Y34.481000 Z-0.125000
G01 X70.707300 Y34.394000 Z-0.125000
G01 X71.018100 Y34.447000 Z-0.125000
G01 X71.338000 Y34.650000 Z-0.125000
G01 X79.403500 Y42.716000 Z-0.125000
G01 X80.082200 Y43.020000 Z-0.125000
G01 X80.285700 Y42.967000 Z-0.125000
G01 X80.199600 Y42.764000 Z-0.125000
G01 X72.051500 Y34.616000 Z-0.125000
G01 X71.952700 Y34.400000 Z-0.125000
G01 X72.128000 Y34.318000 Z-0.125000
G01 X72.443700 Y34.376000 Z-0.125000
G01 X72.765800 Y34.582000 Z-0.125000
G01 X81.007900 Y42.824000 Z-0.125000
G01 X81.700400 Y43.142000 Z-0.125000
G01 X81.913300 Y43.098000 Z-0.125000
G01 X81.831600 Y42.899000 Z-0.125000
G01 X73.492900 Y34.560000 Z-0.125000
G01 X73.396100 Y34.347000 Z-0.125000
G01 X73.576000 Y34.269000 Z-0.125000
G01 X73.896300 Y34.332000 Z-0.125000
G01 X74.220400 Y34.539000 Z-0.125000
G01 X82.675900 Y42.995000 Z-0.125000
G01 X83.393900 Y43.339000 Z-0.125000
G01 X83.624400 Y43.312000 Z-0.125000
G01 X83.550600 Y43.121000 Z-0.125000
G01 X74.960300 Y34.531000 Z-0.125000
G01 X74.865500 Y34.319000 Z-0.125000
G01 X75.049800 Y34.246000 Z-0.125000
G01 X75.700500 Y34.523000 Z-0.125000
G01 X84.454100 Y43.277000 Z-0.125000
G01 X85.197700 Y43.646000 Z-0.125000
G01 X85.445800 Y43.637000 Z-0.125000
G01 X85.380000 Y43.454000 Z-0.125000
G01 X76.453000 Y34.527000 Z-0.125000
G01 X76.360100 Y34.317000 Z-0.125000
G01 X76.548800 Y34.249000 Z-0.125000
G01 X77.205800 Y34.531000 Z-0.125000
G01 X86.330300 Y43.656000 Z-0.125000
G01 X87.099400 Y44.051000 Z-0.125000
G01 X87.365100 Y44.059000 Z-0.125000
G01 X87.307300 Y43.884000 Z-0.125000
G01 X77.971200 Y34.548000 Z-0.125000
G01 X77.880400 Y34.340000 Z-0.125000
G01 X78.073500 Y34.276000 Z-0.125000
G01 X78.736900 Y34.566000 Z-0.125000
G01 X88.313400 Y44.142000 Z-0.125000
G01 X89.113000 Y44.567000 Z-0.125000
G01 X89.399600 Y44.597000 Z-0.125000
G01 X89.351300 Y44.432000 Z-0.125000
G01 X79.516600 Y34.597000 Z-0.125000
G01 X79.425600 Y34.389000 Z-0.125000
G01 X79.618200 Y34.324000 Z-0.125000
G01 X80.281100 Y34.613000 Z-0.125000
G01 X90.441600 Y44.773000 Z-0.125000
G01 X91.272000 Y45.230000 Z-0.125000
G01 X91.579800 Y45.280000 Z-0.125000
G01 X91.541100 Y45.125000 Z-0.125000
G01 X81.091800 Y34.675000 Z-0.125000
G01 X81.006200 Y34.473000 Z-0.125000
G01 X81.210800 Y34.420000 Z-0.125000
G01 X81.891100 Y34.726000 Z-0.125000
G01 X92.706800 Y45.542000 Z-0.125000
G01 X93.596400 Y46.057000 Z-0.125000
G01 X93.945000 Y46.149000 Z-0.125000
G01 X93.924800 Y46.012000 Z-0.125000
G01 X82.701800 Y34.789000 Z-0.125000
G01 X82.619800 Y34.590000 Z-0.125000
G01 X82.832300 Y34.545000 Z-0.125000
G01 X83.524100 Y34.863000 Z-0.125000
G01 X95.368900 Y46.707000 Z-0.125000
G01 X96.259100 Y47.223000 Z-0.125000
G01 X96.608000 Y47.315000 Z-0.125000
G01 X96.588000 Y47.178000 Z-0.125000
G01 X84.354400 Y34.945000 Z-0.125000
G01 X84.276800 Y34.750000 Z-0.125000
G01 X84.499000 Y34.715000 Z-0.125000
G01 X85.204900 Y35.047000 Z-0.125000
G01 X98.346500 Y48.188000 Z-0.125000
G00 Z5.000000

(End cutting path id: path2)


(Start cutting path id: path2)
(Change tool to Default tool)

G00 Z5.000000
G00 X99.970600 Y49.064000

G01 Z-0.125000 F100.0(Penetrate)
G01 X86.073900 Y35.167000 Z-0.125000 F400.000000
G01 X86.003400 Y34.980000 Z-0.125000
G01 X86.241100 Y34.960000 Z-0.125000
G01 X86.969600 Y35.315000 Z-0.125000
G01 X101.887000 Y50.232000 Z-0.125000
G00 Z5.000000

(End cutting path id: path2)


(Start cutting path id: path2)
(Change tool to Default tool)

G00 Z5.000000
G00 X104.081000 Y51.678000

G01 Z-0.125000 F100.0(Penetrate)
G01 X87.900400 Y35.497000 Z-0.125000 F400.000000
G01 X87.841400 Y35.321000 Z-0.125000
G01 X88.104600 Y35.327000 Z-0.125000
G01 X88.870200 Y35.719000 Z-0.125000
G01 X107.520000 Y54.368800 Z-0.125000
G00 Z5.000000

(End cutting path id: path2)


(Start cutting path id: path2)
(Change tool to Default tool)

G00 Z5.000000
G00 X113.259000 Y60.107200

G01 Z-0.125000 F100.0(Penetrate)
G01 X131.982000 Y78.830100 Z-0.125000 F400.000000
G01 X132.156000 Y78.887800 Z-0.125000
G01 X132.148000 Y78.621800 Z-0.125000
G01 X131.752000 Y77.852300 Z-0.125000
G01 X89.859800 Y35.960000 Z-0.125000
G01 X89.807600 Y35.791000 Z-0.125000
G01 X90.085600 Y35.811000 Z-0.125000
G01 X90.872600 Y36.224000 Z-0.125000
G01 X131.499000 Y76.851000 Z-0.125000
G01 X131.667000 Y76.901500 Z-0.125000
G01 X131.642000 Y76.619700 Z-0.125000
G01 X131.224000 Y75.827100 Z-0.125000
G01 X91.910400 Y36.514000 Z-0.125000
G01 X91.867300 Y36.354000 Z-0.125000
G01 X92.165300 Y36.394000 Z-0.125000
G01 X92.981400 Y36.836000 Z-0.125000
G01 X130.912000 Y74.767000 Z-0.125000
G01 X131.069000 Y74.806900 Z-0.125000
G01 X131.021000 Y74.501900 Z-0.125000
G01 X130.569000 Y73.675500 Z-0.125000
G01 X94.082000 Y37.189000 Z-0.125000
G01 X94.040200 Y37.030000 Z-0.125000
G01 X94.341100 Y37.074000 Z-0.125000
G01 X95.161500 Y37.520000 Z-0.125000
G01 X130.190000 Y72.548600 Z-0.125000
G01 X130.335000 Y72.576800 Z-0.125000
G01 X130.262000 Y72.245800 Z-0.125000
G01 X129.772000 Y71.381600 Z-0.125000
G01 X96.397800 Y38.008000 Z-0.125000
G01 X96.359600 Y37.853000 Z-0.125000
G01 X96.668500 Y37.904000 Z-0.125000
G01 X97.500400 Y38.362000 Z-0.125000
G01 X129.308000 Y70.169100 Z-0.125000
G01 X129.437000 Y70.181900 Z-0.125000
G01 X129.330000 Y69.817300 Z-0.125000
G01 X128.791000 Y68.904200 Z-0.125000
G01 X98.901300 Y39.015000 Z-0.125000
G01 X98.901400 Y38.898000 Z-0.125000
G01 X99.294400 Y39.033000 Z-0.125000
G01 X100.249000 Y39.614000 Z-0.125000
G01 X128.591000 Y67.955400 Z-0.125000
G00 Z5.000000

(End cutting path id: path2)


(Start cutting path id: path2)
(Change tool to Default tool)

G00 Z5.000000
G00 X119.662000 Y69.503500

G01 Z-0.125000 F100.0(Penetrate)
G01 X132.693000 Y82.534600 Z-0.125000 F400.000000
G01 X132.880000 Y82.605000 Z-0.125000
G01 X132.899000 Y82.367100 Z-0.125000
G01 X132.545000 Y81.638300 Z-0.125000
G01 X118.797000 Y67.890800 Z-0.125000
G00 Z5.000000

(End cutting path id: path2)


(Start cutting path id: path2)
(Change tool to Default tool)

G00 Z5.000000
G00 X117.401000 Y65.746500

G01 Z-0.125000 F100.0(Penetrate)
G01 X132.379000 Y80.723800 Z-0.125000 F400.000000
G01 X132.560000 Y80.787900 Z-0.125000
G01 X132.565000 Y80.535900 Z-0.125000
G01 X132.190000 Y79.786600 Z-0.125000
G01 X115.953000 Y63.549700 Z-0.125000
G00 Z5.000000

(End cutting path id: path2)


(Start cutting path id: path2)
(Change tool to Default tool)

G00 Z5.000000
G00 X123.778000 Y59.401200

G01 Z-0.125000 F100.0(Penetrate)
G01 X108.546000 Y44.169000 Z-0.125000 F400.000000
G00 Z5.000000

(End cutting path id: path2)


(Start cutting path id: path2)
(Change tool to Default tool)

G00 Z5.000000
G00 X106.416000 Y42.788000

G01 Z-0.125000 F100.0(Penetrate)
G01 X125.125000 Y61.496700 Z-0.125000 F400.000000
G00 Z5.000000

(End cutting path id: path2)


(Start cutting path id: path2)
(Change tool to Default tool)

G00 Z5.000000
G00 X121.897000 Y56.772000

G01 Z-0.125000 F100.0(Penetrate)
G01 X110.719000 Y45.594000 Z-0.125000 F400.000000
G00 Z5.000000

(End cutting path id: path2)


(Start cutting path id: path2)
(Change tool to Default tool)

G00 Z5.000000
G00 X104.557000 Y41.676000

G01 Z-0.125000 F100.0(Penetrate)
G01 X126.386000 Y63.505400 Z-0.125000 F400.000000
G00 Z5.000000

(End cutting path id: path2)


(Start cutting path id: path2)
(Change tool to Default tool)

G00 Z5.000000
G00 X118.869000 Y52.994900

G01 Z-0.125000 F100.0(Penetrate)
G01 X115.068000 Y49.195000 Z-0.125000 F400.000000
G00 Z5.000000

(End cutting path id: path2)


(Start cutting path id: path2)
(Change tool to Default tool)

G00 Z5.000000
G00 X102.918000 Y40.786000

G01 Z-0.125000 F100.0(Penetrate)
G01 X127.110000 Y64.978100 Z-0.125000 F400.000000
G00 Z5.000000

(End cutting path id: path2)


(Start cutting path id: path2)
(Change tool to Default tool)

G00 Z5.000000
G00 X101.394000 Y40.010000

G01 Z-0.125000 F100.0(Penetrate)
G01 X127.823000 Y66.439900 Z-0.125000 F400.000000
G00 Z5.000000

(End cutting path id: path2)


(Start cutting path id: path2)
(Change tool to Default tool)

G00 Z5.000000
G00 X84.169100 Y70.485500

G01 Z-0.125000 F100.0(Penetrate)
G01 X83.950600 Y71.428000 Z-0.125000 F400.000000
G01 X83.929500 Y73.112100 Z-0.125000
G01 X84.078000 Y74.802600 Z-0.125000
G01 X84.368300 Y75.764200 Z-0.125000
G01 X84.887500 Y75.963600 Z-0.125000
G01 X86.004100 Y76.103300 Z-0.125000
G01 X90.144300 Y76.212400 Z-0.125000
G01 X94.745400 Y76.098200 Z-0.125000
G01 X95.528100 Y75.866800 Z-0.125000
G01 X95.885200 Y75.440400 Z-0.125000
G01 X96.084200 Y74.923500 Z-0.125000
G01 X96.101400 Y74.446000 Z-0.125000
G01 X95.931000 Y74.003000 Z-0.125000
G01 X95.567300 Y73.589300 Z-0.125000
G01 X94.237300 Y72.830600 Z-0.125000
G01 X92.065600 Y72.130300 Z-0.125000
G01 X87.308400 Y70.776200 Z-0.125000
G01 X85.207000 Y70.265400 Z-0.125000
G01 X84.568700 Y70.285400 Z-0.125000
G01 X84.169100 Y70.485500 Z-0.125000
G01 X84.169100 Y70.485500 Z-0.125000
G00 Z5.000000

(End cutting path id: path2)


(Start cutting path id: path2)
(Change tool to Default tool)

G00 Z5.000000
G00 X84.819700 Y75.821300

G01 Z-0.125000 F100.0(Penetrate)
G01 X84.512800 Y75.514400 Z-0.125000 F400.000000
G01 X84.195400 Y74.822800 Z-0.125000
G01 X84.240300 Y74.610400 Z-0.125000
G01 X84.439300 Y74.692500 Z-0.125000
G01 X85.405500 Y75.658700 Z-0.125000
G01 X86.091100 Y75.970200 Z-0.125000
G01 X86.299400 Y75.921200 Z-0.125000
G01 X86.215500 Y75.720400 Z-0.125000
G01 X84.366300 Y73.871100 Z-0.125000
G01 X84.069800 Y73.200500 Z-0.125000
G01 X84.129100 Y73.002500 Z-0.125000
G01 X84.334600 Y73.091100 Z-0.125000
G01 X86.999600 Y75.756100 Z-0.125000
G01 X87.665500 Y76.047800 Z-0.125000
G01 X87.860300 Y75.985300 Z-0.125000
G01 X87.770200 Y75.778300 Z-0.125000
G01 X84.334300 Y72.342500 Z-0.125000
G01 X84.129800 Y72.021000 Z-0.125000
G01 X84.072700 Y71.706700 Z-0.125000
G01 X84.155900 Y71.532700 Z-0.125000
G01 X84.372400 Y71.632100 Z-0.125000
G01 X88.533000 Y75.792800 Z-0.125000
G01 X89.189800 Y76.075400 Z-0.125000
G01 X89.378200 Y76.006600 Z-0.125000
G01 X89.285300 Y75.796700 Z-0.125000
G01 X84.473600 Y70.985000 Z-0.125000
G01 X84.333000 Y70.727500 Z-0.125000
G01 X84.416600 Y70.553800 Z-0.125000
G01 X84.640500 Y70.520500 Z-0.125000
G01 X84.920800 Y70.683900 Z-0.125000
G01 X90.036300 Y75.799400 Z-0.125000
G01 X90.690300 Y76.079200 Z-0.125000
G01 X90.876900 Y76.008600 Z-0.125000
G01 X90.783100 Y75.797900 Z-0.125000
G01 X85.688400 Y70.703100 Z-0.125000
G01 X85.628000 Y70.525800 Z-0.125000
G01 X85.888000 Y70.528600 Z-0.125000
G01 X86.648900 Y70.915300 Z-0.125000
G01 X91.529900 Y75.796300 Z-0.125000
G01 X92.180400 Y76.072600 Z-0.125000
G01 X92.364400 Y75.999400 Z-0.125000
G01 X92.269500 Y75.787500 Z-0.125000
G01 X87.663800 Y71.181800 Z-0.125000
G01 X87.629300 Y71.030400 Z-0.125000
G01 X87.946400 Y71.090300 Z-0.125000
G01 X88.790300 Y71.560000 Z-0.125000
G01 X93.006100 Y75.775800 Z-0.125000
G01 X93.329400 Y75.982200 Z-0.125000
G01 X93.647900 Y76.043400 Z-0.125000
G01 X93.826000 Y75.964300 Z-0.125000
G01 X93.728400 Y75.749700 Z-0.125000
G01 X89.757600 Y71.778900 Z-0.125000
G01 X89.722600 Y71.626900 Z-0.125000
G01 X90.038300 Y71.685500 Z-0.125000
G01 X90.880400 Y72.153300 Z-0.125000
G01 X94.418500 Y75.691200 Z-0.125000
G01 X94.724300 Y75.880000 Z-0.125000
G01 X95.004200 Y75.902700 Z-0.125000
G01 X95.143700 Y75.785000 Z-0.125000
G01 X95.028600 Y75.552900 Z-0.125000
G01 X91.905000 Y72.429400 Z-0.125000
G01 X91.855300 Y72.262700 Z-0.125000
G01 X92.138800 Y72.288900 Z-0.125000
G01 X92.933800 Y72.709800 Z-0.125000
G01 X95.428200 Y75.204200 Z-0.125000
G01 X95.674700 Y75.333800 Z-0.125000
G01 X95.824200 Y75.226000 Z-0.125000
G01 X95.833300 Y74.977900 Z-0.125000
G01 X95.658900 Y74.686500 Z-0.125000
G01 X94.038600 Y73.066200 Z-0.125000
G01 X94.032000 Y72.942700 Z-0.125000
G01 X94.410300 Y73.063800 Z-0.125000
G01 X95.343400 Y73.622700 Z-0.125000
G01 X95.967800 Y74.247000 Z-0.125000
G00 Z5.000000

(End cutting path id: path2)


(Start cutting path id: path2)
(Change tool to Default tool)

G00 Z5.000000
G00 X84.169100 Y79.075800

G01 Z-0.125000 F100.0(Penetrate)
G01 X83.993300 Y80.271800 Z-0.125000 F400.000000
G01 X83.920100 Y82.797600 Z-0.125000
G01 X83.797000 Y85.744100 Z-0.125000
G01 X83.578400 Y86.339700 Z-0.125000
G01 X83.197700 Y86.657000 Z-0.125000
G01 X82.030000 Y86.820700 Z-0.125000
G01 X79.297200 Y86.942100 Z-0.125000
G01 X69.640000 Y87.043600 Z-0.125000
G01 X59.565700 Y87.143500 Z-0.125000
G01 X57.238000 Y87.282000 Z-0.125000
G01 X56.356600 Y87.491800 Z-0.125000
G01 X56.162800 Y87.945100 Z-0.125000
G01 X56.022500 Y88.854900 Z-0.125000
G01 X55.908400 Y91.982900 Z-0.125000
G01 X55.891900 Y94.306800 Z-0.125000
G01 X55.784400 Y95.550000 Z-0.125000
G01 X55.499500 Y96.111500 Z-0.125000
G01 X54.950400 Y96.390100 Z-0.125000
G01 X52.470700 Y96.647300 Z-0.125000
G01 X47.854100 Y96.754300 Z-0.125000
G01 X42.604700 Y96.858700 Z-0.125000
G01 X41.857300 Y97.074300 Z-0.125000
G01 X41.715800 Y97.474800 Z-0.125000
G01 X41.711800 Y97.745000 Z-0.125000
G01 X41.829400 Y97.977500 Z-0.125000
G01 X43.208600 Y98.584200 Z-0.125000
G01 X55.994700 Y102.149500 Z-0.125000
G01 X63.528900 Y104.142200 Z-0.125000
G01 X67.098900 Y104.971100 Z-0.125000
G01 X67.663500 Y104.794400 Z-0.125000
G01 X68.013600 Y104.095300 Z-0.125000
G01 X68.213300 Y102.620200 Z-0.125000
G01 X68.326700 Y100.115700 Z-0.125000
G01 X68.420200 Y96.941100 Z-0.125000
G01 X81.928600 Y96.754300 Z-0.125000
G01 X91.560100 Y96.531300 Z-0.125000
G01 X95.747700 Y96.257300 Z-0.125000
G01 X96.004200 Y94.845700 Z-0.125000
G01 X96.184400 Y91.887500 Z-0.125000
G01 X96.396600 Y88.773800 Z-0.125000
G01 X96.565500 Y87.874100 Z-0.125000
G01 X96.771900 Y87.444900 Z-0.125000
G01 X98.953300 Y87.141700 Z-0.125000
G01 X103.738000 Y86.959300 Z-0.125000
G01 X109.149000 Y86.768600 Z-0.125000
G01 X110.084000 Y86.567500 Z-0.125000
G01 X110.360000 Y86.239000 Z-0.125000
G01 X110.395000 Y85.985200 Z-0.125000
G01 X110.280000 Y85.757200 Z-0.125000
G01 X108.926000 Y85.156700 Z-0.125000
G01 X97.034800 Y81.821600 Z-0.125000
G01 X86.801400 Y79.162400 Z-0.125000
G01 X84.901000 Y78.875600 Z-0.125000
G01 X84.434700 Y78.924600 Z-0.125000
G01 X84.169100 Y79.075800 Z-0.125000
G01 X84.169100 Y79.075800 Z-0.125000
G00 Z5.000000

(End cutting path id: path2)


(Start cutting path id: path2)
(Change tool to Default tool)

G00 Z5.000000
G00 X84.146800 Y101.080000

G01 Z-0.125000 F100.0(Penetrate)
G01 X83.986700 Y103.775200 Z-0.125000 F400.000000
G01 X83.920100 Y109.425600 Z-0.125000
G01 X84.028300 Y115.992200 Z-0.125000
G01 X84.225600 Y117.210000 Z-0.125000
G01 X84.573700 Y117.754700 Z-0.125000
G01 X86.510500 Y118.567300 Z-0.125000
G01 X90.249300 Y119.714500 Z-0.125000
G01 X94.615100 Y120.803100 Z-0.125000
G01 X95.371900 Y120.772400 Z-0.125000
G01 X95.758300 Y120.433900 Z-0.125000
G01 X95.964100 Y119.412700 Z-0.125000
G01 X96.118600 Y117.234400 Z-0.125000
G01 X96.266100 Y110.931100 Z-0.125000
G01 X96.184700 Y104.573700 Z-0.125000
G01 X96.053300 Y102.327700 Z-0.125000
G01 X95.858600 Y101.211600 Z-0.125000
G01 X95.498900 Y100.818400 Z-0.125000
G01 X94.671400 Y100.601200 Z-0.125000
G01 X89.922700 Y100.489200 Z-0.125000
G01 X85.338700 Y100.596300 Z-0.125000
G01 X84.467400 Y100.775900 Z-0.125000
G01 X84.146800 Y101.080000 Z-0.125000
G01 X84.146800 Y101.080000 Z-0.125000
G00 Z5.000000

(End cutting path id: path2)


(Start cutting path id: path2)
(Change tool to Default tool)

G00 Z5.000000
G00 X84.934800 Y117.844000

G01 Z-0.125000 F100.0(Penetrate)
G01 X84.647300 Y117.556400 Z-0.125000 F400.000000
G01 X84.281100 Y116.816100 Z-0.125000
G01 X84.292500 Y116.570200 Z-0.125000
G01 X84.476200 Y116.637000 Z-0.125000
G01 X85.849000 Y118.009800 Z-0.125000
G01 X86.703400 Y118.490000 Z-0.125000
G01 X87.027700 Y118.557100 Z-0.125000
G01 X86.996500 Y118.409000 Z-0.125000
G01 X84.411700 Y115.824200 Z-0.125000
G01 X84.115900 Y115.154200 Z-0.125000
G01 X84.175700 Y114.956700 Z-0.125000
G01 X84.381400 Y115.045500 Z-0.125000
G01 X88.083100 Y118.747200 Z-0.125000
G01 X88.896000 Y119.185900 Z-0.125000
G01 X89.191800 Y119.224400 Z-0.125000
G01 X89.147600 Y119.063400 Z-0.125000
G01 X84.363300 Y114.279000 Z-0.125000
G01 X84.076100 Y113.617700 Z-0.125000
G01 X84.141800 Y113.426100 Z-0.125000
G01 X84.350300 Y113.517600 Z-0.125000
G01 X90.189900 Y119.357200 Z-0.125000
G01 X90.985800 Y119.779000 Z-0.125000
G01 X91.269800 Y119.805800 Z-0.125000
G01 X91.220400 Y119.639400 Z-0.125000
G01 X84.343600 Y112.762700 Z-0.125000
G01 X84.059800 Y112.104600 Z-0.125000
G01 X84.127700 Y111.915300 Z-0.125000
G01 X84.337100 Y112.007900 Z-0.125000
G01 X92.241500 Y119.912300 Z-0.125000
G01 X93.025600 Y120.322200 Z-0.125000
G01 X93.301600 Y120.340900 Z-0.125000
G01 X93.248400 Y120.170800 Z-0.125000
G01 X84.335800 Y111.258200 Z-0.125000
G01 X84.054500 Y110.602700 Z-0.125000
G01 X84.124200 Y110.415100 Z-0.125000
G01 X84.334500 Y110.508500 Z-0.125000
G01 X94.245500 Y120.419400 Z-0.125000
G01 X94.568300 Y120.625300 Z-0.125000
G01 X94.885600 Y120.685400 Z-0.125000
G01 X95.062600 Y120.605100 Z-0.125000
G01 X94.964400 Y120.390000 Z-0.125000
G01 X84.332900 Y109.758500 Z-0.125000
G01 X84.053400 Y109.104800 Z-0.125000
G01 X84.124300 Y108.918500 Z-0.125000
G01 X84.335100 Y109.012400 Z-0.125000
G01 X95.382600 Y120.059900 Z-0.125000
G01 X95.613600 Y120.174000 Z-0.125000
G01 X95.728900 Y120.032000 Z-0.125000
G01 X95.703900 Y119.749700 Z-0.125000
G01 X95.513900 Y119.442800 Z-0.125000
G01 X84.300400 Y108.229300 Z-0.125000
G01 X84.096600 Y107.908600 Z-0.125000
G01 X84.041100 Y107.595900 Z-0.125000
G01 X84.126000 Y107.423500 Z-0.125000
G01 X84.343100 Y107.523700 Z-0.125000
G01 X95.585800 Y118.766400 Z-0.125000
G01 X95.805900 Y118.869600 Z-0.125000
G01 X95.897400 Y118.703700 Z-0.125000
G01 X95.848400 Y118.397600 Z-0.125000
G01 X95.647600 Y118.079800 Z-0.125000
G01 X84.349800 Y106.782000 Z-0.125000
G01 X84.074300 Y106.132400 Z-0.125000
G01 X84.148100 Y105.948900 Z-0.125000
G01 X84.360200 Y106.044000 Z-0.125000
G01 X95.681400 Y117.365300 Z-0.125000
G01 X95.897600 Y117.464500 Z-0.125000
G01 X95.980300 Y117.290000 Z-0.125000
G01 X95.922700 Y116.975100 Z-0.125000
G01 X95.717900 Y116.653400 Z-0.125000
G01 X84.371300 Y105.306800 Z-0.125000
G01 X84.098900 Y104.660300 Z-0.125000
G01 X84.174800 Y104.478900 Z-0.125000
G01 X84.387900 Y104.575000 Z-0.125000
G01 X95.747300 Y115.934400 Z-0.125000
G01 X95.961700 Y116.031900 Z-0.125000
G01 X96.040600 Y115.853600 Z-0.125000
G01 X95.979200 Y115.534900 Z-0.125000
G01 X95.772700 Y115.211500 Z-0.125000
G01 X84.406500 Y103.845300 Z-0.125000
G01 X84.130000 Y103.194600 Z-0.125000
G01 X84.203000 Y103.010300 Z-0.125000
G01 X84.414700 Y103.105100 Z-0.125000
G01 X95.793300 Y114.483700 Z-0.125000
G01 X96.006600 Y114.580100 Z-0.125000
G01 X96.083000 Y114.399300 Z-0.125000
G01 X95.811500 Y113.753600 Z-0.125000
G01 X84.462400 Y102.404400 Z-0.125000
G01 X84.258900 Y102.084000 Z-0.125000
G01 X84.204200 Y101.772100 Z-0.125000
G01 X84.289700 Y101.600400 Z-0.125000
G01 X84.507200 Y101.701000 Z-0.125000
G01 X95.824900 Y113.018600 Z-0.125000
G01 X96.037500 Y113.114300 Z-0.125000
G01 X96.112300 Y112.931800 Z-0.125000
G01 X95.838300 Y112.283700 Z-0.125000
G01 X84.756300 Y101.201700 Z-0.125000
G01 X84.638100 Y100.966500 Z-0.125000
G01 X84.770900 Y100.842100 Z-0.125000
G01 X85.044100 Y100.858000 Z-0.125000
G01 X85.346800 Y101.043800 Z-0.125000
G01 X95.844800 Y111.541800 Z-0.125000
G01 X96.056300 Y111.636400 Z-0.125000
G01 X96.128900 Y111.451700 Z-0.125000
G01 X95.851800 Y110.800400 Z-0.125000
G01 X86.026300 Y100.974900 Z-0.125000
G01 X85.927900 Y100.759600 Z-0.125000
G01 X86.104200 Y100.678700 Z-0.125000
G01 X86.420900 Y100.738200 Z-0.125000
G01 X86.743500 Y100.943800 Z-0.125000
G01 X95.853800 Y110.054100 Z-0.125000
G01 X96.064400 Y110.147700 Z-0.125000
G01 X96.134800 Y109.960900 Z-0.125000
G01 X95.854500 Y109.306500 Z-0.125000
G01 X87.470200 Y100.922100 Z-0.125000
G01 X87.375100 Y100.710100 Z-0.125000
G01 X87.558800 Y100.636600 Z-0.125000
G01 X88.208700 Y100.912300 Z-0.125000
G01 X95.851900 Y108.555500 Z-0.125000
G01 X96.061400 Y108.648100 Z-0.125000
G01 X96.129600 Y108.459000 Z-0.125000
G01 X95.846100 Y107.801300 Z-0.125000
G01 X88.950700 Y100.905900 Z-0.125000
G01 X88.856800 Y100.695100 Z-0.125000
G01 X89.043100 Y100.624200 Z-0.125000
G01 X89.696800 Y100.903700 Z-0.125000
G01 X95.837800 Y107.044700 Z-0.125000
G01 X96.046200 Y107.136200 Z-0.125000
G01 X96.111700 Y106.944500 Z-0.125000
G01 X95.824400 Y106.283000 Z-0.125000
G01 X90.444200 Y100.902700 Z-0.125000
G01 X90.350900 Y100.692500 Z-0.125000
G01 X90.538500 Y100.622900 Z-0.125000
G01 X91.194200 Y100.904400 Z-0.125000
G01 X95.808400 Y105.518700 Z-0.125000
G01 X96.015300 Y105.608600 Z-0.125000
G01 X96.077500 Y105.413600 Z-0.125000
G01 X95.785400 Y104.747300 Z-0.125000
G01 X91.944200 Y100.906100 Z-0.125000
G01 X91.852100 Y100.697100 Z-0.125000
G01 X92.042400 Y100.630100 Z-0.125000
G01 X92.701900 Y100.915400 Z-0.125000
G01 X95.756600 Y103.970200 Z-0.125000
G01 X95.961400 Y104.058000 Z-0.125000
G01 X96.018900 Y103.858300 Z-0.125000
G01 X95.719900 Y103.185100 Z-0.125000
G01 X93.462600 Y100.927800 Z-0.125000
G01 X93.373500 Y100.721800 Z-0.125000
G01 X93.570300 Y100.661300 Z-0.125000
G01 X94.239300 Y100.956100 Z-0.125000
G01 X95.710500 Y102.427400 Z-0.125000
G01 X95.904000 Y102.503900 Z-0.125000
G01 X95.936800 Y102.279500 Z-0.125000
G01 X95.601800 Y101.570300 Z-0.125000
G01 X94.752600 Y100.721100 Z-0.125000
G00 Z5.000000

(End cutting path id: path2)


(Start cutting path id: path2)
(Change tool to Default tool)

G00 Z5.000000
G00 X57.423000 Y110.537700

G01 Z-0.125000 F100.0(Penetrate)
G01 X56.521200 Y109.635900 Z-0.125000 F400.000000
G01 X56.187600 Y108.928200 Z-0.125000
G01 X56.221400 Y108.704700 Z-0.125000
G01 X56.415300 Y108.781700 Z-0.125000
G01 X58.242500 Y110.608900 Z-0.125000
G01 X59.053300 Y111.045500 Z-0.125000
G01 X59.347600 Y111.082600 Z-0.125000
G01 X59.302800 Y110.920900 Z-0.125000
G01 X56.603600 Y108.221700 Z-0.125000
G01 X56.461300 Y107.962400 Z-0.125000
G01 X56.541000 Y107.784800 Z-0.125000
G01 X56.761000 Y107.747600 Z-0.125000
G01 X57.039600 Y107.909300 Z-0.125000
G01 X60.360600 Y111.230200 Z-0.125000
G01 X61.150400 Y111.645900 Z-0.125000
G01 X61.430400 Y111.668600 Z-0.125000
G01 X61.379000 Y111.500300 Z-0.125000
G01 X57.654400 Y107.775800 Z-0.125000
G01 X57.550100 Y107.554500 Z-0.125000
G01 X57.713400 Y107.460500 Z-0.125000
G01 X58.017000 Y107.506900 Z-0.125000
G01 X58.333600 Y107.706500 Z-0.125000
G01 X62.401200 Y111.774200 Z-0.125000
G01 X63.187200 Y112.186000 Z-0.125000
G01 X63.464400 Y112.206000 Z-0.125000
G01 X63.411800 Y112.036500 Z-0.125000
G01 X59.046500 Y107.671100 Z-0.125000
G01 X58.949200 Y107.456900 Z-0.125000
G01 X59.128100 Y107.378500 Z-0.125000
G01 X59.447200 Y107.440400 Z-0.125000
G01 X59.770900 Y107.647100 Z-0.125000
G01 X64.408100 Y112.284400 Z-0.125000
G01 X65.181000 Y112.683100 Z-0.125000
G01 X65.449300 Y112.694100 Z-0.125000
G01 X65.392600 Y112.520600 Z-0.125000
G01 X60.507200 Y107.635100 Z-0.125000
G01 X60.412700 Y107.423600 Z-0.125000
G01 X60.597600 Y107.351300 Z-0.125000
G01 X61.249200 Y107.628700 Z-0.125000
G01 X66.340100 Y112.719700 Z-0.125000
G01 X67.003100 Y113.008500 Z-0.125000
G01 X67.195800 Y112.944000 Z-0.125000
G01 X67.104800 Y112.736000 Z-0.125000
G01 X61.994500 Y107.625700 Z-0.125000
G01 X61.901000 Y107.415300 Z-0.125000
G01 X62.088300 Y107.345300 Z-0.125000
G01 X62.743300 Y107.626100 Z-0.125000
G01 X67.501800 Y112.384700 Z-0.125000
G01 X67.742400 Y112.508300 Z-0.125000
G01 X67.878700 Y112.387300 Z-0.125000
G01 X67.874700 Y112.126100 Z-0.125000
G01 X67.694300 Y111.828800 Z-0.125000
G01 X63.495200 Y107.629700 Z-0.125000
G01 X63.402800 Y107.420400 Z-0.125000
G01 X63.592500 Y107.352800 Z-0.125000
G01 X64.251000 Y107.637200 Z-0.125000
G01 X67.779500 Y111.165600 Z-0.125000
G01 X67.995000 Y111.264200 Z-0.125000
G01 X68.076200 Y111.088100 Z-0.125000
G01 X68.017000 Y110.771700 Z-0.125000
G01 X67.811500 Y110.449300 Z-0.125000
G01 X65.019200 Y107.657000 Z-0.125000
G01 X64.930200 Y107.451000 Z-0.125000
G01 X65.127300 Y107.390900 Z-0.125000
G01 X65.796600 Y107.686000 Z-0.125000
G01 X67.818600 Y109.708100 Z-0.125000
G01 X68.025300 Y109.797800 Z-0.125000
G01 X68.087100 Y109.602400 Z-0.125000
G01 X67.794300 Y108.935400 Z-0.125000
G01 X66.628000 Y107.769000 Z-0.125000
G01 X66.590900 Y107.615000 Z-0.125000
G01 X66.877400 Y107.644300 Z-0.125000
G01 X67.652600 Y108.045300 Z-0.125000
G01 X67.915500 Y108.308200 Z-0.125000
G00 Z5.000000

(End cutting path id: path2)


(Start cutting path id: path2)
(Change tool to Default tool)

G00 Z5.000000
G00 X56.285900 Y107.767400

G01 Z-0.125000 F100.0(Penetrate)
G01 X56.005000 Y108.474600 Z-0.125000 F400.000000
G01 X56.090900 Y109.303500 Z-0.125000
G01 X56.486100 Y110.063100 Z-0.125000
G01 X57.132600 Y110.562800 Z-0.125000
G01 X62.334700 Y112.101400 Z-0.125000
G01 X67.014900 Y113.187800 Z-0.125000
G01 X67.604700 Y113.047200 Z-0.125000
G01 X67.979200 Y112.563500 Z-0.125000
G01 X68.176300 Y111.644000 Z-0.125000
G01 X68.233600 Y110.196100 Z-0.125000
G01 X68.092700 Y108.530200 Z-0.125000
G01 X67.821200 Y108.002300 Z-0.125000
G01 X67.330500 Y107.637700 Z-0.125000
G01 X66.557100 Y107.406400 Z-0.125000
G01 X65.437300 Y107.278400 Z-0.125000
G01 X61.903300 Y107.212000 Z-0.125000
G01 X57.691900 Y107.323800 Z-0.125000
G01 X56.740900 Y107.494000 Z-0.125000
G01 X56.285900 Y107.767400 Z-0.125000
G01 X56.285900 Y107.767400 Z-0.125000
G00 Z5.000000

(End cutting path id: path2)


(Start cutting path id: path2)
(Change tool to Default tool)

G00 Z5.000000
G00 X43.121000 Y98.480800

G01 Z-0.125000 F100.0(Penetrate)
G01 X42.163800 Y97.523600 Z-0.125000 F400.000000
G01 X42.035100 Y97.277900 Z-0.125000
G01 X42.144700 Y97.130300 Z-0.125000
G01 X42.394600 Y97.123000 Z-0.125000
G01 X42.686800 Y97.298200 Z-0.125000
G01 X43.836000 Y98.447400 Z-0.125000
G01 X44.646000 Y98.883200 Z-0.125000
G01 X44.939700 Y98.919800 Z-0.125000
G01 X44.894700 Y98.757800 Z-0.125000
G01 X43.368400 Y97.231500 Z-0.125000
G01 X43.269800 Y97.015900 Z-0.125000
G01 X43.445600 Y96.934600 Z-0.125000
G01 X43.761800 Y96.993500 Z-0.125000
G01 X44.084100 Y97.198900 Z-0.125000
G01 X45.940200 Y99.054900 Z-0.125000
G01 X46.774200 Y99.514800 Z-0.125000
G01 X47.084600 Y99.567900 Z-0.125000
G01 X47.047000 Y99.413400 Z-0.125000
G01 X44.805600 Y97.172000 Z-0.125000
G01 X44.712700 Y96.962200 Z-0.125000
G01 X44.901200 Y96.893400 Z-0.125000
G01 X45.558100 Y97.176200 Z-0.125000
G01 X48.010300 Y99.628300 Z-0.125000
G01 X48.806400 Y100.050300 Z-0.125000
G01 X49.090700 Y100.077400 Z-0.125000
G01 X49.041300 Y99.911100 Z-0.125000
G01 X46.285500 Y97.155200 Z-0.125000
G01 X46.194100 Y96.946900 Z-0.125000
G01 X46.385900 Y96.881500 Z-0.125000
G01 X47.047600 Y97.168900 Z-0.125000
G01 X50.072400 Y100.193800 Z-0.125000
G01 X50.868200 Y100.615400 Z-0.125000
G01 X51.152200 Y100.642200 Z-0.125000
G01 X51.102800 Y100.475800 Z-0.125000
G01 X47.794800 Y97.167800 Z-0.125000
G01 X47.700800 Y96.956900 Z-0.125000
G01 X47.886900 Y96.885700 Z-0.125000
G01 X48.540200 Y97.164900 Z-0.125000
G01 X52.131300 Y100.755900 Z-0.125000
G01 X52.926100 Y101.176600 Z-0.125000
G01 X53.209500 Y101.202800 Z-0.125000
G01 X53.159800 Y101.036100 Z-0.125000
G01 X49.284200 Y97.160500 Z-0.125000
G01 X49.188800 Y96.948200 Z-0.125000
G01 X49.371800 Y96.874000 Z-0.125000
G01 X50.020700 Y97.148700 Z-0.125000
G01 X54.188300 Y101.316200 Z-0.125000
G01 X54.983100 Y101.736900 Z-0.125000
G01 X55.266500 Y101.763100 Z-0.125000
G01 X55.216700 Y101.596400 Z-0.125000
G01 X50.754200 Y97.133800 Z-0.125000
G01 X50.657300 Y96.920000 Z-0.125000
G01 X50.836900 Y96.842400 Z-0.125000
G01 X51.156900 Y96.905100 Z-0.125000
G01 X51.480900 Y97.112200 Z-0.125000
G01 X56.243900 Y101.875200 Z-0.125000
G01 X57.037400 Y102.294500 Z-0.125000
G01 X57.319900 Y102.319700 Z-0.125000
G01 X57.269700 Y102.152600 Z-0.125000
G01 X52.201400 Y97.084200 Z-0.125000
G01 X52.102600 Y96.868500 Z-0.125000
G01 X52.278100 Y96.786700 Z-0.125000
G01 X52.593900 Y96.845300 Z-0.125000
G01 X52.916000 Y97.050500 Z-0.125000
G01 X58.293000 Y102.427500 Z-0.125000
G01 X59.083700 Y102.844000 Z-0.125000
G01 X59.364200 Y102.867300 Z-0.125000
G01 X59.313100 Y102.699300 Z-0.125000
G01 X53.621800 Y97.007900 Z-0.125000
G01 X53.519200 Y96.788400 Z-0.125000
G01 X53.686400 Y96.698400 Z-0.125000
G01 X53.994000 Y96.748700 Z-0.125000
G01 X54.312400 Y96.950200 Z-0.125000
G01 X60.330400 Y102.968100 Z-0.125000
G01 X61.118100 Y103.381700 Z-0.125000
G01 X61.396600 Y103.402900 Z-0.125000
G01 X61.344600 Y103.234000 Z-0.125000
G01 X54.978700 Y96.868100 Z-0.125000
G01 X54.856700 Y96.629200 Z-0.125000
G01 X54.981100 Y96.496400 Z-0.125000
G01 X55.245900 Y96.503900 Z-0.125000
G01 X55.544800 Y96.685900 Z-0.125000
G01 X62.354000 Y103.495100 Z-0.125000
G01 X63.138000 Y103.904900 Z-0.125000
G01 X63.413900 Y103.923500 Z-0.125000
G01 X63.360700 Y103.753400 Z-0.125000
G01 X55.979600 Y96.372300 Z-0.125000
G01 X55.803200 Y96.079000 Z-0.125000
G01 X55.807900 Y95.826400 Z-0.125000
G01 X55.952900 Y95.714200 Z-0.125000
G01 X56.197400 Y95.841800 Z-0.125000
G01 X64.359200 Y104.003600 Z-0.125000
G01 X65.134500 Y104.404700 Z-0.125000
G01 X65.404400 Y104.417400 Z-0.125000
G01 X65.348500 Y104.244600 Z-0.125000
G01 X56.277700 Y95.173700 Z-0.125000
G01 X56.071700 Y94.850800 Z-0.125000
G01 X56.011600 Y94.533400 Z-0.125000
G01 X56.091700 Y94.356300 Z-0.125000
G01 X56.306700 Y94.454300 Z-0.125000
G01 X66.373100 Y104.520700 Z-0.125000
G01 X67.025000 Y104.798500 Z-0.125000
G01 X67.210100 Y104.726400 Z-0.125000
G01 X67.115700 Y104.515000 Z-0.125000
G01 X56.317200 Y93.716500 Z-0.125000
G01 X56.038000 Y93.063100 Z-0.125000
G01 X56.109200 Y92.877100 Z-0.125000
G01 X56.320100 Y92.971100 Z-0.125000
G01 X67.483800 Y104.134700 Z-0.125000
G01 X67.720800 Y104.254800 Z-0.125000
G01 X67.849200 Y104.125900 Z-0.125000
G01 X67.837300 Y103.856800 Z-0.125000
G01 X67.653300 Y103.555900 Z-0.125000
G01 X56.321700 Y92.224200 Z-0.125000
G01 X56.043900 Y91.572300 Z-0.125000
G01 X56.116000 Y91.387200 Z-0.125000
G01 X56.327400 Y91.481600 Z-0.125000
G01 X67.747800 Y102.902000 Z-0.125000
G01 X67.967700 Y103.005000 Z-0.125000
G01 X68.058700 Y102.838700 Z-0.125000
G01 X68.009300 Y102.532100 Z-0.125000
G01 X67.808300 Y102.214200 Z-0.125000
G01 X56.343400 Y90.749300 Z-0.125000
G01 X56.137500 Y90.426400 Z-0.125000
G01 X56.077400 Y90.109100 Z-0.125000
G01 X56.157600 Y89.932000 Z-0.125000
G01 X56.372600 Y90.030100 Z-0.125000
G01 X67.849800 Y101.507400 Z-0.125000
G01 X68.065000 Y101.605500 Z-0.125000
G01 X68.145300 Y101.428700 Z-0.125000
G01 X68.085400 Y101.111500 Z-0.125000
G01 X67.879600 Y100.788700 Z-0.125000
G01 X56.420400 Y89.329500 Z-0.125000
G01 X56.221600 Y89.013800 Z-0.125000
G01 X56.177200 Y88.712200 Z-0.125000
G01 X56.273100 Y88.550900 Z-0.125000
G01 X56.495300 Y88.656100 Z-0.125000
G01 X67.905400 Y100.066200 Z-0.125000
G01 X68.119400 Y100.163300 Z-0.125000
G01 X68.197500 Y99.984100 Z-0.125000
G01 X68.135200 Y99.664500 Z-0.125000
G01 X67.928300 Y99.340700 Z-0.125000
G01 X56.635500 Y88.048000 Z-0.125000
G01 X56.496700 Y87.792200 Z-0.125000
G01 X56.584100 Y87.622400 Z-0.125000
G01 X56.811900 Y87.592900 Z-0.125000
G01 X57.094000 Y87.758100 Z-0.125000
G01 X67.949700 Y98.613800 Z-0.125000
G01 X68.163500 Y98.710700 Z-0.125000
G01 X68.241000 Y98.531000 Z-0.125000
G01 X68.178200 Y98.210900 Z-0.125000
G01 X67.971100 Y97.886900 Z-0.125000
G01 X57.757400 Y87.673100 Z-0.125000
G01 X57.655500 Y87.454300 Z-0.125000
G01 X57.824300 Y87.365900 Z-0.125000
G01 X58.133400 Y87.417700 Z-0.125000
G01 X58.452500 Y87.619900 Z-0.125000
G01 X67.992500 Y97.159900 Z-0.125000
G01 X68.221300 Y97.271800 Z-0.125000
G01 X68.331700 Y97.124900 Z-0.125000
G01 X68.301700 Y96.837700 Z-0.125000
G01 X68.109500 Y96.528500 Z-0.125000
G01 X59.163500 Y87.582500 Z-0.125000
G01 X59.065600 Y87.367700 Z-0.125000
G01 X59.243300 Y87.288100 Z-0.125000
G01 X59.561200 Y87.348900 Z-0.125000
G01 X59.884300 Y87.555000 Z-0.125000
G01 X68.847600 Y96.518300 Z-0.125000
G01 X69.497400 Y96.793900 Z-0.125000
G01 X69.680900 Y96.720200 Z-0.125000
G01 X69.585800 Y96.508100 Z-0.125000
G01 X60.614600 Y87.537000 Z-0.125000
G01 X60.518200 Y87.323600 Z-0.125000
G01 X60.698900 Y87.247100 Z-0.125000
G01 X61.344500 Y87.518500 Z-0.125000
G01 X70.323900 Y96.497900 Z-0.125000
G01 X70.973700 Y96.773500 Z-0.125000
G01 X71.157200 Y96.699800 Z-0.125000
G01 X71.062100 Y96.487700 Z-0.125000
G01 X62.079300 Y87.504900 Z-0.125000
G01 X61.984200 Y87.292900 Z-0.125000
G01 X62.167800 Y87.219200 Z-0.125000
G01 X62.817500 Y87.494800 Z-0.125000
G01 X71.800200 Y96.477500 Z-0.125000
G01 X72.450000 Y96.753100 Z-0.125000
G01 X72.633500 Y96.679400 Z-0.125000
G01 X72.538400 Y96.467300 Z-0.125000
G01 X63.555700 Y87.484600 Z-0.125000
G01 X63.461000 Y87.273000 Z-0.125000
G01 X63.645600 Y87.200400 Z-0.125000
G01 X64.296800 Y87.477400 Z-0.125000
G01 X73.276500 Y96.457200 Z-0.125000
G01 X73.926300 Y96.732700 Z-0.125000
G01 X74.109800 Y96.659000 Z-0.125000
G01 X74.014700 Y96.447000 Z-0.125000
G01 X65.040300 Y87.472600 Z-0.125000
G01 X64.946000 Y87.261400 Z-0.125000
G01 X65.131500 Y87.189600 Z-0.125000
G01 X65.783900 Y87.467800 Z-0.125000
G01 X74.752800 Y96.436800 Z-0.125000
G01 X75.402600 Y96.712300 Z-0.125000
G01 X75.586100 Y96.638600 Z-0.125000
G01 X75.491000 Y96.426600 Z-0.125000
G01 X66.527400 Y87.463000 Z-0.125000
G01 X66.433600 Y87.252200 Z-0.125000
G01 X66.620100 Y87.181500 Z-0.125000
G01 X67.273900 Y87.461200 Z-0.125000
G01 X76.229100 Y96.416400 Z-0.125000
G01 X76.878900 Y96.691900 Z-0.125000
G01 X77.062400 Y96.618300 Z-0.125000
G01 X76.967300 Y96.406200 Z-0.125000
G01 X68.021000 Y87.459900 Z-0.125000
G01 X67.927300 Y87.249200 Z-0.125000
G01 X68.113900 Y87.178600 Z-0.125000
G01 X68.768100 Y87.458600 Z-0.125000
G01 X77.705400 Y96.396000 Z-0.125000
G01 X78.355200 Y96.671500 Z-0.125000
G01 X78.538700 Y96.597900 Z-0.125000
G01 X78.443600 Y96.385800 Z-0.125000
G01 X69.515100 Y87.457300 Z-0.125000
G01 X69.421400 Y87.246600 Z-0.125000
G01 X69.607900 Y87.175900 Z-0.125000
G01 X70.262000 Y87.455800 Z-0.125000
G01 X79.181700 Y96.375600 Z-0.125000
G01 X79.831500 Y96.651100 Z-0.125000
G01 X80.015000 Y96.577400 Z-0.125000
G01 X79.919900 Y96.365400 Z-0.125000
G01 X71.008700 Y87.454100 Z-0.125000
G01 X70.914900 Y87.243400 Z-0.125000
G01 X71.101400 Y87.172700 Z-0.125000
G01 X71.755300 Y87.452400 Z-0.125000
G01 X80.658000 Y96.355100 Z-0.125000
G01 X81.307800 Y96.630700 Z-0.125000
G01 X81.491300 Y96.557000 Z-0.125000
G01 X81.396200 Y96.344900 Z-0.125000
G01 X72.502000 Y87.450700 Z-0.125000
G01 X72.407800 Y87.239700 Z-0.125000
G01 X72.593600 Y87.168200 Z-0.125000
G01 X73.246400 Y87.446800 Z-0.125000
G01 X82.133200 Y96.333600 Z-0.125000
G01 X82.782100 Y96.608300 Z-0.125000
G01 X82.965100 Y96.534100 Z-0.125000
G01 X82.869700 Y96.321800 Z-0.125000
G01 X73.989200 Y87.441300 Z-0.125000
G01 X73.894800 Y87.229900 Z-0.125000
G01 X74.080000 Y87.157900 Z-0.125000
G01 X74.732000 Y87.435700 Z-0.125000
G01 X83.606200 Y96.309900 Z-0.125000
G01 X84.255100 Y96.584600 Z-0.125000
G01 X84.438200 Y96.510400 Z-0.125000
G01 X84.342800 Y96.298100 Z-0.125000
G01 X75.474800 Y87.430100 Z-0.125000
G01 X75.379600 Y87.217900 Z-0.125000
G01 X75.562900 Y87.144100 Z-0.125000
G01 X76.212300 Y87.419300 Z-0.125000
G01 X85.075900 Y96.282800 Z-0.125000
G01 X85.723000 Y96.555800 Z-0.125000
G01 X85.904900 Y96.480400 Z-0.125000
G01 X85.808900 Y96.267500 Z-0.125000
G01 X76.950300 Y87.408800 Z-0.125000
G01 X76.855100 Y87.196700 Z-0.125000
G01 X77.038700 Y87.123000 Z-0.125000
G01 X77.688300 Y87.398500 Z-0.125000
G01 X86.542000 Y96.252200 Z-0.125000
G01 X87.188300 Y96.524300 Z-0.125000
G01 X87.369500 Y96.448200 Z-0.125000
G01 X87.273300 Y96.235100 Z-0.125000
G01 X78.419700 Y87.381600 Z-0.125000
G01 X78.323600 Y87.168500 Z-0.125000
G01 X78.504900 Y87.092600 Z-0.125000
G01 X79.151400 Y87.364800 Z-0.125000
G01 X88.002600 Y96.216100 Z-0.125000
G01 X88.327100 Y96.423600 Z-0.125000
G01 X88.648000 Y96.487300 Z-0.125000
G01 X88.828500 Y96.410600 Z-0.125000
G01 X88.732000 Y96.197100 Z-0.125000
G01 X79.879300 Y87.344400 Z-0.125000
G01 X79.781800 Y87.130000 Z-0.125000
G01 X79.960000 Y87.051000 Z-0.125000
G01 X80.278600 Y87.112300 Z-0.125000
G01 X80.602000 Y87.318800 Z-0.125000
G01 X89.460100 Y96.176800 Z-0.125000
G01 X89.783800 Y96.383600 Z-0.125000
G01 X90.103200 Y96.445800 Z-0.125000
G01 X90.282300 Y96.367600 Z-0.125000
G01 X90.185100 Y96.153500 Z-0.125000
G01 X81.322200 Y87.290600 Z-0.125000
G01 X81.222500 Y87.074000 Z-0.125000
G01 X81.396300 Y86.990500 Z-0.125000
G01 X81.710300 Y87.047300 Z-0.125000
G01 X82.031600 Y87.251700 Z-0.125000
G01 X90.910100 Y96.130100 Z-0.125000
G01 X91.233400 Y96.336500 Z-0.125000
G01 X91.551800 Y96.397700 Z-0.125000
G01 X91.729900 Y96.318500 Z-0.125000
G01 X91.632200 Y96.103900 Z-0.125000
G01 X82.727500 Y87.199200 Z-0.125000
G01 X82.619800 Y86.974600 Z-0.125000
G01 X82.775800 Y86.873300 Z-0.125000
G01 X83.072100 Y86.912400 Z-0.125000
G01 X83.385300 Y87.108700 Z-0.125000
G01 X92.351500 Y96.074800 Z-0.125000
G01 X92.674100 Y96.280500 Z-0.125000
G01 X92.991100 Y96.340300 Z-0.125000
G01 X93.167700 Y96.259700 Z-0.125000
G01 X93.069500 Y96.044400 Z-0.125000
G01 X83.854100 Y86.829100 Z-0.125000
G01 X83.686700 Y86.544700 Z-0.125000
G01 X83.711100 Y86.311900 Z-0.125000
G01 X83.875900 Y86.219500 Z-0.125000
G01 X84.129400 Y86.356000 Z-0.125000
G01 X93.779700 Y96.006300 Z-0.125000
G01 X94.100500 Y96.210200 Z-0.125000
G01 X94.413500 Y96.266000 Z-0.125000
G01 X94.586300 Y96.181500 Z-0.125000
G01 X94.486200 Y95.964500 Z-0.125000
G01 X84.253000 Y85.731300 Z-0.125000
G01 X84.046800 Y85.408200 Z-0.125000
G01 X83.986100 Y85.090200 Z-0.125000
G01 X84.065600 Y84.912500 Z-0.125000
G01 X84.280400 Y85.010300 Z-0.125000
G01 X95.173000 Y95.902900 Z-0.125000
G01 X95.431300 Y96.044300 Z-0.125000
G01 X95.606600 Y95.962300 Z-0.125000
G01 X95.641600 Y95.740100 Z-0.125000
G01 X95.478900 Y95.460400 Z-0.125000
G01 X84.323500 Y84.305100 Z-0.125000
G01 X84.046500 Y83.653900 Z-0.125000
G01 X84.119100 Y83.469200 Z-0.125000
G01 X84.330700 Y83.563900 Z-0.125000
G01 X95.564100 Y94.797300 Z-0.125000
G01 X95.785000 Y94.901200 Z-0.125000
G01 X95.878000 Y94.737000 Z-0.125000
G01 X95.830700 Y94.432500 Z-0.125000
G01 X95.630600 Y94.115400 Z-0.125000
G01 X84.334900 Y82.819800 Z-0.125000
G01 X84.059100 Y82.169800 Z-0.125000
G01 X84.132600 Y81.986100 Z-0.125000
G01 X84.344600 Y82.081100 Z-0.125000
G01 X95.683000 Y93.419400 Z-0.125000
G01 X95.899900 Y93.519500 Z-0.125000
G01 X95.984300 Y93.346600 Z-0.125000
G01 X95.928400 Y93.033500 Z-0.125000
G01 X95.724400 Y92.712600 Z-0.125000
G01 X84.366200 Y81.354300 Z-0.125000
G01 X84.160300 Y81.031500 Z-0.125000
G01 X84.100300 Y80.714300 Z-0.125000
G01 X84.180600 Y80.537400 Z-0.125000
G01 X84.395700 Y80.635500 Z-0.125000
G01 X95.756400 Y91.996200 Z-0.125000
G01 X95.971200 Y92.094100 Z-0.125000
G01 X96.050900 Y91.916600 Z-0.125000
G01 X95.990400 Y91.598700 Z-0.125000
G01 X95.784200 Y91.275700 Z-0.125000
G01 X84.460200 Y79.951600 Z-0.125000
G01 X84.277200 Y79.651700 Z-0.125000
G01 X84.267600 Y79.384900 Z-0.125000
G01 X84.398400 Y79.258400 Z-0.125000
G01 X84.636400 Y79.379500 Z-0.125000
G01 X95.838300 Y90.581400 Z-0.125000
G01 X96.051400 Y90.677500 Z-0.125000
G01 X96.127200 Y90.496100 Z-0.125000
G01 X95.854800 Y89.849500 Z-0.125000
G01 X85.269300 Y79.264100 Z-0.125000
G01 X85.197000 Y79.074800 Z-0.125000
G01 X85.430600 Y79.051200 Z-0.125000
G01 X86.153200 Y79.399600 Z-0.125000
G01 X95.910300 Y89.156700 Z-0.125000
G01 X96.132300 Y89.261800 Z-0.125000
G01 X96.227900 Y89.100100 Z-0.125000
G01 X96.183100 Y88.798000 Z-0.125000
G01 X95.984100 Y88.482200 Z-0.125000
G01 X87.079500 Y79.577500 Z-0.125000
G01 X87.020500 Y79.401600 Z-0.125000
G01 X87.283600 Y79.407400 Z-0.125000
G01 X88.048900 Y79.798600 Z-0.125000
G01 X96.090600 Y87.840200 Z-0.125000
G01 X96.328000 Y87.960700 Z-0.125000
G01 X96.457400 Y87.832900 Z-0.125000
G01 X96.446500 Y87.564700 Z-0.125000
G01 X96.262900 Y87.264200 Z-0.125000
G01 X89.037600 Y80.038900 Z-0.125000
G01 X88.983600 Y79.867900 Z-0.125000
G01 X89.257700 Y79.884800 Z-0.125000
G01 X90.039100 Y80.292100 Z-0.125000
G01 X96.697900 Y86.950800 Z-0.125000
G01 X97.009600 Y87.145600 Z-0.125000
G01 X97.302500 Y87.181300 Z-0.125000
G01 X97.455100 Y87.076600 Z-0.125000
G01 X97.345900 Y86.850500 Z-0.125000
G01 X90.971000 Y80.475600 Z-0.125000
G01 X90.932100 Y80.319800 Z-0.125000
G01 X91.239200 Y80.369700 Z-0.125000
G01 X92.068700 Y80.825000 Z-0.125000
G01 X98.024500 Y86.780700 Z-0.125000
G01 X98.343300 Y86.982600 Z-0.125000
G01 X98.651800 Y87.033900 Z-0.125000
G01 X98.820000 Y86.944800 Z-0.125000
G01 X98.717900 Y86.725800 Z-0.125000
G01 X93.087800 Y81.095700 Z-0.125000
G01 X93.037100 Y80.928000 Z-0.125000
G01 X93.318300 Y80.952100 Z-0.125000
G01 X94.110100 Y81.369700 Z-0.125000
G01 X99.423600 Y86.683200 Z-0.125000
G01 X99.745400 Y86.888000 Z-0.125000
G01 X100.060000 Y86.945900 Z-0.125000
G01 X100.235000 Y86.863400 Z-0.125000
G01 X100.136000 Y86.647300 Z-0.125000
G01 X95.137100 Y81.648300 Z-0.125000
G01 X95.087100 Y81.481300 Z-0.125000
G01 X95.370000 Y81.507000 Z-0.125000
G01 X96.164100 Y81.926900 Z-0.125000
G01 X100.853000 Y86.615300 Z-0.125000
G01 X101.176000 Y86.822200 Z-0.125000
G01 X101.496000 Y86.884200 Z-0.125000
G01 X101.675000 Y86.806000 Z-0.125000
G01 X101.577000 Y86.591900 Z-0.125000
G01 X97.191000 Y82.205500 Z-0.125000
G01 X97.141400 Y82.038900 Z-0.125000
G01 X97.425000 Y82.065300 Z-0.125000
G01 X98.220200 Y82.486400 Z-0.125000
G01 X102.305000 Y86.570700 Z-0.125000
G01 X102.952000 Y86.843600 Z-0.125000
G01 X103.133000 Y86.768100 Z-0.125000
G01 X103.037000 Y86.555200 Z-0.125000
G01 X99.249600 Y82.767400 Z-0.125000
G01 X99.200000 Y82.600900 Z-0.125000
G01 X99.483700 Y82.627300 Z-0.125000
G01 X100.279000 Y83.048500 Z-0.125000
G01 X103.771000 Y86.540700 Z-0.125000
G01 X104.419000 Y86.814700 Z-0.125000
G01 X104.602000 Y86.740000 Z-0.125000
G01 X104.506000 Y86.527500 Z-0.125000
G01 X101.308000 Y83.329500 Z-0.125000
G01 X101.259000 Y83.163200 Z-0.125000
G01 X101.543000 Y83.190300 Z-0.125000
G01 X102.340000 Y83.612300 Z-0.125000
G01 X105.242000 Y86.514200 Z-0.125000
G01 X105.887000 Y86.785800 Z-0.125000
G01 X106.068000 Y86.709400 Z-0.125000
G01 X105.972000 Y86.496100 Z-0.125000
G01 X103.372000 Y83.896800 Z-0.125000
G01 X103.323000 Y83.730800 Z-0.125000
G01 X103.608000 Y83.758400 Z-0.125000
G01 X104.405000 Y84.181300 Z-0.125000
G01 X106.701000 Y86.476900 Z-0.125000
G01 X107.024000 Y86.682900 Z-0.125000
G01 X107.341000 Y86.743300 Z-0.125000
G01 X107.519000 Y86.663400 Z-0.125000
G01 X107.421000 Y86.448400 Z-0.125000
G01 X105.440000 Y84.467600 Z-0.125000
G01 X105.392000 Y84.302800 Z-0.125000
G01 X105.680000 Y84.333100 Z-0.125000
G01 X106.481000 Y84.759900 Z-0.125000
G01 X108.135000 Y86.414500 Z-0.125000
G01 X108.454000 Y86.616400 Z-0.125000
G01 X108.763000 Y86.667700 Z-0.125000
G01 X108.931000 Y86.578700 Z-0.125000
G01 X108.829000 Y86.359700 Z-0.125000
G01 X107.531000 Y85.062000 Z-0.125000
G01 X107.484000 Y84.897900 Z-0.125000
G01 X107.773000 Y84.929800 Z-0.125000
G01 X108.576000 Y85.358800 Z-0.125000
G01 X109.473000 Y86.255900 Z-0.125000
G01 X109.757000 Y86.422800 Z-0.125000
G01 X109.989000 Y86.397100 Z-0.125000
G01 X110.080000 Y86.231200 Z-0.125000
G01 X109.943000 Y85.977100 Z-0.125000
G01 X109.443000 Y85.477700 Z-0.125000
G00 Z5.000000

(End cutting path id: path2)


(Start cutting path id: path2)
(Change tool to Default tool)

G00 Z5.000000
G00 X83.827700 Y43.535000

G01 Z-0.125000 F100.0(Penetrate)
G01 X87.350700 Y44.242000 Z-0.125000 F400.000000
G01 X90.783700 Y45.200000 Z-0.125000
G01 X94.115800 Y46.398000 Z-0.125000
G01 X97.336200 Y47.828000 Z-0.125000
G01 X100.434000 Y49.479000 Z-0.125000
G01 X103.398000 Y51.342000 Z-0.125000
G01 X106.218000 Y53.405300 Z-0.125000
G01 X108.882000 Y55.660700 Z-0.125000
G01 X111.380000 Y58.097600 Z-0.125000
G01 X113.702000 Y60.706400 Z-0.125000
G01 X115.835000 Y63.477100 Z-0.125000
G01 X117.769000 Y66.399700 Z-0.125000
G01 X119.494000 Y69.464500 Z-0.125000
G01 X120.998000 Y72.661500 Z-0.125000
G01 X122.271000 Y75.980900 Z-0.125000
G01 X123.302000 Y79.412700 Z-0.125000
G01 X124.015000 Y82.573200 Z-0.125000
G01 X124.517000 Y85.740700 Z-0.125000
G01 X124.810000 Y88.906800 Z-0.125000
G01 X124.895000 Y92.063000 Z-0.125000
G01 X124.777000 Y95.201000 Z-0.125000
G01 X124.456000 Y98.312300 Z-0.125000
G01 X123.935000 Y101.388300 Z-0.125000
G01 X123.216000 Y104.420800 Z-0.125000
G01 X122.302000 Y107.401100 Z-0.125000
G01 X121.195000 Y110.321000 Z-0.125000
G01 X119.897000 Y113.171900 Z-0.125000
G01 X118.410000 Y115.945500 Z-0.125000
G01 X116.737000 Y118.633200 Z-0.125000
G01 X114.881000 Y121.226600 Z-0.125000
G01 X112.842000 Y123.717200 Z-0.125000
G01 X110.625000 Y126.096800 Z-0.125000
G01 X107.890000 Y128.671700 Z-0.125000
G01 X105.061000 Y130.982500 Z-0.125000
G01 X102.125000 Y133.036900 Z-0.125000
G01 X99.064500 Y134.842900 Z-0.125000
G01 X95.866500 Y136.408500 Z-0.125000
G01 X92.515900 Y137.741600 Z-0.125000
G01 X88.997900 Y138.850100 Z-0.125000
G01 X85.297700 Y139.742000 Z-0.125000
G01 X80.928000 Y140.358400 Z-0.125000
G01 X76.076900 Y140.563900 Z-0.125000
G01 X71.225700 Y140.358400 Z-0.125000
G01 X66.856000 Y139.742000 Z-0.125000
G01 X63.339300 Y138.900200 Z-0.125000
G01 X59.978900 Y137.861900 Z-0.125000
G01 X56.765300 Y136.622100 Z-0.125000
G01 X53.688800 Y135.175900 Z-0.125000
G01 X50.739900 Y133.518400 Z-0.125000
G01 X47.908800 Y131.644600 Z-0.125000
G01 X45.186000 Y129.549500 Z-0.125000
G01 X42.561900 Y127.228100 Z-0.125000
G01 X40.529200 Y125.194500 Z-0.125000
G01 X38.643200 Y123.078200 Z-0.125000
G01 X36.903600 Y120.885300 Z-0.125000
G01 X35.309800 Y118.622100 Z-0.125000
G01 X33.861400 Y116.294700 Z-0.125000
G01 X32.557900 Y113.909400 Z-0.125000
G01 X31.398900 Y111.472200 Z-0.125000
G01 X30.383900 Y108.989300 Z-0.125000
G01 X28.784300 Y103.911400 Z-0.125000
G01 X27.755400 Y98.724900 Z-0.125000
G01 X27.293700 Y93.479400 Z-0.125000
G01 X27.395500 Y88.224100 Z-0.125000
G01 X28.057300 Y83.008600 Z-0.125000
G01 X29.275300 Y77.882100 Z-0.125000
G01 X31.046200 Y72.894100 Z-0.125000
G01 X33.366100 Y68.094000 Z-0.125000
G01 X34.730900 Y65.779900 Z-0.125000
G01 X36.231600 Y63.531200 Z-0.125000
G01 X37.867800 Y61.354300 Z-0.125000
G01 X39.639000 Y59.255100 Z-0.125000
G01 X41.544800 Y57.240000 Z-0.125000
G01 X43.584700 Y55.315100 Z-0.125000
G01 X45.758300 Y53.486500 Z-0.125000
G01 X48.065100 Y51.761000 Z-0.125000
G01 X50.241700 Y50.330000 Z-0.125000
G01 X52.581700 Y48.986000 Z-0.125000
G01 X57.604900 Y46.613000 Z-0.125000
G01 X62.840300 Y44.764000 Z-0.125000
G01 X65.445500 Y44.073000 Z-0.125000
G01 X67.993300 Y43.559000 Z-0.125000
G01 X71.618400 Y43.167000 Z-0.125000
G01 X75.883700 Y43.032000 Z-0.125000
G01 X80.162400 Y43.154000 Z-0.125000
G01 X83.827700 Y43.535000 Z-0.125000
G01 X83.827700 Y43.535000 Z-0.125000
G00 Z5.000000

(End cutting path id: path2)


(Start cutting path id: path2)
(Change tool to Default tool)

G00 Z5.000000
G00 X66.179400 Y34.767000

G01 Z-0.125000 F100.0(Penetrate)
G01 X60.377300 Y36.121000 Z-0.125000 F400.000000
G01 X54.801000 Y38.027000 Z-0.125000
G01 X49.482500 Y40.464000 Z-0.125000
G01 X44.453500 Y43.411000 Z-0.125000
G01 X39.745700 Y46.847000 Z-0.125000
G01 X35.391000 Y50.752000 Z-0.125000
G01 X31.421100 Y55.103600 Z-0.125000
G01 X27.867800 Y59.882100 Z-0.125000
G01 X25.295400 Y64.120700 Z-0.125000
G01 X23.128400 Y68.517700 Z-0.125000
G01 X21.364500 Y73.046100 Z-0.125000
G01 X20.001300 Y77.678500 Z-0.125000
G01 X19.036600 Y82.387500 Z-0.125000
G01 X18.467900 Y87.145800 Z-0.125000
G01 X18.292800 Y91.926300 Z-0.125000
G01 X18.509100 Y96.701400 Z-0.125000
G01 X19.114300 Y101.444000 Z-0.125000
G01 X20.106100 Y106.126700 Z-0.125000
G01 X21.482200 Y110.722300 Z-0.125000
G01 X23.240100 Y115.203400 Z-0.125000
G01 X25.377600 Y119.542600 Z-0.125000
G01 X27.892300 Y123.712800 Z-0.125000
G01 X30.781800 Y127.686500 Z-0.125000
G01 X34.043700 Y131.436600 Z-0.125000
G01 X38.166500 Y135.379600 Z-0.125000
G01 X42.566400 Y138.843700 Z-0.125000
G01 X47.207700 Y141.827000 Z-0.125000
G01 X52.054900 Y144.327290 Z-0.125000
G01 X57.072200 Y146.342700 Z-0.125000
G01 X62.224100 Y147.871160 Z-0.125000
G01 X67.474900 Y148.910660 Z-0.125000
G01 X72.789000 Y149.459170 Z-0.125000
G01 X78.130700 Y149.514670 Z-0.125000
G01 X83.464500 Y149.075150 Z-0.125000
G01 X88.754600 Y148.138590 Z-0.125000
G01 X93.965600 Y146.702960 Z-0.125000
G01 X99.061600 Y144.766250 Z-0.125000
G01 X104.007000 Y142.326400 Z-0.125000
G01 X108.767000 Y139.381500 Z-0.125000
G01 X113.304000 Y135.929400 Z-0.125000
G01 X116.969000 Y132.575600 Z-0.125000
G01 X120.288000 Y128.971700 Z-0.125000
G01 X123.256000 Y125.141800 Z-0.125000
G01 X125.867000 Y121.109900 Z-0.125000
G01 X128.118000 Y116.900400 Z-0.125000
G01 X130.002000 Y112.537100 Z-0.125000
G01 X131.516000 Y108.044200 Z-0.125000
G01 X132.654000 Y103.445900 Z-0.125000
G01 X133.411000 Y98.766200 Z-0.125000
G01 X133.782000 Y94.029200 Z-0.125000
G01 X133.763000 Y89.259100 Z-0.125000
G01 X133.349000 Y84.479900 Z-0.125000
G01 X132.534000 Y79.715800 Z-0.125000
G01 X131.314000 Y74.990800 Z-0.125000
G01 X129.683000 Y70.329100 Z-0.125000
G01 X127.638000 Y65.754700 Z-0.125000
G01 X126.097000 Y62.875900 Z-0.125000
G01 X124.400000 Y60.104400 Z-0.125000
G01 X122.554000 Y57.444700 Z-0.125000
G01 X120.563000 Y54.901100 Z-0.125000
G01 X118.434000 Y52.478200 Z-0.125000
G01 X116.173000 Y50.180000 Z-0.125000
G01 X113.786000 Y48.012000 Z-0.125000
G01 X111.278000 Y45.978000 Z-0.125000
G01 X108.655000 Y44.083000 Z-0.125000
G01 X105.923000 Y42.331000 Z-0.125000
G01 X103.089000 Y40.726000 Z-0.125000
G01 X100.157000 Y39.273000 Z-0.125000
G01 X97.133300 Y37.977000 Z-0.125000
G01 X94.024500 Y36.842000 Z-0.125000
G01 X90.835900 Y35.872000 Z-0.125000
G01 X87.573500 Y35.072000 Z-0.125000
G01 X85.359100 Y34.690000 Z-0.125000
G01 X82.766500 Y34.402000 Z-0.125000
G01 X76.940400 Y34.118000 Z-0.125000
G01 X71.082400 Y34.235000 Z-0.125000
G01 X66.179400 Y34.767000 Z-0.125000
G01 X66.179400 Y34.767000 Z-0.125000
G00 Z5.000000

(End cutting path id: path2)


(Start cutting path id: path2)
(Change tool to Default tool)

G00 Z5.000000
G00 X54.493900 Y23.045000

G01 Z-0.125000 F100.0(Penetrate)
G01 X54.080400 Y22.631000 Z-0.125000 F400.000000
G01 X53.799700 Y21.976000 Z-0.125000
G01 X53.869900 Y21.789000 Z-0.125000
G01 X54.080400 Y21.883000 Z-0.125000
G01 X54.981700 Y22.784000 Z-0.125000
G01 X55.306000 Y22.991000 Z-0.125000
G01 X55.626400 Y23.055000 Z-0.125000
G01 X55.806600 Y22.977000 Z-0.125000
G01 X55.709900 Y22.764000 Z-0.125000
G01 X54.080400 Y21.134000 Z-0.125000
G01 X53.799700 Y20.479000 Z-0.125000
G01 X53.869900 Y20.292000 Z-0.125000
G01 X54.080400 Y20.386000 Z-0.125000
G01 X56.458300 Y22.764000 Z-0.125000
G01 X56.693400 Y22.882000 Z-0.125000
G01 X56.817700 Y22.749000 Z-0.125000
G01 X56.801800 Y22.476000 Z-0.125000
G01 X56.615900 Y22.173000 Z-0.125000
G01 X54.080400 Y19.638000 Z-0.125000
G01 X53.799700 Y18.983000 Z-0.125000
G01 X53.869900 Y18.796000 Z-0.125000
G01 X54.080400 Y18.889000 Z-0.125000
G01 X56.615900 Y21.425000 Z-0.125000
G01 X56.826400 Y21.518000 Z-0.125000
G01 X56.896600 Y21.331000 Z-0.125000
G01 X56.615900 Y20.676000 Z-0.125000
G01 X54.080400 Y18.141000 Z-0.125000
G01 X53.799700 Y17.486000 Z-0.125000
G01 X53.869900 Y17.299000 Z-0.125000
G01 X54.080400 Y17.393000 Z-0.125000
G01 X56.615900 Y19.928000 Z-0.125000
G01 X56.826400 Y20.022000 Z-0.125000
G01 X56.896600 Y19.835000 Z-0.125000
G01 X56.615900 Y19.180000 Z-0.125000
G01 X54.080400 Y16.644000 Z-0.125000
G01 X53.799700 Y15.989000 Z-0.125000
G01 X53.869900 Y15.802000 Z-0.125000
G01 X54.080400 Y15.896000 Z-0.125000
G01 X56.615900 Y18.431000 Z-0.125000
G01 X56.826400 Y18.525000 Z-0.125000
G01 X56.896600 Y18.338000 Z-0.125000
G01 X56.615900 Y17.683000 Z-0.125000
G01 X54.080400 Y15.147000 Z-0.125000
G01 X53.799700 Y14.493000 Z-0.125000
G01 X53.869900 Y14.306000 Z-0.125000
G01 X54.080400 Y14.399000 Z-0.125000
G01 X56.615900 Y16.935000 Z-0.125000
G01 X56.826800 Y17.029000 Z-0.125000
G01 X56.897900 Y16.842000 Z-0.125000
G01 X56.618500 Y16.189000 Z-0.125000
G01 X54.080400 Y13.651000 Z-0.125000
G01 X53.799700 Y12.996000 Z-0.125000
G01 X53.869900 Y12.809000 Z-0.125000
G01 X54.080400 Y12.902000 Z-0.125000
G01 X56.622100 Y15.444000 Z-0.125000
G01 X56.834300 Y15.539000 Z-0.125000
G01 X56.908400 Y15.356000 Z-0.125000
G01 X56.633400 Y14.707000 Z-0.125000
G01 X54.081600 Y12.155000 Z-0.125000
G01 X53.801900 Y11.501000 Z-0.125000
G01 X53.872600 Y11.315000 Z-0.125000
G01 X54.083400 Y11.409000 Z-0.125000
G01 X56.648200 Y13.974000 Z-0.125000
G01 X56.861600 Y14.070000 Z-0.125000
G01 X56.938200 Y13.889000 Z-0.125000
G01 X56.666900 Y13.244000 Z-0.125000
G01 X54.085200 Y10.662000 Z-0.125000
G01 X53.806800 Y10.010000 Z-0.125000
G01 X53.878600 Y9.824000 Z-0.125000
G01 X54.089800 Y9.918000 Z-0.125000
G01 X56.695500 Y12.524000 Z-0.125000
G01 X56.911900 Y12.624000 Z-0.125000
G01 X56.995000 Y12.449000 Z-0.125000
G01 X56.937900 Y12.135000 Z-0.125000
G01 X56.733300 Y11.814000 Z-0.125000
G01 X54.095100 Y9.175000 Z-0.125000
G01 X53.817300 Y8.523000 Z-0.125000
G01 X53.889300 Y8.338000 Z-0.125000
G01 X54.100700 Y8.433000 Z-0.125000
G01 X56.787500 Y11.119000 Z-0.125000
G01 X57.018200 Y11.233000 Z-0.125000
G01 X57.132700 Y11.090000 Z-0.125000
G01 X57.106900 Y10.807000 Z-0.125000
G01 X56.916600 Y10.500000 Z-0.125000
G01 X54.109900 Y7.693000 Z-0.125000
G01 X53.833800 Y7.043000 Z-0.125000
G01 X53.907200 Y6.859000 Z-0.125000
G01 X54.119100 Y6.954000 Z-0.125000
G01 X62.580400 Y15.416000 Z-0.125000
G01 X63.350700 Y15.812000 Z-0.125000
G01 X63.617200 Y15.821000 Z-0.125000
G01 X63.559800 Y15.647000 Z-0.125000
G01 X54.130900 Y6.218000 Z-0.125000
G01 X53.857100 Y5.570000 Z-0.125000
G01 X53.932000 Y5.387000 Z-0.125000
G01 X54.144700 Y5.483000 Z-0.125000
G01 X64.342600 Y15.681000 Z-0.125000
G01 X64.999100 Y15.963000 Z-0.125000
G01 X65.187400 Y15.894000 Z-0.125000
G01 X65.094400 Y15.684000 Z-0.125000
G01 X54.160600 Y4.750000 Z-0.125000
G01 X53.953200 Y4.426000 Z-0.125000
G01 X53.889900 Y4.105000 Z-0.125000
G01 X53.966900 Y3.925000 Z-0.125000
G01 X54.180400 Y4.022000 Z-0.125000
G01 X65.764600 Y15.606000 Z-0.125000
G01 X66.073300 Y15.798000 Z-0.125000
G01 X66.359700 Y15.827000 Z-0.125000
G01 X66.505700 Y15.716000 Z-0.125000
G01 X66.393500 Y15.487000 Z-0.125000
G01 X54.205000 Y3.298000 Z-0.125000
G01 X53.999300 Y2.975000 Z-0.125000
G01 X53.939600 Y2.658000 Z-0.125000
G01 X54.020300 Y2.482000 Z-0.125000
G01 X54.235500 Y2.580000 Z-0.125000
G01 X57.789200 Y6.134000 Z-0.125000
G00 Z5.000000

(End cutting path id: path2)


(Start cutting path id: path2)
(Change tool to Default tool)

G00 Z5.000000
G00 X56.979400 Y4.576000

G01 Z-0.125000 F100.0(Penetrate)
G01 X54.287800 Y1.885000 Z-0.125000 F400.000000
G01 X54.154700 Y1.634000 Z-0.125000
G01 X54.254600 Y1.477000 Z-0.125000
G01 X54.494800 Y1.460000 Z-0.125000
G01 X54.782600 Y1.631000 Z-0.125000
G01 X56.626900 Y3.475000 Z-0.125000
G01 X56.835700 Y3.567000 Z-0.125000
G01 X56.902100 Y3.376000 Z-0.125000
G01 X56.616000 Y2.716000 Z-0.125000
G01 X55.465300 Y1.565000 Z-0.125000
G01 X55.370000 Y1.353000 Z-0.125000
G01 X55.553200 Y1.279000 Z-0.125000
G01 X56.202300 Y1.554000 Z-0.125000
G01 X56.783300 Y2.135000 Z-0.125000
G01 X56.868300 Y2.103000 Z-0.125000
G01 X56.896600 Y1.874000 Z-0.125000
G01 X56.783300 Y1.387000 Z-0.125000
G01 X56.670000 Y1.273000 Z-0.125000
G00 Z5.000000

(End cutting path id: path2)


(Start cutting path id: path2)
(Change tool to Default tool)

G00 Z5.000000
G00 X53.916500 Y1.390000

G01 Z-0.125000 F100.0(Penetrate)
G01 X53.740600 Y4.729000 Z-0.125000 F400.000000
G01 X53.667500 Y12.408000 Z-0.125000
G01 X53.667500 Y23.177000 Z-0.125000
G01 X55.348200 Y23.177000 Z-0.125000
G01 X57.028900 Y23.177000 Z-0.125000
G01 X57.028900 Y17.014000 Z-0.125000
G01 X57.114100 Y12.662000 Z-0.125000
G01 X57.319000 Y10.852000 Z-0.125000
G01 X58.286000 Y11.620000 Z-0.125000
G01 X60.203600 Y13.466000 Z-0.125000
G01 X61.715200 Y14.954000 Z-0.125000
G01 X62.706600 Y15.732000 Z-0.125000
G01 X63.572200 Y16.032000 Z-0.125000
G01 X64.706500 Y16.081000 Z-0.125000
G01 X66.131000 Y16.004000 Z-0.125000
G01 X66.875500 Y15.820000 Z-0.125000
G01 X66.217200 Y14.789000 Z-0.125000
G01 X64.268600 Y12.676000 Z-0.125000
G01 X61.401400 Y9.791000 Z-0.125000
G01 X64.257300 Y5.873000 Z-0.125000
G01 X66.274200 Y2.980000 Z-0.125000
G01 X67.113100 Y1.528000 Z-0.125000
G01 X66.987500 Y1.351000 Z-0.125000
G01 X66.614800 Y1.239000 Z-0.125000
G01 X65.153100 Y1.215000 Z-0.125000
G01 X63.193000 Y1.328000 Z-0.125000
G01 X60.977900 Y4.276000 Z-0.125000
G01 X58.762900 Y7.224000 Z-0.125000
G01 X57.895900 Y6.216000 Z-0.125000
G01 X57.474600 Y5.632000 Z-0.125000
G01 X57.208400 Y4.995000 Z-0.125000
G01 X57.028900 Y3.174000 Z-0.125000
G01 X57.028900 Y1.141000 Z-0.125000
G01 X55.597200 Y1.141000 Z-0.125000
G01 X54.512900 Y1.214000 Z-0.125000
G01 X53.916500 Y1.390000 Z-0.125000
G01 X53.916500 Y1.390000 Z-0.125000
G00 Z5.000000

(End cutting path id: path2)


(Start cutting path id: path2)
(Change tool to Default tool)

G00 Z5.000000
G00 X42.961600 Y1.035000

G01 Z-0.125000 F100.0(Penetrate)
G01 X48.066600 Y6.140000 Z-0.125000 F400.000000
G01 X48.376900 Y6.333000 Z-0.125000
G01 X48.666700 Y6.366000 Z-0.125000
G01 X48.816100 Y6.258000 Z-0.125000
G01 X48.705400 Y6.030000 Z-0.125000
G01 X43.906200 Y1.231000 Z-0.125000
G01 X43.814100 Y1.022000 Z-0.125000
G01 X44.004500 Y0.955000 Z-0.125000
G01 X44.664100 Y1.241000 Z-0.125000
G01 X49.255800 Y5.833000 Z-0.125000
G01 X49.544600 Y6.005000 Z-0.125000
G01 X49.787100 Y5.990000 Z-0.125000
G01 X49.889300 Y5.835000 Z-0.125000
G01 X49.757100 Y5.586000 Z-0.125000
G01 X45.499500 Y1.328000 Z-0.125000
G01 X45.435600 Y1.147000 Z-0.125000
G01 X45.687900 Y1.142000 Z-0.125000
G01 X46.437500 Y1.518000 Z-0.125000
G01 X50.133300 Y5.214000 Z-0.125000
G01 X50.349800 Y5.313000 Z-0.125000
G01 X50.433000 Y5.139000 Z-0.125000
G01 X50.375900 Y4.825000 Z-0.125000
G01 X50.171400 Y4.503000 Z-0.125000
G01 X47.256700 Y1.588000 Z-0.125000
G00 Z5.000000

(End cutting path id: path2)


(Start cutting path id: path2)
(Change tool to Default tool)

G00 Z5.000000
G00 X41.342300 Y1.362000

G01 Z-0.125000 F100.0(Penetrate)
G01 X40.204000 Y1.982000 Z-0.125000 F400.000000
G01 X39.191100 Y2.789000 Z-0.125000
G01 X38.319700 Y3.754000 Z-0.125000
G01 X37.606100 Y4.846000 Z-0.125000
G01 X37.066300 Y6.037000 Z-0.125000
G01 X36.716700 Y7.297000 Z-0.125000
G01 X36.573300 Y8.596000 Z-0.125000
G01 X36.652300 Y9.906000 Z-0.125000
G01 X36.908900 Y11.054000 Z-0.125000
G01 X37.310000 Y12.106000 Z-0.125000
G01 X37.840300 Y13.057000 Z-0.125000
G01 X38.484500 Y13.901000 Z-0.125000
G01 X40.053900 Y15.250000 Z-0.125000
G01 X41.896200 Y16.115000 Z-0.125000
G01 X43.889600 Y16.458000 Z-0.125000
G01 X45.912100 Y16.241000 Z-0.125000
G01 X46.896200 Y15.910000 Z-0.125000
G01 X47.841900 Y15.425000 Z-0.125000
G01 X48.733800 Y14.781000 Z-0.125000
G01 X49.556800 Y13.972000 Z-0.125000
G01 X50.368000 Y12.903000 Z-0.125000
G01 X50.609800 Y12.120000 Z-0.125000
G01 X50.275300 Y11.522000 Z-0.125000
G01 X49.357800 Y11.008000 Z-0.125000
G01 X48.577300 Y10.713000 Z-0.125000
G01 X48.046000 Y10.696000 Z-0.125000
G01 X47.529300 Y11.026000 Z-0.125000
G01 X46.792600 Y11.774000 Z-0.125000
G01 X45.544800 Y12.765000 Z-0.125000
G01 X44.907100 Y13.027000 Z-0.125000
G01 X44.261700 Y13.133000 Z-0.125000
G01 X43.610000 Y13.084000 Z-0.125000
G01 X42.953000 Y12.879000 Z-0.125000
G01 X41.628400 Y12.003000 Z-0.125000
G01 X40.963900 Y11.349000 Z-0.125000
G01 X40.597300 Y10.732000 Z-0.125000
G01 X40.441200 Y9.912000 Z-0.125000
G01 X40.408600 Y8.650000 Z-0.125000
G01 X40.582000 Y6.618000 Z-0.125000
G01 X40.876500 Y6.000000 Z-0.125000
G01 X41.378700 Y5.417000 Z-0.125000
G01 X42.500600 Y4.650000 Z-0.125000
G01 X43.889300 Y4.240000 Z-0.125000
G01 X44.759500 Y4.167000 Z-0.125000
G01 X45.401600 Y4.283000 Z-0.125000
G01 X46.013400 Y4.667000 Z-0.125000
G01 X46.792700 Y5.396000 Z-0.125000
G01 X47.583500 Y6.150000 Z-0.125000
G01 X48.141300 Y6.503000 Z-0.125000
G01 X48.681000 Y6.529000 Z-0.125000
G01 X49.417600 Y6.303000 Z-0.125000
G01 X50.299600 Y5.834000 Z-0.125000
G01 X50.632000 Y5.227000 Z-0.125000
G01 X50.419800 Y4.421000 Z-0.125000
G01 X49.667900 Y3.357000 Z-0.125000
G01 X48.858600 Y2.550000 Z-0.125000
G01 X47.927000 Y1.889000 Z-0.125000
G01 X46.901100 Y1.380000 Z-0.125000
G01 X45.809200 Y1.031000 Z-0.125000
G01 X44.679200 Y0.848000 Z-0.125000
G01 X43.539400 Y0.837000 Z-0.125000
G01 X42.417700 Y1.006000 Z-0.125000
G01 X41.342300 Y1.362000 Z-0.125000
G01 X41.342300 Y1.362000 Z-0.125000
G00 Z5.000000

(End cutting path id: path2)


(Start cutting path id: path2)
(Change tool to Default tool)

G00 Z5.000000
G00 X33.740200 Y6.033000

G01 Z-0.125000 F100.0(Penetrate)
G01 X30.376700 Y2.669000 Z-0.125000 F400.000000
G01 X30.261900 Y2.437000 Z-0.125000
G01 X30.402300 Y2.321000 Z-0.125000
G01 X30.682900 Y2.344000 Z-0.125000
G01 X30.989100 Y2.533000 Z-0.125000
G01 X33.459600 Y5.004000 Z-0.125000
G01 X33.670000 Y5.097000 Z-0.125000
G01 X33.740200 Y4.910000 Z-0.125000
G01 X33.459600 Y4.255000 Z-0.125000
G01 X31.196600 Y1.992000 Z-0.125000
G01 X31.051800 Y1.731000 Z-0.125000
G01 X31.126200 Y1.548000 Z-0.125000
G01 X31.340800 Y1.505000 Z-0.125000
G01 X31.617000 Y1.664000 Z-0.125000
G01 X33.459600 Y3.507000 Z-0.125000
G01 X33.670000 Y3.600000 Z-0.125000
G01 X33.740200 Y3.413000 Z-0.125000
G01 X33.459600 Y2.759000 Z-0.125000
G01 X32.265800 Y1.565000 Z-0.125000
G01 X32.170500 Y1.353000 Z-0.125000
G01 X32.353800 Y1.279000 Z-0.125000
G01 X33.003200 Y1.554000 Z-0.125000
G01 X33.605600 Y2.156000 Z-0.125000
G01 X33.706500 Y2.140000 Z-0.125000
G01 X33.740200 Y1.917000 Z-0.125000
G01 X33.605600 Y1.408000 Z-0.125000
G01 X33.470900 Y1.273000 Z-0.125000
G00 Z5.000000

(End cutting path id: path2)


(Start cutting path id: path2)
(Change tool to Default tool)

G00 Z5.000000
G00 X29.162700 Y4.596000

G01 Z-0.125000 F100.0(Penetrate)
G01 X29.855800 Y5.518000 Z-0.125000 F400.000000
G01 X30.210600 Y6.557000 Z-0.125000
G01 X30.324400 Y7.677000 Z-0.125000
G01 X28.278100 Y7.564000 Z-0.125000
G01 X26.616100 Y7.317000 Z-0.125000
G01 X25.570300 Y6.853000 Z-0.125000
G01 X25.123800 Y6.240000 Z-0.125000
G01 X24.933100 Y5.515000 Z-0.125000
G01 X25.007600 Y4.796000 Z-0.125000
G01 X25.357000 Y4.204000 Z-0.125000
G01 X26.119400 Y3.824000 Z-0.125000
G01 X27.153200 Y3.777000 Z-0.125000
G01 X28.240200 Y4.042000 Z-0.125000
G01 X29.162600 Y4.596000 Z-0.125000
G01 X29.162700 Y4.596000 Z-0.125000
G00 Z5.000000

(End cutting path id: path2)


(Start cutting path id: path2)
(Change tool to Default tool)

G00 Z5.000000
G00 X28.905600 Y10.178000

G01 Z-0.125000 F100.0(Penetrate)
G01 X25.742600 Y7.015000 Z-0.125000 F400.000000
G00 Z5.000000

(End cutting path id: path2)


(Start cutting path id: path2)
(Change tool to Default tool)

G00 Z5.000000
G00 X22.060600 Y7.823000

G01 Z-0.125000 F100.0(Penetrate)
G01 X22.786400 Y8.549000 Z-0.125000 F400.000000
G01 X23.643500 Y9.032000 Z-0.125000
G01 X23.969600 Y9.101000 Z-0.125000
G01 X23.939300 Y8.954000 Z-0.125000
G01 X21.774700 Y6.789000 Z-0.125000
G01 X21.416800 Y6.057000 Z-0.125000
G01 X21.433800 Y5.817000 Z-0.125000
G01 X21.620100 Y5.886000 Z-0.125000
G01 X24.939700 Y9.206000 Z-0.125000
G01 X25.695300 Y9.587000 Z-0.125000
G01 X25.951700 Y9.586000 Z-0.125000
G01 X25.889700 Y9.407000 Z-0.125000
G01 X21.631800 Y5.149000 Z-0.125000
G01 X21.440400 Y4.841000 Z-0.125000
G01 X21.412400 Y4.556000 Z-0.125000
G01 X21.524600 Y4.411000 Z-0.125000
G01 X21.754200 Y4.524000 Z-0.125000
G01 X26.813300 Y9.583000 Z-0.125000
G01 X27.548200 Y9.943000 Z-0.125000
G01 X27.790400 Y9.928000 Z-0.125000
G01 X27.721900 Y9.743000 Z-0.125000
G01 X21.949500 Y3.970000 Z-0.125000
G01 X21.778900 Y3.683000 Z-0.125000
G01 X21.796400 Y3.443000 Z-0.125000
G01 X21.954200 Y3.344000 Z-0.125000
G01 X22.204600 Y3.477000 Z-0.125000
G01 X24.930700 Y6.203000 Z-0.125000
G01 X25.075900 Y6.232000 Z-0.125000
G01 X25.002500 Y5.901000 Z-0.125000
G01 X24.513000 Y5.037000 Z-0.125000
G01 X22.511500 Y3.036000 Z-0.125000
G01 X22.356300 Y2.764000 Z-0.125000
G01 X22.407800 Y2.558000 Z-0.125000
G01 X22.599700 Y2.493000 Z-0.125000
G01 X22.865400 Y2.641000 Z-0.125000
G01 X24.627500 Y4.403000 Z-0.125000
G01 X24.880300 Y4.539000 Z-0.125000
G01 X25.043400 Y4.445000 Z-0.125000
G01 X25.066300 Y4.211000 Z-0.125000
G01 X24.898100 Y3.926000 Z-0.125000
G01 X23.263400 Y2.291000 Z-0.125000
G01 X23.121900 Y2.033000 Z-0.125000
G01 X23.203400 Y1.857000 Z-0.125000
G01 X23.425300 Y1.821000 Z-0.125000
G01 X23.704700 Y1.984000 Z-0.125000
G01 X25.316600 Y3.596000 Z-0.125000
G01 X25.613900 Y3.776000 Z-0.125000
G01 X25.875000 Y3.780000 Z-0.125000
G01 X25.995800 Y3.644000 Z-0.125000
G01 X25.872100 Y3.403000 Z-0.125000
G01 X24.191100 Y1.722000 Z-0.125000
G01 X24.065300 Y1.479000 Z-0.125000
G01 X24.181300 Y1.338000 Z-0.125000
G01 X24.437600 Y1.337000 Z-0.125000
G01 X24.732700 Y1.515000 Z-0.125000
G01 X26.560400 Y3.343000 Z-0.125000
G01 X27.270300 Y3.679000 Z-0.125000
G01 X27.495300 Y3.646000 Z-0.125000
G01 X27.419000 Y3.453000 Z-0.125000
G01 X25.345200 Y1.379000 Z-0.125000
G01 X25.241500 Y1.159000 Z-0.125000
G01 X25.406300 Y1.066000 Z-0.125000
G01 X25.711300 Y1.114000 Z-0.125000
G01 X26.028500 Y1.314000 Z-0.125000
G01 X33.451100 Y8.737000 Z-0.125000
G01 X33.662400 Y8.831000 Z-0.125000
G01 X33.734400 Y8.646000 Z-0.125000
G01 X33.456400 Y7.994000 Z-0.125000
G01 X26.741300 Y1.279000 Z-0.125000
G01 X26.673200 Y1.094000 Z-0.125000
G01 X26.916300 Y1.080000 Z-0.125000
G01 X27.652600 Y1.442000 Z-0.125000
G01 X33.458100 Y7.247000 Z-0.125000
G01 X33.670600 Y7.343000 Z-0.125000
G01 X33.745200 Y7.160000 Z-0.125000
G01 X33.471100 Y6.512000 Z-0.125000
G01 X28.297500 Y1.338000 Z-0.125000
G00 Z5.000000

(End cutting path id: path2)


(Start cutting path id: path2)
(Change tool to Default tool)

G00 Z5.000000
G00 X23.943400 Y1.278000

G01 Z-0.125000 F100.0(Penetrate)
G01 X22.862200 Y1.935000 Z-0.125000 F400.000000
G01 X22.044900 Y2.776000 Z-0.125000
G01 X21.497700 Y3.751000 Z-0.125000
G01 X21.226500 Y4.809000 Z-0.125000
G01 X21.237600 Y5.900000 Z-0.125000
G01 X21.536800 Y6.975000 Z-0.125000
G01 X22.130300 Y7.983000 Z-0.125000
G01 X23.024200 Y8.874000 Z-0.125000
G01 X23.655000 Y9.191000 Z-0.125000
G01 X24.781000 Y9.522000 Z-0.125000
G01 X28.737100 Y10.282000 Z-0.125000
G01 X29.481600 Y10.438000 Z-0.125000
G01 X29.904700 Y10.655000 Z-0.125000
G01 X30.094000 Y11.016000 Z-0.125000
G01 X30.137600 Y11.602000 Z-0.125000
G01 X29.977700 Y12.422000 Z-0.125000
G01 X29.495300 Y13.004000 Z-0.125000
G01 X28.686600 Y13.351000 Z-0.125000
G01 X27.547800 Y13.466000 Z-0.125000
G01 X26.756600 Y13.343000 Z-0.125000
G01 X26.024900 Y12.971000 Z-0.125000
G01 X25.348200 Y12.348000 Z-0.125000
G01 X24.722000 Y11.469000 Z-0.125000
G01 X24.478100 Y11.164000 Z-0.125000
G01 X24.160500 Y11.031000 Z-0.125000
G01 X22.948000 Y11.239000 Z-0.125000
G01 X22.013400 Y11.600000 Z-0.125000
G01 X21.625400 Y12.075000 Z-0.125000
G01 X21.758700 Y12.782000 Z-0.125000
G01 X22.387700 Y13.840000 Z-0.125000
G01 X23.383500 Y14.959000 Z-0.125000
G01 X24.624100 Y15.778000 Z-0.125000
G01 X26.075600 Y16.282000 Z-0.125000
G01 X27.704100 Y16.453000 Z-0.125000
G01 X29.359600 Y16.284000 Z-0.125000
G01 X30.819600 Y15.788000 Z-0.125000
G01 X32.051900 Y14.981000 Z-0.125000
G01 X33.024700 Y13.878000 Z-0.125000
G01 X33.490300 Y13.036000 Z-0.125000
G01 X33.744700 Y11.935000 Z-0.125000
G01 X33.872500 Y6.875000 Z-0.125000
G01 X33.872500 Y1.141000 Z-0.125000
G01 X32.403800 Y1.141000 Z-0.125000
G01 X31.193700 Y1.296000 Z-0.125000
G01 X30.883000 Y1.524000 Z-0.125000
G01 X30.699800 Y1.882000 Z-0.125000
G01 X30.546800 Y2.294000 Z-0.125000
G01 X30.358600 Y2.427000 Z-0.125000
G01 X29.406300 Y1.840000 Z-0.125000
G01 X28.206100 Y1.241000 Z-0.125000
G01 X26.746800 Y0.933000 Z-0.125000
G01 X25.251600 Y0.937000 Z-0.125000
G01 X23.943400 Y1.278000 Z-0.125000
G01 X23.943400 Y1.278000 Z-0.125000
G00 Z5.000000

(End cutting path id: path2)


(Start cutting path id: path2)
(Change tool to Default tool)

G00 Z5.000000
G00 X24.638200 Y15.639000

G01 Z-0.125000 F100.0(Penetrate)
G01 X22.146200 Y13.147000 Z-0.125000 F400.000000
G01 X21.820000 Y12.447000 Z-0.125000
G01 X21.858800 Y12.229000 Z-0.125000
G01 X22.055000 Y12.308000 Z-0.125000
G01 X25.551100 Y15.804000 Z-0.125000
G01 X26.309700 Y16.188000 Z-0.125000
G01 X26.568100 Y16.190000 Z-0.125000
G01 X26.507000 Y16.012000 Z-0.125000
G01 X22.445300 Y11.950000 Z-0.125000
G01 X22.318000 Y11.706000 Z-0.125000
