%
(Header)
(Generated by gcodetools from Inkscape.)
(Using default header. To add your own header create file "header" in the output dir.)
M3
(Header end.)
G21 (All units in mm)

(Start cutting path id: path8594)
(Change tool to Default tool)

G00 Z5.000000
G00 X-252.082000 Y-136.480000

G01 Z-0.125000 F100.0(Penetrate)
G01 X-254.638000 Y-136.480000 Z-0.125000 F400.000000
G01 X-254.638000 Y-134.170000 Z-0.125000
G01 X-252.082000 Y-134.170000 Z-0.125000
G01 X-252.082000 Y-136.480000 Z-0.125000
G00 Z5.000000

(End cutting path id: path8594)


(Start cutting path id: path8596)
(Change tool to Default tool)

G00 Z5.000000
G00 X-252.082000 Y-149.289000

G01 Z-0.125000 F100.0(Penetrate)
G01 X-254.638000 Y-149.289000 Z-0.125000 F400.000000
G01 X-254.638000 Y-138.663000 Z-0.125000
G01 X-252.082000 Y-138.663000 Z-0.125000
G01 X-252.082000 Y-149.289000 Z-0.125000
G00 Z5.000000

(End cutting path id: path8596)


(Start cutting path id: path8598)
(Change tool to Default tool)

G00 Z5.000000
G00 X-249.414000 Y-151.098000

G01 Z-0.125000 F100.0(Penetrate)
G01 X-251.213000 Y-151.098000 Z-0.125000 F400.000000
G01 X-250.298000 Y-146.153000 Z-0.125000
G01 X-247.890000 Y-146.153000 Z-0.125000
G01 X-249.414000 Y-151.098000 Z-0.125000
G00 Z5.000000

(End cutting path id: path8598)


(Start cutting path id: path8711)
(Change tool to Default tool)

G00 Z5.000000
G00 X-114.407400 Y-247.888740

G01 Z-0.125000 F100.0(Penetrate)
G01 X-114.679400 Y-249.566740 Z-0.125000 F400.000000
G01 X-115.038400 Y-250.427740 Z-0.125000
G01 X-115.569400 Y-251.230740 Z-0.125000
G01 X-116.268400 Y-251.930740 Z-0.125000
G01 X-117.161400 Y-252.507740 Z-0.125000
G01 X-118.244400 Y-252.894740 Z-0.125000
G01 X-119.542400 Y-253.023740 Z-0.125000
G01 X-126.270400 Y-253.023740 Z-0.125000
G01 X-127.948400 Y-252.751740 Z-0.125000
G01 X-128.809400 Y-252.396740 Z-0.125000
G01 X-129.612400 Y-251.876740 Z-0.125000
G01 X-130.312400 Y-251.169740 Z-0.125000
G01 X-130.889400 Y-250.283740 Z-0.125000
G01 X-131.276400 Y-249.190740 Z-0.125000
G01 X-131.405400 Y-247.888740 Z-0.125000
G01 X-131.133400 Y-246.210740 Z-0.125000
G01 X-130.778400 Y-245.342740 Z-0.125000
G01 X-130.258400 Y-244.546740 Z-0.125000
G01 X-129.551400 Y-243.835740 Z-0.125000
G01 X-128.666400 Y-243.255740 Z-0.125000
G01 X-127.572400 Y-242.867740 Z-0.125000
G01 X-126.270400 Y-242.738740 Z-0.125000
G01 X-119.542400 Y-242.738740 Z-0.125000
G01 X-119.542400 Y-246.296740 Z-0.125000
G01 X-126.270400 Y-246.296740 Z-0.125000
G01 X-126.944400 Y-246.414740 Z-0.125000
G01 X-127.446400 Y-246.769740 Z-0.125000
G01 X-127.758400 Y-247.285740 Z-0.125000
G01 X-127.862400 Y-247.917740 Z-0.125000
G01 X-127.744400 Y-248.569740 Z-0.125000
G01 X-127.389400 Y-249.064740 Z-0.125000
G01 X-126.858400 Y-249.365740 Z-0.125000
G01 X-126.241400 Y-249.466740 Z-0.125000
G01 X-119.542400 Y-249.466740 Z-0.125000
G01 X-118.868400 Y-249.351740 Z-0.125000
G01 X-118.366400 Y-249.007740 Z-0.125000
G01 X-118.054400 Y-248.490740 Z-0.125000
G01 X-117.950400 Y-247.859740 Z-0.125000
G01 X-117.950400 Y-242.652740 Z-0.125000
G01 X-118.065400 Y-241.996740 Z-0.125000
G01 X-118.409400 Y-241.490740 Z-0.125000
G01 X-118.915400 Y-241.167740 Z-0.125000
G01 X-119.542400 Y-241.060740 Z-0.125000
G01 X-127.733400 Y-241.060740 Z-0.125000
G01 X-127.733400 Y-237.517740 Z-0.125000
G01 X-119.542400 Y-237.517740 Z-0.125000
G01 X-117.878400 Y-237.789740 Z-0.125000
G01 X-117.010400 Y-238.148740 Z-0.125000
G01 X-116.214400 Y-238.679740 Z-0.125000
G01 X-115.504400 Y-239.378740 Z-0.125000
G01 X-114.923400 Y-240.271740 Z-0.125000
G01 X-114.536400 Y-241.354740 Z-0.125000
G01 X-114.407400 Y-242.652740 Z-0.125000
G01 X-114.407400 Y-247.888740 Z-0.125000
G00 Z5.000000

(End cutting path id: path8711)


(Start cutting path id: path8712)
(Change tool to Default tool)

G00 Z5.000000
G00 X-94.217399 Y-253.023740

G01 Z-0.125000 F100.0(Penetrate)
G01 X-99.596399 Y-253.023740 Z-0.125000 F400.000000
G01 X-107.113400 Y-245.765740 Z-0.125000
G01 X-107.575400 Y-245.119740 Z-0.125000
G01 X-107.701400 Y-244.330740 Z-0.125000
G01 X-107.500400 Y-243.584740 Z-0.125000
G01 X-106.998400 Y-242.982740 Z-0.125000
G01 X-100.184400 Y-237.488740 Z-0.125000
G01 X-94.217399 Y-237.488740 Z-0.125000
G01 X-102.996400 Y-244.560740 Z-0.125000
G01 X-94.217399 Y-253.023740 Z-0.125000
G00 Z5.000000

(End cutting path id: path8712)


(Start cutting path id: path8716)
(Change tool to Default tool)

G00 Z5.000000
G00 X-27.715199 Y-247.787740

G01 Z-0.125000 F100.0(Penetrate)
G01 X-27.959099 Y-249.523740 Z-0.125000 F400.000000
G01 X-28.604599 Y-250.872740 Z-0.125000
G01 X-29.536999 Y-251.861740 Z-0.125000
G01 X-30.655899 Y-252.521740 Z-0.125000
G01 X-31.832199 Y-252.909740 Z-0.125000
G01 X-32.951099 Y-253.023740 Z-0.125000
G01 X-39.678799 Y-253.023740 Z-0.125000
G01 X-41.371499 Y-252.751740 Z-0.125000
G01 X-42.257299 Y-252.392740 Z-0.125000
G01 X-43.078499 Y-251.861740 Z-0.125000
G01 X-43.792199 Y-251.141740 Z-0.125000
G01 X-44.383899 Y-250.240740 Z-0.125000
G01 X-44.771199 Y-249.125740 Z-0.125000
G01 X-44.900299 Y-247.787740 Z-0.125000
G01 X-44.900299 Y-242.738740 Z-0.125000
G01 X-44.771199 Y-241.415740 Z-0.125000
G01 X-44.383899 Y-240.314740 Z-0.125000
G01 X-43.792199 Y-239.407740 Z-0.125000
G01 X-43.078499 Y-238.693740 Z-0.125000
G01 X-42.257299 Y-238.151740 Z-0.125000
G01 X-41.371499 Y-237.789740 Z-0.125000
G01 X-39.678799 Y-237.517740 Z-0.125000
G01 X-32.951099 Y-237.517740 Z-0.125000
G01 X-31.624199 Y-237.646740 Z-0.125000
G01 X-30.512499 Y-238.033740 Z-0.125000
G01 X-29.605199 Y-238.618740 Z-0.125000
G01 X-28.891499 Y-239.338740 Z-0.125000
G01 X-28.360699 Y-240.149740 Z-0.125000
G01 X-28.002099 Y-241.031740 Z-0.125000
G01 X-27.715199 Y-242.738740 Z-0.125000
G01 X-27.715199 Y-247.787740 Z-0.125000
G00 Z5.000000

(End cutting path id: path8716)


(Start cutting path id: path8588)
(Change tool to Default tool)

G00 Z5.000000
G00 X-269.622000 Y-135.325000

G01 Z-0.125000 F100.0(Penetrate)
G01 X-270.219000 Y-135.701000 Z-0.125000 F400.000000
G01 X-270.505000 Y-136.147000 Z-0.125000
G01 X-270.433000 Y-136.284000 Z-0.125000
G01 X-270.219000 Y-136.233000 Z-0.125000
G01 X-269.064000 Y-135.505000 Z-0.125000
G01 X-268.496000 Y-135.413000 Z-0.125000
G01 X-268.373000 Y-135.518000 Z-0.125000
G01 X-268.499000 Y-135.681000 Z-0.125000
G01 X-270.219000 Y-136.764000 Z-0.125000
G01 X-270.505000 Y-137.210000 Z-0.125000
G01 X-270.433000 Y-137.347000 Z-0.125000
G01 X-270.219000 Y-137.296000 Z-0.125000
G01 X-268.499000 Y-136.212000 Z-0.125000
G01 X-268.285000 Y-136.160000 Z-0.125000
G01 X-268.213000 Y-136.298000 Z-0.125000
G01 X-268.499000 Y-136.744000 Z-0.125000
G01 X-270.219000 Y-137.827000 Z-0.125000
G01 X-270.505000 Y-138.273000 Z-0.125000
G01 X-270.433000 Y-138.411000 Z-0.125000
G01 X-270.219000 Y-138.359000 Z-0.125000
G01 X-268.499000 Y-137.275000 Z-0.125000
G01 X-268.285000 Y-137.224000 Z-0.125000
G01 X-268.213000 Y-137.361000 Z-0.125000
G01 X-268.499000 Y-137.807000 Z-0.125000
G01 X-270.219000 Y-138.890000 Z-0.125000
G01 X-270.505000 Y-139.336000 Z-0.125000
G01 X-270.433000 Y-139.474000 Z-0.125000
G01 X-270.219000 Y-139.422000 Z-0.125000
G01 X-268.499000 Y-138.338000 Z-0.125000
G01 X-268.285000 Y-138.287000 Z-0.125000
G01 X-268.213000 Y-138.424000 Z-0.125000
G01 X-268.499000 Y-138.870000 Z-0.125000
G01 X-270.219000 Y-139.953000 Z-0.125000
G01 X-270.505000 Y-140.399000 Z-0.125000
G01 X-270.433000 Y-140.537000 Z-0.125000
G01 X-270.219000 Y-140.485000 Z-0.125000
G01 X-268.499000 Y-139.401000 Z-0.125000
G01 X-268.285000 Y-139.350000 Z-0.125000
G01 X-268.213000 Y-139.488000 Z-0.125000
G01 X-268.499000 Y-139.933000 Z-0.125000
G01 X-270.219000 Y-141.016000 Z-0.125000
G01 X-270.505000 Y-141.462000 Z-0.125000
G01 X-270.433000 Y-141.600000 Z-0.125000
G01 X-270.219000 Y-141.548000 Z-0.125000
G01 X-268.499000 Y-140.465000 Z-0.125000
G01 X-268.285000 Y-140.413000 Z-0.125000
G01 X-268.213000 Y-140.551000 Z-0.125000
G01 X-268.499000 Y-140.996000 Z-0.125000
G01 X-270.219000 Y-142.080000 Z-0.125000
G01 X-270.505000 Y-142.525000 Z-0.125000
G01 X-270.433000 Y-142.663000 Z-0.125000
G01 X-270.219000 Y-142.611000 Z-0.125000
G01 X-268.081000 Y-141.265000 Z-0.125000
G01 X-267.374000 Y-141.085000 Z-0.125000
G01 X-267.155000 Y-141.130000 Z-0.125000
G01 X-267.237000 Y-141.265000 Z-0.125000
G01 X-270.219000 Y-143.143000 Z-0.125000
G01 X-270.505000 Y-143.588000 Z-0.125000
G01 X-270.433000 Y-143.726000 Z-0.125000
G01 X-270.219000 Y-143.674000 Z-0.125000
G01 X-266.393000 Y-141.265000 Z-0.125000
G01 X-265.686000 Y-141.085000 Z-0.125000
G01 X-265.467000 Y-141.130000 Z-0.125000
G01 X-265.549000 Y-141.265000 Z-0.125000
G01 X-270.219000 Y-144.206000 Z-0.125000
G01 X-270.505000 Y-144.651000 Z-0.125000
G01 X-270.433000 Y-144.789000 Z-0.125000
G01 X-270.219000 Y-144.737000 Z-0.125000
G01 X-264.705000 Y-141.265000 Z-0.125000
G01 X-263.997000 Y-141.085000 Z-0.125000
G01 X-263.779000 Y-141.130000 Z-0.125000
G01 X-263.861000 Y-141.265000 Z-0.125000
G01 X-266.960000 Y-143.217000 Z-0.125000
G01 X-267.043000 Y-143.352000 Z-0.125000
G01 X-266.824000 Y-143.396000 Z-0.125000
G01 X-266.116000 Y-143.217000 Z-0.125000
G01 X-263.017000 Y-141.265000 Z-0.125000
G01 X-262.309000 Y-141.085000 Z-0.125000
G01 X-262.091000 Y-141.130000 Z-0.125000
G01 X-262.173000 Y-141.265000 Z-0.125000
G01 X-265.272000 Y-143.217000 Z-0.125000
G01 X-265.354000 Y-143.352000 Z-0.125000
G01 X-265.136000 Y-143.396000 Z-0.125000
G01 X-264.428000 Y-143.217000 Z-0.125000
G01 X-261.329000 Y-141.265000 Z-0.125000
G01 X-260.621000 Y-141.085000 Z-0.125000
G01 X-260.402000 Y-141.130000 Z-0.125000
G01 X-260.485000 Y-141.265000 Z-0.125000
G01 X-263.584000 Y-143.217000 Z-0.125000
G01 X-263.666000 Y-143.352000 Z-0.125000
G01 X-263.448000 Y-143.396000 Z-0.125000
G01 X-262.740000 Y-143.217000 Z-0.125000
G01 X-259.355000 Y-141.085000 Z-0.125000
G00 Z5.000000

(End cutting path id: path8588)


(Start cutting path id: path8589)
(Change tool to Default tool)

G00 Z5.000000
G00 X-258.649000 Y-135.325000

G01 Z-0.125000 F100.0(Penetrate)
G01 X-258.811000 Y-135.427000 Z-0.125000 F400.000000
G01 X-258.974000 Y-135.795000 Z-0.125000
G01 X-258.933000 Y-135.952000 Z-0.125000
G01 X-258.811000 Y-135.959000 Z-0.125000
G01 X-258.090000 Y-135.505000 Z-0.125000
G01 X-257.383000 Y-135.325000 Z-0.125000
G01 X-257.164000 Y-135.370000 Z-0.125000
G01 X-257.246000 Y-135.505000 Z-0.125000
G01 X-258.688000 Y-136.413000 Z-0.125000
G01 X-258.974000 Y-136.858000 Z-0.125000
G01 X-258.902000 Y-136.996000 Z-0.125000
G01 X-258.688000 Y-136.944000 Z-0.125000
G01 X-256.968000 Y-135.861000 Z-0.125000
G01 X-256.754000 Y-135.809000 Z-0.125000
G01 X-256.682000 Y-135.947000 Z-0.125000
G01 X-256.968000 Y-136.392000 Z-0.125000
G01 X-258.688000 Y-137.476000 Z-0.125000
G01 X-258.974000 Y-137.921000 Z-0.125000
G01 X-258.902000 Y-138.059000 Z-0.125000
G01 X-258.688000 Y-138.007000 Z-0.125000
G01 X-256.968000 Y-136.924000 Z-0.125000
G01 X-256.754000 Y-136.872000 Z-0.125000
G01 X-256.682000 Y-137.010000 Z-0.125000
G01 X-256.968000 Y-137.456000 Z-0.125000
G01 X-258.688000 Y-138.539000 Z-0.125000
G01 X-258.974000 Y-138.984000 Z-0.125000
G01 X-258.902000 Y-139.122000 Z-0.125000
G01 X-258.688000 Y-139.071000 Z-0.125000
G01 X-256.968000 Y-137.987000 Z-0.125000
G01 X-256.754000 Y-137.935000 Z-0.125000
G01 X-256.682000 Y-138.073000 Z-0.125000
G01 X-256.968000 Y-138.519000 Z-0.125000
G01 X-258.688000 Y-139.602000 Z-0.125000
G01 X-258.974000 Y-140.048000 Z-0.125000
G01 X-258.902000 Y-140.185000 Z-0.125000
G01 X-258.688000 Y-140.134000 Z-0.125000
G01 X-256.968000 Y-139.050000 Z-0.125000
G01 X-256.754000 Y-138.998000 Z-0.125000
G01 X-256.682000 Y-139.136000 Z-0.125000
G01 X-256.968000 Y-139.582000 Z-0.125000
G01 X-258.974000 Y-140.845000 Z-0.125000
G00 Z5.000000

(End cutting path id: path8589)


(Start cutting path id: path8590)
(Change tool to Default tool)

G00 Z5.000000
G00 X-268.213000 Y-144.006000

G01 Z-0.125000 F100.0(Penetrate)
G01 X-270.219000 Y-145.269000 Z-0.125000 F400.000000
G01 X-270.505000 Y-145.714000 Z-0.125000
G01 X-270.433000 Y-145.852000 Z-0.125000
G01 X-270.219000 Y-145.800000 Z-0.125000
G01 X-268.499000 Y-144.717000 Z-0.125000
G01 X-268.285000 Y-144.665000 Z-0.125000
G01 X-268.213000 Y-144.803000 Z-0.125000
G01 X-268.499000 Y-145.249000 Z-0.125000
G01 X-270.219000 Y-146.332000 Z-0.125000
G01 X-270.505000 Y-146.778000 Z-0.125000
G01 X-270.433000 Y-146.915000 Z-0.125000
G01 X-270.219000 Y-146.864000 Z-0.125000
G01 X-268.499000 Y-145.780000 Z-0.125000
G01 X-268.285000 Y-145.728000 Z-0.125000
G01 X-268.213000 Y-145.866000 Z-0.125000
G01 X-268.499000 Y-146.312000 Z-0.125000
G01 X-270.219000 Y-147.395000 Z-0.125000
G01 X-270.505000 Y-147.841000 Z-0.125000
G01 X-270.433000 Y-147.978000 Z-0.125000
G01 X-270.219000 Y-147.927000 Z-0.125000
G01 X-268.499000 Y-146.843000 Z-0.125000
G01 X-268.285000 Y-146.791000 Z-0.125000
G01 X-268.213000 Y-146.929000 Z-0.125000
G01 X-268.499000 Y-147.375000 Z-0.125000
G01 X-270.219000 Y-148.458000 Z-0.125000
G01 X-270.505000 Y-148.904000 Z-0.125000
G01 X-270.433000 Y-149.041000 Z-0.125000
G01 X-270.219000 Y-148.990000 Z-0.125000
G01 X-268.499000 Y-147.906000 Z-0.125000
G01 X-268.285000 Y-147.854000 Z-0.125000
G01 X-268.213000 Y-147.992000 Z-0.125000
G01 X-268.499000 Y-148.438000 Z-0.125000
G01 X-269.354000 Y-148.977000 Z-0.125000
G01 X-269.437000 Y-149.112000 Z-0.125000
G01 X-269.218000 Y-149.156000 Z-0.125000
G01 X-268.510000 Y-148.977000 Z-0.125000
G01 X-268.213000 Y-148.790000 Z-0.125000
G00 Z5.000000

(End cutting path id: path8590)


(Start cutting path id: path8591)
(Change tool to Default tool)

G00 Z5.000000
G00 X-262.181000 Y-143.397000

G01 Z-0.125000 F100.0(Penetrate)
G01 X-256.968000 Y-140.113000 Z-0.125000 F400.000000
G01 X-256.754000 Y-140.061000 Z-0.125000
G01 X-256.682000 Y-140.199000 Z-0.125000
G01 X-256.968000 Y-140.645000 Z-0.125000
G01 X-261.052000 Y-143.217000 Z-0.125000
G01 X-261.134000 Y-143.352000 Z-0.125000
G01 X-260.915000 Y-143.397000 Z-0.125000
G01 X-260.208000 Y-143.217000 Z-0.125000
G01 X-256.968000 Y-141.176000 Z-0.125000
G01 X-256.754000 Y-141.125000 Z-0.125000
G01 X-256.682000 Y-141.262000 Z-0.125000
G01 X-256.968000 Y-141.708000 Z-0.125000
G01 X-259.364000 Y-143.217000 Z-0.125000
G01 X-259.472000 Y-143.368000 Z-0.125000
G01 X-259.311000 Y-143.450000 Z-0.125000
G01 X-258.688000 Y-143.323000 Z-0.125000
G01 X-256.968000 Y-142.239000 Z-0.125000
G01 X-256.754000 Y-142.188000 Z-0.125000
G01 X-256.682000 Y-142.325000 Z-0.125000
G01 X-256.968000 Y-142.771000 Z-0.125000
G01 X-258.688000 Y-143.854000 Z-0.125000
G01 X-258.974000 Y-144.300000 Z-0.125000
G01 X-258.902000 Y-144.438000 Z-0.125000
G01 X-258.688000 Y-144.386000 Z-0.125000
G01 X-256.968000 Y-143.303000 Z-0.125000
G01 X-256.754000 Y-143.251000 Z-0.125000
G01 X-256.682000 Y-143.389000 Z-0.125000
G01 X-256.968000 Y-143.834000 Z-0.125000
G01 X-258.688000 Y-144.918000 Z-0.125000
G01 X-258.974000 Y-145.363000 Z-0.125000
G01 X-258.902000 Y-145.501000 Z-0.125000
G01 X-258.688000 Y-145.449000 Z-0.125000
G01 X-256.968000 Y-144.366000 Z-0.125000
G01 X-256.754000 Y-144.314000 Z-0.125000
G01 X-256.682000 Y-144.452000 Z-0.125000
G01 X-256.968000 Y-144.897000 Z-0.125000
G01 X-258.688000 Y-145.981000 Z-0.125000
G01 X-258.974000 Y-146.426000 Z-0.125000
G01 X-258.902000 Y-146.564000 Z-0.125000
G01 X-258.688000 Y-146.512000 Z-0.125000
G01 X-256.968000 Y-145.429000 Z-0.125000
G01 X-256.754000 Y-145.377000 Z-0.125000
G01 X-256.682000 Y-145.515000 Z-0.125000
G01 X-256.968000 Y-145.960000 Z-0.125000
G01 X-258.688000 Y-147.044000 Z-0.125000
G01 X-258.974000 Y-147.489000 Z-0.125000
G01 X-258.902000 Y-147.627000 Z-0.125000
G01 X-258.688000 Y-147.575000 Z-0.125000
G01 X-256.968000 Y-146.492000 Z-0.125000
G01 X-256.754000 Y-146.440000 Z-0.125000
G01 X-256.682000 Y-146.578000 Z-0.125000
G01 X-256.968000 Y-147.023000 Z-0.125000
G01 X-258.688000 Y-148.107000 Z-0.125000
G01 X-258.974000 Y-148.552000 Z-0.125000
G01 X-258.902000 Y-148.690000 Z-0.125000
G01 X-258.688000 Y-148.638000 Z-0.125000
G01 X-256.968000 Y-147.555000 Z-0.125000
G01 X-256.754000 Y-147.503000 Z-0.125000
G01 X-256.682000 Y-147.641000 Z-0.125000
G01 X-256.968000 Y-148.086000 Z-0.125000
G01 X-258.381000 Y-148.977000 Z-0.125000
G01 X-258.464000 Y-149.112000 Z-0.125000
G01 X-258.245000 Y-149.156000 Z-0.125000
G01 X-257.537000 Y-148.977000 Z-0.125000
G01 X-256.830000 Y-148.532000 Z-0.125000
G01 X-256.719000 Y-148.545000 Z-0.125000
G01 X-256.682000 Y-148.704000 Z-0.125000
G01 X-256.830000 Y-149.063000 Z-0.125000
G01 X-256.979000 Y-149.157000 Z-0.125000
G00 Z5.000000

(End cutting path id: path8591)


(Start cutting path id: path8592)
(Change tool to Default tool)

G00 Z5.000000
G00 X-268.081000 Y-140.953000

G01 Z-0.125000 F100.0(Penetrate)
G01 X-259.106000 Y-140.953000 Z-0.125000 F400.000000
G01 X-259.106000 Y-135.193000 Z-0.125000
G01 X-256.550000 Y-135.193000 Z-0.125000
G01 X-256.550000 Y-149.289000 Z-0.125000
G01 X-259.106000 Y-149.289000 Z-0.125000
G01 X-259.106000 Y-143.529000 Z-0.125000
G01 X-268.081000 Y-143.529000 Z-0.125000
G01 X-268.081000 Y-149.289000 Z-0.125000
G01 X-270.637000 Y-149.289000 Z-0.125000
G01 X-270.637000 Y-135.193000 Z-0.125000
G01 X-268.081000 Y-135.193000 Z-0.125000
G01 X-268.081000 Y-140.953000 Z-0.125000
G00 Z5.000000

(End cutting path id: path8592)


(Start cutting path id: path8593)
(Change tool to Default tool)

G00 Z5.000000
G00 X-254.124000 Y-134.302000

G01 Z-0.125000 F100.0(Penetrate)
G01 X-254.315000 Y-134.422000 Z-0.125000 F400.000000
G01 X-254.506000 Y-134.808000 Z-0.125000
G01 X-254.458000 Y-134.961000 Z-0.125000
G01 X-254.315000 Y-134.954000 Z-0.125000
G01 X-253.566000 Y-134.482000 Z-0.125000
G01 X-252.858000 Y-134.302000 Z-0.125000
G01 X-252.640000 Y-134.347000 Z-0.125000
G01 X-252.722000 Y-134.482000 Z-0.125000
G01 X-254.220000 Y-135.426000 Z-0.125000
G01 X-254.506000 Y-135.871000 Z-0.125000
G01 X-254.434000 Y-136.009000 Z-0.125000
G01 X-254.220000 Y-135.957000 Z-0.125000
G01 X-252.500000 Y-134.874000 Z-0.125000
G01 X-252.286000 Y-134.822000 Z-0.125000
G01 X-252.214000 Y-134.960000 Z-0.125000
G01 X-252.500000 Y-135.405000 Z-0.125000
G01 X-253.711000 Y-136.168000 Z-0.125000
G01 X-253.793000 Y-136.303000 Z-0.125000
G01 X-253.574000 Y-136.348000 Z-0.125000
G01 X-252.867000 Y-136.168000 Z-0.125000
G01 X-252.214000 Y-135.757000 Z-0.125000
G00 Z5.000000

(End cutting path id: path8593)


(Start cutting path id: path8595)
(Change tool to Default tool)

G00 Z5.000000
G00 X-253.700000 Y-138.795000

G01 Z-0.125000 F100.0(Penetrate)
G01 X-254.220000 Y-139.123000 Z-0.125000 F400.000000
G01 X-254.506000 Y-139.568000 Z-0.125000
G01 X-254.434000 Y-139.706000 Z-0.125000
G01 X-254.220000 Y-139.654000 Z-0.125000
G01 X-253.141000 Y-138.975000 Z-0.125000
G01 X-252.535000 Y-138.859000 Z-0.125000
G01 X-252.386000 Y-138.948000 Z-0.125000
G01 X-252.500000 Y-139.102000 Z-0.125000
G01 X-254.220000 Y-140.186000 Z-0.125000
G01 X-254.506000 Y-140.631000 Z-0.125000
G01 X-254.434000 Y-140.769000 Z-0.125000
G01 X-254.220000 Y-140.718000 Z-0.125000
G01 X-252.500000 Y-139.634000 Z-0.125000
G01 X-252.286000 Y-139.582000 Z-0.125000
G01 X-252.214000 Y-139.720000 Z-0.125000
G01 X-252.500000 Y-140.166000 Z-0.125000
G01 X-254.220000 Y-141.249000 Z-0.125000
G01 X-254.506000 Y-141.695000 Z-0.125000
G01 X-254.434000 Y-141.832000 Z-0.125000
G01 X-254.220000 Y-141.781000 Z-0.125000
G01 X-252.500000 Y-140.697000 Z-0.125000
G01 X-252.286000 Y-140.645000 Z-0.125000
G01 X-252.214000 Y-140.783000 Z-0.125000
G01 X-252.500000 Y-141.229000 Z-0.125000
G01 X-254.220000 Y-142.312000 Z-0.125000
G01 X-254.506000 Y-142.758000 Z-0.125000
G01 X-254.434000 Y-142.895000 Z-0.125000
G01 X-254.220000 Y-142.844000 Z-0.125000
G01 X-252.500000 Y-141.760000 Z-0.125000
G01 X-252.286000 Y-141.708000 Z-0.125000
G01 X-252.214000 Y-141.846000 Z-0.125000
G01 X-252.500000 Y-142.292000 Z-0.125000
G01 X-254.220000 Y-143.375000 Z-0.125000
G01 X-254.506000 Y-143.821000 Z-0.125000
G01 X-254.434000 Y-143.959000 Z-0.125000
G01 X-254.220000 Y-143.907000 Z-0.125000
G01 X-252.500000 Y-142.823000 Z-0.125000
G01 X-252.286000 Y-142.772000 Z-0.125000
G01 X-252.214000 Y-142.909000 Z-0.125000
G01 X-252.500000 Y-143.355000 Z-0.125000
G01 X-254.220000 Y-144.438000 Z-0.125000
G01 X-254.506000 Y-144.884000 Z-0.125000
G01 X-254.434000 Y-145.022000 Z-0.125000
G01 X-254.220000 Y-144.970000 Z-0.125000
G01 X-252.500000 Y-143.886000 Z-0.125000
G01 X-252.286000 Y-143.835000 Z-0.125000
G01 X-252.214000 Y-143.972000 Z-0.125000
G01 X-252.500000 Y-144.418000 Z-0.125000
G01 X-254.220000 Y-145.501000 Z-0.125000
G01 X-254.506000 Y-145.947000 Z-0.125000
G01 X-254.434000 Y-146.085000 Z-0.125000
G01 X-254.220000 Y-146.033000 Z-0.125000
G01 X-252.500000 Y-144.950000 Z-0.125000
G01 X-252.286000 Y-144.898000 Z-0.125000
G01 X-252.214000 Y-145.036000 Z-0.125000
G01 X-252.500000 Y-145.481000 Z-0.125000
G01 X-254.220000 Y-146.565000 Z-0.125000
G01 X-254.506000 Y-147.010000 Z-0.125000
G01 X-254.434000 Y-147.148000 Z-0.125000
G01 X-254.220000 Y-147.096000 Z-0.125000
G01 X-252.500000 Y-146.013000 Z-0.125000
G01 X-252.286000 Y-145.961000 Z-0.125000
G01 X-252.214000 Y-146.099000 Z-0.125000
G01 X-252.500000 Y-146.544000 Z-0.125000
G01 X-254.220000 Y-147.628000 Z-0.125000
G01 X-254.506000 Y-148.073000 Z-0.125000
G01 X-254.434000 Y-148.211000 Z-0.125000
G01 X-254.220000 Y-148.159000 Z-0.125000
G01 X-252.500000 Y-147.076000 Z-0.125000
G01 X-252.286000 Y-147.024000 Z-0.125000
G01 X-252.214000 Y-147.162000 Z-0.125000
G01 X-252.500000 Y-147.607000 Z-0.125000
G01 X-254.220000 Y-148.691000 Z-0.125000
G01 X-254.373000 Y-148.870000 Z-0.125000
G01 X-254.311000 Y-149.013000 Z-0.125000
G01 X-254.105000 Y-149.067000 Z-0.125000
G01 X-253.830000 Y-148.977000 Z-0.125000
G01 X-252.500000 Y-148.139000 Z-0.125000
G01 X-252.286000 Y-148.087000 Z-0.125000
G01 X-252.214000 Y-148.225000 Z-0.125000
G01 X-252.500000 Y-148.670000 Z-0.125000
G01 X-253.165000 Y-149.089000 Z-0.125000
G01 X-252.850000 Y-149.157000 Z-0.125000
G01 X-252.321000 Y-149.089000 Z-0.125000
G01 X-252.214000 Y-149.022000 Z-0.125000
G00 Z5.000000

(End cutting path id: path8595)


(Start cutting path id: path8597)
(Change tool to Default tool)

G00 Z5.000000
G00 X-249.737000 Y-146.285000

G01 Z-0.125000 F100.0(Penetrate)
G01 X-249.992000 Y-146.446000 Z-0.125000 F400.000000
G01 X-250.303000 Y-146.907000 Z-0.125000
G01 X-250.277000 Y-147.074000 Z-0.125000
G01 X-250.104000 Y-147.047000 Z-0.125000
G01 X-249.179000 Y-146.465000 Z-0.125000
G01 X-248.484000 Y-146.293000 Z-0.125000
G01 X-248.273000 Y-146.343000 Z-0.125000
G01 X-248.359000 Y-146.480000 Z-0.125000
G01 X-250.184000 Y-147.630000 Z-0.125000
G01 X-250.526000 Y-148.110000 Z-0.125000
G01 X-250.493000 Y-148.272000 Z-0.125000
G01 X-250.296000 Y-148.231000 Z-0.125000
G01 X-248.563000 Y-147.140000 Z-0.125000
G01 X-248.380000 Y-147.108000 Z-0.125000
G01 X-248.379000 Y-147.290000 Z-0.125000
G01 X-248.766000 Y-147.800000 Z-0.125000
G01 X-250.407000 Y-148.833000 Z-0.125000
G01 X-250.748000 Y-149.314000 Z-0.125000
G01 X-250.715000 Y-149.476000 Z-0.125000
G01 X-250.518000 Y-149.435000 Z-0.125000
G01 X-248.969000 Y-148.459000 Z-0.125000
G01 X-248.787000 Y-148.427000 Z-0.125000
G01 X-248.785000 Y-148.609000 Z-0.125000
G01 X-249.172000 Y-149.119000 Z-0.125000
G01 X-250.630000 Y-150.036000 Z-0.125000
G01 X-250.971000 Y-150.517000 Z-0.125000
G01 X-250.938000 Y-150.679000 Z-0.125000
G01 X-250.741000 Y-150.638000 Z-0.125000
G01 X-249.376000 Y-149.778000 Z-0.125000
G01 X-249.193000 Y-149.746000 Z-0.125000
G01 X-249.192000 Y-149.928000 Z-0.125000
G01 X-249.579000 Y-150.438000 Z-0.125000
G01 X-250.417000 Y-150.966000 Z-0.125000
G00 Z5.000000

(End cutting path id: path8597)


(Start cutting path id: path8599)
(Change tool to Default tool)

G00 Z5.000000
G00 X-240.259000 Y-138.895000

G01 Z-0.125000 F100.0(Penetrate)
G01 X-240.399000 Y-138.983000 Z-0.125000 F400.000000
G01 X-240.715000 Y-139.448000 Z-0.125000
G01 X-240.802000 Y-139.685000 Z-0.125000
G01 X-240.752000 Y-139.737000 Z-0.125000
G01 X-239.542000 Y-138.975000 Z-0.125000
G01 X-238.834000 Y-138.795000 Z-0.125000
G01 X-238.616000 Y-138.840000 Z-0.125000
G01 X-238.698000 Y-138.975000 Z-0.125000
G01 X-240.630000 Y-140.192000 Z-0.125000
G01 X-240.916000 Y-140.637000 Z-0.125000
G01 X-240.844000 Y-140.775000 Z-0.125000
G01 X-240.630000 Y-140.723000 Z-0.125000
G01 X-237.854000 Y-138.975000 Z-0.125000
G01 X-237.146000 Y-138.795000 Z-0.125000
G01 X-236.927000 Y-138.840000 Z-0.125000
G01 X-237.010000 Y-138.975000 Z-0.125000
G01 X-240.630000 Y-141.255000 Z-0.125000
G01 X-240.916000 Y-141.700000 Z-0.125000
G01 X-240.844000 Y-141.838000 Z-0.125000
G01 X-240.630000 Y-141.786000 Z-0.125000
G01 X-236.166000 Y-138.975000 Z-0.125000
G01 X-235.471000 Y-138.803000 Z-0.125000
G01 X-235.261000 Y-138.854000 Z-0.125000
G01 X-235.347000 Y-138.991000 Z-0.125000
G01 X-240.630000 Y-142.318000 Z-0.125000
G01 X-240.916000 Y-142.763000 Z-0.125000
G01 X-240.844000 Y-142.901000 Z-0.125000
G01 X-240.630000 Y-142.849000 Z-0.125000
G01 X-238.911000 Y-141.767000 Z-0.125000
G01 X-238.697000 Y-141.715000 Z-0.125000
G01 X-238.625000 Y-141.853000 Z-0.125000
G01 X-238.911000 Y-142.298000 Z-0.125000
G01 X-240.630000 Y-143.381000 Z-0.125000
G01 X-240.916000 Y-143.827000 Z-0.125000
G01 X-240.844000 Y-143.964000 Z-0.125000
G01 X-240.630000 Y-143.913000 Z-0.125000
G01 X-238.911000 Y-142.830000 Z-0.125000
G01 X-238.697000 Y-142.778000 Z-0.125000
G01 X-238.625000 Y-142.916000 Z-0.125000
G01 X-238.911000 Y-143.361000 Z-0.125000
G01 X-240.630000 Y-144.444000 Z-0.125000
G01 X-240.916000 Y-144.890000 Z-0.125000
G01 X-240.844000 Y-145.027000 Z-0.125000
G01 X-240.630000 Y-144.976000 Z-0.125000
G01 X-238.911000 Y-143.893000 Z-0.125000
G01 X-238.697000 Y-143.841000 Z-0.125000
G01 X-238.625000 Y-143.979000 Z-0.125000
G01 X-238.911000 Y-144.424000 Z-0.125000
G01 X-240.630000 Y-145.507000 Z-0.125000
G01 X-240.916000 Y-145.953000 Z-0.125000
G01 X-240.844000 Y-146.091000 Z-0.125000
G01 X-240.630000 Y-146.039000 Z-0.125000
G01 X-238.911000 Y-144.956000 Z-0.125000
G01 X-238.697000 Y-144.904000 Z-0.125000
G01 X-238.625000 Y-145.042000 Z-0.125000
G01 X-238.911000 Y-145.487000 Z-0.125000
G01 X-240.630000 Y-146.570000 Z-0.125000
G01 X-240.916000 Y-147.016000 Z-0.125000
G01 X-240.844000 Y-147.154000 Z-0.125000
G01 X-240.630000 Y-147.102000 Z-0.125000
G01 X-238.911000 Y-146.019000 Z-0.125000
G01 X-238.697000 Y-145.967000 Z-0.125000
G01 X-238.625000 Y-146.105000 Z-0.125000
G01 X-238.911000 Y-146.551000 Z-0.125000
G01 X-240.630000 Y-147.633000 Z-0.125000
G01 X-240.916000 Y-148.079000 Z-0.125000
G01 X-240.844000 Y-148.217000 Z-0.125000
G01 X-240.630000 Y-148.165000 Z-0.125000
G01 X-238.911000 Y-147.082000 Z-0.125000
G01 X-238.697000 Y-147.030000 Z-0.125000
G01 X-238.625000 Y-147.168000 Z-0.125000
G01 X-238.911000 Y-147.614000 Z-0.125000
G01 X-240.630000 Y-148.697000 Z-0.125000
G01 X-240.782000 Y-148.875000 Z-0.125000
G01 X-240.716000 Y-149.016000 Z-0.125000
G01 X-240.508000 Y-149.068000 Z-0.125000
G01 X-240.231000 Y-148.977000 Z-0.125000
G01 X-238.911000 Y-148.145000 Z-0.125000
G01 X-238.697000 Y-148.093000 Z-0.125000
G01 X-238.625000 Y-148.231000 Z-0.125000
G01 X-238.911000 Y-148.677000 Z-0.125000
G01 X-239.571000 Y-149.093000 Z-0.125000
G01 X-239.251000 Y-149.157000 Z-0.125000
G01 X-238.727000 Y-149.093000 Z-0.125000
G01 X-238.625000 Y-149.029000 Z-0.125000
G00 Z5.000000

(End cutting path id: path8599)


(Start cutting path id: path8600)
(Change tool to Default tool)

G00 Z5.000000
G00 X-237.829000 Y-141.086000

G01 Z-0.125000 F100.0(Penetrate)
G01 X-234.677000 Y-139.100000 Z-0.125000 F400.000000
G01 X-234.107000 Y-139.008000 Z-0.125000
G01 X-233.983000 Y-139.112000 Z-0.125000
G01 X-234.109000 Y-139.274000 Z-0.125000
G01 X-236.700000 Y-140.906000 Z-0.125000
G01 X-236.782000 Y-141.041000 Z-0.125000
G01 X-236.563000 Y-141.086000 Z-0.125000
G01 X-235.855000 Y-140.906000 Z-0.125000
G01 X-233.360000 Y-139.334000 Z-0.125000
G00 Z5.000000

(End cutting path id: path8600)


(Start cutting path id: path8601)
(Change tool to Default tool)

G00 Z5.000000
G00 X-232.718000 Y-138.930000

G01 Z-0.125000 F100.0(Penetrate)
G01 X-232.611000 Y-138.862000 Z-0.125000 F400.000000
G01 X-232.082000 Y-138.795000 Z-0.125000
G01 X-231.767000 Y-138.862000 Z-0.125000
G01 X-235.011000 Y-140.906000 Z-0.125000
G01 X-235.118000 Y-141.056000 Z-0.125000
G01 X-234.952000 Y-141.134000 Z-0.125000
G01 X-234.322000 Y-141.003000 Z-0.125000
G01 X-231.101000 Y-138.975000 Z-0.125000
G01 X-230.394000 Y-138.795000 Z-0.125000
G01 X-230.175000 Y-138.840000 Z-0.125000
G01 X-230.257000 Y-138.975000 Z-0.125000
G01 X-233.945000 Y-141.298000 Z-0.125000
G01 X-234.129000 Y-141.496000 Z-0.125000
G01 X-234.134000 Y-141.682000 Z-0.125000
G01 X-233.996000 Y-141.778000 Z-0.125000
G01 X-233.752000 Y-141.707000 Z-0.125000
G01 X-229.455000 Y-139.001000 Z-0.125000
G01 X-228.833000 Y-138.876000 Z-0.125000
G01 X-228.674000 Y-138.958000 Z-0.125000
G01 X-228.783000 Y-139.110000 Z-0.125000
G01 X-233.700000 Y-142.206000 Z-0.125000
G01 X-233.986000 Y-142.652000 Z-0.125000
G01 X-233.914000 Y-142.790000 Z-0.125000
G01 X-233.700000 Y-142.738000 Z-0.125000
G01 X-232.070000 Y-141.711000 Z-0.125000
G01 X-231.846000 Y-141.653000 Z-0.125000
G01 X-231.753000 Y-141.778000 Z-0.125000
G01 X-231.803000 Y-141.992000 Z-0.125000
G01 X-232.008000 Y-142.204000 Z-0.125000
G01 X-233.700000 Y-143.269000 Z-0.125000
G01 X-233.986000 Y-143.715000 Z-0.125000
G01 X-233.914000 Y-143.853000 Z-0.125000
G01 X-233.700000 Y-143.801000 Z-0.125000
G01 X-231.980000 Y-142.717000 Z-0.125000
G01 X-231.766000 Y-142.666000 Z-0.125000
G01 X-231.694000 Y-142.803000 Z-0.125000
G01 X-231.980000 Y-143.249000 Z-0.125000
G01 X-233.700000 Y-144.332000 Z-0.125000
G01 X-233.986000 Y-144.778000 Z-0.125000
G01 X-233.914000 Y-144.916000 Z-0.125000
G01 X-233.700000 Y-144.864000 Z-0.125000
G01 X-231.980000 Y-143.781000 Z-0.125000
G01 X-231.766000 Y-143.729000 Z-0.125000
G01 X-231.694000 Y-143.867000 Z-0.125000
G01 X-231.980000 Y-144.312000 Z-0.125000
G01 X-233.700000 Y-145.396000 Z-0.125000
G01 X-233.986000 Y-145.841000 Z-0.125000
G01 X-233.914000 Y-145.979000 Z-0.125000
G01 X-233.700000 Y-145.927000 Z-0.125000
G01 X-231.980000 Y-144.844000 Z-0.125000
G01 X-231.766000 Y-144.792000 Z-0.125000
G01 X-231.694000 Y-144.930000 Z-0.125000
G01 X-231.980000 Y-145.375000 Z-0.125000
G01 X-233.700000 Y-146.459000 Z-0.125000
G01 X-233.986000 Y-146.904000 Z-0.125000
G01 X-233.914000 Y-147.042000 Z-0.125000
G01 X-233.700000 Y-146.990000 Z-0.125000
G01 X-231.980000 Y-145.907000 Z-0.125000
G01 X-231.766000 Y-145.855000 Z-0.125000
G01 X-231.694000 Y-145.993000 Z-0.125000
G01 X-231.980000 Y-146.438000 Z-0.125000
G01 X-233.700000 Y-147.522000 Z-0.125000
G01 X-233.986000 Y-147.967000 Z-0.125000
G01 X-233.914000 Y-148.105000 Z-0.125000
G01 X-233.700000 Y-148.053000 Z-0.125000
G01 X-231.980000 Y-146.970000 Z-0.125000
G01 X-231.766000 Y-146.918000 Z-0.125000
G01 X-231.694000 Y-147.056000 Z-0.125000
G01 X-231.980000 Y-147.501000 Z-0.125000
G01 X-233.700000 Y-148.585000 Z-0.125000
G01 X-233.880000 Y-148.781000 Z-0.125000
G01 X-233.875000 Y-148.961000 Z-0.125000
G01 X-233.727000 Y-149.050000 Z-0.125000
G01 X-233.479000 Y-148.977000 Z-0.125000
G01 X-231.980000 Y-148.033000 Z-0.125000
G01 X-231.766000 Y-147.981000 Z-0.125000
G01 X-231.694000 Y-148.119000 Z-0.125000
G01 X-231.980000 Y-148.565000 Z-0.125000
G01 X-232.729000 Y-149.036000 Z-0.125000
G01 X-232.740000 Y-149.127000 Z-0.125000
G01 X-232.498000 Y-149.157000 Z-0.125000
G01 X-231.885000 Y-149.036000 Z-0.125000
G01 X-231.694000 Y-148.916000 Z-0.125000
G00 Z5.000000

(End cutting path id: path8601)


(Start cutting path id: path8602)
(Change tool to Default tool)

G00 Z5.000000
G00 X-231.078000 Y-141.087000

G01 Z-0.125000 F100.0(Penetrate)
G01 X-228.211000 Y-139.281000 Z-0.125000 F400.000000
G01 X-227.930000 Y-139.187000 Z-0.125000
G01 X-227.710000 Y-139.232000 Z-0.125000
G01 X-227.633000 Y-139.366000 Z-0.125000
G01 X-227.780000 Y-139.541000 Z-0.125000
G01 X-229.948000 Y-140.907000 Z-0.125000
G01 X-230.031000 Y-141.042000 Z-0.125000
G01 X-229.812000 Y-141.087000 Z-0.125000
G01 X-229.104000 Y-140.907000 Z-0.125000
G01 X-227.370000 Y-139.815000 Z-0.125000
G01 X-227.107000 Y-139.732000 Z-0.125000
G01 X-226.928000 Y-139.802000 Z-0.125000
G01 X-226.891000 Y-139.962000 Z-0.125000
G01 X-227.056000 Y-140.148000 Z-0.125000
G01 X-228.490000 Y-141.051000 Z-0.125000
G01 X-228.650000 Y-141.235000 Z-0.125000
G01 X-228.603000 Y-141.388000 Z-0.125000
G01 X-228.413000 Y-141.452000 Z-0.125000
G01 X-228.145000 Y-141.366000 Z-0.125000
G01 X-226.770000 Y-140.500000 Z-0.125000
G01 X-226.525000 Y-140.428000 Z-0.125000
G01 X-226.386000 Y-140.524000 Z-0.125000
G01 X-226.389000 Y-140.709000 Z-0.125000
G01 X-226.573000 Y-140.907000 Z-0.125000
G01 X-227.986000 Y-141.797000 Z-0.125000
G01 X-228.253000 Y-142.231000 Z-0.125000
G01 X-228.169000 Y-142.361000 Z-0.125000
G01 X-227.949000 Y-142.306000 Z-0.125000
G01 X-226.387000 Y-141.321000 Z-0.125000
G01 X-226.162000 Y-141.263000 Z-0.125000
G01 X-226.066000 Y-141.386000 Z-0.125000
G01 X-226.114000 Y-141.598000 Z-0.125000
G01 X-226.317000 Y-141.809000 Z-0.125000
G01 X-227.949000 Y-142.837000 Z-0.125000
G01 X-228.235000 Y-143.283000 Z-0.125000
G01 X-228.163000 Y-143.420000 Z-0.125000
G01 X-227.949000 Y-143.369000 Z-0.125000
G01 X-226.248000 Y-142.297000 Z-0.125000
G01 X-226.031000 Y-142.243000 Z-0.125000
G01 X-225.953000 Y-142.377000 Z-0.125000
G01 X-226.229000 Y-142.817000 Z-0.125000
G01 X-227.949000 Y-143.900000 Z-0.125000
G01 X-228.235000 Y-144.346000 Z-0.125000
G01 X-228.163000 Y-144.483000 Z-0.125000
G01 X-227.949000 Y-144.432000 Z-0.125000
G01 X-226.229000 Y-143.348000 Z-0.125000
G01 X-226.015000 Y-143.296000 Z-0.125000
G01 X-225.943000 Y-143.434000 Z-0.125000
G01 X-226.229000 Y-143.880000 Z-0.125000
G01 X-227.949000 Y-144.963000 Z-0.125000
G01 X-228.235000 Y-145.409000 Z-0.125000
G01 X-228.163000 Y-145.547000 Z-0.125000
G01 X-227.949000 Y-145.495000 Z-0.125000
G01 X-226.229000 Y-144.411000 Z-0.125000
G01 X-226.015000 Y-144.360000 Z-0.125000
G01 X-225.943000 Y-144.497000 Z-0.125000
G01 X-226.229000 Y-144.943000 Z-0.125000
G01 X-227.949000 Y-146.026000 Z-0.125000
G01 X-228.235000 Y-146.472000 Z-0.125000
G01 X-228.163000 Y-146.610000 Z-0.125000
G01 X-227.949000 Y-146.558000 Z-0.125000
G01 X-226.229000 Y-145.474000 Z-0.125000
G01 X-226.015000 Y-145.423000 Z-0.125000
G01 X-225.943000 Y-145.560000 Z-0.125000
G01 X-226.229000 Y-146.006000 Z-0.125000
G01 X-227.949000 Y-147.089000 Z-0.125000
G01 X-228.235000 Y-147.535000 Z-0.125000
G01 X-228.163000 Y-147.673000 Z-0.125000
G01 X-227.949000 Y-147.621000 Z-0.125000
G01 X-226.229000 Y-146.538000 Z-0.125000
G01 X-226.015000 Y-146.486000 Z-0.125000
G01 X-225.943000 Y-146.624000 Z-0.125000
G01 X-226.229000 Y-147.069000 Z-0.125000
G01 X-227.949000 Y-148.153000 Z-0.125000
G01 X-228.235000 Y-148.598000 Z-0.125000
G01 X-228.163000 Y-148.736000 Z-0.125000
G01 X-227.949000 Y-148.684000 Z-0.125000
G01 X-226.229000 Y-147.601000 Z-0.125000
G01 X-226.015000 Y-147.549000 Z-0.125000
G01 X-225.943000 Y-147.687000 Z-0.125000
G01 X-226.229000 Y-148.132000 Z-0.125000
G01 X-227.570000 Y-148.977000 Z-0.125000
G01 X-227.652000 Y-149.112000 Z-0.125000
G01 X-227.433000 Y-149.157000 Z-0.125000
G01 X-226.726000 Y-148.977000 Z-0.125000
G01 X-226.055000 Y-148.555000 Z-0.125000
G01 X-225.943000 Y-148.750000 Z-0.125000
G01 X-226.055000 Y-149.086000 Z-0.125000
G01 X-226.167000 Y-149.157000 Z-0.125000
G00 Z5.000000

(End cutting path id: path8602)


(Start cutting path id: path8603)
(Change tool to Default tool)

G00 Z5.000000
G00 X-231.562000 Y-149.289000

G01 Z-0.125000 F100.0(Penetrate)
G01 X-234.118000 Y-149.289000 Z-0.125000 F400.000000
G01 X-234.118000 Y-142.241000 Z-0.125000
G01 X-234.184000 Y-141.801000 Z-0.125000
G01 X-234.383000 Y-141.484000 Z-0.125000
G01 X-234.713000 Y-141.285000 Z-0.125000
G01 X-235.170000 Y-141.218000 Z-0.125000
G01 X-238.493000 Y-141.218000 Z-0.125000
G01 X-238.493000 Y-149.289000 Z-0.125000
G01 X-241.048000 Y-149.289000 Z-0.125000
G01 X-241.048000 Y-139.931000 Z-0.125000
G01 X-240.950000 Y-139.439000 Z-0.125000
G01 X-240.675000 Y-139.036000 Z-0.125000
G01 X-240.262000 Y-138.761000 Z-0.125000
G01 X-239.761000 Y-138.663000 Z-0.125000
G01 X-235.150000 Y-138.663000 Z-0.125000
G01 X-234.010000 Y-138.849000 Z-0.125000
G01 X-232.850000 Y-139.449000 Z-0.125000
G01 X-232.850000 Y-138.663000 Z-0.125000
G01 X-229.390000 Y-138.663000 Z-0.125000
G01 X-228.623000 Y-138.751000 Z-0.125000
G01 X-227.827000 Y-139.007000 Z-0.125000
G01 X-227.060000 Y-139.469000 Z-0.125000
G01 X-226.421000 Y-140.147000 Z-0.125000
G01 X-225.979000 Y-141.061000 Z-0.125000
G01 X-225.811000 Y-142.241000 Z-0.125000
G01 X-225.811000 Y-149.289000 Z-0.125000
G01 X-228.367000 Y-149.289000 Z-0.125000
G01 X-228.367000 Y-142.241000 Z-0.125000
G01 X-228.431000 Y-141.801000 Z-0.125000
G01 X-228.623000 Y-141.484000 Z-0.125000
G01 X-228.938000 Y-141.285000 Z-0.125000
G01 X-229.390000 Y-141.219000 Z-0.125000
G01 X-231.690000 Y-141.219000 Z-0.125000
G01 X-231.562000 Y-142.241000 Z-0.125000
G01 X-231.562000 Y-149.289000 Z-0.125000
G00 Z5.000000

(End cutting path id: path8603)


(Start cutting path id: path8604)
(Change tool to Default tool)

G00 Z5.000000
G00 X-214.260000 Y-138.795000

G01 Z-0.125000 F100.0(Penetrate)
G01 X-214.713000 Y-139.081000 Z-0.125000 F400.000000
G01 X-214.999000 Y-139.526000 Z-0.125000
G01 X-214.927000 Y-139.664000 Z-0.125000
G01 X-214.713000 Y-139.612000 Z-0.125000
G01 X-213.701000 Y-138.975000 Z-0.125000
G01 X-213.062000 Y-138.838000 Z-0.125000
G01 X-212.889000 Y-138.912000 Z-0.125000
G01 X-212.993000 Y-139.060000 Z-0.125000
G01 X-214.713000 Y-140.144000 Z-0.125000
G01 X-214.999000 Y-140.589000 Z-0.125000
G01 X-214.927000 Y-140.727000 Z-0.125000
G01 X-214.713000 Y-140.675000 Z-0.125000
G01 X-212.993000 Y-139.592000 Z-0.125000
G01 X-212.779000 Y-139.540000 Z-0.125000
G01 X-212.707000 Y-139.678000 Z-0.125000
G01 X-212.993000 Y-140.123000 Z-0.125000
G01 X-214.713000 Y-141.207000 Z-0.125000
G01 X-214.999000 Y-141.652000 Z-0.125000
G01 X-214.927000 Y-141.790000 Z-0.125000
G01 X-214.713000 Y-141.738000 Z-0.125000
G01 X-212.993000 Y-140.655000 Z-0.125000
G01 X-212.779000 Y-140.603000 Z-0.125000
G01 X-212.707000 Y-140.741000 Z-0.125000
G01 X-212.993000 Y-141.186000 Z-0.125000
G01 X-214.713000 Y-142.270000 Z-0.125000
G01 X-214.999000 Y-142.715000 Z-0.125000
G01 X-214.927000 Y-142.853000 Z-0.125000
G01 X-214.713000 Y-142.802000 Z-0.125000
G01 X-212.993000 Y-141.718000 Z-0.125000
G01 X-212.779000 Y-141.666000 Z-0.125000
G01 X-212.707000 Y-141.804000 Z-0.125000
G01 X-212.993000 Y-142.250000 Z-0.125000
G01 X-214.713000 Y-143.333000 Z-0.125000
G01 X-214.999000 Y-143.779000 Z-0.125000
G01 X-214.927000 Y-143.916000 Z-0.125000
G01 X-214.713000 Y-143.865000 Z-0.125000
G01 X-212.993000 Y-142.781000 Z-0.125000
G01 X-212.779000 Y-142.729000 Z-0.125000
G01 X-212.707000 Y-142.867000 Z-0.125000
G01 X-212.993000 Y-143.313000 Z-0.125000
G01 X-214.713000 Y-144.396000 Z-0.125000
G01 X-214.999000 Y-144.842000 Z-0.125000
G01 X-214.927000 Y-144.979000 Z-0.125000
G01 X-214.713000 Y-144.928000 Z-0.125000
G01 X-212.993000 Y-143.844000 Z-0.125000
G01 X-212.779000 Y-143.792000 Z-0.125000
G01 X-212.707000 Y-143.930000 Z-0.125000
G01 X-212.993000 Y-144.376000 Z-0.125000
G01 X-214.713000 Y-145.459000 Z-0.125000
G01 X-214.999000 Y-145.905000 Z-0.125000
G01 X-214.927000 Y-146.043000 Z-0.125000
G01 X-214.713000 Y-145.991000 Z-0.125000
G01 X-212.993000 Y-144.907000 Z-0.125000
G01 X-212.779000 Y-144.856000 Z-0.125000
G01 X-212.707000 Y-144.993000 Z-0.125000
G01 X-212.993000 Y-145.439000 Z-0.125000
G01 X-214.713000 Y-146.522000 Z-0.125000
G01 X-214.999000 Y-146.968000 Z-0.125000
G01 X-214.927000 Y-147.106000 Z-0.125000
G01 X-214.713000 Y-147.054000 Z-0.125000
G01 X-212.993000 Y-145.970000 Z-0.125000
G01 X-212.779000 Y-145.919000 Z-0.125000
G01 X-212.707000 Y-146.056000 Z-0.125000
G01 X-212.993000 Y-146.502000 Z-0.125000
G01 X-214.713000 Y-147.585000 Z-0.125000
G01 X-214.999000 Y-148.031000 Z-0.125000
G01 X-214.927000 Y-148.169000 Z-0.125000
G01 X-214.713000 Y-148.117000 Z-0.125000
G01 X-212.993000 Y-147.034000 Z-0.125000
G01 X-212.779000 Y-146.982000 Z-0.125000
G01 X-212.707000 Y-147.120000 Z-0.125000
G01 X-212.993000 Y-147.565000 Z-0.125000
G01 X-214.713000 Y-148.649000 Z-0.125000
G01 X-214.999000 Y-149.094000 Z-0.125000
G01 X-214.927000 Y-149.232000 Z-0.125000
G01 X-214.713000 Y-149.180000 Z-0.125000
G01 X-212.993000 Y-148.097000 Z-0.125000
G01 X-212.779000 Y-148.045000 Z-0.125000
G01 X-212.707000 Y-148.183000 Z-0.125000
G01 X-212.993000 Y-148.628000 Z-0.125000
G01 X-214.713000 Y-149.712000 Z-0.125000
G01 X-215.007000 Y-150.162000 Z-0.125000
G01 X-214.941000 Y-150.304000 Z-0.125000
G01 X-214.729000 Y-150.253000 Z-0.125000
G01 X-212.993000 Y-149.160000 Z-0.125000
G01 X-212.779000 Y-149.108000 Z-0.125000
G01 X-212.707000 Y-149.246000 Z-0.125000
G01 X-212.993000 Y-149.691000 Z-0.125000
G01 X-219.180000 Y-153.588000 Z-0.125000
G01 X-219.263000 Y-153.723000 Z-0.125000
G01 X-219.044000 Y-153.768000 Z-0.125000
G01 X-218.336000 Y-153.588000 Z-0.125000
G01 X-212.993000 Y-150.223000 Z-0.125000
G01 X-212.785000 Y-150.175000 Z-0.125000
G01 X-212.729000 Y-150.322000 Z-0.125000
G01 X-213.035000 Y-150.781000 Z-0.125000
G01 X-217.492000 Y-153.588000 Z-0.125000
G01 X-217.574000 Y-153.723000 Z-0.125000
G01 X-217.356000 Y-153.768000 Z-0.125000
G01 X-216.648000 Y-153.588000 Z-0.125000
G01 X-213.118000 Y-151.365000 Z-0.125000
G01 X-212.940000 Y-151.336000 Z-0.125000
G01 X-212.950000 Y-151.525000 Z-0.125000
G01 X-213.353000 Y-152.045000 Z-0.125000
G01 X-215.804000 Y-153.588000 Z-0.125000
G01 X-215.815000 Y-153.678000 Z-0.125000
G01 X-215.439000 Y-153.624000 Z-0.125000
G01 X-214.503000 Y-153.300000 Z-0.125000
G01 X-213.760000 Y-152.832000 Z-0.125000
G00 Z5.000000

(End cutting path id: path8604)


(Start cutting path id: path8605)
(Change tool to Default tool)

G00 Z5.000000
G00 X-220.048000 Y-151.476000

G01 Z-0.125000 F100.0(Penetrate)
G01 X-220.346000 Y-151.664000 Z-0.125000 F400.000000
G01 X-220.632000 Y-152.110000 Z-0.125000
G01 X-220.560000 Y-152.248000 Z-0.125000
G01 X-220.346000 Y-152.196000 Z-0.125000
G01 X-219.489000 Y-151.656000 Z-0.125000
G01 X-218.781000 Y-151.476000 Z-0.125000
G01 X-218.563000 Y-151.521000 Z-0.125000
G01 X-218.645000 Y-151.656000 Z-0.125000
G01 X-220.346000 Y-152.727000 Z-0.125000
G01 X-220.632000 Y-153.173000 Z-0.125000
G01 X-220.560000 Y-153.311000 Z-0.125000
G01 X-220.346000 Y-153.259000 Z-0.125000
G01 X-217.801000 Y-151.656000 Z-0.125000
G01 X-217.093000 Y-151.476000 Z-0.125000
G01 X-216.874000 Y-151.521000 Z-0.125000
G01 X-216.957000 Y-151.656000 Z-0.125000
G01 X-220.310000 Y-153.768000 Z-0.125000
G00 Z5.000000

(End cutting path id: path8605)


(Start cutting path id: path8606)
(Change tool to Default tool)

G00 Z5.000000
G00 X-212.575000 Y-150.311000

G01 Z-0.125000 F100.0(Penetrate)
G01 X-212.742000 Y-151.491000 Z-0.125000 F400.000000
G01 X-213.185000 Y-152.415000 Z-0.125000
G01 X-213.824000 Y-153.093000 Z-0.125000
G01 X-214.590000 Y-153.555000 Z-0.125000
G01 X-215.387000 Y-153.811000 Z-0.125000
G01 X-216.153000 Y-153.900000 Z-0.125000
G01 X-220.764000 Y-153.900000 Z-0.125000
G01 X-220.764000 Y-151.344000 Z-0.125000
G01 X-216.153000 Y-151.344000 Z-0.125000
G01 X-215.706000 Y-151.277000 Z-0.125000
G01 X-215.387000 Y-151.078000 Z-0.125000
G01 X-215.195000 Y-150.754000 Z-0.125000
G01 X-215.131000 Y-150.312000 Z-0.125000
G01 X-215.131000 Y-138.663000 Z-0.125000
G01 X-212.575000 Y-138.663000 Z-0.125000
G01 X-212.575000 Y-150.311000 Z-0.125000
G00 Z5.000000

(End cutting path id: path8606)


(Start cutting path id: path8607)
(Change tool to Default tool)

G00 Z5.000000
G00 X-223.775000 Y-138.795000

G01 Z-0.125000 F100.0(Penetrate)
G01 X-223.997000 Y-138.935000 Z-0.125000 F400.000000
G01 X-224.220000 Y-139.341000 Z-0.125000
G01 X-224.164000 Y-139.489000 Z-0.125000
G01 X-223.997000 Y-139.467000 Z-0.125000
G01 X-223.216000 Y-138.975000 Z-0.125000
G01 X-222.509000 Y-138.795000 Z-0.125000
G01 X-222.290000 Y-138.840000 Z-0.125000
G01 X-222.372000 Y-138.975000 Z-0.125000
G01 X-223.934000 Y-139.959000 Z-0.125000
G01 X-224.220000 Y-140.404000 Z-0.125000
G01 X-224.148000 Y-140.542000 Z-0.125000
G01 X-223.934000 Y-140.490000 Z-0.125000
G01 X-222.214000 Y-139.407000 Z-0.125000
G01 X-222.000000 Y-139.355000 Z-0.125000
G01 X-221.928000 Y-139.493000 Z-0.125000
G01 X-222.214000 Y-139.938000 Z-0.125000
G01 X-223.934000 Y-141.022000 Z-0.125000
G01 X-224.220000 Y-141.467000 Z-0.125000
G01 X-224.148000 Y-141.605000 Z-0.125000
G01 X-223.934000 Y-141.553000 Z-0.125000
G01 X-222.214000 Y-140.470000 Z-0.125000
G01 X-222.000000 Y-140.418000 Z-0.125000
G01 X-221.928000 Y-140.556000 Z-0.125000
G01 X-222.214000 Y-141.001000 Z-0.125000
G01 X-223.934000 Y-142.085000 Z-0.125000
G01 X-224.220000 Y-142.530000 Z-0.125000
G01 X-224.148000 Y-142.668000 Z-0.125000
G01 X-223.934000 Y-142.616000 Z-0.125000
G01 X-222.214000 Y-141.533000 Z-0.125000
G01 X-222.000000 Y-141.481000 Z-0.125000
G01 X-221.928000 Y-141.619000 Z-0.125000
G01 X-222.214000 Y-142.064000 Z-0.125000
G01 X-223.934000 Y-143.148000 Z-0.125000
G01 X-224.220000 Y-143.593000 Z-0.125000
G01 X-224.148000 Y-143.731000 Z-0.125000
G01 X-223.934000 Y-143.679000 Z-0.125000
G01 X-222.214000 Y-142.596000 Z-0.125000
G01 X-222.000000 Y-142.544000 Z-0.125000
G01 X-221.928000 Y-142.682000 Z-0.125000
G01 X-222.214000 Y-143.127000 Z-0.125000
G01 X-223.934000 Y-144.211000 Z-0.125000
G01 X-224.220000 Y-144.656000 Z-0.125000
G01 X-224.148000 Y-144.794000 Z-0.125000
G01 X-223.934000 Y-144.742000 Z-0.125000
G01 X-222.214000 Y-143.659000 Z-0.125000
G01 X-222.000000 Y-143.607000 Z-0.125000
G01 X-221.928000 Y-143.745000 Z-0.125000
G01 X-222.214000 Y-144.191000 Z-0.125000
G01 X-223.934000 Y-145.274000 Z-0.125000
G01 X-224.206000 Y-145.711000 Z-0.125000
G01 X-224.126000 Y-145.843000 Z-0.125000
G01 X-223.908000 Y-145.789000 Z-0.125000
G01 X-222.214000 Y-144.722000 Z-0.125000
G01 X-222.000000 Y-144.670000 Z-0.125000
G01 X-221.928000 Y-144.808000 Z-0.125000
G01 X-222.214000 Y-145.254000 Z-0.125000
G01 X-223.859000 Y-146.290000 Z-0.125000
G01 X-224.053000 Y-146.495000 Z-0.125000
G01 X-224.081000 Y-146.695000 Z-0.125000
G01 X-223.966000 Y-146.806000 Z-0.125000
G01 X-223.732000 Y-146.741000 Z-0.125000
G01 X-222.214000 Y-145.785000 Z-0.125000
G01 X-221.991000 Y-145.728000 Z-0.125000
G01 X-221.899000 Y-145.853000 Z-0.125000
G01 X-221.951000 Y-146.068000 Z-0.125000
G01 X-222.156000 Y-146.280000 Z-0.125000
G01 X-223.569000 Y-147.170000 Z-0.125000
G01 X-223.738000 Y-147.360000 Z-0.125000
G01 X-223.712000 Y-147.526000 Z-0.125000
G01 X-223.543000 Y-147.602000 Z-0.125000
G01 X-223.284000 Y-147.523000 Z-0.125000
G01 X-221.950000 Y-146.682000 Z-0.125000
G01 X-221.675000 Y-146.592000 Z-0.125000
G01 X-221.471000 Y-146.646000 Z-0.125000
G01 X-221.409000 Y-146.790000 Z-0.125000
G01 X-221.562000 Y-146.969000 Z-0.125000
G01 X-223.000000 Y-147.875000 Z-0.125000
G01 X-223.170000 Y-148.065000 Z-0.125000
G01 X-223.144000 Y-148.231000 Z-0.125000
G01 X-222.975000 Y-148.308000 Z-0.125000
G01 X-222.716000 Y-148.228000 Z-0.125000
G01 X-220.838000 Y-147.045000 Z-0.125000
G01 X-220.130000 Y-146.865000 Z-0.125000
G01 X-219.912000 Y-146.910000 Z-0.125000
G01 X-219.994000 Y-147.045000 Z-0.125000
G01 X-222.246000 Y-148.464000 Z-0.125000
G01 X-222.389000 Y-148.636000 Z-0.125000
G01 X-222.302000 Y-148.764000 Z-0.125000
G01 X-221.786000 Y-148.705000 Z-0.125000
G01 X-219.150000 Y-147.045000 Z-0.125000
G01 X-218.442000 Y-146.865000 Z-0.125000
G01 X-218.223000 Y-146.910000 Z-0.125000
G01 X-218.306000 Y-147.045000 Z-0.125000
G01 X-221.191000 Y-148.862000 Z-0.125000
G01 X-221.300000 Y-149.014000 Z-0.125000
G01 X-221.140000 Y-149.095000 Z-0.125000
G01 X-220.517000 Y-148.969000 Z-0.125000
G01 X-217.461000 Y-147.045000 Z-0.125000
G01 X-216.731000 Y-146.850000 Z-0.125000
G01 X-216.496000 Y-146.885000 Z-0.125000
G01 X-216.571000 Y-147.016000 Z-0.125000
G01 X-219.685000 Y-148.977000 Z-0.125000
G01 X-219.767000 Y-149.112000 Z-0.125000
G01 X-219.549000 Y-149.157000 Z-0.125000
G01 X-218.841000 Y-148.977000 Z-0.125000
G01 X-216.571000 Y-147.547000 Z-0.125000
G01 X-216.357000 Y-147.495000 Z-0.125000
G01 X-216.285000 Y-147.633000 Z-0.125000
G01 X-216.571000 Y-148.079000 Z-0.125000
G01 X-217.997000 Y-148.977000 Z-0.125000
G01 X-218.079000 Y-149.112000 Z-0.125000
G01 X-217.860000 Y-149.157000 Z-0.125000
G01 X-217.153000 Y-148.977000 Z-0.125000
G01 X-216.440000 Y-148.528000 Z-0.125000
G01 X-216.324000 Y-148.538000 Z-0.125000
G01 X-216.285000 Y-148.696000 Z-0.125000
G01 X-216.440000 Y-149.059000 Z-0.125000
G01 X-216.594000 Y-149.157000 Z-0.125000
G00 Z5.000000

(End cutting path id: path8607)


(Start cutting path id: path8608)
(Change tool to Default tool)

G00 Z5.000000
G00 X-216.153000 Y-149.289000

G01 Z-0.125000 F100.0(Penetrate)
G01 X-220.764000 Y-149.289000 Z-0.125000 F400.000000
G01 X-221.943000 Y-149.102000 Z-0.125000
G01 X-223.103000 Y-148.493000 Z-0.125000
G01 X-223.998000 Y-147.382000 Z-0.125000
G01 X-224.263000 Y-146.618000 Z-0.125000
G01 X-224.352000 Y-145.701000 Z-0.125000
G01 X-224.352000 Y-138.663000 Z-0.125000
G01 X-221.796000 Y-138.663000 Z-0.125000
G01 X-221.796000 Y-145.701000 Z-0.125000
G01 X-221.730000 Y-146.143000 Z-0.125000
G01 X-221.531000 Y-146.468000 Z-0.125000
G01 X-221.201000 Y-146.667000 Z-0.125000
G01 X-220.744000 Y-146.733000 Z-0.125000
G01 X-216.153000 Y-146.733000 Z-0.125000
G01 X-216.153000 Y-149.289000 Z-0.125000
G00 Z5.000000

(End cutting path id: path8608)


(Start cutting path id: path8609)
(Change tool to Default tool)

G00 Z5.000000
G00 X-204.504000 Y-138.903000

G01 Z-0.125000 F100.0(Penetrate)
G01 X-204.612000 Y-138.971000 Z-0.125000 F400.000000
G01 X-204.906000 Y-139.422000 Z-0.125000
G01 X-204.984000 Y-139.737000 Z-0.125000
G01 X-203.773000 Y-138.975000 Z-0.125000
G01 X-203.066000 Y-138.795000 Z-0.125000
G01 X-202.847000 Y-138.840000 Z-0.125000
G01 X-202.929000 Y-138.975000 Z-0.125000
G01 X-204.834000 Y-140.175000 Z-0.125000
G01 X-205.120000 Y-140.620000 Z-0.125000
G01 X-205.048000 Y-140.758000 Z-0.125000
G01 X-204.834000 Y-140.706000 Z-0.125000
G01 X-202.085000 Y-138.975000 Z-0.125000
G01 X-201.378000 Y-138.795000 Z-0.125000
G01 X-201.159000 Y-138.840000 Z-0.125000
G01 X-201.241000 Y-138.975000 Z-0.125000
G01 X-204.834000 Y-141.238000 Z-0.125000
G01 X-205.120000 Y-141.683000 Z-0.125000
G01 X-205.048000 Y-141.821000 Z-0.125000
G01 X-204.834000 Y-141.769000 Z-0.125000
G01 X-200.397000 Y-138.975000 Z-0.125000
G01 X-199.690000 Y-138.795000 Z-0.125000
G01 X-199.471000 Y-138.840000 Z-0.125000
G01 X-199.553000 Y-138.975000 Z-0.125000
G01 X-204.834000 Y-142.301000 Z-0.125000
G01 X-205.120000 Y-142.746000 Z-0.125000
G01 X-205.048000 Y-142.884000 Z-0.125000
G01 X-204.834000 Y-142.832000 Z-0.125000
G01 X-203.114000 Y-141.749000 Z-0.125000
G01 X-202.900000 Y-141.697000 Z-0.125000
G01 X-202.828000 Y-141.835000 Z-0.125000
G01 X-203.114000 Y-142.280000 Z-0.125000
G01 X-204.834000 Y-143.364000 Z-0.125000
G01 X-205.120000 Y-143.809000 Z-0.125000
G01 X-205.048000 Y-143.947000 Z-0.125000
G01 X-204.834000 Y-143.895000 Z-0.125000
G01 X-203.114000 Y-142.812000 Z-0.125000
G01 X-202.900000 Y-142.760000 Z-0.125000
G01 X-202.828000 Y-142.898000 Z-0.125000
G01 X-203.114000 Y-143.343000 Z-0.125000
G01 X-204.834000 Y-144.427000 Z-0.125000
G01 X-205.120000 Y-144.872000 Z-0.125000
G01 X-205.048000 Y-145.010000 Z-0.125000
G01 X-204.834000 Y-144.958000 Z-0.125000
G01 X-203.114000 Y-143.875000 Z-0.125000
G01 X-202.900000 Y-143.823000 Z-0.125000
G01 X-202.828000 Y-143.961000 Z-0.125000
G01 X-203.114000 Y-144.407000 Z-0.125000
G01 X-204.834000 Y-145.490000 Z-0.125000
G01 X-205.120000 Y-145.936000 Z-0.125000
G01 X-205.048000 Y-146.073000 Z-0.125000
G01 X-204.834000 Y-146.022000 Z-0.125000
G01 X-203.114000 Y-144.938000 Z-0.125000
G01 X-202.900000 Y-144.886000 Z-0.125000
G01 X-202.828000 Y-145.024000 Z-0.125000
G01 X-203.114000 Y-145.470000 Z-0.125000
G01 X-204.834000 Y-146.553000 Z-0.125000
G01 X-205.120000 Y-146.999000 Z-0.125000
G01 X-205.048000 Y-147.136000 Z-0.125000
G01 X-204.834000 Y-147.085000 Z-0.125000
G01 X-203.114000 Y-146.001000 Z-0.125000
G01 X-202.900000 Y-145.949000 Z-0.125000
G01 X-202.828000 Y-146.087000 Z-0.125000
G01 X-203.114000 Y-146.533000 Z-0.125000
G01 X-204.834000 Y-147.616000 Z-0.125000
G01 X-205.120000 Y-148.062000 Z-0.125000
G01 X-205.048000 Y-148.199000 Z-0.125000
G01 X-204.834000 Y-148.148000 Z-0.125000
G01 X-203.114000 Y-147.064000 Z-0.125000
G01 X-202.900000 Y-147.012000 Z-0.125000
G01 X-202.828000 Y-147.150000 Z-0.125000
G01 X-203.114000 Y-147.596000 Z-0.125000
G01 X-204.834000 Y-148.679000 Z-0.125000
G01 X-204.990000 Y-148.861000 Z-0.125000
G01 X-204.934000 Y-149.008000 Z-0.125000
G01 X-204.735000 Y-149.065000 Z-0.125000
G01 X-204.463000 Y-148.977000 Z-0.125000
G01 X-203.114000 Y-148.127000 Z-0.125000
G01 X-202.900000 Y-148.076000 Z-0.125000
G01 X-202.828000 Y-148.213000 Z-0.125000
G01 X-203.114000 Y-148.659000 Z-0.125000
G01 X-203.788000 Y-149.084000 Z-0.125000
G01 X-203.482000 Y-149.157000 Z-0.125000
G01 X-202.944000 Y-149.084000 Z-0.125000
G01 X-202.828000 Y-149.011000 Z-0.125000
G00 Z5.000000

(End cutting path id: path8609)


(Start cutting path id: path8610)
(Change tool to Default tool)

G00 Z5.000000
G00 X-202.061000 Y-141.086000

G01 Z-0.125000 F100.0(Penetrate)
G01 X-198.709000 Y-138.975000 Z-0.125000 F400.000000
G01 X-198.047000 Y-138.824000 Z-0.125000
G01 X-197.860000 Y-138.889000 Z-0.125000
G01 X-197.956000 Y-139.033000 Z-0.125000
G01 X-200.931000 Y-140.906000 Z-0.125000
G01 X-201.013000 Y-141.041000 Z-0.125000
G01 X-200.794000 Y-141.086000 Z-0.125000
G01 X-200.087000 Y-140.906000 Z-0.125000
G01 X-197.298000 Y-139.150000 Z-0.125000
G01 X-196.737000 Y-139.062000 Z-0.125000
G01 X-196.618000 Y-139.170000 Z-0.125000
G01 X-196.746000 Y-139.334000 Z-0.125000
G01 X-199.243000 Y-140.906000 Z-0.125000
G01 X-199.325000 Y-141.041000 Z-0.125000
G01 X-199.106000 Y-141.086000 Z-0.125000
G01 X-198.399000 Y-140.906000 Z-0.125000
G01 X-196.255000 Y-139.556000 Z-0.125000
G01 X-195.974000 Y-139.462000 Z-0.125000
G01 X-195.755000 Y-139.507000 Z-0.125000
G01 X-195.679000 Y-139.642000 Z-0.125000
G01 X-195.826000 Y-139.817000 Z-0.125000
G01 X-197.639000 Y-140.959000 Z-0.125000
G01 X-197.751000 Y-141.112000 Z-0.125000
G01 X-197.598000 Y-141.199000 Z-0.125000
G01 X-196.986000 Y-141.079000 Z-0.125000
G01 X-195.423000 Y-140.095000 Z-0.125000
G01 X-195.160000 Y-140.012000 Z-0.125000
G01 X-194.980000 Y-140.082000 Z-0.125000
G01 X-194.943000 Y-140.241000 Z-0.125000
G01 X-195.108000 Y-140.428000 Z-0.125000
G01 X-196.577000 Y-141.353000 Z-0.125000
G01 X-196.734000 Y-141.535000 Z-0.125000
G01 X-196.678000 Y-141.683000 Z-0.125000
G01 X-196.480000 Y-141.741000 Z-0.125000
G01 X-196.209000 Y-141.653000 Z-0.125000
G01 X-194.793000 Y-140.761000 Z-0.125000
G01 X-194.541000 Y-140.686000 Z-0.125000
G01 X-194.387000 Y-140.771000 Z-0.125000
G01 X-194.375000 Y-140.947000 Z-0.125000
G01 X-194.552000 Y-141.141000 Z-0.125000
G01 X-195.958000 Y-142.026000 Z-0.125000
G01 X-196.142000 Y-142.225000 Z-0.125000
G01 X-196.146000 Y-142.411000 Z-0.125000
G01 X-196.008000 Y-142.507000 Z-0.125000
G01 X-195.764000 Y-142.436000 Z-0.125000
G01 X-194.353000 Y-141.547000 Z-0.125000
G01 X-194.108000 Y-141.476000 Z-0.125000
G01 X-193.968000 Y-141.571000 Z-0.125000
G01 X-193.972000 Y-141.756000 Z-0.125000
G01 X-194.155000 Y-141.954000 Z-0.125000
G01 X-195.670000 Y-142.909000 Z-0.125000
G01 X-195.876000 Y-143.121000 Z-0.125000
G01 X-195.927000 Y-143.336000 Z-0.125000
G01 X-195.836000 Y-143.461000 Z-0.125000
G01 X-195.613000 Y-143.404000 Z-0.125000
G01 X-194.054000 Y-142.422000 Z-0.125000
G01 X-193.829000 Y-142.364000 Z-0.125000
G01 X-193.734000 Y-142.487000 Z-0.125000
G01 X-193.782000 Y-142.700000 Z-0.125000
G01 X-193.986000 Y-142.911000 Z-0.125000
G01 X-195.613000 Y-143.936000 Z-0.125000
G01 X-195.899000 Y-144.381000 Z-0.125000
G01 X-195.827000 Y-144.519000 Z-0.125000
G01 X-195.613000 Y-144.467000 Z-0.125000
G01 X-193.918000 Y-143.399000 Z-0.125000
G01 X-193.700000 Y-143.345000 Z-0.125000
G01 X-193.620000 Y-143.478000 Z-0.125000
G01 X-193.893000 Y-143.915000 Z-0.125000
G01 X-195.613000 Y-144.999000 Z-0.125000
G01 X-195.899000 Y-145.444000 Z-0.125000
G01 X-195.827000 Y-145.582000 Z-0.125000
G01 X-195.613000 Y-145.530000 Z-0.125000
G01 X-193.893000 Y-144.447000 Z-0.125000
G01 X-193.679000 Y-144.395000 Z-0.125000
G01 X-193.607000 Y-144.533000 Z-0.125000
G01 X-193.893000 Y-144.978000 Z-0.125000
G01 X-195.613000 Y-146.062000 Z-0.125000
G01 X-195.899000 Y-146.507000 Z-0.125000
G01 X-195.827000 Y-146.645000 Z-0.125000
G01 X-195.613000 Y-146.593000 Z-0.125000
G01 X-193.893000 Y-145.510000 Z-0.125000
G01 X-193.679000 Y-145.458000 Z-0.125000
G01 X-193.607000 Y-145.596000 Z-0.125000
G01 X-193.893000 Y-146.041000 Z-0.125000
G01 X-195.613000 Y-147.125000 Z-0.125000
G01 X-195.899000 Y-147.570000 Z-0.125000
G01 X-195.827000 Y-147.708000 Z-0.125000
G01 X-195.613000 Y-147.656000 Z-0.125000
G01 X-193.893000 Y-146.573000 Z-0.125000
G01 X-193.679000 Y-146.521000 Z-0.125000
G01 X-193.607000 Y-146.659000 Z-0.125000
G01 X-193.893000 Y-147.104000 Z-0.125000
G01 X-195.613000 Y-148.188000 Z-0.125000
G01 X-195.899000 Y-148.633000 Z-0.125000
G01 X-195.827000 Y-148.771000 Z-0.125000
G01 X-195.613000 Y-148.719000 Z-0.125000
G01 X-193.893000 Y-147.636000 Z-0.125000
G01 X-193.679000 Y-147.584000 Z-0.125000
G01 X-193.607000 Y-147.722000 Z-0.125000
G01 X-193.893000 Y-148.168000 Z-0.125000
G01 X-195.178000 Y-148.977000 Z-0.125000
G01 X-195.260000 Y-149.112000 Z-0.125000
G01 X-195.041000 Y-149.157000 Z-0.125000
G01 X-194.334000 Y-148.977000 Z-0.125000
G01 X-193.691000 Y-148.572000 Z-0.125000
G01 X-193.607000 Y-148.785000 Z-0.125000
G01 X-193.691000 Y-149.104000 Z-0.125000
G01 X-193.775000 Y-149.157000 Z-0.125000
G00 Z5.000000

(End cutting path id: path8610)


(Start cutting path id: path8611)
(Change tool to Default tool)

G00 Z5.000000
G00 X-193.475000 Y-149.289000

G01 Z-0.125000 F100.0(Penetrate)
G01 X-196.031000 Y-149.289000 Z-0.125000 F400.000000
G01 X-196.031000 Y-143.391000 Z-0.125000
G01 X-196.208000 Y-142.496000 Z-0.125000
G01 X-196.670000 Y-141.808000 Z-0.125000
G01 X-197.368000 Y-141.376000 Z-0.125000
G01 X-198.223000 Y-141.218000 Z-0.125000
G01 X-202.696000 Y-141.218000 Z-0.125000
G01 X-202.696000 Y-149.289000 Z-0.125000
G01 X-205.252000 Y-149.289000 Z-0.125000
G01 X-205.252000 Y-139.931000 Z-0.125000
G01 X-205.154000 Y-139.439000 Z-0.125000
G01 X-204.878000 Y-139.036000 Z-0.125000
G01 X-204.465000 Y-138.761000 Z-0.125000
G01 X-203.964000 Y-138.663000 Z-0.125000
G01 X-198.204000 Y-138.663000 Z-0.125000
G01 X-197.191000 Y-138.771000 Z-0.125000
G01 X-196.129000 Y-139.125000 Z-0.125000
G01 X-195.127000 Y-139.734000 Z-0.125000
G01 X-194.281000 Y-140.629000 Z-0.125000
G01 X-193.691000 Y-141.838000 Z-0.125000
G01 X-193.475000 Y-143.391000 Z-0.125000
G01 X-193.475000 Y-149.289000 Z-0.125000
G00 Z5.000000

(End cutting path id: path8611)


(Start cutting path id: path8612)
(Change tool to Default tool)

G00 Z5.000000
G00 X-189.266000 Y-138.795000

G01 Z-0.125000 F100.0(Penetrate)
G01 X-189.808000 Y-139.137000 Z-0.125000 F400.000000
G01 X-190.094000 Y-139.582000 Z-0.125000
G01 X-190.022000 Y-139.720000 Z-0.125000
G01 X-189.808000 Y-139.668000 Z-0.125000
G01 X-188.707000 Y-138.975000 Z-0.125000
G01 X-188.000000 Y-138.795000 Z-0.125000
G01 X-187.781000 Y-138.840000 Z-0.125000
G01 X-187.863000 Y-138.975000 Z-0.125000
G01 X-189.808000 Y-140.200000 Z-0.125000
G01 X-190.094000 Y-140.645000 Z-0.125000
G01 X-190.022000 Y-140.783000 Z-0.125000
G01 X-189.808000 Y-140.731000 Z-0.125000
G01 X-187.019000 Y-138.975000 Z-0.125000
G01 X-186.311000 Y-138.795000 Z-0.125000
G01 X-186.093000 Y-138.840000 Z-0.125000
G01 X-186.175000 Y-138.975000 Z-0.125000
G01 X-189.039000 Y-140.779000 Z-0.125000
G01 X-189.122000 Y-140.914000 Z-0.125000
G01 X-188.903000 Y-140.959000 Z-0.125000
G01 X-188.195000 Y-140.779000 Z-0.125000
G01 X-185.331000 Y-138.975000 Z-0.125000
G01 X-184.667000 Y-138.822000 Z-0.125000
G01 X-184.478000 Y-138.886000 Z-0.125000
G01 X-184.574000 Y-139.030000 Z-0.125000
G01 X-187.351000 Y-140.779000 Z-0.125000
G01 X-187.433000 Y-140.914000 Z-0.125000
G01 X-187.215000 Y-140.959000 Z-0.125000
G01 X-186.507000 Y-140.779000 Z-0.125000
G01 X-183.870000 Y-139.118000 Z-0.125000
G01 X-183.357000 Y-139.060000 Z-0.125000
G01 X-183.271000 Y-139.189000 Z-0.125000
G01 X-183.414000 Y-139.363000 Z-0.125000
G01 X-185.663000 Y-140.779000 Z-0.125000
G01 X-185.745000 Y-140.914000 Z-0.125000
G01 X-185.527000 Y-140.959000 Z-0.125000
G01 X-184.819000 Y-140.779000 Z-0.125000
G01 X-182.958000 Y-139.607000 Z-0.125000
G01 X-182.681000 Y-139.516000 Z-0.125000
G01 X-182.472000 Y-139.566000 Z-0.125000
G01 X-182.405000 Y-139.707000 Z-0.125000
G01 X-182.556000 Y-139.885000 Z-0.125000
G01 X-184.047000 Y-140.824000 Z-0.125000
G01 X-184.185000 Y-140.994000 Z-0.125000
G01 X-184.087000 Y-141.115000 Z-0.125000
G01 X-183.556000 Y-141.046000 Z-0.125000
G01 X-182.229000 Y-140.211000 Z-0.125000
G01 X-181.976000 Y-140.135000 Z-0.125000
G01 X-181.821000 Y-140.219000 Z-0.125000
G01 X-181.808000 Y-140.394000 Z-0.125000
G01 X-181.983000 Y-140.588000 Z-0.125000
G01 X-183.263000 Y-141.394000 Z-0.125000
G01 X-183.457000 Y-141.598000 Z-0.125000
G01 X-183.482000 Y-141.797000 Z-0.125000
G01 X-183.365000 Y-141.906000 Z-0.125000
G01 X-183.130000 Y-141.841000 Z-0.125000
G01 X-181.780000 Y-140.991000 Z-0.125000
G01 X-181.542000 Y-140.924000 Z-0.125000
G01 X-181.417000 Y-141.029000 Z-0.125000
G01 X-181.435000 Y-141.223000 Z-0.125000
G01 X-181.625000 Y-141.425000 Z-0.125000
G01 X-183.104000 Y-142.357000 Z-0.125000
G01 X-183.390000 Y-142.802000 Z-0.125000
G01 X-183.318000 Y-142.940000 Z-0.125000
G01 X-183.104000 Y-142.888000 Z-0.125000
G01 X-181.557000 Y-141.914000 Z-0.125000
G01 X-181.335000 Y-141.857000 Z-0.125000
G01 X-181.247000 Y-141.984000 Z-0.125000
G01 X-181.301000 Y-142.201000 Z-0.125000
G01 X-181.507000 Y-142.414000 Z-0.125000
G01 X-183.104000 Y-143.420000 Z-0.125000
G01 X-183.390000 Y-143.865000 Z-0.125000
G01 X-183.318000 Y-144.003000 Z-0.125000
G01 X-183.104000 Y-143.951000 Z-0.125000
G01 X-181.512000 Y-142.948000 Z-0.125000
G01 X-181.298000 Y-142.897000 Z-0.125000
G01 X-181.226000 Y-143.034000 Z-0.125000
G01 X-181.512000 Y-143.480000 Z-0.125000
G01 X-183.104000 Y-144.483000 Z-0.125000
G01 X-183.390000 Y-144.928000 Z-0.125000
G01 X-183.318000 Y-145.066000 Z-0.125000
G01 X-183.104000 Y-145.014000 Z-0.125000
G01 X-181.512000 Y-144.011000 Z-0.125000
G01 X-181.298000 Y-143.960000 Z-0.125000
G01 X-181.226000 Y-144.097000 Z-0.125000
G01 X-181.512000 Y-144.543000 Z-0.125000
G01 X-183.098000 Y-145.542000 Z-0.125000
G01 X-183.462000 Y-146.037000 Z-0.125000
G01 X-183.445000 Y-146.209000 Z-0.125000
G01 X-183.255000 Y-146.173000 Z-0.125000
G01 X-181.512000 Y-145.075000 Z-0.125000
G01 X-181.298000 Y-145.023000 Z-0.125000
G01 X-181.226000 Y-145.161000 Z-0.125000
G01 X-181.512000 Y-145.606000 Z-0.125000
G01 X-186.864000 Y-148.977000 Z-0.125000
G01 X-186.946000 Y-149.112000 Z-0.125000
G01 X-186.728000 Y-149.157000 Z-0.125000
G01 X-186.020000 Y-148.977000 Z-0.125000
G01 X-181.548000 Y-146.160000 Z-0.125000
G01 X-181.349000 Y-146.118000 Z-0.125000
G01 X-181.310000 Y-146.277000 Z-0.125000
G01 X-181.644000 Y-146.753000 Z-0.125000
G01 X-185.176000 Y-148.977000 Z-0.125000
G01 X-185.258000 Y-149.112000 Z-0.125000
G01 X-185.039000 Y-149.157000 Z-0.125000
G01 X-184.332000 Y-148.977000 Z-0.125000
G01 X-181.902000 Y-147.446000 Z-0.125000
G01 X-181.754000 Y-147.437000 Z-0.125000
G01 X-181.830000 Y-147.667000 Z-0.125000
G01 X-182.329000 Y-148.247000 Z-0.125000
G01 X-183.633000 Y-149.068000 Z-0.125000
G00 Z5.000000

(End cutting path id: path8612)


(Start cutting path id: path8613)
(Change tool to Default tool)

G00 Z5.000000
G00 X-190.007000 Y-142.451000

G01 Z-0.125000 F100.0(Penetrate)
G01 X-191.605000 Y-143.458000 Z-0.125000 F400.000000
G01 X-192.099000 Y-144.034000 Z-0.125000
G01 X-192.171000 Y-144.262000 Z-0.125000
G01 X-192.022000 Y-144.252000 Z-0.125000
G01 X-189.324000 Y-142.553000 Z-0.125000
G01 X-188.617000 Y-142.373000 Z-0.125000
G01 X-188.398000 Y-142.418000 Z-0.125000
G01 X-188.480000 Y-142.553000 Z-0.125000
G01 X-192.212000 Y-144.903000 Z-0.125000
G01 X-192.545000 Y-145.378000 Z-0.125000
G01 X-192.507000 Y-145.537000 Z-0.125000
G01 X-192.308000 Y-145.495000 Z-0.125000
G01 X-187.636000 Y-142.553000 Z-0.125000
G01 X-186.929000 Y-142.373000 Z-0.125000
G01 X-186.710000 Y-142.418000 Z-0.125000
G01 X-186.792000 Y-142.553000 Z-0.125000
G01 X-192.283000 Y-146.010000 Z-0.125000
G01 X-192.487000 Y-146.222000 Z-0.125000
G01 X-192.537000 Y-146.436000 Z-0.125000
G01 X-192.445000 Y-146.561000 Z-0.125000
G01 X-192.221000 Y-146.503000 Z-0.125000
G01 X-190.683000 Y-145.534000 Z-0.125000
G01 X-190.473000 Y-145.486000 Z-0.125000
G01 X-190.413000 Y-145.630000 Z-0.125000
G01 X-190.714000 Y-146.086000 Z-0.125000
G01 X-192.067000 Y-146.938000 Z-0.125000
G01 X-192.248000 Y-147.134000 Z-0.125000
G01 X-192.245000 Y-147.316000 Z-0.125000
G01 X-192.100000 Y-147.407000 Z-0.125000
G01 X-191.852000 Y-147.334000 Z-0.125000
G01 X-190.593000 Y-146.541000 Z-0.125000
G01 X-190.333000 Y-146.460000 Z-0.125000
G01 X-190.161000 Y-146.535000 Z-0.125000
G01 X-190.131000 Y-146.699000 Z-0.125000
G01 X-190.299000 Y-146.888000 Z-0.125000
G01 X-191.569000 Y-147.687000 Z-0.125000
G01 X-191.739000 Y-147.877000 Z-0.125000
G01 X-191.713000 Y-148.043000 Z-0.125000
G01 X-191.544000 Y-148.120000 Z-0.125000
G01 X-191.286000 Y-148.040000 Z-0.125000
G01 X-189.757000 Y-147.077000 Z-0.125000
G01 X-189.117000 Y-146.940000 Z-0.125000
G01 X-188.945000 Y-147.015000 Z-0.125000
G01 X-189.048000 Y-147.163000 Z-0.125000
G01 X-190.915000 Y-148.338000 Z-0.125000
G01 X-191.057000 Y-148.511000 Z-0.125000
G01 X-190.970000 Y-148.639000 Z-0.125000
G01 X-190.455000 Y-148.580000 Z-0.125000
G01 X-188.204000 Y-147.163000 Z-0.125000
G01 X-187.497000 Y-146.983000 Z-0.125000
G01 X-187.278000 Y-147.028000 Z-0.125000
G01 X-187.360000 Y-147.163000 Z-0.125000
G01 X-189.995000 Y-148.822000 Z-0.125000
G01 X-190.100000 Y-148.971000 Z-0.125000
G01 X-189.933000 Y-149.049000 Z-0.125000
G01 X-189.300000 Y-148.916000 Z-0.125000
G01 X-186.516000 Y-147.163000 Z-0.125000
G01 X-185.809000 Y-146.983000 Z-0.125000
G01 X-185.590000 Y-147.028000 Z-0.125000
G01 X-185.672000 Y-147.163000 Z-0.125000
G01 X-188.552000 Y-148.977000 Z-0.125000
G01 X-188.635000 Y-149.112000 Z-0.125000
G01 X-188.416000 Y-149.157000 Z-0.125000
G01 X-187.708000 Y-148.977000 Z-0.125000
G01 X-184.521000 Y-146.969000 Z-0.125000
G00 Z5.000000

(End cutting path id: path8613)


(Start cutting path id: path8614)
(Change tool to Default tool)

G00 Z5.000000
G00 X-185.663000 Y-142.373000

G01 Z-0.125000 F100.0(Penetrate)
G01 X-188.846000 Y-144.378000 Z-0.125000 F400.000000
G01 X-188.926000 Y-144.511000 Z-0.125000
G01 X-188.701000 Y-144.552000 Z-0.125000
G01 X-187.984000 Y-144.367000 Z-0.125000
G01 X-185.031000 Y-142.507000 Z-0.125000
G01 X-184.817000 Y-142.455000 Z-0.125000
G01 X-184.745000 Y-142.593000 Z-0.125000
G01 X-185.031000 Y-143.038000 Z-0.125000
G01 X-187.140000 Y-144.367000 Z-0.125000
G01 X-187.223000 Y-144.502000 Z-0.125000
G01 X-187.004000 Y-144.547000 Z-0.125000
G01 X-186.296000 Y-144.367000 Z-0.125000
G01 X-185.031000 Y-143.570000 Z-0.125000
G01 X-184.817000 Y-143.518000 Z-0.125000
G01 X-184.745000 Y-143.656000 Z-0.125000
G01 X-185.031000 Y-144.101000 Z-0.125000
G01 X-185.663000 Y-144.500000 Z-0.125000
G01 X-185.316000 Y-144.547000 Z-0.125000
G01 X-184.819000 Y-144.500000 Z-0.125000
G01 X-184.745000 Y-144.453000 Z-0.125000
G00 Z5.000000

(End cutting path id: path8614)


(Start cutting path id: path8615)
(Change tool to Default tool)

G00 Z5.000000
G00 X-181.094000 Y-145.770000

G01 Z-0.125000 F100.0(Penetrate)
G01 X-181.281000 Y-146.920000 Z-0.125000 F400.000000
G01 X-181.890000 Y-148.060000 Z-0.125000
G01 X-182.982000 Y-148.935000 Z-0.125000
G01 X-183.724000 Y-149.201000 Z-0.125000
G01 X-184.613000 Y-149.289000 Z-0.125000
G01 X-189.224000 Y-149.289000 Z-0.125000
G01 X-190.374000 Y-149.102000 Z-0.125000
G01 X-191.514000 Y-148.503000 Z-0.125000
G01 X-192.389000 Y-147.412000 Z-0.125000
G01 X-192.654000 Y-146.662000 Z-0.125000
G01 X-192.743000 Y-145.770000 Z-0.125000
G01 X-192.556000 Y-144.620000 Z-0.125000
G01 X-191.957000 Y-143.479000 Z-0.125000
G01 X-190.865000 Y-142.595000 Z-0.125000
G01 X-190.116000 Y-142.329000 Z-0.125000
G01 X-189.224000 Y-142.241000 Z-0.125000
G01 X-184.613000 Y-142.241000 Z-0.125000
G01 X-184.613000 Y-144.679000 Z-0.125000
G01 X-189.224000 Y-144.679000 Z-0.125000
G01 X-189.686000 Y-144.760000 Z-0.125000
G01 X-190.030000 Y-145.003000 Z-0.125000
G01 X-190.244000 Y-145.357000 Z-0.125000
G01 X-190.315000 Y-145.790000 Z-0.125000
G01 X-190.234000 Y-146.237000 Z-0.125000
G01 X-189.991000 Y-146.576000 Z-0.125000
G01 X-189.204000 Y-146.851000 Z-0.125000
G01 X-184.613000 Y-146.851000 Z-0.125000
G01 X-184.151000 Y-146.773000 Z-0.125000
G01 X-183.807000 Y-146.537000 Z-0.125000
G01 X-183.593000 Y-146.183000 Z-0.125000
G01 X-183.522000 Y-145.750000 Z-0.125000
G01 X-183.522000 Y-142.182000 Z-0.125000
G01 X-183.601000 Y-141.732000 Z-0.125000
G01 X-183.837000 Y-141.386000 Z-0.125000
G01 X-184.183000 Y-141.164000 Z-0.125000
G01 X-184.613000 Y-141.091000 Z-0.125000
G01 X-190.226000 Y-141.091000 Z-0.125000
G01 X-190.226000 Y-138.663000 Z-0.125000
G01 X-184.613000 Y-138.663000 Z-0.125000
G01 X-183.473000 Y-138.849000 Z-0.125000
G01 X-182.333000 Y-139.459000 Z-0.125000
G01 X-181.846000 Y-139.938000 Z-0.125000
G01 X-181.448000 Y-140.550000 Z-0.125000
G01 X-181.183000 Y-141.292000 Z-0.125000
G01 X-181.094000 Y-142.182000 Z-0.125000
G01 X-181.094000 Y-145.770000 Z-0.125000
G00 Z5.000000

(End cutting path id: path8615)


(Start cutting path id: path8616)
(Change tool to Default tool)

G00 Z5.000000
G00 X-178.955000 Y-138.895000

G01 Z-0.125000 F100.0(Penetrate)
G01 X-179.093000 Y-138.983000 Z-0.125000 F400.000000
G01 X-179.409000 Y-139.447000 Z-0.125000
G01 X-179.497000 Y-139.685000 Z-0.125000
G01 X-179.448000 Y-139.738000 Z-0.125000
G01 X-178.237000 Y-138.975000 Z-0.125000
G01 X-177.529000 Y-138.795000 Z-0.125000
G01 X-177.311000 Y-138.840000 Z-0.125000
G01 X-177.393000 Y-138.975000 Z-0.125000
G01 X-179.325000 Y-140.192000 Z-0.125000
G01 X-179.611000 Y-140.637000 Z-0.125000
G01 X-179.539000 Y-140.775000 Z-0.125000
G01 X-179.325000 Y-140.723000 Z-0.125000
G01 X-176.549000 Y-138.975000 Z-0.125000
G01 X-175.841000 Y-138.795000 Z-0.125000
G01 X-175.622000 Y-138.840000 Z-0.125000
G01 X-175.705000 Y-138.975000 Z-0.125000
G01 X-179.325000 Y-141.255000 Z-0.125000
G01 X-179.611000 Y-141.700000 Z-0.125000
G01 X-179.539000 Y-141.838000 Z-0.125000
G01 X-179.325000 Y-141.786000 Z-0.125000
G01 X-174.861000 Y-138.975000 Z-0.125000
G01 X-174.166000 Y-138.803000 Z-0.125000
G01 X-173.956000 Y-138.854000 Z-0.125000
G01 X-174.042000 Y-138.991000 Z-0.125000
G01 X-179.325000 Y-142.318000 Z-0.125000
G01 X-179.611000 Y-142.763000 Z-0.125000
G01 X-179.539000 Y-142.901000 Z-0.125000
G01 X-179.325000 Y-142.849000 Z-0.125000
G01 X-177.605000 Y-141.766000 Z-0.125000
G01 X-177.391000 Y-141.714000 Z-0.125000
G01 X-177.319000 Y-141.852000 Z-0.125000
G01 X-177.605000 Y-142.298000 Z-0.125000
G01 X-179.325000 Y-143.381000 Z-0.125000
G01 X-179.611000 Y-143.827000 Z-0.125000
G01 X-179.539000 Y-143.964000 Z-0.125000
G01 X-179.325000 Y-143.913000 Z-0.125000
G01 X-177.605000 Y-142.829000 Z-0.125000
G01 X-177.391000 Y-142.777000 Z-0.125000
G01 X-177.319000 Y-142.915000 Z-0.125000
G01 X-177.605000 Y-143.361000 Z-0.125000
G01 X-179.325000 Y-144.444000 Z-0.125000
G01 X-179.611000 Y-144.890000 Z-0.125000
G01 X-179.539000 Y-145.027000 Z-0.125000
G01 X-179.325000 Y-144.976000 Z-0.125000
G01 X-177.605000 Y-143.892000 Z-0.125000
G01 X-177.391000 Y-143.840000 Z-0.125000
G01 X-177.319000 Y-143.978000 Z-0.125000
G01 X-177.605000 Y-144.424000 Z-0.125000
G01 X-179.325000 Y-145.507000 Z-0.125000
G01 X-179.611000 Y-145.953000 Z-0.125000
G01 X-179.539000 Y-146.091000 Z-0.125000
G01 X-179.325000 Y-146.039000 Z-0.125000
G01 X-177.605000 Y-144.955000 Z-0.125000
G01 X-177.391000 Y-144.904000 Z-0.125000
G01 X-177.319000 Y-145.041000 Z-0.125000
G01 X-177.605000 Y-145.487000 Z-0.125000
G01 X-179.325000 Y-146.570000 Z-0.125000
G01 X-179.611000 Y-147.016000 Z-0.125000
G01 X-179.539000 Y-147.154000 Z-0.125000
G01 X-179.325000 Y-147.102000 Z-0.125000
G01 X-177.605000 Y-146.018000 Z-0.125000
G01 X-177.391000 Y-145.967000 Z-0.125000
G01 X-177.319000 Y-146.104000 Z-0.125000
G01 X-177.605000 Y-146.550000 Z-0.125000
G01 X-179.325000 Y-147.633000 Z-0.125000
G01 X-179.611000 Y-148.079000 Z-0.125000
G01 X-179.539000 Y-148.217000 Z-0.125000
G01 X-179.325000 Y-148.165000 Z-0.125000
G01 X-177.605000 Y-147.081000 Z-0.125000
G01 X-177.391000 Y-147.030000 Z-0.125000
G01 X-177.319000 Y-147.167000 Z-0.125000
G01 X-177.605000 Y-147.613000 Z-0.125000
G01 X-179.325000 Y-148.696000 Z-0.125000
G01 X-179.477000 Y-148.875000 Z-0.125000
G01 X-179.411000 Y-149.016000 Z-0.125000
G01 X-179.203000 Y-149.068000 Z-0.125000
G01 X-178.926000 Y-148.977000 Z-0.125000
G01 X-177.605000 Y-148.145000 Z-0.125000
G01 X-177.391000 Y-148.093000 Z-0.125000
G01 X-177.319000 Y-148.231000 Z-0.125000
G01 X-177.605000 Y-148.676000 Z-0.125000
G01 X-178.265000 Y-149.092000 Z-0.125000
G01 X-177.945000 Y-149.156000 Z-0.125000
G01 X-177.421000 Y-149.092000 Z-0.125000
G01 X-177.319000 Y-149.028000 Z-0.125000
G00 Z5.000000

(End cutting path id: path8616)


(Start cutting path id: path8617)
(Change tool to Default tool)

G00 Z5.000000
G00 X-176.524000 Y-141.086000

G01 Z-0.125000 F100.0(Penetrate)
G01 X-173.372000 Y-139.100000 Z-0.125000 F400.000000
G01 X-172.802000 Y-139.007000 Z-0.125000
G01 X-172.678000 Y-139.112000 Z-0.125000
G01 X-172.803000 Y-139.274000 Z-0.125000
G01 X-175.395000 Y-140.906000 Z-0.125000
G01 X-175.477000 Y-141.041000 Z-0.125000
G01 X-175.258000 Y-141.086000 Z-0.125000
G01 X-174.550000 Y-140.906000 Z-0.125000
G01 X-172.054000 Y-139.334000 Z-0.125000
G00 Z5.000000

(End cutting path id: path8617)


(Start cutting path id: path8618)
(Change tool to Default tool)

G00 Z5.000000
G00 X-171.412000 Y-138.929000

G01 Z-0.125000 F100.0(Penetrate)
G01 X-171.305000 Y-138.862000 Z-0.125000 F400.000000
G01 X-170.777000 Y-138.795000 Z-0.125000
G01 X-170.461000 Y-138.862000 Z-0.125000
G01 X-173.706000 Y-140.906000 Z-0.125000
G01 X-173.813000 Y-141.056000 Z-0.125000
G01 X-173.647000 Y-141.134000 Z-0.125000
G01 X-173.016000 Y-141.003000 Z-0.125000
G01 X-169.796000 Y-138.975000 Z-0.125000
G01 X-169.089000 Y-138.795000 Z-0.125000
G01 X-168.870000 Y-138.840000 Z-0.125000
G01 X-168.952000 Y-138.975000 Z-0.125000
G01 X-172.640000 Y-141.298000 Z-0.125000
G01 X-172.824000 Y-141.496000 Z-0.125000
G01 X-172.829000 Y-141.682000 Z-0.125000
G01 X-172.691000 Y-141.778000 Z-0.125000
G01 X-172.447000 Y-141.707000 Z-0.125000
G01 X-168.149000 Y-139.001000 Z-0.125000
G01 X-167.528000 Y-138.875000 Z-0.125000
G01 X-167.369000 Y-138.958000 Z-0.125000
G01 X-167.478000 Y-139.110000 Z-0.125000
G01 X-172.394000 Y-142.206000 Z-0.125000
G01 X-172.680000 Y-142.651000 Z-0.125000
G01 X-172.608000 Y-142.789000 Z-0.125000
G01 X-172.394000 Y-142.737000 Z-0.125000
G01 X-170.764000 Y-141.710000 Z-0.125000
G01 X-170.540000 Y-141.652000 Z-0.125000
G01 X-170.447000 Y-141.777000 Z-0.125000
G01 X-170.497000 Y-141.991000 Z-0.125000
G01 X-170.702000 Y-142.203000 Z-0.125000
G01 X-172.394000 Y-143.269000 Z-0.125000
G01 X-172.680000 Y-143.714000 Z-0.125000
G01 X-172.608000 Y-143.852000 Z-0.125000
G01 X-172.394000 Y-143.800000 Z-0.125000
G01 X-170.674000 Y-142.717000 Z-0.125000
G01 X-170.460000 Y-142.665000 Z-0.125000
G01 X-170.388000 Y-142.803000 Z-0.125000
G01 X-170.674000 Y-143.248000 Z-0.125000
G01 X-172.394000 Y-144.332000 Z-0.125000
G01 X-172.680000 Y-144.777000 Z-0.125000
G01 X-172.608000 Y-144.915000 Z-0.125000
G01 X-172.394000 Y-144.863000 Z-0.125000
G01 X-170.674000 Y-143.780000 Z-0.125000
G01 X-170.460000 Y-143.728000 Z-0.125000
G01 X-170.388000 Y-143.866000 Z-0.125000
G01 X-170.674000 Y-144.311000 Z-0.125000
G01 X-172.394000 Y-145.395000 Z-0.125000
G01 X-172.680000 Y-145.840000 Z-0.125000
G01 X-172.608000 Y-145.978000 Z-0.125000
G01 X-172.394000 Y-145.926000 Z-0.125000
G01 X-170.674000 Y-144.843000 Z-0.125000
G01 X-170.460000 Y-144.791000 Z-0.125000
G01 X-170.388000 Y-144.929000 Z-0.125000
G01 X-170.674000 Y-145.375000 Z-0.125000
G01 X-172.394000 Y-146.458000 Z-0.125000
G01 X-172.680000 Y-146.903000 Z-0.125000
G01 X-172.608000 Y-147.041000 Z-0.125000
G01 X-172.394000 Y-146.990000 Z-0.125000
G01 X-170.674000 Y-145.906000 Z-0.125000
G01 X-170.460000 Y-145.854000 Z-0.125000
G01 X-170.388000 Y-145.992000 Z-0.125000
G01 X-170.674000 Y-146.438000 Z-0.125000
G01 X-172.394000 Y-147.521000 Z-0.125000
G01 X-172.680000 Y-147.967000 Z-0.125000
G01 X-172.608000 Y-148.104000 Z-0.125000
G01 X-172.394000 Y-148.053000 Z-0.125000
G01 X-170.674000 Y-146.969000 Z-0.125000
G01 X-170.460000 Y-146.917000 Z-0.125000
G01 X-170.388000 Y-147.055000 Z-0.125000
G01 X-170.674000 Y-147.501000 Z-0.125000
G01 X-172.394000 Y-148.584000 Z-0.125000
G01 X-172.574000 Y-148.780000 Z-0.125000
G01 X-172.569000 Y-148.960000 Z-0.125000
G01 X-172.422000 Y-149.050000 Z-0.125000
G01 X-172.174000 Y-148.977000 Z-0.125000
G01 X-170.674000 Y-148.032000 Z-0.125000
G01 X-170.460000 Y-147.980000 Z-0.125000
G01 X-170.388000 Y-148.118000 Z-0.125000
G01 X-170.674000 Y-148.564000 Z-0.125000
G01 X-171.424000 Y-149.036000 Z-0.125000
G01 X-171.435000 Y-149.126000 Z-0.125000
G01 X-171.193000 Y-149.156000 Z-0.125000
G01 X-170.580000 Y-149.036000 Z-0.125000
G01 X-170.388000 Y-148.916000 Z-0.125000
G00 Z5.000000

(End cutting path id: path8618)


(Start cutting path id: path8619)
(Change tool to Default tool)

G00 Z5.000000
G00 X-169.773000 Y-141.086000

G01 Z-0.125000 F100.0(Penetrate)
G01 X-166.906000 Y-139.281000 Z-0.125000 F400.000000
G01 X-166.624000 Y-139.187000 Z-0.125000
G01 X-166.405000 Y-139.231000 Z-0.125000
G01 X-166.328000 Y-139.365000 Z-0.125000
G01 X-166.475000 Y-139.541000 Z-0.125000
G01 X-168.643000 Y-140.907000 Z-0.125000
G01 X-168.726000 Y-141.042000 Z-0.125000
G01 X-168.507000 Y-141.086000 Z-0.125000
G01 X-167.799000 Y-140.907000 Z-0.125000
G01 X-166.065000 Y-139.814000 Z-0.125000
G01 X-165.802000 Y-139.732000 Z-0.125000
G01 X-165.622000 Y-139.801000 Z-0.125000
G01 X-165.585000 Y-139.961000 Z-0.125000
G01 X-165.750000 Y-140.148000 Z-0.125000
G01 X-167.184000 Y-141.051000 Z-0.125000
G01 X-167.345000 Y-141.235000 Z-0.125000
G01 X-167.297000 Y-141.388000 Z-0.125000
G01 X-167.108000 Y-141.451000 Z-0.125000
G01 X-166.840000 Y-141.365000 Z-0.125000
G01 X-165.464000 Y-140.499000 Z-0.125000
G01 X-165.219000 Y-140.428000 Z-0.125000
G01 X-165.080000 Y-140.523000 Z-0.125000
G01 X-165.084000 Y-140.708000 Z-0.125000
G01 X-165.267000 Y-140.907000 Z-0.125000
G01 X-166.681000 Y-141.797000 Z-0.125000
G01 X-166.948000 Y-142.231000 Z-0.125000
G01 X-166.864000 Y-142.361000 Z-0.125000
G01 X-166.644000 Y-142.305000 Z-0.125000
G01 X-165.081000 Y-141.321000 Z-0.125000
G01 X-164.856000 Y-141.262000 Z-0.125000
G01 X-164.761000 Y-141.385000 Z-0.125000
G01 X-164.808000 Y-141.598000 Z-0.125000
G01 X-165.012000 Y-141.809000 Z-0.125000
G01 X-166.644000 Y-142.837000 Z-0.125000
G01 X-166.930000 Y-143.283000 Z-0.125000
G01 X-166.858000 Y-143.420000 Z-0.125000
G01 X-166.644000 Y-143.369000 Z-0.125000
G01 X-164.942000 Y-142.297000 Z-0.125000
G01 X-164.725000 Y-142.243000 Z-0.125000
G01 X-164.648000 Y-142.377000 Z-0.125000
G01 X-164.924000 Y-142.817000 Z-0.125000
G01 X-166.644000 Y-143.900000 Z-0.125000
G01 X-166.930000 Y-144.346000 Z-0.125000
G01 X-166.858000 Y-144.483000 Z-0.125000
G01 X-166.644000 Y-144.432000 Z-0.125000
G01 X-164.924000 Y-143.348000 Z-0.125000
G01 X-164.710000 Y-143.296000 Z-0.125000
G01 X-164.638000 Y-143.434000 Z-0.125000
G01 X-164.924000 Y-143.880000 Z-0.125000
G01 X-166.644000 Y-144.963000 Z-0.125000
G01 X-166.930000 Y-145.409000 Z-0.125000
G01 X-166.858000 Y-145.546000 Z-0.125000
G01 X-166.644000 Y-145.495000 Z-0.125000
G01 X-164.924000 Y-144.411000 Z-0.125000
G01 X-164.710000 Y-144.359000 Z-0.125000
G01 X-164.638000 Y-144.497000 Z-0.125000
G01 X-164.924000 Y-144.943000 Z-0.125000
G01 X-166.644000 Y-146.026000 Z-0.125000
G01 X-166.930000 Y-146.472000 Z-0.125000
G01 X-166.858000 Y-146.610000 Z-0.125000
G01 X-166.644000 Y-146.558000 Z-0.125000
G01 X-164.924000 Y-145.474000 Z-0.125000
G01 X-164.710000 Y-145.423000 Z-0.125000
G01 X-164.638000 Y-145.560000 Z-0.125000
G01 X-164.924000 Y-146.006000 Z-0.125000
G01 X-166.644000 Y-147.089000 Z-0.125000
G01 X-166.930000 Y-147.535000 Z-0.125000
G01 X-166.858000 Y-147.673000 Z-0.125000
G01 X-166.644000 Y-147.621000 Z-0.125000
G01 X-164.924000 Y-146.537000 Z-0.125000
G01 X-164.710000 Y-146.486000 Z-0.125000
G01 X-164.638000 Y-146.623000 Z-0.125000
G01 X-164.924000 Y-147.069000 Z-0.125000
G01 X-166.644000 Y-148.152000 Z-0.125000
G01 X-166.930000 Y-148.598000 Z-0.125000
G01 X-166.858000 Y-148.736000 Z-0.125000
G01 X-166.644000 Y-148.684000 Z-0.125000
G01 X-164.924000 Y-147.601000 Z-0.125000
G01 X-164.710000 Y-147.549000 Z-0.125000
G01 X-164.638000 Y-147.687000 Z-0.125000
G01 X-164.924000 Y-148.132000 Z-0.125000
G01 X-166.265000 Y-148.977000 Z-0.125000
G01 X-166.347000 Y-149.112000 Z-0.125000
G01 X-166.128000 Y-149.156000 Z-0.125000
G01 X-165.421000 Y-148.977000 Z-0.125000
G01 X-164.750000 Y-148.554000 Z-0.125000
G01 X-164.638000 Y-148.750000 Z-0.125000
G01 X-164.750000 Y-149.086000 Z-0.125000
G01 X-164.862000 Y-149.156000 Z-0.125000
G00 Z5.000000

(End cutting path id: path8619)


(Start cutting path id: path8620)
(Change tool to Default tool)

G00 Z5.000000
G00 X-170.256000 Y-149.289000

G01 Z-0.125000 F100.0(Penetrate)
G01 X-172.812000 Y-149.289000 Z-0.125000 F400.000000
G01 X-172.812000 Y-142.241000 Z-0.125000
G01 X-172.879000 Y-141.801000 Z-0.125000
G01 X-173.078000 Y-141.484000 Z-0.125000
G01 X-173.407000 Y-141.285000 Z-0.125000
G01 X-173.864000 Y-141.218000 Z-0.125000
G01 X-177.187000 Y-141.218000 Z-0.125000
G01 X-177.187000 Y-149.289000 Z-0.125000
G01 X-179.743000 Y-149.289000 Z-0.125000
G01 X-179.743000 Y-139.931000 Z-0.125000
G01 X-179.644000 Y-139.439000 Z-0.125000
G01 X-179.369000 Y-139.036000 Z-0.125000
G01 X-178.956000 Y-138.761000 Z-0.125000
G01 X-178.455000 Y-138.663000 Z-0.125000
G01 X-173.844000 Y-138.663000 Z-0.125000
G01 X-172.704000 Y-138.849000 Z-0.125000
G01 X-171.544000 Y-139.449000 Z-0.125000
G01 X-171.544000 Y-138.663000 Z-0.125000
G01 X-168.084000 Y-138.663000 Z-0.125000
G01 X-167.317000 Y-138.751000 Z-0.125000
G01 X-166.521000 Y-139.007000 Z-0.125000
G01 X-165.754000 Y-139.469000 Z-0.125000
G01 X-165.115000 Y-140.147000 Z-0.125000
G01 X-164.673000 Y-141.061000 Z-0.125000
G01 X-164.506000 Y-142.241000 Z-0.125000
G01 X-164.506000 Y-149.289000 Z-0.125000
G01 X-167.062000 Y-149.289000 Z-0.125000
G01 X-167.062000 Y-142.241000 Z-0.125000
G01 X-167.125000 Y-141.801000 Z-0.125000
G01 X-167.317000 Y-141.484000 Z-0.125000
G01 X-167.632000 Y-141.285000 Z-0.125000
G01 X-168.084000 Y-141.219000 Z-0.125000
G01 X-170.384000 Y-141.219000 Z-0.125000
G01 X-170.256000 Y-142.241000 Z-0.125000
G01 X-170.256000 Y-149.289000 Z-0.125000
G00 Z5.000000

(End cutting path id: path8620)


(Start cutting path id: path8621)
(Change tool to Default tool)

G00 Z5.000000
G00 X-160.674000 Y-138.861000

G01 Z-0.125000 F100.0(Penetrate)
G01 X-161.983000 Y-139.685000 Z-0.125000 F400.000000
G01 X-162.462000 Y-140.252000 Z-0.125000
G01 X-162.524000 Y-140.474000 Z-0.125000
G01 X-162.370000 Y-140.460000 Z-0.125000
G01 X-160.011000 Y-138.975000 Z-0.125000
G01 X-159.304000 Y-138.795000 Z-0.125000
G01 X-159.085000 Y-138.840000 Z-0.125000
G01 X-159.167000 Y-138.975000 Z-0.125000
G01 X-162.646000 Y-141.166000 Z-0.125000
G01 X-162.980000 Y-141.642000 Z-0.125000
G01 X-162.942000 Y-141.801000 Z-0.125000
G01 X-162.743000 Y-141.758000 Z-0.125000
G01 X-158.323000 Y-138.975000 Z-0.125000
G01 X-157.616000 Y-138.795000 Z-0.125000
G01 X-157.397000 Y-138.840000 Z-0.125000
G01 X-157.479000 Y-138.975000 Z-0.125000
G01 X-162.785000 Y-142.316000 Z-0.125000
G01 X-163.071000 Y-142.762000 Z-0.125000
G01 X-162.999000 Y-142.900000 Z-0.125000
G01 X-162.785000 Y-142.848000 Z-0.125000
G01 X-160.893000 Y-141.656000 Z-0.125000
G01 X-160.726000 Y-141.634000 Z-0.125000
G01 X-160.758000 Y-141.837000 Z-0.125000
G01 X-161.194000 Y-142.377000 Z-0.125000
G01 X-162.785000 Y-143.379000 Z-0.125000
G01 X-163.071000 Y-143.825000 Z-0.125000
G01 X-162.999000 Y-143.963000 Z-0.125000
G01 X-162.785000 Y-143.911000 Z-0.125000
G01 X-161.193000 Y-142.908000 Z-0.125000
G01 X-160.978000 Y-142.856000 Z-0.125000
G01 X-160.907000 Y-142.994000 Z-0.125000
G01 X-161.193000 Y-143.440000 Z-0.125000
G01 X-162.785000 Y-144.442000 Z-0.125000
G01 X-163.071000 Y-144.888000 Z-0.125000
G01 X-162.999000 Y-145.026000 Z-0.125000
G01 X-162.785000 Y-144.974000 Z-0.125000
G01 X-161.193000 Y-143.971000 Z-0.125000
G01 X-160.978000 Y-143.919000 Z-0.125000
G01 X-160.907000 Y-144.057000 Z-0.125000
G01 X-161.193000 Y-144.503000 Z-0.125000
G01 X-162.785000 Y-145.506000 Z-0.125000
G01 X-163.049000 Y-145.938000 Z-0.125000
G01 X-162.964000 Y-146.066000 Z-0.125000
G01 X-162.743000 Y-146.011000 Z-0.125000
G01 X-161.193000 Y-145.034000 Z-0.125000
G01 X-160.979000 Y-144.982000 Z-0.125000
G01 X-160.907000 Y-145.120000 Z-0.125000
G01 X-161.193000 Y-145.566000 Z-0.125000
G01 X-162.681000 Y-146.503000 Z-0.125000
G01 X-162.871000 Y-146.706000 Z-0.125000
G01 X-162.890000 Y-146.900000 Z-0.125000
G01 X-162.766000 Y-147.005000 Z-0.125000
G01 X-162.527000 Y-146.938000 Z-0.125000
G01 X-161.172000 Y-146.084000 Z-0.125000
G01 X-160.938000 Y-146.020000 Z-0.125000
G01 X-160.825000 Y-146.132000 Z-0.125000
G01 X-160.855000 Y-146.333000 Z-0.125000
G01 X-161.050000 Y-146.539000 Z-0.125000
G01 X-162.312000 Y-147.334000 Z-0.125000
G01 X-162.482000 Y-147.524000 Z-0.125000
G01 X-162.456000 Y-147.690000 Z-0.125000
G01 X-162.287000 Y-147.767000 Z-0.125000
G01 X-162.029000 Y-147.687000 Z-0.125000
G01 X-160.763000 Y-146.890000 Z-0.125000
G01 X-160.232000 Y-146.821000 Z-0.125000
G01 X-160.134000 Y-146.942000 Z-0.125000
G01 X-160.272000 Y-147.112000 Z-0.125000
G01 X-161.746000 Y-148.040000 Z-0.125000
G01 X-161.902000 Y-148.222000 Z-0.125000
G01 X-161.846000 Y-148.369000 Z-0.125000
G01 X-161.647000 Y-148.427000 Z-0.125000
G01 X-161.375000 Y-148.338000 Z-0.125000
G01 X-159.508000 Y-147.163000 Z-0.125000
G01 X-158.801000 Y-146.983000 Z-0.125000
G01 X-158.582000 Y-147.028000 Z-0.125000
G01 X-158.664000 Y-147.163000 Z-0.125000
G01 X-160.915000 Y-148.580000 Z-0.125000
G01 X-161.057000 Y-148.753000 Z-0.125000
G01 X-160.970000 Y-148.881000 Z-0.125000
G01 X-160.455000 Y-148.822000 Z-0.125000
G01 X-157.820000 Y-147.163000 Z-0.125000
G01 X-157.113000 Y-146.983000 Z-0.125000
G01 X-156.894000 Y-147.028000 Z-0.125000
G01 X-156.976000 Y-147.163000 Z-0.125000
G01 X-159.760000 Y-148.916000 Z-0.125000
G01 X-159.857000 Y-149.060000 Z-0.125000
G01 X-159.672000 Y-149.126000 Z-0.125000
G01 X-159.012000 Y-148.977000 Z-0.125000
G01 X-156.132000 Y-147.163000 Z-0.125000
G01 X-155.526000 Y-147.047000 Z-0.125000
G01 X-155.378000 Y-147.136000 Z-0.125000
G01 X-155.492000 Y-147.291000 Z-0.125000
G01 X-158.168000 Y-148.977000 Z-0.125000
G01 X-158.250000 Y-149.112000 Z-0.125000
G01 X-158.032000 Y-149.156000 Z-0.125000
G01 X-157.324000 Y-148.977000 Z-0.125000
G01 X-155.492000 Y-147.823000 Z-0.125000
G01 X-155.278000 Y-147.771000 Z-0.125000
G01 X-155.206000 Y-147.909000 Z-0.125000
G01 X-155.492000 Y-148.354000 Z-0.125000
G01 X-156.480000 Y-148.977000 Z-0.125000
G01 X-156.562000 Y-149.112000 Z-0.125000
G01 X-156.343000 Y-149.156000 Z-0.125000
G01 X-155.636000 Y-148.977000 Z-0.125000
G01 X-155.206000 Y-148.706000 Z-0.125000
G00 Z5.000000

(End cutting path id: path8621)


(Start cutting path id: path8622)
(Change tool to Default tool)

G00 Z5.000000
G00 X-159.819000 Y-140.980000

G01 Z-0.125000 F100.0(Penetrate)
G01 X-156.635000 Y-138.975000 Z-0.125000 F400.000000
G01 X-155.927000 Y-138.795000 Z-0.125000
G01 X-155.709000 Y-138.840000 Z-0.125000
G01 X-155.791000 Y-138.975000 Z-0.125000
G01 X-158.655000 Y-140.779000 Z-0.125000
G01 X-158.738000 Y-140.914000 Z-0.125000
G01 X-158.519000 Y-140.959000 Z-0.125000
G01 X-157.811000 Y-140.779000 Z-0.125000
G01 X-155.034000 Y-139.030000 Z-0.125000
G01 X-154.396000 Y-138.894000 Z-0.125000
G01 X-154.226000 Y-138.969000 Z-0.125000
G01 X-154.330000 Y-139.118000 Z-0.125000
G01 X-156.967000 Y-140.779000 Z-0.125000
G01 X-157.049000 Y-140.914000 Z-0.125000
G01 X-156.831000 Y-140.958000 Z-0.125000
G01 X-156.123000 Y-140.779000 Z-0.125000
G01 X-153.874000 Y-139.363000 Z-0.125000
G01 X-153.361000 Y-139.305000 Z-0.125000
G01 X-153.275000 Y-139.434000 Z-0.125000
G01 X-153.418000 Y-139.607000 Z-0.125000
G01 X-155.279000 Y-140.779000 Z-0.125000
G01 X-155.373000 Y-140.921000 Z-0.125000
G01 X-155.179000 Y-140.981000 Z-0.125000
G01 X-154.508000 Y-140.825000 Z-0.125000
G01 X-153.016000 Y-139.885000 Z-0.125000
G01 X-152.751000 Y-139.801000 Z-0.125000
G01 X-152.567000 Y-139.868000 Z-0.125000
G01 X-152.526000 Y-140.025000 Z-0.125000
G01 X-152.689000 Y-140.211000 Z-0.125000
G01 X-154.014000 Y-141.045000 Z-0.125000
G01 X-154.182000 Y-141.234000 Z-0.125000
G01 X-154.152000 Y-141.398000 Z-0.125000
G01 X-153.979000 Y-141.472000 Z-0.125000
G01 X-153.719000 Y-141.391000 Z-0.125000
G01 X-152.443000 Y-140.588000 Z-0.125000
G01 X-152.198000 Y-140.516000 Z-0.125000
G01 X-152.056000 Y-140.610000 Z-0.125000
G01 X-152.058000 Y-140.793000 Z-0.125000
G01 X-152.240000 Y-140.991000 Z-0.125000
G01 X-153.588000 Y-141.840000 Z-0.125000
G01 X-153.886000 Y-142.294000 Z-0.125000
G01 X-153.824000 Y-142.437000 Z-0.125000
G01 X-153.614000 Y-142.388000 Z-0.125000
G01 X-152.085000 Y-141.425000 Z-0.125000
G01 X-151.861000 Y-141.367000 Z-0.125000
G01 X-151.766000 Y-141.490000 Z-0.125000
G01 X-151.814000 Y-141.703000 Z-0.125000
G01 X-152.017000 Y-141.914000 Z-0.125000
G01 X-157.535000 Y-145.389000 Z-0.125000
G01 X-157.617000 Y-145.524000 Z-0.125000
G01 X-157.398000 Y-145.568000 Z-0.125000
G01 X-156.691000 Y-145.389000 Z-0.125000
G01 X-151.967000 Y-142.414000 Z-0.125000
G01 X-151.771000 Y-142.373000 Z-0.125000
G01 X-151.738000 Y-142.535000 Z-0.125000
G01 X-152.080000 Y-143.017000 Z-0.125000
G01 X-155.847000 Y-145.389000 Z-0.125000
G01 X-155.929000 Y-145.524000 Z-0.125000
G01 X-155.710000 Y-145.568000 Z-0.125000
G01 X-155.003000 Y-145.389000 Z-0.125000
G01 X-152.255000 Y-143.658000 Z-0.125000
G01 X-152.108000 Y-143.649000 Z-0.125000
G01 X-152.184000 Y-143.879000 Z-0.125000
G01 X-152.684000 Y-144.460000 Z-0.125000
G01 X-154.326000 Y-145.494000 Z-0.125000
G00 Z5.000000

(End cutting path id: path8622)


(Start cutting path id: path8623)
(Change tool to Default tool)

G00 Z5.000000
G00 X-159.450000 Y-143.405000

G01 Z-0.125000 F100.0(Penetrate)
G01 X-159.501000 Y-143.437000 Z-0.125000 F400.000000
G01 X-159.501000 Y-143.969000 Z-0.125000
G01 X-158.891000 Y-143.585000 Z-0.125000
G01 X-158.183000 Y-143.405000 Z-0.125000
G01 X-157.965000 Y-143.450000 Z-0.125000
G01 X-158.047000 Y-143.585000 Z-0.125000
G01 X-159.266000 Y-144.353000 Z-0.125000
G01 X-159.552000 Y-144.798000 Z-0.125000
G01 X-159.480000 Y-144.936000 Z-0.125000
G01 X-159.266000 Y-144.884000 Z-0.125000
G01 X-157.203000 Y-143.585000 Z-0.125000
G01 X-156.495000 Y-143.405000 Z-0.125000
G01 X-156.276000 Y-143.450000 Z-0.125000
G01 X-156.359000 Y-143.585000 Z-0.125000
G01 X-159.266000 Y-145.416000 Z-0.125000
G01 X-159.342000 Y-145.546000 Z-0.125000
G01 X-159.108000 Y-145.582000 Z-0.125000
G01 X-158.379000 Y-145.389000 Z-0.125000
G01 X-155.175000 Y-143.371000 Z-0.125000
G00 Z5.000000

(End cutting path id: path8623)


(Start cutting path id: path8624)
(Change tool to Default tool)

G00 Z5.000000
G00 X-151.554000 Y-142.182000

G01 Z-0.125000 F100.0(Penetrate)
G01 X-151.741000 Y-143.332000 Z-0.125000 F400.000000
G01 X-152.351000 Y-144.472000 Z-0.125000
G01 X-153.442000 Y-145.347000 Z-0.125000
G01 X-154.184000 Y-145.613000 Z-0.125000
G01 X-155.074000 Y-145.701000 Z-0.125000
G01 X-159.684000 Y-145.701000 Z-0.125000
G01 X-159.684000 Y-143.273000 Z-0.125000
G01 X-155.074000 Y-143.273000 Z-0.125000
G01 X-154.612000 Y-143.194000 Z-0.125000
G01 X-154.268000 Y-142.958000 Z-0.125000
G01 X-154.054000 Y-142.597000 Z-0.125000
G01 X-153.982000 Y-142.162000 Z-0.125000
G01 X-154.064000 Y-141.715000 Z-0.125000
G01 X-154.307000 Y-141.376000 Z-0.125000
G01 X-154.656000 Y-141.162000 Z-0.125000
G01 X-155.074000 Y-141.091000 Z-0.125000
G01 X-159.684000 Y-141.091000 Z-0.125000
G01 X-160.146000 Y-141.172000 Z-0.125000
G01 X-160.490000 Y-141.415000 Z-0.125000
G01 X-160.704000 Y-141.769000 Z-0.125000
G01 X-160.775000 Y-142.202000 Z-0.125000
G01 X-160.775000 Y-145.770000 Z-0.125000
G01 X-160.697000 Y-146.225000 Z-0.125000
G01 X-160.461000 Y-146.566000 Z-0.125000
G01 X-160.099000 Y-146.780000 Z-0.125000
G01 X-159.664000 Y-146.851000 Z-0.125000
G01 X-155.074000 Y-146.851000 Z-0.125000
G01 X-155.074000 Y-149.289000 Z-0.125000
G01 X-159.684000 Y-149.289000 Z-0.125000
G01 X-160.834000 Y-149.102000 Z-0.125000
G01 X-161.974000 Y-148.503000 Z-0.125000
G01 X-162.849000 Y-147.412000 Z-0.125000
G01 X-163.115000 Y-146.662000 Z-0.125000
G01 X-163.203000 Y-145.770000 Z-0.125000
G01 X-163.203000 Y-142.182000 Z-0.125000
G01 X-163.016000 Y-141.042000 Z-0.125000
G01 X-162.417000 Y-139.901000 Z-0.125000
G01 X-161.326000 Y-139.017000 Z-0.125000
G01 X-160.576000 Y-138.751000 Z-0.125000
G01 X-159.684000 Y-138.663000 Z-0.125000
G01 X-155.074000 Y-138.663000 Z-0.125000
G01 X-153.933000 Y-138.849000 Z-0.125000
G01 X-152.793000 Y-139.459000 Z-0.125000
G01 X-152.306000 Y-139.938000 Z-0.125000
G01 X-151.908000 Y-140.550000 Z-0.125000
G01 X-151.643000 Y-141.292000 Z-0.125000
G01 X-151.554000 Y-142.182000 Z-0.125000
G01 X-151.554000 Y-142.182000 Z-0.125000
G00 Z5.000000

(End cutting path id: path8624)


(Start cutting path id: path8625)
(Change tool to Default tool)

G00 Z5.000000
G00 X-144.395000 Y-134.302000

G01 Z-0.125000 F100.0(Penetrate)
G01 X-144.586000 Y-134.422000 Z-0.125000 F400.000000
G01 X-144.777000 Y-134.808000 Z-0.125000
G01 X-144.729000 Y-134.961000 Z-0.125000
G01 X-144.586000 Y-134.954000 Z-0.125000
G01 X-143.837000 Y-134.482000 Z-0.125000
G01 X-143.129000 Y-134.302000 Z-0.125000
G01 X-142.910000 Y-134.347000 Z-0.125000
G01 X-142.992000 Y-134.482000 Z-0.125000
G01 X-144.491000 Y-135.426000 Z-0.125000
G01 X-144.777000 Y-135.871000 Z-0.125000
G01 X-144.705000 Y-136.009000 Z-0.125000
G01 X-144.491000 Y-135.957000 Z-0.125000
G01 X-142.772000 Y-134.874000 Z-0.125000
G01 X-142.558000 Y-134.823000 Z-0.125000
G01 X-142.486000 Y-134.960000 Z-0.125000
G01 X-142.772000 Y-135.406000 Z-0.125000
G01 X-143.981000 Y-136.168000 Z-0.125000
G01 X-144.064000 Y-136.303000 Z-0.125000
G01 X-143.845000 Y-136.347000 Z-0.125000
G01 X-143.137000 Y-136.168000 Z-0.125000
G01 X-142.486000 Y-135.758000 Z-0.125000
G00 Z5.000000

(End cutting path id: path8625)


(Start cutting path id: path8626)
(Change tool to Default tool)

G00 Z5.000000
G00 X-142.354000 Y-136.480000

G01 Z-0.125000 F100.0(Penetrate)
G01 X-144.909000 Y-136.480000 Z-0.125000 F400.000000
G01 X-144.909000 Y-134.170000 Z-0.125000
G01 X-142.354000 Y-134.170000 Z-0.125000
G01 X-142.354000 Y-136.480000 Z-0.125000
G00 Z5.000000

(End cutting path id: path8626)


(Start cutting path id: path8627)
(Change tool to Default tool)

G00 Z5.000000
G00 X-143.971000 Y-138.795000

G01 Z-0.125000 F100.0(Penetrate)
G01 X-144.491000 Y-139.123000 Z-0.125000 F400.000000
G01 X-144.777000 Y-139.568000 Z-0.125000
G01 X-144.705000 Y-139.706000 Z-0.125000
G01 X-144.491000 Y-139.654000 Z-0.125000
G01 X-143.412000 Y-138.975000 Z-0.125000
G01 X-142.807000 Y-138.859000 Z-0.125000
G01 X-142.658000 Y-138.948000 Z-0.125000
G01 X-142.772000 Y-139.103000 Z-0.125000
G01 X-144.491000 Y-140.186000 Z-0.125000
G01 X-144.777000 Y-140.631000 Z-0.125000
G01 X-144.705000 Y-140.769000 Z-0.125000
G01 X-144.491000 Y-140.717000 Z-0.125000
G01 X-142.772000 Y-139.634000 Z-0.125000
G01 X-142.558000 Y-139.583000 Z-0.125000
G01 X-142.486000 Y-139.720000 Z-0.125000
G01 X-142.772000 Y-140.166000 Z-0.125000
G01 X-144.491000 Y-141.249000 Z-0.125000
G01 X-144.777000 Y-141.694000 Z-0.125000
G01 X-144.705000 Y-141.832000 Z-0.125000
G01 X-144.491000 Y-141.780000 Z-0.125000
G01 X-142.772000 Y-140.698000 Z-0.125000
G01 X-142.558000 Y-140.646000 Z-0.125000
G01 X-142.486000 Y-140.784000 Z-0.125000
G01 X-142.772000 Y-141.229000 Z-0.125000
G01 X-144.491000 Y-142.312000 Z-0.125000
G01 X-144.777000 Y-142.757000 Z-0.125000
G01 X-144.705000 Y-142.895000 Z-0.125000
G01 X-144.491000 Y-142.843000 Z-0.125000
G01 X-142.772000 Y-141.761000 Z-0.125000
G01 X-142.558000 Y-141.709000 Z-0.125000
G01 X-142.486000 Y-141.847000 Z-0.125000
G01 X-142.772000 Y-142.292000 Z-0.125000
G01 X-144.491000 Y-143.375000 Z-0.125000
G01 X-144.777000 Y-143.821000 Z-0.125000
G01 X-144.705000 Y-143.958000 Z-0.125000
G01 X-144.491000 Y-143.907000 Z-0.125000
G01 X-142.772000 Y-142.824000 Z-0.125000
G01 X-142.558000 Y-142.772000 Z-0.125000
G01 X-142.486000 Y-142.910000 Z-0.125000
G01 X-142.772000 Y-143.355000 Z-0.125000
G01 X-144.491000 Y-144.438000 Z-0.125000
G01 X-144.777000 Y-144.884000 Z-0.125000
G01 X-144.705000 Y-145.021000 Z-0.125000
G01 X-144.491000 Y-144.970000 Z-0.125000
G01 X-142.772000 Y-143.887000 Z-0.125000
G01 X-142.558000 Y-143.835000 Z-0.125000
G01 X-142.486000 Y-143.973000 Z-0.125000
G01 X-142.772000 Y-144.418000 Z-0.125000
G01 X-144.491000 Y-145.501000 Z-0.125000
G01 X-144.777000 Y-145.947000 Z-0.125000
G01 X-144.705000 Y-146.084000 Z-0.125000
G01 X-144.491000 Y-146.033000 Z-0.125000
G01 X-142.772000 Y-144.950000 Z-0.125000
G01 X-142.558000 Y-144.898000 Z-0.125000
G01 X-142.486000 Y-145.036000 Z-0.125000
G01 X-142.772000 Y-145.481000 Z-0.125000
G01 X-144.491000 Y-146.564000 Z-0.125000
G01 X-144.777000 Y-147.010000 Z-0.125000
G01 X-144.705000 Y-147.148000 Z-0.125000
G01 X-144.491000 Y-147.096000 Z-0.125000
G01 X-142.772000 Y-146.013000 Z-0.125000
G01 X-142.558000 Y-145.961000 Z-0.125000
G01 X-142.486000 Y-146.099000 Z-0.125000
G01 X-142.772000 Y-146.545000 Z-0.125000
G01 X-144.491000 Y-147.627000 Z-0.125000
G01 X-144.777000 Y-148.073000 Z-0.125000
G01 X-144.705000 Y-148.211000 Z-0.125000
G01 X-144.491000 Y-148.159000 Z-0.125000
G01 X-142.772000 Y-147.076000 Z-0.125000
G01 X-142.558000 Y-147.024000 Z-0.125000
G01 X-142.486000 Y-147.162000 Z-0.125000
G01 X-142.772000 Y-147.608000 Z-0.125000
G01 X-144.491000 Y-148.690000 Z-0.125000
G01 X-144.644000 Y-148.870000 Z-0.125000
G01 X-144.582000 Y-149.013000 Z-0.125000
G01 X-144.377000 Y-149.067000 Z-0.125000
G01 X-144.102000 Y-148.977000 Z-0.125000
G01 X-142.772000 Y-148.139000 Z-0.125000
G01 X-142.558000 Y-148.087000 Z-0.125000
G01 X-142.486000 Y-148.225000 Z-0.125000
G01 X-142.772000 Y-148.671000 Z-0.125000
G01 X-143.437000 Y-149.089000 Z-0.125000
G01 X-143.121000 Y-149.156000 Z-0.125000
G01 X-142.593000 Y-149.089000 Z-0.125000
G01 X-142.486000 Y-149.022000 Z-0.125000
G00 Z5.000000

(End cutting path id: path8627)


(Start cutting path id: path8628)
(Change tool to Default tool)

G00 Z5.000000
G00 X-142.354000 Y-149.289000

G01 Z-0.125000 F100.0(Penetrate)
G01 X-144.909000 Y-149.289000 Z-0.125000 F400.000000
G01 X-144.909000 Y-138.663000 Z-0.125000
G01 X-142.354000 Y-138.663000 Z-0.125000
G01 X-142.354000 Y-149.289000 Z-0.125000
G00 Z5.000000

(End cutting path id: path8628)


(Start cutting path id: path8629)
(Change tool to Default tool)

G00 Z5.000000
G00 X-138.386000 Y-138.858000

G01 Z-0.125000 F100.0(Penetrate)
G01 X-140.363000 Y-140.103000 Z-0.125000 F400.000000
G01 X-140.770000 Y-140.626000 Z-0.125000
G01 X-140.783000 Y-140.816000 Z-0.125000
G01 X-140.607000 Y-140.788000 Z-0.125000
G01 X-137.727000 Y-138.975000 Z-0.125000
G01 X-137.020000 Y-138.795000 Z-0.125000
G01 X-136.801000 Y-138.840000 Z-0.125000
G01 X-136.883000 Y-138.975000 Z-0.125000
G01 X-140.662000 Y-141.354000 Z-0.125000
G01 X-140.931000 Y-141.790000 Z-0.125000
G01 X-140.849000 Y-141.921000 Z-0.125000
G01 X-140.630000 Y-141.866000 Z-0.125000
G01 X-136.039000 Y-138.975000 Z-0.125000
G01 X-135.331000 Y-138.795000 Z-0.125000
G01 X-135.113000 Y-138.840000 Z-0.125000
G01 X-135.195000 Y-138.975000 Z-0.125000
G01 X-140.551000 Y-142.348000 Z-0.125000
G01 X-140.736000 Y-142.547000 Z-0.125000
G01 X-140.744000 Y-142.735000 Z-0.125000
G01 X-140.610000 Y-142.833000 Z-0.125000
G01 X-140.367000 Y-142.763000 Z-0.125000
G01 X-138.963000 Y-141.879000 Z-0.125000
G01 X-138.722000 Y-141.810000 Z-0.125000
G01 X-138.591000 Y-141.911000 Z-0.125000
G01 X-138.602000 Y-142.101000 Z-0.125000
G01 X-138.789000 Y-142.301000 Z-0.125000
G01 X-140.148000 Y-143.157000 Z-0.125000
G01 X-140.316000 Y-143.346000 Z-0.125000
G01 X-140.288000 Y-143.511000 Z-0.125000
G01 X-140.117000 Y-143.586000 Z-0.125000
G01 X-139.858000 Y-143.506000 Z-0.125000
