%
(Header)
(Generated by gcodetools from Inkscape.)
(Using default header. To add your own header create file "header" in the output dir.)
M3
(Header end.)
G21 (All units in mm)

(Start cutting path id: path58168)
(Change tool to Default tool)

G00 Z5.000000
G00 X55.504300 Y-251.831700

G01 Z-0.125000 F100.0(Penetrate)
G01 X54.332800 Y-250.660700 Z-0.125000 F400.000000
G01 X53.617600 Y-249.477700 Z-0.125000
G01 X53.454800 Y-248.992700 Z-0.125000
G01 X53.481900 Y-248.913700 Z-0.125000
G01 X53.604100 Y-248.995700 Z-0.125000
G01 X56.832600 Y-252.224700 Z-0.125000
G01 X57.283100 Y-252.528700 Z-0.125000
G01 X57.783200 Y-252.707700 Z-0.125000
G01 X58.107800 Y-252.710700 Z-0.125000
G01 X58.032100 Y-252.488700 Z-0.125000
G01 X53.406700 Y-247.863700 Z-0.125000
G01 X53.138200 Y-247.448700 Z-0.125000
G01 X53.038600 Y-247.027700 Z-0.125000
G01 X53.114300 Y-246.781700 Z-0.125000
G01 X53.372000 Y-246.892700 Z-0.125000
G01 X59.019900 Y-252.540700 Z-0.125000
G01 X59.429200 Y-252.803700 Z-0.125000
G01 X59.838400 Y-252.891700 Z-0.125000
G01 X60.072300 Y-252.803700 Z-0.125000
G01 X59.955300 Y-252.540700 Z-0.125000
G01 X53.372000 Y-245.957700 Z-0.125000
G01 X53.108900 Y-245.548700 Z-0.125000
G01 X53.021200 Y-245.138700 Z-0.125000
G01 X53.108900 Y-244.905700 Z-0.125000
G01 X53.372000 Y-245.021700 Z-0.125000
G01 X60.890800 Y-252.540700 Z-0.125000
G01 X61.300000 Y-252.803700 Z-0.125000
G01 X61.709300 Y-252.891700 Z-0.125000
G01 X61.943200 Y-252.803700 Z-0.125000
G01 X61.826200 Y-252.540700 Z-0.125000
G01 X53.372000 Y-244.086700 Z-0.125000
G01 X53.108900 Y-243.677700 Z-0.125000
G01 X53.021200 Y-243.267700 Z-0.125000
G01 X53.108900 Y-243.034700 Z-0.125000
G01 X53.372000 Y-243.151700 Z-0.125000
G01 X56.935400 Y-246.714700 Z-0.125000
G01 X57.190600 Y-246.823700 Z-0.125000
G01 X57.260700 Y-246.572700 Z-0.125000
G01 X57.155500 Y-246.145700 Z-0.125000
G01 X56.884400 Y-245.728700 Z-0.125000
G01 X53.372000 Y-242.215700 Z-0.125000
G01 X53.108900 Y-241.806700 Z-0.125000
G01 X53.021200 Y-241.397700 Z-0.125000
G01 X53.108900 Y-241.163700 Z-0.125000
G01 X53.372000 Y-241.280700 Z-0.125000
G01 X56.884400 Y-244.792700 Z-0.125000
G01 X57.147500 Y-244.909700 Z-0.125000
G01 X57.235200 Y-244.675700 Z-0.125000
G01 X57.147500 Y-244.266700 Z-0.125000
G01 X56.884400 Y-243.857700 Z-0.125000
G01 X53.372000 Y-240.344700 Z-0.125000
G01 X53.108900 Y-239.935700 Z-0.125000
G01 X53.021200 Y-239.526700 Z-0.125000
G01 X53.108900 Y-239.292700 Z-0.125000
G01 X53.372000 Y-239.409700 Z-0.125000
G01 X56.884400 Y-242.921700 Z-0.125000
G01 X57.147500 Y-243.038700 Z-0.125000
G01 X57.235200 Y-242.804700 Z-0.125000
G01 X57.147500 Y-242.395700 Z-0.125000
G01 X56.884400 Y-241.986700 Z-0.125000
G01 X53.372000 Y-238.473700 Z-0.125000
G01 X53.108900 Y-238.064700 Z-0.125000
G01 X53.021200 Y-237.655700 Z-0.125000
G01 X53.108900 Y-237.421700 Z-0.125000
G01 X53.372000 Y-237.538700 Z-0.125000
G01 X56.884400 Y-241.050700 Z-0.125000
G01 X57.147500 Y-241.167700 Z-0.125000
G01 X57.235200 Y-240.933700 Z-0.125000
G01 X57.147500 Y-240.524700 Z-0.125000
G01 X56.884400 Y-240.115700 Z-0.125000
G01 X53.372000 Y-236.602700 Z-0.125000
G01 X53.108900 Y-236.193700 Z-0.125000
G01 X53.021200 Y-235.784700 Z-0.125000
G01 X53.108900 Y-235.550700 Z-0.125000
G01 X53.372000 Y-235.667700 Z-0.125000
G01 X56.884400 Y-239.179700 Z-0.125000
G01 X57.147500 Y-239.296700 Z-0.125000
G01 X57.235200 Y-239.063700 Z-0.125000
G01 X57.147500 Y-238.653700 Z-0.125000
G01 X56.884400 Y-238.244700 Z-0.125000
G01 X53.372000 Y-234.732700 Z-0.125000
G01 X53.108900 Y-234.322700 Z-0.125000
G01 X53.021200 Y-233.913700 Z-0.125000
G01 X53.108900 Y-233.679700 Z-0.125000
G01 X53.372000 Y-233.796700 Z-0.125000
G01 X56.884400 Y-237.309700 Z-0.125000
G01 X57.147500 Y-237.426700 Z-0.125000
G01 X57.235200 Y-237.192700 Z-0.125000
G01 X57.147500 Y-236.782700 Z-0.125000
G01 X56.884400 Y-236.373700 Z-0.125000
G01 X53.372000 Y-232.861700 Z-0.125000
G01 X53.108900 Y-232.451700 Z-0.125000
G01 X53.021200 Y-232.042700 Z-0.125000
G01 X53.108900 Y-231.808700 Z-0.125000
G01 X53.372000 Y-231.925700 Z-0.125000
G01 X56.884400 Y-235.438700 Z-0.125000
G01 X57.147500 Y-235.555700 Z-0.125000
G01 X57.235200 Y-235.321700 Z-0.125000
G01 X57.147500 Y-234.912700 Z-0.125000
G01 X56.884400 Y-234.502700 Z-0.125000
G01 X53.369400 Y-230.987700 Z-0.125000
G01 X53.127300 Y-230.599700 Z-0.125000
G01 X53.085800 Y-230.236700 Z-0.125000
G01 X53.219800 Y-230.048700 Z-0.125000
G01 X53.503900 Y-230.186700 Z-0.125000
G01 X56.884400 Y-233.567700 Z-0.125000
G01 X57.147500 Y-233.684700 Z-0.125000
G01 X57.235200 Y-233.450700 Z-0.125000
G01 X57.147500 Y-233.041700 Z-0.125000
G01 X56.884400 Y-232.631700 Z-0.125000
G01 X53.833700 Y-229.581700 Z-0.125000
G01 X53.647600 Y-229.248700 Z-0.125000
G01 X53.729300 Y-229.009700 Z-0.125000
G01 X53.986400 Y-228.944700 Z-0.125000
G01 X54.326500 Y-229.138700 Z-0.125000
G01 X57.506000 Y-232.318700 Z-0.125000
G01 X57.915300 Y-232.581700 Z-0.125000
G01 X58.324600 Y-232.668700 Z-0.125000
G01 X58.558400 Y-232.581700 Z-0.125000
G01 X58.441500 Y-232.318700 Z-0.125000
G01 X54.986900 Y-228.863700 Z-0.125000
G01 X54.860900 Y-228.591700 Z-0.125000
G01 X55.074900 Y-228.483700 Z-0.125000
G01 X55.464200 Y-228.551700 Z-0.125000
G01 X55.864500 Y-228.805700 Z-0.125000
G01 X59.376900 Y-232.318700 Z-0.125000
G01 X59.786200 Y-232.581700 Z-0.125000
G01 X60.195400 Y-232.668700 Z-0.125000
G01 X60.429300 Y-232.581700 Z-0.125000
G01 X60.312400 Y-232.318700 Z-0.125000
G01 X56.799900 Y-228.805700 Z-0.125000
G01 X56.683000 Y-228.542700 Z-0.125000
G01 X56.916800 Y-228.454700 Z-0.125000
G01 X57.326100 Y-228.542700 Z-0.125000
G01 X57.735400 Y-228.805700 Z-0.125000
G01 X61.247800 Y-232.318700 Z-0.125000
G01 X61.657100 Y-232.581700 Z-0.125000
G01 X62.066300 Y-232.668700 Z-0.125000
G01 X62.300200 Y-232.581700 Z-0.125000
G01 X62.183300 Y-232.318700 Z-0.125000
G01 X58.670800 Y-228.805700 Z-0.125000
G01 X58.553900 Y-228.542700 Z-0.125000
G01 X58.787700 Y-228.454700 Z-0.125000
G01 X59.197000 Y-228.542700 Z-0.125000
G01 X59.606200 Y-228.805700 Z-0.125000
G01 X63.118700 Y-232.318700 Z-0.125000
G01 X63.528000 Y-232.581700 Z-0.125000
G01 X63.937200 Y-232.668700 Z-0.125000
G01 X64.171100 Y-232.581700 Z-0.125000
G01 X64.054100 Y-232.318700 Z-0.125000
G01 X60.541700 Y-228.805700 Z-0.125000
G01 X60.424800 Y-228.542700 Z-0.125000
G01 X60.658600 Y-228.454700 Z-0.125000
G01 X61.067900 Y-228.542700 Z-0.125000
G01 X61.477100 Y-228.805700 Z-0.125000
G01 X64.989600 Y-232.318700 Z-0.125000
G01 X65.398800 Y-232.581700 Z-0.125000
G01 X65.808100 Y-232.668700 Z-0.125000
G01 X66.042000 Y-232.581700 Z-0.125000
G01 X65.925000 Y-232.318700 Z-0.125000
G01 X62.412600 Y-228.805700 Z-0.125000
G01 X62.295600 Y-228.542700 Z-0.125000
G01 X62.529500 Y-228.454700 Z-0.125000
G01 X62.938800 Y-228.542700 Z-0.125000
G01 X63.348000 Y-228.805700 Z-0.125000
G01 X66.860500 Y-232.318700 Z-0.125000
G01 X67.269700 Y-232.581700 Z-0.125000
G01 X67.679000 Y-232.668700 Z-0.125000
G01 X67.912800 Y-232.581700 Z-0.125000
G01 X67.795900 Y-232.318700 Z-0.125000
G01 X64.283500 Y-228.805700 Z-0.125000
G01 X64.166500 Y-228.542700 Z-0.125000
G01 X64.400400 Y-228.454700 Z-0.125000
G01 X64.809600 Y-228.542700 Z-0.125000
G01 X65.218900 Y-228.805700 Z-0.125000
G01 X68.731400 Y-232.318700 Z-0.125000
G01 X69.140600 Y-232.581700 Z-0.125000
G01 X69.549900 Y-232.668700 Z-0.125000
G01 X69.783700 Y-232.581700 Z-0.125000
G01 X69.666800 Y-232.318700 Z-0.125000
G01 X66.154300 Y-228.805700 Z-0.125000
G01 X66.037400 Y-228.542700 Z-0.125000
G01 X66.271300 Y-228.454700 Z-0.125000
G01 X66.680500 Y-228.542700 Z-0.125000
G01 X67.089800 Y-228.805700 Z-0.125000
G01 X70.602200 Y-232.318700 Z-0.125000
G01 X71.011500 Y-232.581700 Z-0.125000
G01 X71.420800 Y-232.668700 Z-0.125000
G01 X71.654600 Y-232.581700 Z-0.125000
G01 X71.537700 Y-232.318700 Z-0.125000
G01 X68.025200 Y-228.805700 Z-0.125000
G01 X67.908300 Y-228.542700 Z-0.125000
G01 X68.142200 Y-228.454700 Z-0.125000
G01 X68.551400 Y-228.542700 Z-0.125000
G01 X68.960700 Y-228.805700 Z-0.125000
G01 X72.473100 Y-232.318700 Z-0.125000
G01 X72.882400 Y-232.581700 Z-0.125000
G01 X73.291600 Y-232.668700 Z-0.125000
G01 X73.525500 Y-232.581700 Z-0.125000
G01 X73.408600 Y-232.318700 Z-0.125000
G01 X69.896100 Y-228.805700 Z-0.125000
G01 X69.779200 Y-228.542700 Z-0.125000
G01 X70.013000 Y-228.454700 Z-0.125000
G01 X70.422300 Y-228.542700 Z-0.125000
G01 X70.831600 Y-228.805700 Z-0.125000
G01 X74.344000 Y-232.318700 Z-0.125000
G01 X74.683600 Y-232.511700 Z-0.125000
G01 X74.939500 Y-232.445700 Z-0.125000
G01 X75.020000 Y-232.204700 Z-0.125000
G01 X74.833400 Y-231.872700 Z-0.125000
G01 X71.767000 Y-228.805700 Z-0.125000
G01 X71.650100 Y-228.542700 Z-0.125000
G01 X71.883900 Y-228.454700 Z-0.125000
G01 X72.293200 Y-228.542700 Z-0.125000
G01 X72.702400 Y-228.805700 Z-0.125000
G01 X74.833400 Y-230.936700 Z-0.125000
G01 X75.096500 Y-231.053700 Z-0.125000
G01 X75.184200 Y-230.819700 Z-0.125000
G01 X75.096500 Y-230.410700 Z-0.125000
G01 X74.833400 Y-230.001700 Z-0.125000
G01 X73.637900 Y-228.805700 Z-0.125000
G01 X73.521000 Y-228.542700 Z-0.125000
G01 X73.754800 Y-228.454700 Z-0.125000
G01 X74.164100 Y-228.542700 Z-0.125000
G01 X74.573300 Y-228.805700 Z-0.125000
G01 X75.184200 Y-229.416700 Z-0.125000
G00 Z5.000000

(End cutting path id: path58168)


(Start cutting path id: path58168)
(Change tool to Default tool)

G00 Z5.000000
G00 X81.178300 Y-238.216700

G01 Z-0.125000 F100.0(Penetrate)
G01 X81.332600 Y-238.371700 Z-0.125000 F400.000000
G01 X81.954600 Y-238.525700 Z-0.125000
G01 X82.237600 Y-238.486700 Z-0.125000
G01 X82.268000 Y-238.371700 Z-0.125000
G01 X81.529100 Y-237.632700 Z-0.125000
G01 X81.266000 Y-237.222700 Z-0.125000
G01 X81.178300 Y-236.813700 Z-0.125000
G01 X81.266000 Y-236.579700 Z-0.125000
G01 X81.529100 Y-236.696700 Z-0.125000
G01 X83.007000 Y-238.174700 Z-0.125000
G01 X83.416300 Y-238.437700 Z-0.125000
G01 X83.825500 Y-238.525700 Z-0.125000
G01 X84.059400 Y-238.437700 Z-0.125000
G01 X83.942500 Y-238.174700 Z-0.125000
G01 X81.529100 Y-235.761700 Z-0.125000
G01 X81.275400 Y-235.361700 Z-0.125000
G01 X81.208400 Y-234.972700 Z-0.125000
G01 X81.316900 Y-234.759700 Z-0.125000
G01 X81.589400 Y-234.886700 Z-0.125000
G01 X84.877900 Y-238.174700 Z-0.125000
G01 X85.287200 Y-238.437700 Z-0.125000
G01 X85.696400 Y-238.525700 Z-0.125000
G01 X85.930300 Y-238.437700 Z-0.125000
G01 X85.813300 Y-238.174700 Z-0.125000
G01 X82.524800 Y-234.886700 Z-0.125000
G01 X82.407900 Y-234.623700 Z-0.125000
G01 X82.641700 Y-234.535700 Z-0.125000
G01 X83.051000 Y-234.623700 Z-0.125000
G01 X83.460300 Y-234.886700 Z-0.125000
G01 X86.748800 Y-238.174700 Z-0.125000
G01 X87.158000 Y-238.437700 Z-0.125000
G01 X87.567300 Y-238.525700 Z-0.125000
G01 X87.801200 Y-238.437700 Z-0.125000
G01 X87.684200 Y-238.174700 Z-0.125000
G01 X84.395700 Y-234.886700 Z-0.125000
G01 X84.278800 Y-234.623700 Z-0.125000
G01 X84.512600 Y-234.535700 Z-0.125000
G01 X84.921900 Y-234.623700 Z-0.125000
G01 X85.331100 Y-234.886700 Z-0.125000
G01 X88.619700 Y-238.174700 Z-0.125000
G01 X89.028900 Y-238.437700 Z-0.125000
G01 X89.438200 Y-238.525700 Z-0.125000
G01 X89.672000 Y-238.437700 Z-0.125000
G01 X89.555100 Y-238.174700 Z-0.125000
G01 X86.266600 Y-234.886700 Z-0.125000
G01 X86.149700 Y-234.623700 Z-0.125000
G01 X86.383500 Y-234.535700 Z-0.125000
G01 X86.792800 Y-234.623700 Z-0.125000
G01 X87.202000 Y-234.886700 Z-0.125000
G01 X90.839600 Y-238.523700 Z-0.125000
G00 Z5.000000

(End cutting path id: path58168)


(Start cutting path id: path58168)
(Change tool to Default tool)

G00 Z5.000000
G00 X96.916200 Y-243.664700

G01 Z-0.125000 F100.0(Penetrate)
G01 X88.137500 Y-234.886700 Z-0.125000 F400.000000
G01 X88.020600 Y-234.623700 Z-0.125000
G01 X88.254400 Y-234.535700 Z-0.125000
G01 X88.663700 Y-234.623700 Z-0.125000
G01 X89.072900 Y-234.886700 Z-0.125000
G01 X96.565400 Y-242.378700 Z-0.125000
G01 X96.828500 Y-242.495700 Z-0.125000
G01 X96.916200 Y-242.261700 Z-0.125000
G01 X96.828500 Y-241.852700 Z-0.125000
G01 X96.565400 Y-241.443700 Z-0.125000
G01 X90.008400 Y-234.886700 Z-0.125000
G01 X89.891400 Y-234.623700 Z-0.125000
G01 X90.125300 Y-234.535700 Z-0.125000
G01 X90.534600 Y-234.623700 Z-0.125000
G01 X90.943800 Y-234.886700 Z-0.125000
G01 X96.565400 Y-240.507700 Z-0.125000
G01 X96.823900 Y-240.620700 Z-0.125000
G01 X96.901600 Y-240.376700 Z-0.125000
G01 X96.803900 Y-239.957700 Z-0.125000
G01 X96.536200 Y-239.543700 Z-0.125000
G01 X91.923200 Y-234.930700 Z-0.125000
G01 X91.835800 Y-234.696700 Z-0.125000
G01 X92.134600 Y-234.673700 Z-0.125000
G01 X92.608700 Y-234.826700 Z-0.125000
G01 X93.047500 Y-235.119700 Z-0.125000
G01 X96.345700 Y-238.417700 Z-0.125000
G01 X96.467300 Y-238.498700 Z-0.125000
G01 X96.492900 Y-238.418700 Z-0.125000
G01 X96.325800 Y-237.929700 Z-0.125000
G01 X95.604400 Y-236.740700 Z-0.125000
G01 X94.260900 Y-235.397700 Z-0.125000
G00 Z5.000000

(End cutting path id: path58168)


(Start cutting path id: path58168)
(Change tool to Default tool)

G00 Z5.000000
G00 X99.451300 Y-241.522700

G01 Z-0.125000 F100.0(Penetrate)
G01 X102.086600 Y-244.158700 Z-0.125000 F400.000000
G01 X102.538200 Y-244.463700 Z-0.125000
G01 X103.040500 Y-244.644700 Z-0.125000
G01 X103.367400 Y-244.649700 Z-0.125000
G01 X103.292700 Y-244.428700 Z-0.125000
G01 X99.493800 Y-240.629700 Z-0.125000
G01 X99.234600 Y-240.224700 Z-0.125000
G01 X99.155500 Y-239.823700 Z-0.125000
G01 X99.251800 Y-239.598700 Z-0.125000
G01 X99.518800 Y-239.719700 Z-0.125000
G01 X104.261400 Y-244.462700 Z-0.125000
G01 X104.670700 Y-244.725700 Z-0.125000
G01 X105.079900 Y-244.812700 Z-0.125000
G01 X105.313800 Y-244.725700 Z-0.125000
G01 X105.196900 Y-244.462700 Z-0.125000
G01 X99.620200 Y-238.885700 Z-0.125000
G01 X99.388700 Y-238.507700 Z-0.125000
G01 X99.370600 Y-238.168700 Z-0.125000
G01 X99.527900 Y-238.003700 Z-0.125000
G01 X99.822600 Y-238.152700 Z-0.125000
G01 X106.132300 Y-244.462700 Z-0.125000
G01 X106.541600 Y-244.725700 Z-0.125000
G01 X106.950800 Y-244.812700 Z-0.125000
G01 X107.184700 Y-244.725700 Z-0.125000
G01 X107.067800 Y-244.462700 Z-0.125000
G01 X100.121300 Y-237.515700 Z-0.125000
G01 X99.915300 Y-237.163700 Z-0.125000
G01 X99.953300 Y-236.879700 Z-0.125000
G01 X100.166600 Y-236.771700 Z-0.125000
G01 X100.486900 Y-236.945700 Z-0.125000
G01 X103.076900 Y-239.535700 Z-0.125000
G01 X103.357800 Y-239.670700 Z-0.125000
G01 X103.484800 Y-239.476700 Z-0.125000
G01 X103.436400 Y-239.106700 Z-0.125000
G01 X103.191200 Y-238.714700 Z-0.125000
G01 X100.916300 Y-236.439700 Z-0.125000
G01 X100.731100 Y-236.108700 Z-0.125000
G01 X100.814600 Y-235.870700 Z-0.125000
G01 X101.073600 Y-235.807700 Z-0.125000
G01 X101.414500 Y-236.002700 Z-0.125000
G01 X103.828800 Y-238.416700 Z-0.125000
G01 X104.235300 Y-238.677700 Z-0.125000
G01 X104.638300 Y-238.758700 Z-0.125000
G01 X104.865900 Y-238.664700 Z-0.125000
G01 X104.746200 Y-238.398700 Z-0.125000
G01 X101.976600 Y-235.629700 Z-0.125000
G01 X101.812000 Y-235.318700 Z-0.125000
G01 X101.940900 Y-235.125700 Z-0.125000
G01 X102.245200 Y-235.108700 Z-0.125000
G01 X102.606800 Y-235.323700 Z-0.125000
G01 X105.681600 Y-238.398700 Z-0.125000
G01 X106.090900 Y-238.661700 Z-0.125000
G01 X106.500100 Y-238.749700 Z-0.125000
G01 X106.734000 Y-238.661700 Z-0.125000
G01 X106.617000 Y-238.398700 Z-0.125000
G01 X103.317400 Y-235.099700 Z-0.125000
G01 X103.175100 Y-234.810700 Z-0.125000
G01 X103.353200 Y-234.667700 Z-0.125000
G01 X103.706700 Y-234.699700 Z-0.125000
G01 X104.090600 Y-234.936700 Z-0.125000
G01 X107.552500 Y-238.398700 Z-0.125000
G01 X107.961700 Y-238.661700 Z-0.125000
G01 X108.371000 Y-238.749700 Z-0.125000
G01 X108.604900 Y-238.661700 Z-0.125000
G01 X108.487900 Y-238.398700 Z-0.125000
G01 X104.975500 Y-234.886700 Z-0.125000
G01 X104.858500 Y-234.623700 Z-0.125000
G01 X105.092400 Y-234.535700 Z-0.125000
G01 X105.501600 Y-234.623700 Z-0.125000
G01 X105.910900 Y-234.886700 Z-0.125000
G01 X109.423400 Y-238.398700 Z-0.125000
G01 X109.832600 Y-238.661700 Z-0.125000
G01 X110.241900 Y-238.749700 Z-0.125000
G01 X110.475700 Y-238.661700 Z-0.125000
G01 X110.358800 Y-238.398700 Z-0.125000
G01 X106.846300 Y-234.886700 Z-0.125000
G01 X106.729400 Y-234.623700 Z-0.125000
G01 X106.963300 Y-234.535700 Z-0.125000
G01 X107.372500 Y-234.623700 Z-0.125000
G01 X107.781800 Y-234.886700 Z-0.125000
G01 X111.294300 Y-238.398700 Z-0.125000
G01 X111.703500 Y-238.661700 Z-0.125000
G01 X112.112800 Y-238.749700 Z-0.125000
G01 X112.346600 Y-238.661700 Z-0.125000
G01 X112.229700 Y-238.398700 Z-0.125000
G01 X108.717200 Y-234.886700 Z-0.125000
G01 X108.600300 Y-234.623700 Z-0.125000
G01 X108.834200 Y-234.535700 Z-0.125000
G01 X109.243400 Y-234.623700 Z-0.125000
G01 X109.652700 Y-234.886700 Z-0.125000
G01 X113.165100 Y-238.398700 Z-0.125000
G01 X113.574400 Y-238.661700 Z-0.125000
G01 X113.983700 Y-238.749700 Z-0.125000
G01 X114.217500 Y-238.661700 Z-0.125000
G01 X114.100600 Y-238.398700 Z-0.125000
G01 X110.588100 Y-234.886700 Z-0.125000
G01 X110.471200 Y-234.623700 Z-0.125000
G01 X110.705100 Y-234.535700 Z-0.125000
G01 X111.114300 Y-234.623700 Z-0.125000
G01 X111.523600 Y-234.886700 Z-0.125000
G01 X114.955700 Y-238.318700 Z-0.125000
G01 X115.218800 Y-238.435700 Z-0.125000
G01 X115.306500 Y-238.201700 Z-0.125000
G01 X115.218800 Y-237.792700 Z-0.125000
G01 X114.955700 Y-237.382700 Z-0.125000
G01 X112.459000 Y-234.886700 Z-0.125000
G01 X112.342100 Y-234.623700 Z-0.125000
G01 X112.575900 Y-234.535700 Z-0.125000
G01 X112.985200 Y-234.623700 Z-0.125000
G01 X113.394400 Y-234.886700 Z-0.125000
G01 X114.955700 Y-236.447700 Z-0.125000
G01 X115.218800 Y-236.564700 Z-0.125000
G01 X115.306500 Y-236.330700 Z-0.125000
G01 X115.218800 Y-235.921700 Z-0.125000
G01 X114.955700 Y-235.512700 Z-0.125000
G01 X114.175100 Y-234.731700 Z-0.125000
G01 X114.174300 Y-234.584700 Z-0.125000
G01 X114.446800 Y-234.535700 Z-0.125000
G01 X115.110500 Y-234.731700 Z-0.125000
G01 X115.306500 Y-234.927700 Z-0.125000
G00 Z5.000000

(End cutting path id: path58168)


(Start cutting path id: path58168)
(Change tool to Default tool)

G00 Z5.000000
G00 X117.660900 Y-246.736700

G01 Z-0.125000 F100.0(Penetrate)
G01 X117.587600 Y-247.834700 Z-0.125000 F400.000000
G01 X117.368000 Y-248.820700 Z-0.125000
G01 X116.592900 Y-250.440700 Z-0.125000
G01 X115.473200 Y-251.628700 Z-0.125000
G01 X114.129600 Y-252.420700 Z-0.125000
G01 X112.717100 Y-252.886700 Z-0.125000
G01 X111.373600 Y-253.023700 Z-0.125000
G01 X99.246800 Y-253.023700 Z-0.125000
G01 X99.246800 Y-248.545700 Z-0.125000
G01 X111.339100 Y-248.545700 Z-0.125000
G01 X112.140100 Y-248.428700 Z-0.125000
G01 X112.717100 Y-248.080700 Z-0.125000
G01 X113.066000 Y-247.511700 Z-0.125000
G01 X113.182200 Y-246.736700 Z-0.125000
G01 X113.036900 Y-245.952700 Z-0.125000
G01 X112.687000 Y-245.392700 Z-0.125000
G01 X112.132600 Y-245.057700 Z-0.125000
G01 X111.373600 Y-244.945700 Z-0.125000
G01 X104.431700 Y-244.945700 Z-0.125000
G01 X103.062300 Y-244.815700 Z-0.125000
G01 X101.916800 Y-244.428700 Z-0.125000
G01 X100.978000 Y-243.846700 Z-0.125000
G01 X100.228700 Y-243.136700 Z-0.125000
G01 X99.677400 Y-242.331700 Z-0.125000
G01 X99.298500 Y-241.465700 Z-0.125000
G01 X99.022900 Y-239.794700 Z-0.125000
G01 X99.156400 Y-238.416700 Z-0.125000
G01 X99.556900 Y-237.279700 Z-0.125000
G01 X100.159800 Y-236.345700 Z-0.125000
G01 X100.900500 Y-235.608700 Z-0.125000
G01 X101.744500 Y-235.061700 Z-0.125000
G01 X102.657500 Y-234.695700 Z-0.125000
G01 X104.431700 Y-234.403700 Z-0.125000
G01 X115.438800 Y-234.403700 Z-0.125000
G01 X115.438800 Y-238.881700 Z-0.125000
G01 X104.466100 Y-238.881700 Z-0.125000
G01 X103.914900 Y-238.967700 Z-0.125000
G01 X103.622100 Y-239.174700 Z-0.125000
G01 X103.518700 Y-239.450700 Z-0.125000
G01 X103.501500 Y-239.725700 Z-0.125000
G01 X103.604900 Y-240.156700 Z-0.125000
G01 X103.811600 Y-240.380700 Z-0.125000
G01 X104.104400 Y-240.466700 Z-0.125000
G01 X104.431700 Y-240.466700 Z-0.125000
G01 X111.373600 Y-240.466700 Z-0.125000
G01 X112.966900 Y-240.621700 Z-0.125000
G01 X114.301900 Y-241.086700 Z-0.125000
G01 X115.391400 Y-241.788700 Z-0.125000
G01 X116.248400 Y-242.654700 Z-0.125000
G01 X116.885700 Y-243.627700 Z-0.125000
G01 X117.316400 Y-244.686700 Z-0.125000
G01 X117.574700 Y-245.750700 Z-0.125000
G01 X117.660900 Y-246.736700 Z-0.125000
G01 X117.660900 Y-246.736700 Z-0.125000
G00 Z5.000000

(End cutting path id: path58168)


(Start cutting path id: path58168)
(Change tool to Default tool)

G00 Z5.000000
G00 X120.922700 Y-250.833700

G01 Z-0.125000 F100.0(Penetrate)
G01 X121.597700 Y-251.508700 Z-0.125000 F400.000000
G00 Z5.000000

(End cutting path id: path58168)


(Start cutting path id: path58168)
(Change tool to Default tool)

G00 Z5.000000
G00 X123.614800 Y-252.589700

G01 Z-0.125000 F100.0(Penetrate)
G01 X120.170200 Y-249.145700 Z-0.125000 F400.000000
G01 X119.876300 Y-248.705700 Z-0.125000
G01 X119.721000 Y-248.228700 Z-0.125000
G01 X119.741000 Y-247.926700 Z-0.125000
G01 X119.973300 Y-248.012700 Z-0.125000
G01 X124.418100 Y-252.457700 Z-0.125000
G01 X124.840300 Y-252.733700 Z-0.125000
G01 X125.278100 Y-252.850700 Z-0.125000
G01 X125.540600 Y-252.790700 Z-0.125000
G01 X125.436600 Y-252.540700 Z-0.125000
G01 X119.963500 Y-247.067700 Z-0.125000
G01 X119.700400 Y-246.658700 Z-0.125000
G01 X119.612700 Y-246.249700 Z-0.125000
G01 X119.700400 Y-246.015700 Z-0.125000
G01 X119.963500 Y-246.132700 Z-0.125000
G01 X126.372100 Y-252.540700 Z-0.125000
G01 X126.781300 Y-252.803700 Z-0.125000
G01 X127.190600 Y-252.891700 Z-0.125000
G01 X127.424400 Y-252.803700 Z-0.125000
G01 X127.307500 Y-252.540700 Z-0.125000
G01 X119.963500 Y-245.196700 Z-0.125000
G01 X119.700400 Y-244.787700 Z-0.125000
G01 X119.612700 Y-244.378700 Z-0.125000
G01 X119.700400 Y-244.144700 Z-0.125000
G01 X119.963500 Y-244.261700 Z-0.125000
G01 X128.242900 Y-252.540700 Z-0.125000
G01 X128.652200 Y-252.803700 Z-0.125000
G01 X129.061500 Y-252.891700 Z-0.125000
G01 X129.295300 Y-252.803700 Z-0.125000
G01 X129.178400 Y-252.540700 Z-0.125000
G01 X125.601500 Y-248.963700 Z-0.125000
G01 X125.494600 Y-248.710700 Z-0.125000
G01 X125.750600 Y-248.645700 Z-0.125000
G01 X126.182000 Y-248.755700 Z-0.125000
G01 X126.601400 Y-249.028700 Z-0.125000
G01 X130.113800 Y-252.540700 Z-0.125000
G01 X130.523100 Y-252.803700 Z-0.125000
G01 X130.932300 Y-252.891700 Z-0.125000
G01 X131.166200 Y-252.803700 Z-0.125000
G01 X131.049300 Y-252.540700 Z-0.125000
G01 X127.536800 Y-249.028700 Z-0.125000
G01 X127.419900 Y-248.765700 Z-0.125000
G01 X127.653700 Y-248.677700 Z-0.125000
G01 X128.063000 Y-248.765700 Z-0.125000
G01 X128.472200 Y-249.028700 Z-0.125000
G01 X131.984700 Y-252.540700 Z-0.125000
G01 X132.394000 Y-252.803700 Z-0.125000
G01 X132.803200 Y-252.891700 Z-0.125000
G01 X133.037100 Y-252.803700 Z-0.125000
G01 X132.920200 Y-252.540700 Z-0.125000
G01 X129.407700 Y-249.028700 Z-0.125000
G01 X129.290800 Y-248.765700 Z-0.125000
G01 X129.524600 Y-248.677700 Z-0.125000
G01 X129.933900 Y-248.765700 Z-0.125000
G01 X130.343100 Y-249.028700 Z-0.125000
G01 X133.363400 Y-252.048700 Z-0.125000
G01 X133.626500 Y-252.165700 Z-0.125000
G01 X133.714200 Y-251.931700 Z-0.125000
G01 X133.626500 Y-251.522700 Z-0.125000
G01 X133.363400 Y-251.113700 Z-0.125000
G01 X131.278600 Y-249.028700 Z-0.125000
G01 X131.161600 Y-248.765700 Z-0.125000
G01 X131.395500 Y-248.677700 Z-0.125000
G01 X131.804800 Y-248.765700 Z-0.125000
G01 X132.214000 Y-249.028700 Z-0.125000
G01 X133.363400 Y-250.177700 Z-0.125000
G01 X133.626500 Y-250.294700 Z-0.125000
G01 X133.714200 Y-250.060700 Z-0.125000
G01 X133.626500 Y-249.651700 Z-0.125000
G01 X133.363400 Y-249.242700 Z-0.125000
G01 X132.798700 Y-248.677700 Z-0.125000
G00 Z5.000000

(End cutting path id: path58168)


(Start cutting path id: path58168)
(Change tool to Default tool)

G00 Z5.000000
G00 X133.846300 Y-253.023700

G01 Z-0.125000 F100.0(Penetrate)
G01 X125.767500 Y-253.023700 Z-0.125000 F400.000000
G01 X124.768400 Y-252.942700 Z-0.125000
G01 X123.700500 Y-252.696700 Z-0.125000
G01 X122.649700 Y-252.265700 Z-0.125000
G01 X121.667800 Y-251.628700 Z-0.125000
G01 X120.802300 Y-250.763700 Z-0.125000
G01 X120.100300 Y-249.682700 Z-0.125000
G01 X119.635200 Y-248.342700 Z-0.125000
G01 X119.480200 Y-246.736700 Z-0.125000
G01 X119.480200 Y-234.403700 Z-0.125000
G01 X123.958800 Y-234.403700 Z-0.125000
G01 X123.958800 Y-246.736700 Z-0.125000
G01 X124.075100 Y-247.511700 Z-0.125000
G01 X124.423900 Y-248.080700 Z-0.125000
G01 X125.001000 Y-248.428700 Z-0.125000
G01 X125.802000 Y-248.545700 Z-0.125000
G01 X133.846300 Y-248.545700 Z-0.125000
G01 X133.846300 Y-253.023700 Z-0.125000
G00 Z5.000000

(End cutting path id: path58168)


(Start cutting path id: path58168)
(Change tool to Default tool)

G00 Z5.000000
G00 X140.116600 Y-254.815700

G01 Z-0.125000 F100.0(Penetrate)
G01 X140.043600 Y-255.909700 Z-0.125000 F400.000000
G01 X139.823600 Y-256.882700 Z-0.125000
G01 X139.048600 Y-258.501700 Z-0.125000
G01 X137.928600 Y-259.690700 Z-0.125000
G01 X136.585600 Y-260.499700 Z-0.125000
G01 X135.189900 Y-260.947700 Z-0.125000
G01 X133.846300 Y-261.102700 Z-0.125000
G01 X125.767500 Y-261.102700 Z-0.125000
G01 X125.767500 Y-256.623700 Z-0.125000
G01 X133.846300 Y-256.623700 Z-0.125000
G01 X134.630000 Y-256.507700 Z-0.125000
G01 X135.189900 Y-256.158700 Z-0.125000
G01 X135.525800 Y-255.590700 Z-0.125000
G01 X135.637700 Y-254.815700 Z-0.125000
G01 X135.637700 Y-234.403700 Z-0.125000
G01 X140.116600 Y-234.403700 Z-0.125000
G01 X140.116600 Y-254.815700 Z-0.125000
G00 Z5.000000

(End cutting path id: path58168)


(Start cutting path id: path58168)
(Change tool to Default tool)

G00 Z5.000000
G00 X126.382400 Y-260.970700

G01 Z-0.125000 F100.0(Penetrate)
G01 X126.141100 Y-260.729700 Z-0.125000 F400.000000
G01 X125.960100 Y-260.401700 Z-0.125000
G01 X125.899800 Y-260.020700 Z-0.125000
G01 X125.960100 Y-259.758700 Z-0.125000
G01 X126.141100 Y-259.793700 Z-0.125000
G01 X126.967000 Y-260.619700 Z-0.125000
G01 X127.376300 Y-260.882700 Z-0.125000
G01 X127.785500 Y-260.970700 Z-0.125000
G01 X128.019400 Y-260.882700 Z-0.125000
G01 X127.902500 Y-260.619700 Z-0.125000
G01 X126.250600 Y-258.967700 Z-0.125000
G01 X125.987500 Y-258.558700 Z-0.125000
G01 X125.899800 Y-258.149700 Z-0.125000
G01 X125.987500 Y-257.915700 Z-0.125000
G01 X126.250600 Y-258.032700 Z-0.125000
G01 X128.837900 Y-260.619700 Z-0.125000
G01 X129.247200 Y-260.882700 Z-0.125000
G01 X129.656400 Y-260.970700 Z-0.125000
G01 X129.890300 Y-260.882700 Z-0.125000
G01 X129.773400 Y-260.619700 Z-0.125000
G01 X126.260900 Y-257.107700 Z-0.125000
G01 X126.144000 Y-256.843700 Z-0.125000
G01 X126.377800 Y-256.756700 Z-0.125000
G01 X126.787100 Y-256.843700 Z-0.125000
G01 X127.196300 Y-257.107700 Z-0.125000
G01 X130.708800 Y-260.619700 Z-0.125000
G01 X131.118100 Y-260.882700 Z-0.125000
G01 X131.527300 Y-260.970700 Z-0.125000
G01 X131.761200 Y-260.882700 Z-0.125000
G01 X131.644300 Y-260.619700 Z-0.125000
G01 X128.131800 Y-257.107700 Z-0.125000
G01 X128.014900 Y-256.843700 Z-0.125000
G01 X128.248700 Y-256.756700 Z-0.125000
G01 X128.658000 Y-256.843700 Z-0.125000
G01 X129.067200 Y-257.107700 Z-0.125000
G01 X132.579700 Y-260.619700 Z-0.125000
G01 X132.988900 Y-260.882700 Z-0.125000
G01 X133.397900 Y-260.970700 Z-0.125000
G01 X133.631500 Y-260.882700 Z-0.125000
G01 X133.514500 Y-260.618700 Z-0.125000
G01 X130.002700 Y-257.107700 Z-0.125000
G01 X129.885700 Y-256.843700 Z-0.125000
G01 X130.119600 Y-256.756700 Z-0.125000
G01 X130.528900 Y-256.843700 Z-0.125000
G01 X130.938100 Y-257.107700 Z-0.125000
G01 X134.398000 Y-260.566700 Z-0.125000
G01 X134.779500 Y-260.802700 Z-0.125000
G01 X135.127800 Y-260.829700 Z-0.125000
G01 X135.300700 Y-260.680700 Z-0.125000
G01 X135.156000 Y-260.389700 Z-0.125000
G01 X131.873600 Y-257.107700 Z-0.125000
G01 X131.756600 Y-256.843700 Z-0.125000
G01 X131.990500 Y-256.756700 Z-0.125000
G01 X132.399700 Y-256.843700 Z-0.125000
G01 X132.809000 Y-257.107700 Z-0.125000
G01 X135.862600 Y-260.160700 Z-0.125000
G01 X136.226600 Y-260.378700 Z-0.125000
G01 X136.536600 Y-260.367700 Z-0.125000
G01 X136.671600 Y-260.180700 Z-0.125000
G01 X136.509600 Y-259.871700 Z-0.125000
G01 X133.744400 Y-257.107700 Z-0.125000
G01 X133.622600 Y-256.839700 Z-0.125000
G01 X133.845500 Y-256.740700 Z-0.125000
G01 X134.243900 Y-256.817700 Z-0.125000
G01 X134.648200 Y-257.075700 Z-0.125000
G01 X137.095600 Y-259.522700 Z-0.125000
G01 X137.442600 Y-259.723700 Z-0.125000
G01 X137.715600 Y-259.675700 Z-0.125000
G01 X137.813600 Y-259.451700 Z-0.125000
G01 X137.634600 Y-259.126700 Z-0.125000
G01 X135.342700 Y-256.834700 Z-0.125000
G01 X135.153400 Y-256.498700 Z-0.125000
G01 X135.228200 Y-256.252700 Z-0.125000
G01 X135.478300 Y-256.180700 Z-0.125000
G01 X135.815600 Y-256.371700 Z-0.125000
G01 X138.115600 Y-258.671700 Z-0.125000
G01 X138.443600 Y-258.853700 Z-0.125000
G01 X138.674600 Y-258.763700 Z-0.125000
G01 X138.730600 Y-258.497700 Z-0.125000
G01 X138.532600 Y-258.153700 Z-0.125000
G01 X136.073600 Y-255.694700 Z-0.125000
G01 X135.817600 Y-255.292700 Z-0.125000
G01 X135.746600 Y-254.899700 Z-0.125000
G01 X135.850600 Y-254.681700 Z-0.125000
G01 X136.120600 Y-254.806700 Z-0.125000
G01 X138.893600 Y-257.578700 Z-0.125000
G01 X139.202600 Y-257.741700 Z-0.125000
G01 X139.391600 Y-257.609700 Z-0.125000
G01 X139.405600 Y-257.301700 Z-0.125000
G01 X139.188600 Y-256.938700 Z-0.125000
G01 X136.120600 Y-253.870700 Z-0.125000
G01 X135.857600 Y-253.461700 Z-0.125000
G01 X135.769600 Y-253.052700 Z-0.125000
G01 X135.857600 Y-252.818700 Z-0.125000
G01 X136.120600 Y-252.935700 Z-0.125000
G01 X139.421600 Y-256.236700 Z-0.125000
G01 X139.711600 Y-256.379700 Z-0.125000
G01 X139.856600 Y-256.203700 Z-0.125000
G01 X139.825600 Y-255.851700 Z-0.125000
G01 X139.588600 Y-255.467700 Z-0.125000
G01 X136.120600 Y-251.999700 Z-0.125000
G01 X135.857600 Y-251.590700 Z-0.125000
G01 X135.769600 Y-251.181700 Z-0.125000
G01 X135.857600 Y-250.947700 Z-0.125000
G01 X136.120600 Y-251.064700 Z-0.125000
G01 X139.631600 Y-254.575700 Z-0.125000
G01 X139.894600 Y-254.692700 Z-0.125000
G01 X139.983600 Y-254.459700 Z-0.125000
G01 X139.896600 Y-254.050700 Z-0.125000
G01 X139.633600 Y-253.641700 Z-0.125000
G01 X136.120600 Y-250.128700 Z-0.125000
G01 X135.857600 Y-249.719700 Z-0.125000
G01 X135.770600 Y-249.310700 Z-0.125000
G01 X135.857600 Y-249.076700 Z-0.125000
G01 X136.120600 Y-249.193700 Z-0.125000
G01 X139.633600 Y-252.705700 Z-0.125000
G01 X139.896600 Y-252.822700 Z-0.125000
G01 X139.984600 Y-252.589700 Z-0.125000
G01 X139.896600 Y-252.179700 Z-0.125000
G01 X139.633600 Y-251.770700 Z-0.125000
G01 X136.120600 Y-248.258700 Z-0.125000
G01 X135.857600 Y-247.848700 Z-0.125000
G01 X135.770600 Y-247.439700 Z-0.125000
G01 X135.857600 Y-247.205700 Z-0.125000
G01 X136.120600 Y-247.322700 Z-0.125000
G01 X139.633600 Y-250.835700 Z-0.125000
G01 X139.896600 Y-250.952700 Z-0.125000
G01 X139.984600 Y-250.718700 Z-0.125000
G01 X139.896600 Y-250.308700 Z-0.125000
G01 X139.633600 Y-249.899700 Z-0.125000
G01 X136.120600 Y-246.387700 Z-0.125000
G01 X135.857600 Y-245.977700 Z-0.125000
G01 X135.770600 Y-245.568700 Z-0.125000
G01 X135.857600 Y-245.334700 Z-0.125000
G01 X136.120600 Y-245.451700 Z-0.125000
G01 X139.633600 Y-248.964700 Z-0.125000
G01 X139.896600 Y-249.081700 Z-0.125000
G01 X139.984600 Y-248.847700 Z-0.125000
G01 X139.896600 Y-248.438700 Z-0.125000
G01 X139.633600 Y-248.028700 Z-0.125000
G01 X136.120600 Y-244.516700 Z-0.125000
G01 X135.857600 Y-244.107700 Z-0.125000
G01 X135.770600 Y-243.697700 Z-0.125000
G01 X135.857600 Y-243.463700 Z-0.125000
G01 X136.120600 Y-243.580700 Z-0.125000
G01 X139.633600 Y-247.093700 Z-0.125000
G01 X139.896600 Y-247.210700 Z-0.125000
G01 X139.984600 Y-246.976700 Z-0.125000
G01 X139.896600 Y-246.567700 Z-0.125000
G01 X139.633600 Y-246.157700 Z-0.125000
G01 X136.120600 Y-242.645700 Z-0.125000
G01 X135.857600 Y-242.236700 Z-0.125000
G01 X135.770600 Y-241.826700 Z-0.125000
G01 X135.857600 Y-241.593700 Z-0.125000
G01 X136.120600 Y-241.709700 Z-0.125000
G01 X139.633600 Y-245.222700 Z-0.125000
G01 X139.896600 Y-245.339700 Z-0.125000
G01 X139.984600 Y-245.105700 Z-0.125000
G01 X139.896600 Y-244.696700 Z-0.125000
G01 X139.633600 Y-244.286700 Z-0.125000
G01 X136.120600 Y-240.774700 Z-0.125000
G01 X135.857600 Y-240.365700 Z-0.125000
G01 X135.770600 Y-239.956700 Z-0.125000
G01 X135.857600 Y-239.722700 Z-0.125000
G01 X136.120600 Y-239.839700 Z-0.125000
G01 X139.633600 Y-243.351700 Z-0.125000
G01 X139.896600 Y-243.468700 Z-0.125000
G01 X139.984600 Y-243.234700 Z-0.125000
G01 X139.896600 Y-242.825700 Z-0.125000
G01 X139.633600 Y-242.416700 Z-0.125000
G01 X136.120600 Y-238.903700 Z-0.125000
G01 X135.857600 Y-238.494700 Z-0.125000
G01 X135.770600 Y-238.085700 Z-0.125000
G01 X135.857600 Y-237.851700 Z-0.125000
G01 X136.120600 Y-237.968700 Z-0.125000
G01 X139.633600 Y-241.480700 Z-0.125000
G01 X139.896600 Y-241.597700 Z-0.125000
G01 X139.984600 Y-241.363700 Z-0.125000
G01 X139.896600 Y-240.954700 Z-0.125000
G01 X139.633600 Y-240.545700 Z-0.125000
G01 X136.120600 Y-237.032700 Z-0.125000
G01 X135.857600 Y-236.623700 Z-0.125000
G01 X135.770600 Y-236.214700 Z-0.125000
G01 X135.857600 Y-235.980700 Z-0.125000
G01 X136.120600 Y-236.097700 Z-0.125000
G01 X139.633600 Y-239.609700 Z-0.125000
G01 X139.896600 Y-239.726700 Z-0.125000
G01 X139.984600 Y-239.492700 Z-0.125000
G01 X139.896600 Y-239.083700 Z-0.125000
G01 X139.633600 Y-238.674700 Z-0.125000
G01 X136.120600 Y-235.161700 Z-0.125000
G01 X135.960600 Y-234.855700 Z-0.125000
G01 X136.099600 Y-234.673700 Z-0.125000
G01 X136.414600 Y-234.666700 Z-0.125000
G01 X136.780600 Y-234.886700 Z-0.125000
G01 X139.633600 Y-237.738700 Z-0.125000
G01 X139.896600 Y-237.855700 Z-0.125000
G01 X139.984600 Y-237.621700 Z-0.125000
G01 X139.896600 Y-237.212700 Z-0.125000
G01 X139.633600 Y-236.803700 Z-0.125000
G01 X137.716600 Y-234.886700 Z-0.125000
G01 X137.599600 Y-234.623700 Z-0.125000
G01 X137.833600 Y-234.535700 Z-0.125000
G01 X138.242600 Y-234.623700 Z-0.125000
G01 X138.651600 Y-234.886700 Z-0.125000
G01 X139.633600 Y-235.867700 Z-0.125000
G01 X139.896600 Y-235.984700 Z-0.125000
G01 X139.984600 Y-235.751700 Z-0.125000
G01 X139.896600 Y-235.341700 Z-0.125000
G01 X139.633600 Y-234.932700 Z-0.125000
G01 X139.236600 Y-234.535700 Z-0.125000
G00 Z5.000000

(End cutting path id: path58168)


(Start cutting path id: path58168)
(Change tool to Default tool)

G00 Z5.000000
G00 X123.899800 Y-247.262700

G01 Z-0.125000 F100.0(Penetrate)
G01 X119.963500 Y-243.325700 Z-0.125000 F400.000000
G01 X119.700400 Y-242.916700 Z-0.125000
G01 X119.612700 Y-242.507700 Z-0.125000
G01 X119.700400 Y-242.273700 Z-0.125000
G01 X119.963500 Y-242.390700 Z-0.125000
G01 X123.476000 Y-245.902700 Z-0.125000
G01 X123.739100 Y-246.019700 Z-0.125000
G01 X123.826800 Y-245.785700 Z-0.125000
G01 X123.739100 Y-245.376700 Z-0.125000
G01 X123.476000 Y-244.967700 Z-0.125000
G01 X119.963500 Y-241.454700 Z-0.125000
G01 X119.700400 Y-241.045700 Z-0.125000
G01 X119.612700 Y-240.636700 Z-0.125000
G01 X119.700400 Y-240.402700 Z-0.125000
G01 X119.963500 Y-240.519700 Z-0.125000
G01 X123.476000 Y-244.031700 Z-0.125000
G01 X123.739100 Y-244.148700 Z-0.125000
G01 X123.826800 Y-243.915700 Z-0.125000
G01 X123.739100 Y-243.505700 Z-0.125000
G01 X123.476000 Y-243.096700 Z-0.125000
G01 X119.963500 Y-239.584700 Z-0.125000
G01 X119.700400 Y-239.174700 Z-0.125000
G01 X119.612700 Y-238.765700 Z-0.125000
G01 X119.700400 Y-238.531700 Z-0.125000
G01 X119.963500 Y-238.648700 Z-0.125000
G01 X123.476000 Y-242.161700 Z-0.125000
G01 X123.739100 Y-242.278700 Z-0.125000
G01 X123.826800 Y-242.044700 Z-0.125000
G01 X123.739100 Y-241.634700 Z-0.125000
G01 X123.476000 Y-241.225700 Z-0.125000
G01 X119.963500 Y-237.713700 Z-0.125000
G01 X119.700400 Y-237.303700 Z-0.125000
G01 X119.612700 Y-236.894700 Z-0.125000
G01 X119.700400 Y-236.660700 Z-0.125000
G01 X119.963500 Y-236.777700 Z-0.125000
G01 X123.476000 Y-240.290700 Z-0.125000
G01 X123.739100 Y-240.407700 Z-0.125000
G01 X123.826800 Y-240.173700 Z-0.125000
G01 X123.739100 Y-239.764700 Z-0.125000
G01 X123.476000 Y-239.354700 Z-0.125000
G01 X119.963500 Y-235.842700 Z-0.125000
G01 X119.700400 Y-235.433700 Z-0.125000
G01 X119.612700 Y-235.023700 Z-0.125000
G01 X119.700400 Y-234.789700 Z-0.125000
G01 X119.963500 Y-234.906700 Z-0.125000
G01 X123.476000 Y-238.419700 Z-0.125000
G01 X123.739100 Y-238.536700 Z-0.125000
G01 X123.826800 Y-238.302700 Z-0.125000
G01 X123.739100 Y-237.893700 Z-0.125000
G01 X123.476000 Y-237.483700 Z-0.125000
G01 X120.878200 Y-234.886700 Z-0.125000
G01 X120.761300 Y-234.623700 Z-0.125000
G01 X120.995200 Y-234.535700 Z-0.125000
G01 X121.404400 Y-234.623700 Z-0.125000
G01 X121.813700 Y-234.886700 Z-0.125000
G01 X123.476000 Y-236.548700 Z-0.125000
G01 X123.739100 Y-236.665700 Z-0.125000
G01 X123.826800 Y-236.431700 Z-0.125000
G01 X123.739100 Y-236.022700 Z-0.125000
G01 X123.476000 Y-235.613700 Z-0.125000
G01 X122.644600 Y-234.781700 Z-0.125000
G01 X122.605900 Y-234.597700 Z-0.125000
G01 X122.865800 Y-234.535700 Z-0.125000
G01 X123.249000 Y-234.597700 Z-0.125000
G01 X123.580000 Y-234.781700 Z-0.125000
G01 X123.826500 Y-235.028700 Z-0.125000
G00 Z5.000000

(End cutting path id: path58168)


(Start cutting path id: path58168)
(Change tool to Default tool)

G00 Z5.000000
G00 X108.354000 Y-244.812700

G01 Z-0.125000 F100.0(Penetrate)
G01 X104.502800 Y-240.961700 Z-0.125000 F400.000000
G01 X104.384000 Y-240.696700 Z-0.125000
G01 X104.613700 Y-240.604700 Z-0.125000
G01 X105.018800 Y-240.688700 Z-0.125000
G01 X105.426100 Y-240.949700 Z-0.125000
G01 X108.938600 Y-244.462700 Z-0.125000
G01 X109.347900 Y-244.725700 Z-0.125000
G01 X109.757200 Y-244.812700 Z-0.125000
G01 X109.991000 Y-244.725700 Z-0.125000
G01 X109.874100 Y-244.462700 Z-0.125000
G01 X106.361600 Y-240.949700 Z-0.125000
G01 X106.244600 Y-240.686700 Z-0.125000
G01 X106.478500 Y-240.598700 Z-0.125000
G01 X106.887800 Y-240.686700 Z-0.125000
G01 X107.297000 Y-240.949700 Z-0.125000
G01 X110.809500 Y-244.462700 Z-0.125000
G01 X111.818000 Y-245.002700 Z-0.125000
G01 X112.182400 Y-245.045700 Z-0.125000
G01 X112.124900 Y-244.841700 Z-0.125000
G01 X107.881700 Y-240.598700 Z-0.125000
G00 Z5.000000

(End cutting path id: path58168)


(Start cutting path id: path58168)
(Change tool to Default tool)

G00 Z5.000000
G00 X97.048500 Y-246.857700

G01 Z-0.125000 F100.0(Penetrate)
G01 X96.721200 Y-248.872700 Z-0.125000 F400.000000
G01 X96.290600 Y-249.906700 Z-0.125000
G01 X95.653200 Y-250.870700 Z-0.125000
G01 X94.813500 Y-251.710700 Z-0.125000
G01 X93.741200 Y-252.403700 Z-0.125000
G01 X92.440700 Y-252.868700 Z-0.125000
G01 X90.881800 Y-253.023700 Z-0.125000
G01 X82.803000 Y-253.023700 Z-0.125000
G01 X80.787600 Y-252.696700 Z-0.125000
G01 X79.754100 Y-252.270700 Z-0.125000
G01 X78.789500 Y-251.645700 Z-0.125000
G01 X77.949700 Y-250.797700 Z-0.125000
G01 X77.256400 Y-249.733700 Z-0.125000
G01 X76.791300 Y-248.420700 Z-0.125000
G01 X76.636300 Y-246.857700 Z-0.125000
G01 X76.963600 Y-244.841700 Z-0.125000
G01 X77.389900 Y-243.799700 Z-0.125000
G01 X78.014300 Y-242.843700 Z-0.125000
G01 X78.862700 Y-241.990700 Z-0.125000
G01 X79.926300 Y-241.293700 Z-0.125000
G01 X81.239800 Y-240.828700 Z-0.125000
G01 X82.803000 Y-240.673700 Z-0.125000
G01 X90.881800 Y-240.673700 Z-0.125000
G01 X90.881800 Y-244.945700 Z-0.125000
G01 X82.803000 Y-244.945700 Z-0.125000
G01 X81.993400 Y-245.087700 Z-0.125000
G01 X81.390500 Y-245.513700 Z-0.125000
G01 X81.015900 Y-246.133700 Z-0.125000
G01 X80.891000 Y-246.891700 Z-0.125000
G01 X81.033100 Y-247.675700 Z-0.125000
G01 X81.459400 Y-248.269700 Z-0.125000
G01 X82.096800 Y-248.631700 Z-0.125000
G01 X82.837500 Y-248.751700 Z-0.125000
G01 X90.881800 Y-248.751700 Z-0.125000
G01 X91.691400 Y-248.614700 Z-0.125000
G01 X92.294200 Y-248.200700 Z-0.125000
G01 X92.668900 Y-247.580700 Z-0.125000
G01 X92.793800 Y-246.822700 Z-0.125000
G01 X92.793800 Y-240.569700 Z-0.125000
G01 X92.656000 Y-239.781700 Z-0.125000
G01 X92.242600 Y-239.174700 Z-0.125000
G01 X91.635400 Y-238.786700 Z-0.125000
G01 X90.881800 Y-238.657700 Z-0.125000
G01 X81.046000 Y-238.657700 Z-0.125000
G01 X81.046000 Y-234.403700 Z-0.125000
G01 X90.881800 Y-234.403700 Z-0.125000
G01 X91.846400 Y-234.484700 Z-0.125000
G01 X92.879900 Y-234.730700 Z-0.125000
G01 X93.922100 Y-235.161700 Z-0.125000
G01 X94.878100 Y-235.798700 Z-0.125000
G01 X95.730700 Y-236.638700 Z-0.125000
G01 X96.428400 Y-237.710700 Z-0.125000
G01 X96.893400 Y-239.010700 Z-0.125000
G01 X97.048500 Y-240.569700 Z-0.125000
G01 X97.048500 Y-246.857700 Z-0.125000
G00 Z5.000000

(End cutting path id: path58168)


(Start cutting path id: path58168)
(Change tool to Default tool)

G00 Z5.000000
G00 X99.379100 Y-252.675700

G01 Z-0.125000 F100.0(Penetrate)
G01 X99.486900 Y-252.783700 Z-0.125000 F400.000000
G01 X100.062500 Y-252.891700 Z-0.125000
G01 X100.357100 Y-252.864700 Z-0.125000
G01 X100.422400 Y-252.783700 Z-0.125000
G01 X99.729900 Y-252.091700 Z-0.125000
G01 X99.466800 Y-251.681700 Z-0.125000
G01 X99.379100 Y-251.272700 Z-0.125000
G01 X99.466800 Y-251.038700 Z-0.125000
G01 X99.729900 Y-251.155700 Z-0.125000
G01 X101.114800 Y-252.540700 Z-0.125000
G01 X101.524100 Y-252.803700 Z-0.125000
G01 X101.933400 Y-252.891700 Z-0.125000
G01 X102.167200 Y-252.803700 Z-0.125000
G01 X102.050300 Y-252.540700 Z-0.125000
G01 X99.729900 Y-250.220700 Z-0.125000
G01 X99.466800 Y-249.811700 Z-0.125000
G01 X99.379100 Y-249.401700 Z-0.125000
G01 X99.466800 Y-249.167700 Z-0.125000
G01 X99.729900 Y-249.284700 Z-0.125000
G01 X102.985700 Y-252.540700 Z-0.125000
G01 X103.395000 Y-252.803700 Z-0.125000
G01 X103.804200 Y-252.891700 Z-0.125000
G01 X104.038100 Y-252.803700 Z-0.125000
G01 X103.921200 Y-252.540700 Z-0.125000
G01 X100.408700 Y-249.028700 Z-0.125000
G01 X100.291800 Y-248.765700 Z-0.125000
G01 X100.525600 Y-248.677700 Z-0.125000
G01 X100.934900 Y-248.765700 Z-0.125000
G01 X101.344200 Y-249.028700 Z-0.125000
G01 X104.856600 Y-252.540700 Z-0.125000
G01 X105.265900 Y-252.803700 Z-0.125000
G01 X105.675100 Y-252.891700 Z-0.125000
G01 X105.909000 Y-252.803700 Z-0.125000
G01 X105.792100 Y-252.540700 Z-0.125000
G01 X102.279600 Y-249.028700 Z-0.125000
G01 X102.162700 Y-248.765700 Z-0.125000
G01 X102.396500 Y-248.677700 Z-0.125000
G01 X102.805800 Y-248.765700 Z-0.125000
G01 X103.215000 Y-249.028700 Z-0.125000
G01 X106.727500 Y-252.540700 Z-0.125000
G01 X107.136800 Y-252.803700 Z-0.125000
G01 X107.546000 Y-252.891700 Z-0.125000
G01 X107.779900 Y-252.803700 Z-0.125000
G01 X107.662900 Y-252.540700 Z-0.125000
G01 X104.150500 Y-249.028700 Z-0.125000
G01 X104.033600 Y-248.765700 Z-0.125000
G01 X104.267400 Y-248.677700 Z-0.125000
G01 X104.676700 Y-248.765700 Z-0.125000
G01 X105.085900 Y-249.028700 Z-0.125000
G01 X108.598400 Y-252.540700 Z-0.125000
G01 X109.007600 Y-252.803700 Z-0.125000
G01 X109.416900 Y-252.891700 Z-0.125000
G01 X109.650800 Y-252.803700 Z-0.125000
G01 X109.533800 Y-252.540700 Z-0.125000
G01 X106.021400 Y-249.028700 Z-0.125000
G01 X105.904400 Y-248.765700 Z-0.125000
G01 X106.138300 Y-248.677700 Z-0.125000
G01 X106.547600 Y-248.765700 Z-0.125000
G01 X106.956800 Y-249.028700 Z-0.125000
G01 X110.469300 Y-252.540700 Z-0.125000
G01 X110.876600 Y-252.801700 Z-0.125000
G01 X111.281500 Y-252.885700 Z-0.125000
G01 X111.511000 Y-252.793700 Z-0.125000
G01 X111.392100 Y-252.528700 Z-0.125000
G01 X107.892300 Y-249.028700 Z-0.125000
G01 X107.775300 Y-248.765700 Z-0.125000
G01 X108.009200 Y-248.677700 Z-0.125000
G01 X108.418400 Y-248.765700 Z-0.125000
G01 X108.827700 Y-249.028700 Z-0.125000
G01 X112.224800 Y-252.425700 Z-0.125000
G01 X112.604600 Y-252.658700 Z-0.125000
G01 X112.948800 Y-252.681700 Z-0.125000
G01 X113.117700 Y-252.528700 Z-0.125000
G01 X112.971200 Y-252.236700 Z-0.125000
G01 X109.763100 Y-249.028700 Z-0.125000
G01 X109.646200 Y-248.765700 Z-0.125000
G01 X109.880100 Y-248.677700 Z-0.125000
G01 X110.289300 Y-248.765700 Z-0.125000
G01 X110.698600 Y-249.028700 Z-0.125000
G01 X113.650700 Y-251.980700 Z-0.125000
G01 X114.011600 Y-252.195700 Z-0.125000
G01 X114.314600 Y-252.176700 Z-0.125000
G01 X114.442100 Y-251.982700 Z-0.125000
G01 X114.276900 Y-251.671700 Z-0.125000
G01 X111.634000 Y-249.028700 Z-0.125000
G01 X111.500900 Y-248.748700 Z-0.125000
G01 X111.699000 Y-248.625700 Z-0.125000
G01 X112.072600 Y-248.677700 Z-0.125000
G01 X112.465600 Y-248.924700 Z-0.125000
G01 X114.850500 Y-251.309700 Z-0.125000
G01 X115.194500 Y-251.507700 Z-0.125000
G01 X115.460400 Y-251.451700 Z-0.125000
G01 X115.550900 Y-251.220700 Z-0.125000
G01 X115.368800 Y-250.892700 Z-0.125000
G01 X113.076500 Y-248.599700 Z-0.125000
G01 X112.876100 Y-248.253700 Z-0.125000
G01 X112.926100 Y-247.981700 Z-0.125000
G01 X113.151600 Y-247.885700 Z-0.125000
G01 X113.477300 Y-248.065700 Z-0.125000
G01 X115.824100 Y-250.412700 Z-0.125000
G01 X116.149600 Y-250.591700 Z-0.125000
G01 X116.374600 Y-250.494700 Z-0.125000
G01 X116.424200 Y-250.222700 Z-0.125000
G01 X116.223500 Y-249.875700 Z-0.125000
G01 X113.657800 Y-247.310700 Z-0.125000
G01 X113.097400 Y-246.282700 Z-0.125000
G01 X113.041000 Y-245.904700 Z-0.125000
G01 X113.238600 Y-245.955700 Z-0.125000
G01 X116.557500 Y-249.274700 Z-0.125000
G01 X116.862700 Y-249.433700 Z-0.125000
G01 X117.043200 Y-249.292700 Z-0.125000
G01 X117.048200 Y-248.975700 Z-0.125000
G01 X116.827200 Y-248.608700 Z-0.125000
G01 X109.167900 Y-240.949700 Z-0.125000
G01 X109.051000 Y-240.686700 Z-0.125000
G01 X109.284800 Y-240.598700 Z-0.125000
G01 X109.694100 Y-240.686700 Z-0.125000
G01 X110.103300 Y-240.949700 Z-0.125000
G01 X117.051400 Y-247.897700 Z-0.125000
G01 X117.329800 Y-248.029700 Z-0.125000
G01 X117.451300 Y-247.829700 Z-0.125000
G01 X117.397300 Y-247.454700 Z-0.125000
G01 X117.149600 Y-247.060700 Z-0.125000
G01 X111.038800 Y-240.949700 Z-0.125000
G01 X110.922800 Y-240.687700 Z-0.125000
G01 X111.158700 Y-240.601700 Z-0.125000
G01 X111.569900 Y-240.691700 Z-0.125000
G01 X111.980100 Y-240.955700 Z-0.125000
G01 X117.172400 Y-246.147700 Z-0.125000
G01 X117.413700 Y-246.242700 Z-0.125000
G01 X117.453600 Y-245.961700 Z-0.125000
G01 X117.318100 Y-245.504700 Z-0.125000
G01 X117.033200 Y-245.073700 Z-0.125000
G01 X113.005600 Y-241.045700 Z-0.125000
G01 X112.948000 Y-240.841700 Z-0.125000
G01 X113.312400 Y-240.884700 Z-0.125000
G01 X114.320800 Y-241.425700 Z-0.125000
G01 X116.981700 Y-244.086700 Z-0.125000
G00 Z5.000000

(End cutting path id: path58168)


(Start cutting path id: path58168)
(Change tool to Default tool)

G00 Z5.000000
G00 X80.825000 Y-247.217700

G01 Z-0.125000 F100.0(Penetrate)
G01 X77.843900 Y-244.236700 Z-0.125000 F400.000000
G01 X77.635700 Y-243.882700 Z-0.125000
G01 X77.668600 Y-243.593700 Z-0.125000
G01 X77.877000 Y-243.480700 Z-0.125000
G01 X78.194900 Y-243.652700 Z-0.125000
G01 X80.479900 Y-245.937700 Z-0.125000
G01 X80.788400 Y-246.099700 Z-0.125000
G01 X80.976200 Y-245.966700 Z-0.125000
G01 X80.988600 Y-245.656700 Z-0.125000
G01 X80.771000 Y-245.293700 Z-0.125000
G01 X78.599500 Y-243.121700 Z-0.125000
G01 X78.408400 Y-242.784700 Z-0.125000
G01 X78.479300 Y-242.533700 Z-0.125000
G01 X78.725500 Y-242.458700 Z-0.125000
G01 X79.060700 Y-242.647700 Z-0.125000
G01 X81.226700 Y-244.813700 Z-0.125000
G01 X81.591200 Y-245.031700 Z-0.125000
G01 X81.902100 Y-245.021700 Z-0.125000
G01 X82.037600 Y-244.834700 Z-0.125000
G01 X81.875900 Y-244.527700 Z-0.125000
G01 X79.579300 Y-242.230700 Z-0.125000
G01 X79.405500 Y-241.910700 Z-0.125000
G01 X79.514100 Y-241.697700 Z-0.125000
G01 X79.798200 Y-241.660700 Z-0.125000
G01 X80.150600 Y-241.866700 Z-0.125000
G01 X82.746200 Y-244.461700 Z-0.125000
G01 X83.155500 Y-244.725700 Z-0.125000
G01 X83.564700 Y-244.812700 Z-0.125000
G01 X83.798600 Y-244.725700 Z-0.125000
G01 X83.681700 Y-244.461700 Z-0.125000
G01 X80.782000 Y-241.562700 Z-0.125000
G01 X80.630200 Y-241.264700 Z-0.125000
G01 X80.787300 Y-241.099700 Z-0.125000
G01 X81.119900 Y-241.110700 Z-0.125000
G01 X81.494300 Y-241.339700 Z-0.125000
G01 X84.617100 Y-244.461700 Z-0.125000
G01 X85.026400 Y-244.725700 Z-0.125000
G01 X85.435600 Y-244.812700 Z-0.125000
G01 X85.669500 Y-244.725700 Z-0.125000
G01 X85.552500 Y-244.461700 Z-0.125000
G01 X82.292700 Y-241.202700 Z-0.125000
G01 X82.168500 Y-240.931700 Z-0.125000
G01 X82.386400 Y-240.828700 Z-0.125000
G01 X82.779600 Y-240.899700 Z-0.125000
G01 X83.181600 Y-241.155700 Z-0.125000
G01 X86.488000 Y-244.461700 Z-0.125000
G01 X86.897200 Y-244.725700 Z-0.125000
G01 X87.306500 Y-244.812700 Z-0.125000
G01 X87.540400 Y-244.725700 Z-0.125000
G01 X87.423400 Y-244.461700 Z-0.125000
G01 X84.117700 Y-241.156700 Z-0.125000
G01 X84.000700 Y-240.893700 Z-0.125000
G01 X84.234600 Y-240.805700 Z-0.125000
G01 X84.643900 Y-240.893700 Z-0.125000
G01 X85.053100 Y-241.156700 Z-0.125000
G01 X88.358900 Y-244.461700 Z-0.125000
G01 X88.768100 Y-244.725700 Z-0.125000
G01 X89.177400 Y-244.812700 Z-0.125000
G01 X89.411200 Y-244.725700 Z-0.125000
G01 X89.294300 Y-244.461700 Z-0.125000
G01 X85.988600 Y-241.156700 Z-0.125000
G01 X85.871600 Y-240.893700 Z-0.125000
G01 X86.105500 Y-240.805700 Z-0.125000
G01 X86.514700 Y-240.893700 Z-0.125000
G01 X86.924000 Y-241.156700 Z-0.125000
G01 X90.229800 Y-244.461700 Z-0.125000
G01 X90.519200 Y-244.605700 Z-0.125000
G01 X90.665000 Y-244.429700 Z-0.125000
G01 X90.635400 Y-244.078700 Z-0.125000
G01 X90.398700 Y-243.695700 Z-0.125000
G01 X87.859400 Y-241.156700 Z-0.125000
G01 X87.742500 Y-240.893700 Z-0.125000
G01 X87.976400 Y-240.805700 Z-0.125000
G01 X88.385600 Y-240.893700 Z-0.125000
G01 X88.794900 Y-241.156700 Z-0.125000
G01 X90.398700 Y-242.759700 Z-0.125000
G01 X90.661800 Y-242.876700 Z-0.125000
G01 X90.749500 Y-242.643700 Z-0.125000
G01 X90.661800 Y-242.233700 Z-0.125000
G01 X90.398700 Y-241.824700 Z-0.125000
G01 X89.596800 Y-241.022700 Z-0.125000
G01 X89.580000 Y-240.859700 Z-0.125000
G01 X89.847300 Y-240.805700 Z-0.125000
G01 X90.532200 Y-241.022700 Z-0.125000
G01 X90.749400 Y-241.239700 Z-0.125000
G00 Z5.000000

(End cutting path id: path58168)


(Start cutting path id: path58168)
(Change tool to Default tool)

G00 Z5.000000
G00 X80.459800 Y-252.465700

G01 Z-0.125000 F100.0(Penetrate)
G01 X77.484500 Y-249.490700 Z-0.125000 F400.000000
G01 X77.175300 Y-249.034700 Z-0.125000
G01 X76.986200 Y-248.524700 Z-0.125000
G01 X76.972400 Y-248.188700 Z-0.125000
G01 X77.189400 Y-248.259700 Z-0.125000
G01 X81.402300 Y-252.472700 Z-0.125000
G01 X81.822200 Y-252.746700 Z-0.125000
G01 X82.254900 Y-252.857700 Z-0.125000
G01 X82.512300 Y-252.793700 Z-0.125000
G01 X82.406000 Y-252.540700 Z-0.125000
G01 X77.118400 Y-247.253700 Z-0.125000
G01 X76.865300 Y-246.853700 Z-0.125000
G01 X76.799500 Y-246.466700 Z-0.125000
G01 X76.909100 Y-246.254700 Z-0.125000
G01 X77.182100 Y-246.381700 Z-0.125000
G01 X83.341400 Y-252.540700 Z-0.125000
G01 X83.750700 Y-252.803700 Z-0.125000
G01 X84.159900 Y-252.891700 Z-0.125000
G01 X84.393800 Y-252.803700 Z-0.125000
G01 X84.276900 Y-252.540700 Z-0.125000
G01 X77.338600 Y-245.602700 Z-0.125000
G01 X77.109800 Y-245.227700 Z-0.125000
G01 X77.097600 Y-244.893700 Z-0.125000
G01 X77.260800 Y-244.735700 Z-0.125000
G01 X77.558200 Y-244.886700 Z-0.125000
G01 X85.212300 Y-252.540700 Z-0.125000
G01 X85.621600 Y-252.803700 Z-0.125000
G01 X86.030800 Y-252.891700 Z-0.125000
G01 X86.264700 Y-252.803700 Z-0.125000
G01 X86.147800 Y-252.540700 Z-0.125000
G01 X82.817200 Y-249.210700 Z-0.125000
G01 X82.704100 Y-248.950700 Z-0.125000
G01 X82.946500 Y-248.871700 Z-0.125000
G01 X83.364300 Y-248.967700 Z-0.125000
G01 X83.777400 Y-249.234700 Z-0.125000
G01 X87.083200 Y-252.540700 Z-0.125000
G01 X87.492500 Y-252.803700 Z-0.125000
G01 X87.901700 Y-252.891700 Z-0.125000
G01 X88.135600 Y-252.803700 Z-0.125000
G01 X88.018600 Y-252.540700 Z-0.125000
G01 X84.712900 Y-249.234700 Z-0.125000
G01 X84.596000 Y-248.971700 Z-0.125000
G01 X84.829800 Y-248.884700 Z-0.125000
G01 X85.239100 Y-248.971700 Z-0.125000
G01 X85.648300 Y-249.234700 Z-0.125000
G01 X88.954100 Y-252.540700 Z-0.125000
G01 X89.363300 Y-252.803700 Z-0.125000
G01 X89.772600 Y-252.891700 Z-0.125000
G01 X90.006500 Y-252.803700 Z-0.125000
G01 X89.889500 Y-252.540700 Z-0.125000
G01 X86.583800 Y-249.234700 Z-0.125000
G01 X86.466800 Y-248.971700 Z-0.125000
G01 X86.700700 Y-248.884700 Z-0.125000
G01 X87.110000 Y-248.971700 Z-0.125000
G01 X87.519200 Y-249.234700 Z-0.125000
G01 X90.852100 Y-252.567700 Z-0.125000
G01 X91.244400 Y-252.814700 Z-0.125000
G01 X91.616500 Y-252.864700 Z-0.125000
G01 X91.813200 Y-252.739700 Z-0.125000
G01 X91.679300 Y-252.459700 Z-0.125000
G01 X88.454700 Y-249.234700 Z-0.125000
G01 X88.337700 Y-248.971700 Z-0.125000
G01 X88.571600 Y-248.884700 Z-0.125000
G01 X88.980800 Y-248.971700 Z-0.125000
G01 X89.390100 Y-249.234700 Z-0.125000
G01 X92.445100 Y-252.289700 Z-0.125000
G01 X92.814400 Y-252.513700 Z-0.125000
G01 X93.135800 Y-252.512700 Z-0.125000
G01 X93.281700 Y-252.337700 Z-0.125000
G01 X93.124800 Y-252.034700 Z-0.125000
G01 X90.325500 Y-249.234700 Z-0.125000
G01 X90.208600 Y-248.971700 Z-0.125000
G01 X90.442500 Y-248.884700 Z-0.125000
G01 X90.851700 Y-248.971700 Z-0.125000
G01 X91.261000 Y-249.234700 Z-0.125000
G01 X93.732300 Y-251.706700 Z-0.125000
G01 X94.082200 Y-251.909700 Z-0.125000
G01 X94.360800 Y-251.867700 Z-0.125000
G01 X94.464100 Y-251.648700 Z-0.125000
G01 X94.287800 Y-251.326700 Z-0.125000
G01 X92.059800 Y-249.098700 Z-0.125000
G01 X91.887300 Y-248.779700 Z-0.125000
G01 X91.998800 Y-248.569700 Z-0.125000
G01 X92.285800 Y-248.535700 Z-0.125000
G01 X92.639400 Y-248.742700 Z-0.125000
G01 X94.788900 Y-250.891700 Z-0.125000
G01 X95.120800 Y-251.077700 Z-0.125000
G01 X95.360000 Y-250.995700 Z-0.125000
G01 X95.423800 Y-250.737700 Z-0.125000
G01 X95.229500 Y-250.397700 Z-0.125000
G01 X93.040900 Y-248.208700 Z-0.125000
G01 X92.808100 Y-247.829700 Z-0.125000
G01 X92.787300 Y-247.487700 Z-0.125000
G01 X92.941800 Y-247.320700 Z-0.125000
G01 X93.235200 Y-247.467700 Z-0.125000
G01 X95.615400 Y-249.847700 Z-0.125000
G01 X95.930500 Y-250.016700 Z-0.125000
G01 X96.132500 Y-249.897700 Z-0.125000
G01 X96.159200 Y-249.602700 Z-0.125000
G01 X95.948100 Y-249.244700 Z-0.125000
G01 X93.276900 Y-246.573700 Z-0.125000
G01 X93.013800 Y-246.164700 Z-0.125000
G01 X92.926100 Y-245.755700 Z-0.125000
G01 X93.013800 Y-245.521700 Z-0.125000
G01 X93.276900 Y-245.638700 Z-0.125000
G01 X96.213300 Y-248.574700 Z-0.125000
G01 X96.507300 Y-248.722700 Z-0.125000
G01 X96.663000 Y-248.556700 Z-0.125000
G01 X96.643300 Y-248.215700 Z-0.125000
G01 X96.411100 Y-247.837700 Z-0.125000
G01 X93.276900 Y-244.702700 Z-0.125000
G01 X93.013800 Y-244.293700 Z-0.125000
G01 X92.926100 Y-243.884700 Z-0.125000
G01 X93.013800 Y-243.650700 Z-0.125000
G01 X93.276900 Y-243.767700 Z-0.125000
G01 X96.539100 Y-247.029700 Z-0.125000
G01 X96.806300 Y-247.150700 Z-0.125000
G01 X96.903100 Y-246.925700 Z-0.125000
G01 X96.824400 Y-246.525700 Z-0.125000
G01 X96.565400 Y-246.120700 Z-0.125000
G01 X93.276900 Y-242.831700 Z-0.125000
G01 X93.013800 Y-242.422700 Z-0.125000
G01 X92.926100 Y-242.013700 Z-0.125000
G01 X93.013800 Y-241.779700 Z-0.125000
G01 X93.276900 Y-241.896700 Z-0.125000
G01 X96.565400 Y-245.184700 Z-0.125000
G01 X96.828500 Y-245.301700 Z-0.125000
G01 X96.916200 Y-245.067700 Z-0.125000
G01 X96.828500 Y-244.658700 Z-0.125000
G01 X96.565400 Y-244.249700 Z-0.125000
G01 X92.927900 Y-240.611700 Z-0.125000
G00 Z5.000000

(End cutting path id: path58168)


(Start cutting path id: path58168)
(Change tool to Default tool)

G00 Z5.000000
G00 X73.301100 Y-242.929700

G01 Z-0.125000 F100.0(Penetrate)
G01 X59.159000 Y-242.929700 Z-0.125000 F400.000000
G01 X59.159000 Y-238.416700 Z-0.125000
G01 X73.301100 Y-238.416700 Z-0.125000
G01 X73.301100 Y-242.929700 Z-0.125000
G00 Z5.000000

(End cutting path id: path58168)


(Start cutting path id: path58168)
(Change tool to Default tool)

G00 Z5.000000
G00 X75.316500 Y-253.023700

G01 Z-0.125000 F100.0(Penetrate)
G01 X59.159000 Y-253.023700 Z-0.125000 F400.000000
G01 X57.126400 Y-252.696700 Z-0.125000
G01 X56.062700 Y-252.265700 Z-0.125000
G01 X55.076500 Y-251.628700 Z-0.125000
G01 X54.219600 Y-250.763700 Z-0.125000
G01 X53.509000 Y-249.682700 Z-0.125000
G01 X53.043900 Y-248.342700 Z-0.125000
G01 X52.888900 Y-246.736700 Z-0.125000
G01 X52.888900 Y-230.579700 Z-0.125000
G01 X53.061100 Y-229.700700 Z-0.125000
G01 X53.526200 Y-228.977700 Z-0.125000
G01 X54.249700 Y-228.494700 Z-0.125000
G01 X55.145400 Y-228.322700 Z-0.125000
G01 X75.316500 Y-228.322700 Z-0.125000
G01 X75.316500 Y-232.801700 Z-0.125000
G01 X57.367500 Y-232.801700 Z-0.125000
G01 X57.367500 Y-246.736700 Z-0.125000
G01 X57.483800 Y-247.511700 Z-0.125000
G01 X57.832600 Y-248.080700 Z-0.125000
G01 X58.405300 Y-248.428700 Z-0.125000
G01 X59.193400 Y-248.545700 Z-0.125000
G01 X75.316500 Y-248.545700 Z-0.125000
G01 X75.316500 Y-253.023700 Z-0.125000
G00 Z5.000000

(End cutting path id: path58168)


(Start cutting path id: path58168)
(Change tool to Default tool)

G00 Z5.000000
G00 X58.853800 Y-248.632700

G01 Z-0.125000 F100.0(Penetrate)
G01 X62.761700 Y-252.540700 Z-0.125000 F400.000000
G01 X63.170900 Y-252.803700 Z-0.125000
G01 X63.580200 Y-252.891700 Z-0.125000
G01 X63.814100 Y-252.803700 Z-0.125000
G01 X63.697100 Y-252.540700 Z-0.125000
G01 X60.184700 Y-249.028700 Z-0.125000
G01 X60.067700 Y-248.765700 Z-0.125000
G01 X60.301600 Y-248.677700 Z-0.125000
G01 X60.710800 Y-248.765700 Z-0.125000
G01 X61.120100 Y-249.028700 Z-0.125000
G01 X64.632600 Y-252.540700 Z-0.125000
G01 X65.041800 Y-252.803700 Z-0.125000
G01 X65.451100 Y-252.891700 Z-0.125000
G01 X65.684900 Y-252.803700 Z-0.125000
G01 X65.568000 Y-252.540700 Z-0.125000
G01 X62.055500 Y-249.028700 Z-0.125000
G01 X61.938600 Y-248.765700 Z-0.125000
G01 X62.172500 Y-248.677700 Z-0.125000
G01 X62.581700 Y-248.765700 Z-0.125000
G01 X62.991000 Y-249.028700 Z-0.125000
G01 X66.503500 Y-252.540700 Z-0.125000
G01 X66.912700 Y-252.803700 Z-0.125000
G01 X67.322000 Y-252.891700 Z-0.125000
G01 X67.555800 Y-252.803700 Z-0.125000
G01 X67.438900 Y-252.540700 Z-0.125000
G01 X63.926400 Y-249.028700 Z-0.125000
G01 X63.809500 Y-248.765700 Z-0.125000
G01 X64.043400 Y-248.677700 Z-0.125000
G01 X64.452600 Y-248.765700 Z-0.125000
G01 X64.861900 Y-249.028700 Z-0.125000
G01 X68.374300 Y-252.540700 Z-0.125000
G01 X68.783600 Y-252.803700 Z-0.125000
G01 X69.192800 Y-252.891700 Z-0.125000
G01 X69.426700 Y-252.803700 Z-0.125000
G01 X69.309800 Y-252.540700 Z-0.125000
G01 X65.797300 Y-249.028700 Z-0.125000
G01 X65.680400 Y-248.765700 Z-0.125000
G01 X65.914200 Y-248.677700 Z-0.125000
G01 X66.323500 Y-248.765700 Z-0.125000
G01 X66.732800 Y-249.028700 Z-0.125000
G01 X70.245200 Y-252.540700 Z-0.125000
G01 X70.654500 Y-252.803700 Z-0.125000
G01 X71.063700 Y-252.891700 Z-0.125000
G01 X71.297600 Y-252.803700 Z-0.125000
G01 X71.180700 Y-252.540700 Z-0.125000
G01 X67.668200 Y-249.028700 Z-0.125000
G01 X67.551300 Y-248.765700 Z-0.125000
G01 X67.785100 Y-248.677700 Z-0.125000
G01 X68.194400 Y-248.765700 Z-0.125000
G01 X68.603600 Y-249.028700 Z-0.125000
G01 X72.116100 Y-252.540700 Z-0.125000
G01 X72.525400 Y-252.803700 Z-0.125000
G01 X72.934600 Y-252.891700 Z-0.125000
G01 X73.168500 Y-252.803700 Z-0.125000
G01 X73.051600 Y-252.540700 Z-0.125000
G01 X69.539100 Y-249.028700 Z-0.125000
G01 X69.422200 Y-248.765700 Z-0.125000
G01 X69.656000 Y-248.677700 Z-0.125000
G01 X70.065300 Y-248.765700 Z-0.125000
G01 X70.474500 Y-249.028700 Z-0.125000
G01 X73.987000 Y-252.540700 Z-0.125000
G01 X74.382300 Y-252.789700 Z-0.125000
G01 X74.761000 Y-252.847700 Z-0.125000
G01 X74.964200 Y-252.728700 Z-0.125000
G01 X74.833400 Y-252.451700 Z-0.125000
G01 X71.410000 Y-249.028700 Z-0.125000
G01 X71.293000 Y-248.765700 Z-0.125000
G01 X71.526900 Y-248.677700 Z-0.125000
G01 X71.936200 Y-248.765700 Z-0.125000
G01 X72.345400 Y-249.028700 Z-0.125000
G01 X74.833400 Y-251.516700 Z-0.125000
G01 X75.096500 Y-251.633700 Z-0.125000
G01 X75.184200 Y-251.399700 Z-0.125000
G01 X75.096500 Y-250.990700 Z-0.125000
G01 X74.833400 Y-250.580700 Z-0.125000
G01 X73.280900 Y-249.028700 Z-0.125000
G01 X73.163900 Y-248.765700 Z-0.125000
G01 X73.397800 Y-248.677700 Z-0.125000
G01 X73.807000 Y-248.765700 Z-0.125000
G01 X74.216300 Y-249.028700 Z-0.125000
G01 X74.992600 Y-249.804700 Z-0.125000
G01 X75.136300 Y-249.802700 Z-0.125000
G01 X75.184200 Y-249.528700 Z-0.125000
G01 X74.992600 Y-248.869700 Z-0.125000
G01 X74.801000 Y-248.677700 Z-0.125000
G00 Z5.000000

(End cutting path id: path58168)


(Start cutting path id: path58168)
(Change tool to Default tool)

G00 Z5.000000
G00 X59.291300 Y-242.522700

G01 Z-0.125000 F100.0(Penetrate)
G01 X59.428800 Y-242.659700 Z-0.125000 F400.000000
G01 X60.034200 Y-242.797700 Z-0.125000
G01 X60.321300 Y-242.762700 Z-0.125000
G01 X60.364300 Y-242.659700 Z-0.125000
G01 X59.642000 Y-241.937700 Z-0.125000
G01 X59.378900 Y-241.528700 Z-0.125000
G01 X59.291300 Y-241.119700 Z-0.125000
G01 X59.378900 Y-240.885700 Z-0.125000
G01 X59.642000 Y-241.002700 Z-0.125000
G01 X61.086500 Y-242.446700 Z-0.125000
G01 X61.495800 Y-242.709700 Z-0.125000
G01 X61.905000 Y-242.797700 Z-0.125000
G01 X62.138900 Y-242.709700 Z-0.125000
G01 X62.022000 Y-242.446700 Z-0.125000
G01 X59.642000 Y-240.066700 Z-0.125000
G01 X59.378900 Y-239.657700 Z-0.125000
G01 X59.291300 Y-239.248700 Z-0.125000
G01 X59.378900 Y-239.014700 Z-0.125000
G01 X59.642000 Y-239.131700 Z-0.125000
G01 X62.957400 Y-242.446700 Z-0.125000
G01 X63.366700 Y-242.709700 Z-0.125000
G01 X63.775900 Y-242.797700 Z-0.125000
G01 X64.009800 Y-242.709700 Z-0.125000
G01 X63.892900 Y-242.446700 Z-0.125000
G01 X60.345900 Y-238.899700 Z-0.125000
G01 X60.229000 Y-238.636700 Z-0.125000
G01 X60.462900 Y-238.548700 Z-0.125000
G01 X60.872100 Y-238.636700 Z-0.125000
G01 X61.281400 Y-238.899700 Z-0.125000
G01 X64.828300 Y-242.446700 Z-0.125000
G01 X65.237600 Y-242.709700 Z-0.125000
G01 X65.646800 Y-242.797700 Z-0.125000
G01 X65.880700 Y-242.709700 Z-0.125000
G01 X65.763700 Y-242.446700 Z-0.125000
G01 X62.216800 Y-238.899700 Z-0.125000
G01 X62.099900 Y-238.636700 Z-0.125000
G01 X62.333800 Y-238.548700 Z-0.125000
G01 X62.743000 Y-238.636700 Z-0.125000
G01 X63.152300 Y-238.899700 Z-0.125000
G01 X66.699200 Y-242.446700 Z-0.125000
G01 X67.108400 Y-242.709700 Z-0.125000
G01 X67.517700 Y-242.797700 Z-0.125000
G01 X67.751600 Y-242.709700 Z-0.125000
G01 X67.634600 Y-242.446700 Z-0.125000
G01 X64.087700 Y-238.899700 Z-0.125000
G01 X63.970800 Y-238.636700 Z-0.125000
G01 X64.204600 Y-238.548700 Z-0.125000
G01 X64.613900 Y-238.636700 Z-0.125000
G01 X65.023200 Y-238.899700 Z-0.125000
G01 X68.570100 Y-242.446700 Z-0.125000
G01 X68.979300 Y-242.709700 Z-0.125000
G01 X69.388600 Y-242.797700 Z-0.125000
G01 X69.622400 Y-242.709700 Z-0.125000
G01 X69.505500 Y-242.446700 Z-0.125000
G01 X65.958600 Y-238.899700 Z-0.125000
G01 X65.841700 Y-238.636700 Z-0.125000
G01 X66.075500 Y-238.548700 Z-0.125000
G01 X66.484800 Y-238.636700 Z-0.125000
G01 X66.894000 Y-238.899700 Z-0.125000
G01 X70.441000 Y-242.446700 Z-0.125000
G01 X70.850200 Y-242.709700 Z-0.125000
G01 X71.259500 Y-242.797700 Z-0.125000
G01 X71.493300 Y-242.709700 Z-0.125000
G01 X71.376400 Y-242.446700 Z-0.125000
G01 X67.829500 Y-238.899700 Z-0.125000
G01 X67.712600 Y-238.636700 Z-0.125000
G01 X67.946400 Y-238.548700 Z-0.125000
G01 X68.355700 Y-238.636700 Z-0.125000
G01 X68.764900 Y-238.899700 Z-0.125000
G01 X72.311800 Y-242.446700 Z-0.125000
G01 X72.654000 Y-242.642700 Z-0.125000
G01 X72.915700 Y-242.582700 Z-0.125000
G01 X73.002000 Y-242.347700 Z-0.125000
G01 X72.818000 Y-242.017700 Z-0.125000
G01 X69.700400 Y-238.899700 Z-0.125000
G01 X69.583400 Y-238.636700 Z-0.125000
G01 X69.817300 Y-238.548700 Z-0.125000
G01 X70.226600 Y-238.636700 Z-0.125000
G01 X70.635800 Y-238.899700 Z-0.125000
G01 X72.818000 Y-241.081700 Z-0.125000
G01 X73.081100 Y-241.198700 Z-0.125000
G01 X73.168800 Y-240.964700 Z-0.125000
G01 X73.081100 Y-240.555700 Z-0.125000
G01 X72.818000 Y-240.146700 Z-0.125000
G01 X71.571300 Y-238.899700 Z-0.125000
G01 X71.454300 Y-238.636700 Z-0.125000
G01 X71.688200 Y-238.548700 Z-0.125000
G01 X72.097400 Y-238.636700 Z-0.125000
G01 X72.506700 Y-238.899700 Z-0.125000
G01 X73.168800 Y-239.561700 Z-0.125000
G00 Z5.000000

(End cutting path id: path58168)


(Start cutting path id: path58168)
(Change tool to Default tool)

G00 Z5.000000
G00 X42.401490 Y-247.787700

G01 Z-0.125000 F100.0(Penetrate)
G01 X42.157630 Y-249.523700 Z-0.125000 F400.000000
G01 X41.512110 Y-250.872700 Z-0.125000
G01 X40.579700 Y-251.861700 Z-0.125000
G01 X39.460800 Y-252.521700 Z-0.125000
G01 X38.284530 Y-252.909700 Z-0.125000
G01 X37.165630 Y-253.023700 Z-0.125000
G01 X27.066880 Y-253.023700 Z-0.125000
G01 X27.066880 Y-249.294700 Z-0.125000
G01 X37.136940 Y-249.294700 Z-0.125000
G01 X37.803980 Y-249.197700 Z-0.125000
G01 X38.284530 Y-248.906700 Z-0.125000
G01 X38.575010 Y-248.433700 Z-0.125000
G01 X38.671840 Y-247.788700 Z-0.125000
G01 X38.550800 Y-247.135700 Z-0.125000
G01 X38.259430 Y-246.669700 Z-0.125000
G01 X37.797700 Y-246.389700 Z-0.125000
G01 X37.165630 Y-246.296700 Z-0.125000
G01 X31.384670 Y-246.296700 Z-0.125000
G01 X30.244250 Y-246.188700 Z-0.125000
G01 X29.290320 Y-245.865700 Z-0.125000
G01 X28.508530 Y-245.381700 Z-0.125000
G01 X27.884530 Y-244.789700 Z-0.125000
G01 X27.109910 Y-243.398700 Z-0.125000
G01 X26.880390 Y-242.007700 Z-0.125000
G01 X26.991570 Y-240.859700 Z-0.125000
G01 X27.325080 Y-239.912700 Z-0.125000
G01 X27.827150 Y-239.134700 Z-0.125000
G01 X28.443980 Y-238.521700 Z-0.125000
G01 X29.146880 Y-238.065700 Z-0.125000
G01 X29.907150 Y-237.760700 Z-0.125000
G01 X31.384670 Y-237.517700 Z-0.125000
G01 X40.551010 Y-237.517700 Z-0.125000
G01 X40.551010 Y-241.246700 Z-0.125000
G01 X31.413360 Y-241.246700 Z-0.125000
G01 X30.954320 Y-241.318700 Z-0.125000
G01 X30.710460 Y-241.490700 Z-0.125000
G01 X30.624390 Y-241.720700 Z-0.125000
G01 X30.610050 Y-241.949700 Z-0.125000
G01 X30.696120 Y-242.308700 Z-0.125000
G01 X30.868250 Y-242.494700 Z-0.125000
G01 X31.112120 Y-242.566700 Z-0.125000
G01 X31.384670 Y-242.566700 Z-0.125000
G01 X37.165630 Y-242.566700 Z-0.125000
G01 X38.492530 Y-242.695700 Z-0.125000
G01 X39.604250 Y-243.082700 Z-0.125000
G01 X40.511560 Y-243.667700 Z-0.125000
G01 X41.225220 Y-244.388700 Z-0.125000
G01 X41.755980 Y-245.198700 Z-0.125000
G01 X42.114600 Y-246.080700 Z-0.125000
G01 X42.401490 Y-247.787700 Z-0.125000
G01 X42.401490 Y-247.787700 Z-0.125000
G00 Z5.000000

(End cutting path id: path58168)


(Start cutting path id: path58168)
(Change tool to Default tool)

G00 Z5.000000
G00 X35.655247 Y-242.698700

G01 Z-0.125000 F100.0(Penetrate)
G01 X41.768120 Y-248.811700 Z-0.125000 F400.000000
G01 X42.050970 Y-248.948700 Z-0.125000
G01 X42.182130 Y-248.758700 Z-0.125000
G01 X42.137890 Y-248.392700 Z-0.125000
G01 X41.894550 Y-248.002700 Z-0.125000
G01 X36.941480 Y-243.049700 Z-0.125000
G01 X36.825880 Y-242.787700 Z-0.125000
G01 X37.062660 Y-242.703700 Z-0.125000
G01 X37.474840 Y-242.793700 Z-0.125000
G01 X37.885420 Y-243.058700 Z-0.125000
G01 X41.902890 Y-247.076700 Z-0.125000
G01 X42.130840 Y-247.157700 Z-0.125000
G01 X42.141230 Y-246.846700 Z-0.125000
G01 X41.976210 Y-246.360700 Z-0.125000
G01 X41.677980 Y-245.915700 Z-0.125000
G01 X38.925130 Y-243.162700 Z-0.125000
G01 X38.839980 Y-243.036700 Z-0.125000
G01 X38.910470 Y-243.001700 Z-0.125000
G01 X39.369330 Y-243.138700 Z-0.125000
G01 X40.515120 Y-243.816700 Z-0.125000
G01 X41.402220 Y-244.703700 Z-0.125000
G00 Z5.000000

(End cutting path id: path58168)


(Start cutting path id: path58168)
(Change tool to Default tool)

G00 Z5.000000
G00 X29.440280 Y-245.838700

G01 Z-0.125000 F100.0(Penetrate)
G01 X27.625900 Y-244.023700 Z-0.125000 F400.000000
G01 X27.327690 Y-243.579700 Z-0.125000
G01 X27.162730 Y-243.092700 Z-0.125000
G01 X27.173160 Y-242.781700 Z-0.125000
G01 X27.401130 Y-242.863700 Z-0.125000
G01 X30.351700 Y-245.814700 Z-0.125000
G01 X30.760780 Y-246.077700 Z-0.125000
G01 X31.169650 Y-246.164700 Z-0.125000
G01 X31.403130 Y-246.076700 Z-0.125000
G01 X31.286020 Y-245.813700 Z-0.125000
G01 X27.381000 Y-241.908700 Z-0.125000
G01 X27.137450 Y-241.518700 Z-0.125000
G01 X27.092760 Y-241.152700 Z-0.125000
G01 X27.223460 Y-240.961700 Z-0.125000
G01 X27.506100 Y-241.097700 Z-0.125000
G01 X32.221470 Y-245.813700 Z-0.125000
G01 X32.630720 Y-246.076700 Z-0.125000
G01 X33.039980 Y-246.163700 Z-0.125000
G01 X33.273840 Y-246.076700 Z-0.125000
G01 X33.156910 Y-245.813700 Z-0.125000
G01 X27.402100 Y-240.058700 Z-0.125000
G00 Z5.000000

(End cutting path id: path58168)


(Start cutting path id: path58168)
(Change tool to Default tool)

G00 Z5.000000
G00 X26.170520 Y-241.246700

G01 Z-0.125000 F100.0(Penetrate)
G01 X19.658000 Y-241.246700 Z-0.125000 F400.000000
G01 X19.658000 Y-253.023700 Z-0.125000
G01 X15.885300 Y-253.023700 Z-0.125000
G01 X15.885300 Y-241.246700 Z-0.125000
G01 X11.036700 Y-241.246700 Z-0.125000
G01 X11.036700 Y-237.517700 Z-0.125000
G01 X15.885300 Y-237.517700 Z-0.125000
G01 X15.885300 Y-232.453700 Z-0.125000
G01 X19.658000 Y-232.453700 Z-0.125000
G01 X19.658000 Y-237.517700 Z-0.125000
G01 X26.170520 Y-237.517700 Z-0.125000
G01 X26.170520 Y-241.246700 Z-0.125000
G00 Z5.000000

(End cutting path id: path58168)


(Start cutting path id: path58168)
(Change tool to Default tool)

G00 Z5.000000
G00 X20.316000 Y-237.649700

G01 Z-0.125000 F100.0(Penetrate)
G01 X23.430300 Y-240.763700 Z-0.125000 F400.000000
G01 X23.839600 Y-241.026700 Z-0.125000
G01 X24.248800 Y-241.114700 Z-0.125000
G01 X24.482700 Y-241.026700 Z-0.125000
G01 X24.365800 Y-240.763700 Z-0.125000
G01 X21.602300 Y-238.000700 Z-0.125000
G01 X21.485300 Y-237.737700 Z-0.125000
G01 X21.719200 Y-237.649700 Z-0.125000
G01 X22.128500 Y-237.737700 Z-0.125000
G01 X22.537700 Y-238.000700 Z-0.125000
G01 X25.301200 Y-240.763700 Z-0.125000
G01 X25.624700 Y-240.940700 Z-0.125000
G01 X25.845110 Y-240.839700 Z-0.125000
G01 X25.890180 Y-240.563700 Z-0.125000
G01 X25.687400 Y-240.214700 Z-0.125000
G01 X23.473200 Y-238.000700 Z-0.125000
G01 X23.356200 Y-237.737700 Z-0.125000
G01 X23.590100 Y-237.649700 Z-0.125000
G01 X23.999300 Y-237.737700 Z-0.125000
G01 X24.408600 Y-238.000700 Z-0.125000
G01 X25.687400 Y-239.279700 Z-0.125000
G01 X25.950520 Y-239.395700 Z-0.125000
G01 X26.038220 Y-239.162700 Z-0.125000
G01 X25.950520 Y-238.752700 Z-0.125000
G01 X25.687400 Y-238.343700 Z-0.125000
G01 X24.993300 Y-237.649700 Z-0.125000
G00 Z5.000000

(End cutting path id: path58168)


(Start cutting path id: path58168)
(Change tool to Default tool)

G00 Z5.000000
G00 X19.525700 Y-243.407700

G01 Z-0.125000 F100.0(Penetrate)
G01 X14.118700 Y-238.000700 Z-0.125000 F400.000000
G01 X14.001800 Y-237.737700 Z-0.125000
G01 X14.235700 Y-237.649700 Z-0.125000
G01 X14.644900 Y-237.737700 Z-0.125000
G01 X15.054200 Y-238.000700 Z-0.125000
G01 X19.174900 Y-242.120700 Z-0.125000
G01 X19.438000 Y-242.237700 Z-0.125000
G01 X19.525700 Y-242.003700 Z-0.125000
G01 X19.438000 Y-241.594700 Z-0.125000
G01 X19.174900 Y-241.185700 Z-0.125000
G01 X15.989600 Y-238.000700 Z-0.125000
G01 X15.785700 Y-237.650700 Z-0.125000
G01 X15.828200 Y-237.371700 Z-0.125000
G01 X16.046100 Y-237.267700 Z-0.125000
G01 X16.368400 Y-237.443700 Z-0.125000
G01 X19.688600 Y-240.763700 Z-0.125000
G01 X20.097800 Y-241.026700 Z-0.125000
G01 X20.507100 Y-241.114700 Z-0.125000
G01 X20.740900 Y-241.026700 Z-0.125000
G01 X20.624000 Y-240.763700 Z-0.125000
G01 X16.368400 Y-236.508700 Z-0.125000
G01 X16.105300 Y-236.098700 Z-0.125000
G01 X16.017600 Y-235.689700 Z-0.125000
G01 X16.105300 Y-235.455700 Z-0.125000
G01 X16.368400 Y-235.572700 Z-0.125000
G01 X21.559400 Y-240.763700 Z-0.125000
G01 X21.968700 Y-241.026700 Z-0.125000
G01 X22.377900 Y-241.114700 Z-0.125000
G01 X22.611800 Y-241.026700 Z-0.125000
G01 X22.494900 Y-240.763700 Z-0.125000
G01 X16.368400 Y-234.637700 Z-0.125000
G01 X16.105300 Y-234.227700 Z-0.125000
G01 X16.017600 Y-233.818700 Z-0.125000
G01 X16.105300 Y-233.584700 Z-0.125000
G01 X16.368400 Y-233.701700 Z-0.125000
G01 X19.174900 Y-236.508700 Z-0.125000
G01 X19.438000 Y-236.625700 Z-0.125000
G01 X19.525700 Y-236.391700 Z-0.125000
G01 X19.438000 Y-235.982700 Z-0.125000
G01 X19.174900 Y-235.572700 Z-0.125000
G01 X16.538600 Y-232.936700 Z-0.125000
G01 X16.421600 Y-232.673700 Z-0.125000
G01 X16.655500 Y-232.585700 Z-0.125000
G01 X17.064700 Y-232.673700 Z-0.125000
G01 X17.474000 Y-232.936700 Z-0.125000
G01 X19.174900 Y-234.637700 Z-0.125000
G01 X19.438000 Y-234.754700 Z-0.125000
G01 X19.525700 Y-234.520700 Z-0.125000
G01 X19.438000 Y-234.111700 Z-0.125000
G01 X19.174900 Y-233.701700 Z-0.125000
G01 X18.324400 Y-232.851700 Z-0.125000
G01 X18.271300 Y-232.652700 Z-0.125000
G01 X18.526400 Y-232.585700 Z-0.125000
G01 X18.914400 Y-232.652700 Z-0.125000
G01 X19.259900 Y-232.851700 Z-0.125000
G01 X19.525700 Y-233.117700 Z-0.125000
G00 Z5.000000

(End cutting path id: path58168)


(Start cutting path id: path58168)
(Change tool to Default tool)

G00 Z5.000000
G00 X9.034600 Y-239.464700

G01 Z-0.125000 F100.0(Penetrate)
G01 X8.153200 Y-238.583700 Z-0.125000 F400.000000
G00 Z5.000000

(End cutting path id: path58168)


(Start cutting path id: path58168)
(Change tool to Default tool)

G00 Z5.000000
G00 X6.453800 Y-242.767700

G01 Z-0.125000 F100.0(Penetrate)
G01 X6.356900 Y-242.093700 Z-0.125000 F400.000000
G01 X6.066400 Y-241.619700 Z-0.125000
G01 X5.593100 Y-241.339700 Z-0.125000
G01 X4.947500 Y-241.246700 Z-0.125000
G01 X-1.751500 Y-241.246700 Z-0.125000
G01 X-2.407800 Y-241.343700 Z-0.125000
G01 X-2.884700 Y-241.634700 Z-0.125000
G01 X-3.175200 Y-242.096700 Z-0.125000
G01 X-3.272000 Y-242.738700 Z-0.125000
G01 X-3.272000 Y-247.787700 Z-0.125000
G01 X-3.175200 Y-248.433700 Z-0.125000
G01 X-2.884700 Y-248.906700 Z-0.125000
G01 X-2.407800 Y-249.197700 Z-0.125000
G01 X-1.751500 Y-249.294700 Z-0.125000
G01 X4.947500 Y-249.294700 Z-0.125000
G01 X5.611000 Y-249.197700 Z-0.125000
G01 X6.080800 Y-248.906700 Z-0.125000
G01 X6.360500 Y-248.433700 Z-0.125000
G01 X6.453800 Y-247.787700 Z-0.125000
G01 X6.453800 Y-242.767700 Z-0.125000
G00 Z5.000000

(End cutting path id: path58168)


(Start cutting path id: path58168)
(Change tool to Default tool)

G00 Z5.000000
G00 X10.183400 Y-247.787700

G01 Z-0.125000 F100.0(Penetrate)
G01 X9.939500 Y-249.523700 Z-0.125000 F400.000000
G01 X9.294000 Y-250.872700 Z-0.125000
G01 X8.361600 Y-251.861700 Z-0.125000
G01 X7.242700 Y-252.521700 Z-0.125000
G01 X6.066400 Y-252.909700 Z-0.125000
G01 X4.947500 Y-253.023700 Z-0.125000
G01 X-1.780200 Y-253.023700 Z-0.125000
G01 X-3.472900 Y-252.751700 Z-0.125000
G01 X-4.358700 Y-252.392700 Z-0.125000
G01 X-5.179900 Y-251.861700 Z-0.125000
G01 X-5.893600 Y-251.141700 Z-0.125000
G01 X-6.485300 Y-250.240700 Z-0.125000
G01 X-6.872600 Y-249.125700 Z-0.125000
G01 X-7.001700 Y-247.787700 Z-0.125000
G01 X-7.001700 Y-242.738700 Z-0.125000
G01 X-6.872600 Y-241.415700 Z-0.125000
G01 X-6.485300 Y-240.314700 Z-0.125000
G01 X-5.893600 Y-239.407700 Z-0.125000
G01 X-5.179900 Y-238.693700 Z-0.125000
G01 X-4.358700 Y-238.151700 Z-0.125000
G01 X-3.472900 Y-237.789700 Z-0.125000
G01 X-1.780200 Y-237.517700 Z-0.125000
G01 X4.947500 Y-237.517700 Z-0.125000
G01 X6.274400 Y-237.646700 Z-0.125000
G01 X7.386200 Y-238.033700 Z-0.125000
G01 X8.293500 Y-238.618700 Z-0.125000
G01 X9.007100 Y-239.338700 Z-0.125000
G01 X9.537900 Y-240.149700 Z-0.125000
G01 X9.896500 Y-241.031700 Z-0.125000
G01 X10.183400 Y-242.738700 Z-0.125000
G01 X10.183400 Y-247.787700 Z-0.125000
G00 Z5.000000

(End cutting path id: path58168)


(Start cutting path id: path58168)
(Change tool to Default tool)

G00 Z5.000000
G00 X16.849200 Y-252.891700

G01 Z-0.125000 F100.0(Penetrate)
G01 X16.368300 Y-252.410700 Z-0.125000 F400.000000
G01 X16.105200 Y-252.001700 Z-0.125000
G01 X16.017500 Y-251.592700 Z-0.125000
G01 X16.105200 Y-251.358700 Z-0.125000
G01 X16.368300 Y-251.475700 Z-0.125000
G01 X17.433900 Y-252.541700 Z-0.125000
G01 X17.843200 Y-252.804700 Z-0.125000
G01 X18.252400 Y-252.891700 Z-0.125000
G01 X18.486300 Y-252.804700 Z-0.125000
G01 X18.369300 Y-252.541700 Z-0.125000
G01 X16.368300 Y-250.540700 Z-0.125000
G01 X16.105200 Y-250.130700 Z-0.125000
G01 X16.017500 Y-249.721700 Z-0.125000
G01 X16.105200 Y-249.487700 Z-0.125000
G01 X16.368300 Y-249.604700 Z-0.125000
G01 X19.174800 Y-252.411700 Z-0.125000
G01 X19.437900 Y-252.528700 Z-0.125000
G01 X19.525600 Y-252.294700 Z-0.125000
G01 X19.437900 Y-251.884700 Z-0.125000
G01 X19.174800 Y-251.475700 Z-0.125000
G01 X16.368300 Y-248.669700 Z-0.125000
G01 X16.105200 Y-248.259700 Z-0.125000
G01 X16.017500 Y-247.850700 Z-0.125000
G01 X16.105200 Y-247.616700 Z-0.125000
G01 X16.368300 Y-247.733700 Z-0.125000
G01 X19.174800 Y-250.540700 Z-0.125000
G01 X19.437900 Y-250.657700 Z-0.125000
G01 X19.525600 Y-250.423700 Z-0.125000
G01 X19.437900 Y-250.014700 Z-0.125000
G01 X19.174800 Y-249.604700 Z-0.125000
G01 X16.368300 Y-246.798700 Z-0.125000
G01 X16.105200 Y-246.389700 Z-0.125000
G01 X16.017500 Y-245.979700 Z-0.125000
G01 X16.105200 Y-245.745700 Z-0.125000
G01 X16.368300 Y-245.862700 Z-0.125000
G01 X19.174800 Y-248.669700 Z-0.125000
G01 X19.437900 Y-248.786700 Z-0.125000
G01 X19.525600 Y-248.552700 Z-0.125000
G01 X19.437900 Y-248.143700 Z-0.125000
G01 X19.174800 Y-247.733700 Z-0.125000
G01 X16.368300 Y-244.927700 Z-0.125000
G01 X16.105200 Y-244.518700 Z-0.125000
G01 X16.017500 Y-244.108700 Z-0.125000
G01 X16.105200 Y-243.875700 Z-0.125000
G01 X16.368300 Y-243.991700 Z-0.125000
G01 X19.174800 Y-246.798700 Z-0.125000
G01 X19.437900 Y-246.915700 Z-0.125000
G01 X19.525600 Y-246.681700 Z-0.125000
G01 X19.437900 Y-246.272700 Z-0.125000
G01 X19.174800 Y-245.863700 Z-0.125000
G01 X16.368300 Y-243.056700 Z-0.125000
G01 X16.105200 Y-242.647700 Z-0.125000
G01 X16.017500 Y-242.238700 Z-0.125000
G01 X16.105200 Y-242.004700 Z-0.125000
G01 X16.368300 Y-242.121700 Z-0.125000
G01 X19.174800 Y-244.927700 Z-0.125000
G01 X19.437900 Y-245.044700 Z-0.125000
G01 X19.525600 Y-244.810700 Z-0.125000
G01 X19.437900 Y-244.401700 Z-0.125000
G01 X19.174800 Y-243.992700 Z-0.125000
G01 X13.183200 Y-238.000700 Z-0.125000
G01 X12.773900 Y-237.737700 Z-0.125000
G01 X12.364700 Y-237.649700 Z-0.125000
G01 X12.130800 Y-237.737700 Z-0.125000
G01 X12.247700 Y-238.000700 Z-0.125000
G01 X15.011200 Y-240.764700 Z-0.125000
G01 X15.128200 Y-241.027700 Z-0.125000
G01 X14.894300 Y-241.114700 Z-0.125000
G01 X14.485000 Y-241.027700 Z-0.125000
G01 X14.075800 Y-240.764700 Z-0.125000
G01 X11.519700 Y-238.208700 Z-0.125000
G01 X11.256600 Y-238.091700 Z-0.125000
G01 X11.168900 Y-238.324700 Z-0.125000
G01 X11.256600 Y-238.734700 Z-0.125000
G01 X11.519700 Y-239.143700 Z-0.125000
G01 X13.140300 Y-240.764700 Z-0.125000
G01 X13.257300 Y-241.027700 Z-0.125000
G01 X13.023400 Y-241.114700 Z-0.125000
G01 X12.614200 Y-241.027700 Z-0.125000
G01 X12.204900 Y-240.764700 Z-0.125000
G01 X11.394600 Y-239.953700 Z-0.125000
G01 X11.225300 Y-239.930700 Z-0.125000
G01 X11.168900 Y-240.195700 Z-0.125000
G01 X11.394600 Y-240.889700 Z-0.125000
G01 X11.394600 Y-240.889700 Z-0.125000
G01 X11.414900 Y-240.989700 Z-0.125000
G01 X11.278600 Y-241.065700 Z-0.125000
G01 X10.707500 Y-241.137700 Z-0.125000
G01 X10.023600 Y-241.096700 Z-0.125000
G01 X9.569100 Y-240.934700 Z-0.125000
G01 X6.814100 Y-238.179700 Z-0.125000
G01 X6.378300 Y-237.889700 Z-0.125000
G01 X5.910800 Y-237.743700 Z-0.125000
G01 X5.618700 Y-237.773700 Z-0.125000
G01 X5.709100 Y-238.010700 Z-0.125000
G01 X9.681800 Y-241.982700 Z-0.125000
G01 X9.947800 Y-242.394700 Z-0.125000
G01 X10.041800 Y-242.810700 Z-0.125000
G01 X9.960400 Y-243.050700 Z-0.125000
G01 X9.700200 Y-242.936700 Z-0.125000
G01 X4.764200 Y-238.000700 Z-0.125000
G01 X4.354900 Y-237.737700 Z-0.125000
G01 X3.945700 Y-237.649700 Z-0.125000
G01 X3.711800 Y-237.737700 Z-0.125000
G01 X3.828700 Y-238.000700 Z-0.125000
G01 X9.700200 Y-243.872700 Z-0.125000
G01 X9.963300 Y-244.281700 Z-0.125000
G01 X10.051000 Y-244.690700 Z-0.125000
G01 X9.963300 Y-244.924700 Z-0.125000
G01 X9.700200 Y-244.807700 Z-0.125000
G01 X2.542500 Y-237.649700 Z-0.125000
G00 Z5.000000

(End cutting path id: path58168)


(Start cutting path id: path58168)
(Change tool to Default tool)

G00 Z5.000000
G00 X-8.658300 Y-247.787700

G01 Z-0.125000 F100.0(Penetrate)
G01 X-8.787400 Y-248.906700 Z-0.125000 F400.000000
G01 X-9.160400 Y-250.083700 Z-0.125000
G01 X-9.834600 Y-251.187700 Z-0.125000
G01 X-10.824400 Y-252.134700 Z-0.125000
G01 X-12.158500 Y-252.779700 Z-0.125000
G01 X-13.879900 Y-253.023700 Z-0.125000
G01 X-20.607600 Y-253.023700 Z-0.125000
G01 X-21.726500 Y-252.909700 Z-0.125000
G01 X-22.902700 Y-252.521700 Z-0.125000
G01 X-24.007300 Y-251.861700 Z-0.125000
G01 X-24.954100 Y-250.872700 Z-0.125000
G01 X-25.599600 Y-249.523700 Z-0.125000
G01 X-25.843400 Y-247.787700 Z-0.125000
G01 X-25.843400 Y-230.961700 Z-0.125000
G01 X-22.113800 Y-230.961700 Z-0.125000
G01 X-22.113800 Y-247.787700 Z-0.125000
G01 X-22.006200 Y-248.408700 Z-0.125000
G01 X-21.683400 Y-248.892700 Z-0.125000
G01 X-21.199300 Y-249.193700 Z-0.125000
G01 X-20.607600 Y-249.294700 Z-0.125000
G01 X-13.879900 Y-249.294700 Z-0.125000
G01 X-13.255900 Y-249.190700 Z-0.125000
G01 X-12.789600 Y-248.878700 Z-0.125000
G01 X-12.488400 Y-248.397700 Z-0.125000
G01 X-12.388000 Y-247.787700 Z-0.125000
G01 X-12.388000 Y-242.738700 Z-0.125000
G01 X-12.492000 Y-242.114700 Z-0.125000
G01 X-12.804000 Y-241.648700 Z-0.125000
G01 X-13.281000 Y-241.347700 Z-0.125000
G01 X-13.879900 Y-241.246700 Z-0.125000
G01 X-20.607600 Y-241.246700 Z-0.125000
G01 X-20.607600 Y-237.517700 Z-0.125000
G01 X-13.879900 Y-237.517700 Z-0.125000
G01 X-12.761000 Y-237.646700 Z-0.125000
G01 X-11.599000 Y-238.019700 Z-0.125000
G01 X-10.480100 Y-238.693700 Z-0.125000
G01 X-9.547700 Y-239.683700 Z-0.125000
G01 X-8.902200 Y-241.017700 Z-0.125000
G01 X-8.658300 Y-242.738700 Z-0.125000
G01 X-8.658300 Y-247.787700 Z-0.125000
G00 Z5.000000

(End cutting path id: path58168)


(Start cutting path id: path58168)
(Change tool to Default tool)

G00 Z5.000000
G00 X-6.330600 Y-250.291700

G01 Z-0.125000 F100.0(Penetrate)
G01 X-4.579700 Y-252.042700 Z-0.125000 F400.000000
G01 X-3.581100 Y-252.573700 Z-0.125000
G01 X-3.223400 Y-252.609700 Z-0.125000
G01 X-3.284100 Y-252.402700 Z-0.125000
G01 X-6.448100 Y-249.238700 Z-0.125000
G01 X-6.724000 Y-248.816700 Z-0.125000
G01 X-6.839900 Y-248.379700 Z-0.125000
G01 X-6.780400 Y-248.117700 Z-0.125000
G01 X-6.530200 Y-248.221700 Z-0.125000
G01 X-2.209100 Y-252.542700 Z-0.125000
G01 X-1.800100 Y-252.805700 Z-0.125000
G01 X-1.391300 Y-252.892700 Z-0.125000
G01 X-1.157800 Y-252.804700 Z-0.125000
G01 X-1.275000 Y-252.541700 Z-0.125000
G01 X-6.518700 Y-247.297700 Z-0.125000
G01 X-6.781800 Y-246.888700 Z-0.125000
G01 X-6.869500 Y-246.478700 Z-0.125000
G01 X-6.781800 Y-246.245700 Z-0.125000
G01 X-6.518700 Y-246.362700 Z-0.125000
G01 X-0.339500 Y-252.541700 Z-0.125000
G01 X0.069700 Y-252.804700 Z-0.125000
G01 X0.479000 Y-252.891700 Z-0.125000
G01 X0.712800 Y-252.804700 Z-0.125000
G01 X0.595900 Y-252.541700 Z-0.125000
G01 X-6.518700 Y-245.426700 Z-0.125000
G01 X-6.781800 Y-245.017700 Z-0.125000
G01 X-6.869500 Y-244.608700 Z-0.125000
G01 X-6.781800 Y-244.374700 Z-0.125000
G01 X-6.518700 Y-244.491700 Z-0.125000
G01 X-3.755200 Y-247.254700 Z-0.125000
G01 X-3.492100 Y-247.371700 Z-0.125000
G01 X-3.404400 Y-247.137700 Z-0.125000
G01 X-3.492100 Y-246.728700 Z-0.125000
G01 X-3.755200 Y-246.319700 Z-0.125000
G01 X-6.518700 Y-243.555700 Z-0.125000
G01 X-6.779400 Y-243.148700 Z-0.125000
G01 X-6.861600 Y-242.745700 Z-0.125000
G01 X-6.768500 Y-242.516700 Z-0.125000
G01 X-6.503000 Y-242.635700 Z-0.125000
G01 X-3.755200 Y-245.383700 Z-0.125000
G01 X-3.492100 Y-245.500700 Z-0.125000
G01 X-3.404400 Y-245.266700 Z-0.125000
G01 X-3.492100 Y-244.857700 Z-0.125000
G01 X-3.755200 Y-244.448700 Z-0.125000
G01 X-6.395800 Y-241.807700 Z-0.125000
G01 X-6.625100 Y-241.432700 Z-0.125000
G01 X-6.638400 Y-241.097700 Z-0.125000
G01 X-6.476400 Y-240.937700 Z-0.125000
G01 X-6.179500 Y-241.088700 Z-0.125000
G01 X-3.755200 Y-243.512700 Z-0.125000
G01 X-3.492100 Y-243.629700 Z-0.125000
G01 X-3.404400 Y-243.395700 Z-0.125000
G01 X-3.492100 Y-242.986700 Z-0.125000
G01 X-3.755200 Y-242.577700 Z-0.125000
G01 X-5.869100 Y-240.463700 Z-0.125000
G01 X-6.073000 Y-240.113700 Z-0.125000
G01 X-6.030400 Y-239.834700 Z-0.125000
G01 X-5.812400 Y-239.730700 Z-0.125000
G01 X-5.490100 Y-239.907700 Z-0.125000
G01 X-3.661000 Y-241.736700 Z-0.125000
G01 X-3.341300 Y-241.909700 Z-0.125000
G01 X-3.129100 Y-241.800700 Z-0.125000
G01 X-3.092300 Y-241.515700 Z-0.125000
G01 X-3.298800 Y-241.162700 Z-0.125000
G01 X-5.047700 Y-239.414700 Z-0.125000
G01 X-5.231100 Y-239.084700 Z-0.125000
G01 X-5.143500 Y-238.850700 Z-0.125000
G01 X-4.880600 Y-238.791700 Z-0.125000
G01 X-4.537800 Y-238.988700 Z-0.125000
G01 X-2.694300 Y-240.832700 Z-0.125000
G01 X-2.295600 Y-241.084700 Z-0.125000
G01 X-1.909700 Y-241.148700 Z-0.125000
G01 X-1.699200 Y-241.037700 Z-0.125000
G01 X-1.826800 Y-240.764700 Z-0.125000
G01 X-3.961900 Y-238.628700 Z-0.125000
G01 X-4.123700 Y-238.321700 Z-0.125000
G01 X-3.988300 Y-238.134700 Z-0.125000
G01 X-3.677600 Y-238.123700 Z-0.125000
G01 X-3.313200 Y-238.342700 Z-0.125000
G01 X-0.891300 Y-240.764700 Z-0.125000
G01 X-0.482100 Y-241.027700 Z-0.125000
G01 X-0.072800 Y-241.114700 Z-0.125000
G01 X0.161100 Y-241.027700 Z-0.125000
G01 X0.044100 Y-240.764700 Z-0.125000
G01 X-2.584700 Y-238.135700 Z-0.125000
G01 X-2.720800 Y-237.852700 Z-0.125000
G01 X-2.529400 Y-237.722700 Z-0.125000
G01 X-2.162500 Y-237.768700 Z-0.125000
G01 X-1.772500 Y-238.012700 Z-0.125000
G01 X0.979600 Y-240.764700 Z-0.125000
G01 X1.388800 Y-241.027700 Z-0.125000
G01 X1.798100 Y-241.114700 Z-0.125000
G01 X2.031900 Y-241.027700 Z-0.125000
G01 X1.915000 Y-240.764700 Z-0.125000
G01 X-0.848500 Y-238.000700 Z-0.125000
G01 X-0.965400 Y-237.737700 Z-0.125000
G01 X-0.731500 Y-237.649700 Z-0.125000
G01 X-0.322300 Y-237.737700 Z-0.125000
G01 X0.087000 Y-238.000700 Z-0.125000
G01 X2.850500 Y-240.764700 Z-0.125000
G01 X3.259700 Y-241.027700 Z-0.125000
G01 X3.669000 Y-241.114700 Z-0.125000
G01 X3.902800 Y-241.027700 Z-0.125000
G01 X3.785900 Y-240.764700 Z-0.125000
G01 X1.022400 Y-238.000700 Z-0.125000
G01 X0.905500 Y-237.737700 Z-0.125000
G01 X1.139300 Y-237.649700 Z-0.125000
G01 X1.548600 Y-237.737700 Z-0.125000
G01 X1.957900 Y-238.000700 Z-0.125000
G01 X5.071700 Y-241.114700 Z-0.125000
G00 Z5.000000

(End cutting path id: path58168)


(Start cutting path id: path58168)
(Change tool to Default tool)

G00 Z5.000000
G00 X1.882100 Y-252.892700

G01 Z-0.125000 F100.0(Penetrate)
G01 X-1.232100 Y-249.777700 Z-0.125000 F400.000000
G01 X-1.349100 Y-249.514700 Z-0.125000
G01 X-1.115200 Y-249.426700 Z-0.125000
G01 X-0.706000 Y-249.514700 Z-0.125000
G01 X-0.296700 Y-249.777700 Z-0.125000
G01 X2.466800 Y-252.541700 Z-0.125000
G01 X2.876100 Y-252.804700 Z-0.125000
G01 X3.285300 Y-252.892700 Z-0.125000
G01 X3.519200 Y-252.804700 Z-0.125000
G01 X3.402200 Y-252.541700 Z-0.125000
G01 X0.638700 Y-249.777700 Z-0.125000
G01 X0.521800 Y-249.514700 Z-0.125000
G01 X0.755700 Y-249.426700 Z-0.125000
G01 X1.164900 Y-249.514700 Z-0.125000
G01 X1.574200 Y-249.777700 Z-0.125000
G01 X4.337700 Y-252.541700 Z-0.125000
G01 X4.740500 Y-252.797700 Z-0.125000
G01 X5.135600 Y-252.871700 Z-0.125000
G01 X5.355300 Y-252.769700 Z-0.125000
G01 X5.232000 Y-252.500700 Z-0.125000
G01 X2.509600 Y-249.777700 Z-0.125000
G01 X2.392700 Y-249.514700 Z-0.125000
G01 X2.626600 Y-249.426700 Z-0.125000
G01 X3.035800 Y-249.514700 Z-0.125000
G01 X3.445100 Y-249.777700 Z-0.125000
G01 X6.015300 Y-252.347700 Z-0.125000
G01 X6.386600 Y-252.573700 Z-0.125000
G01 X6.712400 Y-252.577700 Z-0.125000
G01 X6.862800 Y-252.406700 Z-0.125000
G01 X6.707900 Y-252.105700 Z-0.125000
G01 X4.380500 Y-249.777700 Z-0.125000
G01 X4.263600 Y-249.514700 Z-0.125000
G01 X4.497500 Y-249.426700 Z-0.125000
G01 X4.906700 Y-249.514700 Z-0.125000
G01 X5.316000 Y-249.777700 Z-0.125000
G01 X7.336000 Y-251.797700 Z-0.125000
G01 X7.687400 Y-252.002700 Z-0.125000
G01 X7.969300 Y-251.963700 Z-0.125000
G01 X8.075800 Y-251.748700 Z-0.125000
G01 X7.901000 Y-251.427700 Z-0.125000
G01 X6.106600 Y-249.632700 Z-0.125000
G01 X5.925700 Y-249.305700 Z-0.125000
G01 X6.018900 Y-249.077700 Z-0.125000
G01 X6.287500 Y-249.024700 Z-0.125000
G01 X6.632800 Y-249.223700 Z-0.125000
G01 X8.393500 Y-250.984700 Z-0.125000
G01 X8.722600 Y-251.167700 Z-0.125000
G01 X8.955400 Y-251.078700 Z-0.125000
G01 X9.012800 Y-250.814700 Z-0.125000
G01 X8.815700 Y-250.471700 Z-0.125000
G01 X6.906000 Y-248.561700 Z-0.125000
G01 X6.647700 Y-248.156700 Z-0.125000
G01 X6.570600 Y-247.758700 Z-0.125000
G01 X6.668800 Y-247.534700 Z-0.125000
G01 X6.936700 Y-247.656700 Z-0.125000
G01 X9.161000 Y-249.880700 Z-0.125000
G01 X9.466500 Y-250.040700 Z-0.125000
G01 X9.647600 Y-249.899700 Z-0.125000
G01 X9.653200 Y-249.583700 Z-0.125000
G01 X9.432600 Y-249.217700 Z-0.125000
G01 X6.936700 Y-246.721700 Z-0.125000
G01 X6.673600 Y-246.311700 Z-0.125000
G01 X6.585900 Y-245.902700 Z-0.125000
G01 X6.673600 Y-245.668700 Z-0.125000
G01 X6.936700 Y-245.785700 Z-0.125000
G01 X9.628200 Y-248.477700 Z-0.125000
G01 X9.901700 Y-248.604700 Z-0.125000
G01 X10.012200 Y-248.393700 Z-0.125000
G01 X9.947300 Y-248.007700 Z-0.125000
G01 X9.694600 Y-247.608700 Z-0.125000
G01 X6.936700 Y-244.850700 Z-0.125000
G01 X6.673600 Y-244.441700 Z-0.125000
G01 X6.585900 Y-244.031700 Z-0.125000
G01 X6.673600 Y-243.797700 Z-0.125000
G01 X6.936700 Y-243.914700 Z-0.125000
G01 X9.700200 Y-246.678700 Z-0.125000
G01 X9.963300 Y-246.795700 Z-0.125000
G01 X10.051000 Y-246.561700 Z-0.125000
G01 X9.963300 Y-246.152700 Z-0.125000
G01 X9.700200 Y-245.742700 Z-0.125000
G01 X6.585600 Y-242.628700 Z-0.125000
G00 Z5.000000

(End cutting path id: path58168)


(Start cutting path id: path58168)
(Change tool to Default tool)

G00 Z5.000000
G00 X28.074570 Y-252.891700

G01 Z-0.125000 F100.0(Penetrate)
G01 X27.549860 Y-252.367700 Z-0.125000 F400.000000
G01 X27.286760 Y-251.957700 Z-0.125000
G01 X27.199060 Y-251.548700 Z-0.125000
G01 X27.286760 Y-251.314700 Z-0.125000
G01 X27.549860 Y-251.431700 Z-0.125000
G01 X28.659220 Y-252.541700 Z-0.125000
G01 X29.068470 Y-252.804700 Z-0.125000
G01 X29.477730 Y-252.891700 Z-0.125000
G01 X29.711590 Y-252.804700 Z-0.125000
G01 X29.594660 Y-252.541700 Z-0.125000
G01 X27.549860 Y-250.496700 Z-0.125000
G01 X27.320630 Y-250.120700 Z-0.125000
G01 X27.307440 Y-249.786700 Z-0.125000
G01 X27.469650 Y-249.626700 Z-0.125000
G01 X27.766610 Y-249.777700 Z-0.125000
G01 X30.530100 Y-252.541700 Z-0.125000
G01 X30.939360 Y-252.804700 Z-0.125000
G01 X31.348620 Y-252.891700 Z-0.125000
G01 X31.582480 Y-252.804700 Z-0.125000
G01 X31.465550 Y-252.541700 Z-0.125000
G01 X28.702050 Y-249.777700 Z-0.125000
G01 X28.585120 Y-249.514700 Z-0.125000
G01 X28.818980 Y-249.426700 Z-0.125000
G01 X29.228240 Y-249.514700 Z-0.125000
G01 X29.637500 Y-249.777700 Z-0.125000
G01 X32.400990 Y-252.541700 Z-0.125000
G01 X32.810250 Y-252.804700 Z-0.125000
G01 X33.219500 Y-252.891700 Z-0.125000
G01 X33.453360 Y-252.804700 Z-0.125000
G01 X33.336430 Y-252.541700 Z-0.125000
G01 X30.572940 Y-249.777700 Z-0.125000
G01 X30.456010 Y-249.514700 Z-0.125000
G01 X30.689870 Y-249.426700 Z-0.125000
G01 X31.099120 Y-249.514700 Z-0.125000
G01 X31.508380 Y-249.777700 Z-0.125000
G01 X34.271880 Y-252.541700 Z-0.125000
G01 X34.681130 Y-252.804700 Z-0.125000
G01 X35.090388 Y-252.891700 Z-0.125000
G01 X35.324249 Y-252.804700 Z-0.125000
G01 X35.207318 Y-252.541700 Z-0.125000
G01 X32.443820 Y-249.777700 Z-0.125000
G01 X32.326890 Y-249.514700 Z-0.125000
G01 X32.560750 Y-249.426700 Z-0.125000
G01 X32.970010 Y-249.514700 Z-0.125000
G01 X33.379270 Y-249.777700 Z-0.125000
G01 X36.142761 Y-252.541700 Z-0.125000
G01 X36.550982 Y-252.803700 Z-0.125000
G01 X36.957960 Y-252.888700 Z-0.125000
G01 X37.189540 Y-252.798700 Z-0.125000
G01 X37.071580 Y-252.534700 Z-0.125000
G01 X34.314710 Y-249.777700 Z-0.125000
G01 X34.197780 Y-249.514700 Z-0.125000
G01 X34.431640 Y-249.426700 Z-0.125000
G01 X34.840898 Y-249.514700 Z-0.125000
G01 X35.250154 Y-249.777700 Z-0.125000
G01 X37.902580 Y-252.429700 Z-0.125000
G01 X38.279150 Y-252.660700 Z-0.125000
G01 X38.616500 Y-252.675700 Z-0.125000
G01 X38.778450 Y-252.516700 Z-0.125000
G01 X38.628840 Y-252.220700 Z-0.125000
G01 X36.185598 Y-249.777700 Z-0.125000
G01 X36.068667 Y-249.514700 Z-0.125000
G01 X36.302528 Y-249.426700 Z-0.125000
G01 X36.711780 Y-249.514700 Z-0.125000
G01 X37.121040 Y-249.777700 Z-0.125000
G01 X39.285040 Y-251.941700 Z-0.125000
G01 X39.640790 Y-252.150700 Z-0.125000
G01 X39.932330 Y-252.120700 Z-0.125000
G01 X40.048480 Y-251.915700 Z-0.125000
G01 X39.878050 Y-251.598700 Z-0.125000
G01 X38.004610 Y-249.725700 Z-0.125000
G01 X37.841200 Y-249.415700 Z-0.125000
G01 X37.972810 Y-249.225700 Z-0.125000
G01 X38.279810 Y-249.211700 Z-0.125000
G01 X38.642590 Y-249.427700 Z-0.125000
G01 X40.403650 Y-251.188700 Z-0.125000
G01 X40.737560 Y-251.376700 Z-0.125000
G01 X40.981050 Y-251.298700 Z-0.125000
G01 X41.049150 Y-251.045700 Z-0.125000
G01 X40.856870 Y-250.706700 Z-0.125000
G01 X39.026270 Y-248.876700 Z-0.125000
G01 X38.778670 Y-248.482700 Z-0.125000
G01 X38.725070 Y-248.107700 Z-0.125000
G01 X38.846870 Y-247.907700 Z-0.125000
G01 X39.125460 Y-248.039700 Z-0.125000
G01 X41.236990 Y-250.151700 Z-0.125000
G01 X41.547530 Y-250.315700 Z-0.125000
G01 X41.739610 Y-250.186700 Z-0.125000
G01 X41.756300 Y-249.881700 Z-0.125000
G01 X41.540650 Y-249.519700 Z-0.125000
G01 X35.070590 Y-243.049700 Z-0.125000
G01 X34.661330 Y-242.786700 Z-0.125000
G01 X34.252080 Y-242.698700 Z-0.125000
G01 X34.018220 Y-242.786700 Z-0.125000
G01 X34.135150 Y-243.049700 Z-0.125000
G01 X36.910800 Y-245.825700 Z-0.125000
G01 X37.025840 Y-246.086700 Z-0.125000
G01 X36.787810 Y-246.169700 Z-0.125000
G01 X36.374387 Y-246.078700 Z-0.125000
G01 X35.963237 Y-245.813700 Z-0.125000
G01 X33.199700 Y-243.049700 Z-0.125000
G01 X32.790450 Y-242.786700 Z-0.125000
G01 X32.381190 Y-242.698700 Z-0.125000
G01 X32.147330 Y-242.786700 Z-0.125000
G01 X32.264260 Y-243.049700 Z-0.125000
G01 X35.027794 Y-245.813700 Z-0.125000
G01 X35.144725 Y-246.076700 Z-0.125000
G01 X34.910864 Y-246.163700 Z-0.125000
G01 X34.501610 Y-246.076700 Z-0.125000
G01 X34.092350 Y-245.813700 Z-0.125000
G01 X28.097140 Y-239.817700 Z-0.125000
G01 X27.899690 Y-239.474700 Z-0.125000
G01 X27.956390 Y-239.209700 Z-0.125000
G01 X28.188500 Y-239.119700 Z-0.125000
G01 X28.517230 Y-239.302700 Z-0.125000
G01 X30.261640 Y-241.046700 Z-0.125000
G01 X30.627370 Y-241.266700 Z-0.125000
G01 X30.940880 Y-241.258700 Z-0.125000
G01 X31.078990 Y-241.074700 Z-0.125000
G01 X30.918530 Y-240.768700 Z-0.125000
G01 X29.019130 Y-238.868700 Z-0.125000
G01 X28.846730 Y-238.550700 Z-0.125000
G01 X28.958580 Y-238.340700 Z-0.125000
G01 X29.245820 Y-238.306700 Z-0.125000
G01 X29.599620 Y-238.513700 Z-0.125000
G01 X31.849310 Y-240.763700 Z-0.125000
G01 X32.258570 Y-241.026700 Z-0.125000
G01 X32.667820 Y-241.114700 Z-0.125000
G01 X32.901690 Y-241.026700 Z-0.125000
G01 X32.784750 Y-240.763700 Z-0.125000
G01 X30.268330 Y-238.247700 Z-0.125000
G01 X30.122780 Y-237.955700 Z-0.125000
G01 X30.293680 Y-237.804700 Z-0.125000
G01 X30.639970 Y-237.829700 Z-0.125000
G01 X31.020610 Y-238.064700 Z-0.125000
G01 X33.720200 Y-240.763700 Z-0.125000
G01 X34.129450 Y-241.026700 Z-0.125000
G01 X34.538710 Y-241.114700 Z-0.125000
G01 X34.772572 Y-241.026700 Z-0.125000
G01 X34.655640 Y-240.763700 Z-0.125000
G01 X31.892150 Y-238.000700 Z-0.125000
G01 X31.775220 Y-237.737700 Z-0.125000
G01 X32.009080 Y-237.649700 Z-0.125000
G01 X32.418330 Y-237.737700 Z-0.125000
G01 X32.827590 Y-238.000700 Z-0.125000
G01 X35.591084 Y-240.763700 Z-0.125000
G01 X36.000341 Y-241.026700 Z-0.125000
G01 X36.409597 Y-241.114700 Z-0.125000
G01 X36.643458 Y-241.026700 Z-0.125000
G01 X36.526527 Y-240.763700 Z-0.125000
G01 X33.763030 Y-238.000700 Z-0.125000
G01 X33.646100 Y-237.737700 Z-0.125000
G01 X33.879960 Y-237.649700 Z-0.125000
G01 X34.289220 Y-237.737700 Z-0.125000
G01 X34.698480 Y-238.000700 Z-0.125000
G01 X37.461970 Y-240.763700 Z-0.125000
G01 X37.871230 Y-241.026700 Z-0.125000
G01 X38.280480 Y-241.114700 Z-0.125000
G01 X38.514340 Y-241.026700 Z-0.125000
G01 X38.397410 Y-240.763700 Z-0.125000
G01 X35.633919 Y-238.000700 Z-0.125000
G01 X35.516988 Y-237.737700 Z-0.125000
G01 X35.750849 Y-237.649700 Z-0.125000
G01 X36.160106 Y-237.737700 Z-0.125000
G01 X36.569362 Y-238.000700 Z-0.125000
G01 X39.332860 Y-240.763700 Z-0.125000
G01 X39.710800 Y-240.995700 Z-0.125000
G01 X40.051180 Y-241.014700 Z-0.125000
G01 X40.216160 Y-240.857700 Z-0.125000
G01 X40.067920 Y-240.563700 Z-0.125000
G01 X37.504810 Y-238.000700 Z-0.125000
G01 X37.387870 Y-237.737700 Z-0.125000
G01 X37.621740 Y-237.649700 Z-0.125000
G01 X38.030990 Y-237.737700 Z-0.125000
G01 X38.440250 Y-238.000700 Z-0.125000
G01 X40.067920 Y-239.627700 Z-0.125000
G01 X40.331010 Y-239.744700 Z-0.125000
G01 X40.418710 Y-239.510700 Z-0.125000
G01 X40.331010 Y-239.101700 Z-0.125000
G01 X40.067920 Y-238.692700 Z-0.125000
G01 X39.254080 Y-237.878700 Z-0.125000
G01 X39.228360 Y-237.706700 Z-0.125000
G01 X39.492620 Y-237.649700 Z-0.125000
G01 X40.189530 Y-237.878700 Z-0.125000
G01 X40.418710 Y-238.107700 Z-0.125000
G00 Z5.000000

(End cutting path id: path58168)


(Start cutting path id: path58168)
(Change tool to Default tool)

G00 Z5.000000
G00 X-20.475400 Y-240.823700

G01 Z-0.125000 F100.0(Penetrate)
G01 X-20.330100 Y-240.968700 Z-0.125000 F400.000000
G01 X-19.717100 Y-241.114700 Z-0.125000
G01 X-19.431900 Y-241.077700 Z-0.125000
G01 X-19.394700 Y-240.968700 Z-0.125000
G01 X-20.124600 Y-240.238700 Z-0.125000
G01 X-20.387700 Y-239.829700 Z-0.125000
G01 X-20.475400 Y-239.420700 Z-0.125000
G01 X-20.387700 Y-239.186700 Z-0.125000
G01 X-20.124600 Y-239.303700 Z-0.125000
G01 X-18.664700 Y-240.763700 Z-0.125000
G01 X-18.255500 Y-241.026700 Z-0.125000
G01 X-17.846200 Y-241.114700 Z-0.125000
G01 X-17.612400 Y-241.026700 Z-0.125000
G01 X-17.729300 Y-240.763700 Z-0.125000
G01 X-20.124600 Y-238.368700 Z-0.125000
G01 X-20.299100 Y-238.047700 Z-0.125000
G01 X-20.191800 Y-237.833700 Z-0.125000
G01 X-19.909100 Y-237.794700 Z-0.125000
G01 X-19.557300 Y-237.999700 Z-0.125000
G01 X-16.793800 Y-240.763700 Z-0.125000
G01 X-16.384600 Y-241.026700 Z-0.125000
G01 X-15.975300 Y-241.114700 Z-0.125000
G01 X-15.741500 Y-241.026700 Z-0.125000
G01 X-15.858400 Y-240.763700 Z-0.125000
G01 X-18.621900 Y-237.999700 Z-0.125000
G01 X-18.738800 Y-237.736700 Z-0.125000
G01 X-18.505000 Y-237.649700 Z-0.125000
G01 X-18.095700 Y-237.736700 Z-0.125000
G01 X-17.686500 Y-237.999700 Z-0.125000
G01 X-14.923000 Y-240.763700 Z-0.125000
G01 X-14.512400 Y-241.027700 Z-0.125000
G01 X-14.100200 Y-241.118700 Z-0.125000
G01 X-13.863400 Y-241.033700 Z-0.125000
G01 X-13.979000 Y-240.772700 Z-0.125000
G01 X-16.751000 Y-238.000700 Z-0.125000
G01 X-16.867900 Y-237.737700 Z-0.125000
G01 X-16.634100 Y-237.649700 Z-0.125000
G01 X-16.224800 Y-237.737700 Z-0.125000
G01 X-15.815600 Y-238.000700 Z-0.125000
G01 X-9.141500 Y-244.674700 Z-0.125000
G01 X-8.878400 Y-244.791700 Z-0.125000
G01 X-8.790700 Y-244.557700 Z-0.125000
G01 X-8.878400 Y-244.148700 Z-0.125000
G01 X-9.141500 Y-243.738700 Z-0.125000
G01 X-14.880100 Y-238.000700 Z-0.125000
G01 X-14.997100 Y-237.737700 Z-0.125000
G01 X-14.763200 Y-237.649700 Z-0.125000
G01 X-14.353900 Y-237.737700 Z-0.125000
G01 X-13.944700 Y-238.000700 Z-0.125000
G01 X-9.141500 Y-242.803700 Z-0.125000
G01 X-8.881200 Y-242.917700 Z-0.125000
G01 X-8.799500 Y-242.677700 Z-0.125000
G01 X-8.893300 Y-242.262700 Z-0.125000
G01 X-9.159100 Y-241.850700 Z-0.125000
G01 X-12.975700 Y-238.033700 Z-0.125000
G01 X-13.051000 Y-237.812700 Z-0.125000
G01 X-12.725400 Y-237.816700 Z-0.125000
G01 X-12.224500 Y-237.995700 Z-0.125000
G01 X-11.773600 Y-238.300700 Z-0.125000
G01 X-8.950400 Y-241.123700 Z-0.125000
G00 Z5.000000

(End cutting path id: path58168)


(Start cutting path id: path58168)
(Change tool to Default tool)

G00 Z5.000000
G00 X-25.711200 Y-244.006700

G01 Z-0.125000 F100.0(Penetrate)
G01 X-22.597000 Y-247.120700 Z-0.125000 F400.000000
G01 X-22.333900 Y-247.237700 Z-0.125000
G01 X-22.246200 Y-247.004700 Z-0.125000
G01 X-22.333900 Y-246.594700 Z-0.125000
G01 X-22.597000 Y-246.185700 Z-0.125000
G01 X-25.360500 Y-243.422700 Z-0.125000
G01 X-25.623500 Y-243.012700 Z-0.125000
G01 X-25.711200 Y-242.603700 Z-0.125000
G01 X-25.623500 Y-242.369700 Z-0.125000
G01 X-25.360500 Y-242.486700 Z-0.125000
G01 X-22.597000 Y-245.250700 Z-0.125000
G01 X-22.333900 Y-245.367700 Z-0.125000
G01 X-22.246200 Y-245.133700 Z-0.125000
G01 X-22.333900 Y-244.723700 Z-0.125000
G01 X-22.597000 Y-244.314700 Z-0.125000
G01 X-25.360500 Y-241.551700 Z-0.125000
G01 X-25.623500 Y-241.141700 Z-0.125000
G01 X-25.711200 Y-240.732700 Z-0.125000
G01 X-25.623500 Y-240.498700 Z-0.125000
G01 X-25.360500 Y-240.615700 Z-0.125000
G01 X-22.597000 Y-243.379700 Z-0.125000
G01 X-22.333900 Y-243.496700 Z-0.125000
G01 X-22.246200 Y-243.262700 Z-0.125000
G01 X-22.333900 Y-242.853700 Z-0.125000
G01 X-22.597000 Y-242.443700 Z-0.125000
G01 X-25.360500 Y-239.680700 Z-0.125000
G01 X-25.623500 Y-239.271700 Z-0.125000
G01 X-25.711200 Y-238.861700 Z-0.125000
G01 X-25.623500 Y-238.627700 Z-0.125000
G01 X-25.360500 Y-238.744700 Z-0.125000
G01 X-22.597000 Y-241.508700 Z-0.125000
G01 X-22.333900 Y-241.625700 Z-0.125000
G01 X-22.246200 Y-241.391700 Z-0.125000
