%
(Header)
(Generated by gcodetools from Inkscape.)
(Using default header. To add your own header create file "header" in the output dir.)
M3
(Header end.)
G21 (All units in mm)

(Start cutting path id: path1488)
(Change tool to Default tool)

G00 Z5.000000
G00 X80.064600 Y76.722400

G01 Z-0.125000 F100.0(Penetrate)
G01 X77.567100 Y74.224900 Z-0.125000 F400.000000
G01 X77.160700 Y73.444400 Z-0.125000
G01 X77.144500 Y73.170800 Z-0.125000
G01 X77.315600 Y73.225100 Z-0.125000
G01 X80.830400 Y76.739900 Z-0.125000
G01 X81.522200 Y77.057500 Z-0.125000
G01 X81.734800 Y77.012800 Z-0.125000
G01 X81.652800 Y76.813900 Z-0.125000
G01 X77.240400 Y72.401500 Z-0.125000
G01 X77.036400 Y72.080600 Z-0.125000
G01 X76.980500 Y71.767400 Z-0.125000
G01 X77.064800 Y71.594500 Z-0.125000
G01 X77.281800 Y71.694500 Z-0.125000
G01 X82.358300 Y76.771100 Z-0.125000
G01 X82.666700 Y76.962600 Z-0.125000
G01 X82.952400 Y76.991000 Z-0.125000
G01 X83.097800 Y76.879100 Z-0.125000
G01 X82.985200 Y76.649600 Z-0.125000
G01 X77.392800 Y71.057200 Z-0.125000
G01 X77.213000 Y70.760400 Z-0.125000
G01 X77.210300 Y70.500600 Z-0.125000
G01 X77.348000 Y70.381000 Z-0.125000
G01 X77.589200 Y70.505200 Z-0.125000
G01 X83.547800 Y76.463900 Z-0.125000
G01 X83.838500 Y76.637600 Z-0.125000
G01 X84.085000 Y76.626900 Z-0.125000
G01 X84.191300 Y76.475900 Z-0.125000
G01 X84.061000 Y76.228700 Z-0.125000
G01 X77.826000 Y69.993700 Z-0.125000
G01 X77.659500 Y69.710300 Z-0.125000
G01 X77.686100 Y69.479600 Z-0.125000
G01 X77.852900 Y69.389200 Z-0.125000
G01 X78.107300 Y69.526600 Z-0.125000
G01 X84.530000 Y75.949300 Z-0.125000
G01 X84.806900 Y76.109300 Z-0.125000
G01 X85.023300 Y76.068400 Z-0.125000
G01 X85.099300 Y75.887200 Z-0.125000
G01 X84.955200 Y75.626200 Z-0.125000
G01 X78.429900 Y69.100900 Z-0.125000
G01 X78.276100 Y68.830100 Z-0.125000
G01 X78.330500 Y68.627300 Z-0.125000
G01 X78.525200 Y68.564800 Z-0.125000
G01 X78.792300 Y68.714900 Z-0.125000
G01 X85.340600 Y75.263200 Z-0.125000
G01 X85.605100 Y75.410800 Z-0.125000
G01 X85.794100 Y75.342600 Z-0.125000
G01 X85.842900 Y75.134000 Z-0.125000
G01 X85.686400 Y74.860700 Z-0.125000
G01 X79.194300 Y68.368500 Z-0.125000
G01 X79.052900 Y68.110200 Z-0.125000
G01 X79.134800 Y67.934900 Z-0.125000
G01 X79.357000 Y67.899800 Z-0.125000
G01 X79.636500 Y68.062400 Z-0.125000
G01 X85.991900 Y74.417800 Z-0.125000
G01 X86.243400 Y74.552400 Z-0.125000
G01 X86.404000 Y74.455700 Z-0.125000
G01 X86.424200 Y74.218600 Z-0.125000
G01 X86.254800 Y73.932300 Z-0.125000
G01 X80.123300 Y67.800800 Z-0.125000
G01 X79.996200 Y67.556800 Z-0.125000
G01 X80.109400 Y67.412700 Z-0.125000
G01 X80.362900 Y67.409000 Z-0.125000
G01 X80.656700 Y67.585900 Z-0.125000
G01 X86.471100 Y73.400300 Z-0.125000
G01 X86.709100 Y73.521300 Z-0.125000
G01 X86.839800 Y73.394800 Z-0.125000
G01 X86.830200 Y73.128000 Z-0.125000
G01 X86.647300 Y72.828100 Z-0.125000
G01 X81.242700 Y67.423500 Z-0.125000
G01 X81.134900 Y67.198800 Z-0.125000
G01 X81.290600 Y67.097300 Z-0.125000
G01 X81.586600 Y67.136000 Z-0.125000
G01 X81.899800 Y67.332300 Z-0.125000
G01 X86.724400 Y72.156800 Z-0.125000
G01 X86.934700 Y72.250300 Z-0.125000
G01 X87.004700 Y72.063000 Z-0.125000
G01 X86.723900 Y71.407900 Z-0.125000
G01 X82.647700 Y67.331800 Z-0.125000
G01 X82.568600 Y67.135700 Z-0.125000
G01 X82.787400 Y67.097200 Z-0.125000
G01 X83.488300 Y67.424000 Z-0.125000
G01 X86.571100 Y70.506800 Z-0.125000
G01 X86.730800 Y70.549500 Z-0.125000
G01 X86.689200 Y70.250700 Z-0.125000
G01 X86.246000 Y69.433300 Z-0.125000
G01 X84.408300 Y67.595600 Z-0.125000
G00 Z5.000000

(End cutting path id: path1488)


(Start cutting path id: path7838)
(Change tool to Default tool)

G00 Z5.000000
G00 X86.954800 Y63.886300

G01 Z-0.125000 F100.0(Penetrate)
G01 X78.880900 Y55.812400 Z-0.125000 F400.000000
G00 Z5.000000

(End cutting path id: path7838)


(Start cutting path id: path7835)
(Change tool to Default tool)

G00 Z5.000000
G00 X76.591400 Y61.755000

G01 Z-0.125000 F100.0(Penetrate)
G01 X77.412000 Y62.575700 Z-0.125000 F400.000000
G01 X78.109900 Y62.899300 Z-0.125000
G01 X78.326500 Y62.858800 Z-0.125000
G01 X78.246400 Y62.661700 Z-0.125000
G01 X76.492000 Y60.907300 Z-0.125000
G01 X76.123300 Y60.164500 Z-0.125000
G01 X76.133000 Y59.916800 Z-0.125000
G01 X76.315900 Y59.982900 Z-0.125000
G01 X78.883200 Y62.550100 Z-0.125000
G01 X79.185700 Y62.735700 Z-0.125000
G01 X79.458400 Y62.751200 Z-0.125000
G01 X79.590800 Y62.626300 Z-0.125000
G01 X79.472300 Y62.390900 Z-0.125000
G01 X76.326600 Y59.245200 Z-0.125000
G01 X76.133700 Y58.935300 Z-0.125000
G01 X76.102100 Y58.646500 Z-0.125000
G01 X76.210900 Y58.498100 Z-0.125000
G01 X76.438900 Y58.609100 Z-0.125000
G01 X80.103300 Y62.273500 Z-0.125000
G01 X80.415200 Y62.468500 Z-0.125000
G01 X80.708700 Y62.504700 Z-0.125000
G01 X80.861800 Y62.400600 Z-0.125000
G01 X80.752800 Y62.174600 Z-0.125000
G01 X76.597900 Y58.019800 Z-0.125000
G01 X76.420500 Y57.725400 Z-0.125000
G01 X76.423000 Y57.470700 Z-0.125000
G01 X76.565800 Y57.356300 Z-0.125000
G01 X76.809400 Y57.482900 Z-0.125000
G01 X81.457700 Y62.131200 Z-0.125000
G01 X82.116400 Y62.415700 Z-0.125000
G01 X82.306200 Y62.348200 Z-0.125000
G01 X82.213800 Y62.138900 Z-0.125000
G01 X77.079200 Y57.004300 Z-0.125000
G01 X76.922400 Y56.730600 Z-0.125000
G01 X76.970600 Y56.521500 Z-0.125000
G01 X77.159000 Y56.452700 Z-0.125000
G01 X77.423200 Y56.600000 Z-0.125000
G01 X83.055500 Y62.232200 Z-0.125000
G01 X83.820200 Y62.622800 Z-0.125000
G01 X84.082900 Y62.628200 Z-0.125000
G01 X84.023700 Y62.452100 Z-0.125000
G01 X77.859200 Y56.287600 Z-0.125000
G01 X77.736200 Y56.047700 Z-0.125000
G01 X77.858700 Y55.912900 Z-0.125000
G01 X78.121500 Y55.918500 Z-0.125000
G01 X78.419500 Y56.099600 Z-0.125000
G01 X85.310400 Y62.990400 Z-0.125000
G00 Z5.000000

(End cutting path id: path7835)


(Start cutting path id: path7836)
(Change tool to Default tool)

G00 Z5.000000
G00 X91.740000 Y73.161800

G01 Z-0.125000 F100.0(Penetrate)
G01 X92.593100 Y74.015000 Z-0.125000 F400.000000
G01 X92.907200 Y74.212100 Z-0.125000
G01 X93.205200 Y74.252900 Z-0.125000
G01 X93.363000 Y74.153300 Z-0.125000
G01 X93.256100 Y73.929500 Z-0.125000
G01 X91.925800 Y72.599300 Z-0.125000
G01 X91.639400 Y71.938600 Z-0.125000
G01 X91.705500 Y71.747500 Z-0.125000
G01 X91.914100 Y71.839200 Z-0.125000
G01 X93.904500 Y73.829600 Z-0.125000
G01 X94.551000 Y74.102000 Z-0.125000
G01 X94.732400 Y74.026100 Z-0.125000
G01 X94.636300 Y73.813000 Z-0.125000
G01 X91.835200 Y71.012000 Z-0.125000
G01 X91.467200 Y70.269700 Z-0.125000
G01 X91.477200 Y70.022600 Z-0.125000
G01 X91.660400 Y70.088800 Z-0.125000
G01 X95.491400 Y73.919800 Z-0.125000
G01 X96.363800 Y74.418000 Z-0.125000
G01 X96.700500 Y74.497500 Z-0.125000
G01 X96.675000 Y74.355000 Z-0.125000
G01 X91.297200 Y68.977200 Z-0.125000
G01 X90.675200 Y67.981100 Z-0.125000
G01 X90.510700 Y67.559300 Z-0.125000
G01 X90.521100 Y67.484900 Z-0.125000
G01 X90.614500 Y67.546200 Z-0.125000
G01 X110.516000 Y87.447400 Z-0.125000
G01 X110.726000 Y87.541000 Z-0.125000
G01 X110.796000 Y87.353900 Z-0.125000
G01 X110.516000 Y86.699100 Z-0.125000
G01 X80.185800 Y56.369100 Z-0.125000
G01 X80.116400 Y56.182800 Z-0.125000
G01 X80.356600 Y56.165800 Z-0.125000
G01 X81.088700 Y56.523700 Z-0.125000
G01 X110.516000 Y85.950800 Z-0.125000
G01 X110.726000 Y86.044300 Z-0.125000
G01 X110.796000 Y85.857200 Z-0.125000
G01 X110.516000 Y85.202400 Z-0.125000
G01 X81.896400 Y56.583100 Z-0.125000
G01 X81.803900 Y56.373700 Z-0.125000
G01 X81.993400 Y56.305900 Z-0.125000
G01 X82.651700 Y56.590100 Z-0.125000
G01 X110.516000 Y84.454100 Z-0.125000
G01 X110.726000 Y84.547600 Z-0.125000
G01 X110.796000 Y84.360500 Z-0.125000
G01 X110.516000 Y83.705700 Z-0.125000
G01 X83.349200 Y56.539200 Z-0.125000
G01 X83.240300 Y56.313400 Z-0.125000
G01 X83.393700 Y56.209500 Z-0.125000
G01 X83.687500 Y56.246000 Z-0.125000
G01 X83.999600 Y56.441200 Z-0.125000
G01 X110.516000 Y82.957400 Z-0.125000
G01 X110.726000 Y83.050900 Z-0.125000
G01 X110.796000 Y82.863800 Z-0.125000
G01 X110.516000 Y82.209000 Z-0.125000
G01 X84.615400 Y56.308700 Z-0.125000
G01 X84.496200 Y56.072500 Z-0.125000
G01 X84.626700 Y55.945800 Z-0.125000
G01 X84.897600 Y55.959400 Z-0.125000
G01 X85.199300 Y56.144200 Z-0.125000
G01 X110.516000 Y81.460700 Z-0.125000
G01 X110.726000 Y81.554200 Z-0.125000
G01 X110.796000 Y81.367100 Z-0.125000
G01 X110.516000 Y80.712300 Z-0.125000
G01 X85.747900 Y55.944400 Z-0.125000
G01 X85.620100 Y55.699700 Z-0.125000
G01 X85.731800 Y55.554200 Z-0.125000
G01 X85.983800 Y55.548900 Z-0.125000
G01 X86.276900 Y55.725200 Z-0.125000
G01 X110.516000 Y79.963900 Z-0.125000
G01 X110.726000 Y80.057500 Z-0.125000
G01 X110.796000 Y79.870400 Z-0.125000
G01 X110.516000 Y79.215600 Z-0.125000
G01 X86.777800 Y55.477600 Z-0.125000
G01 X86.642200 Y55.225100 Z-0.125000
G01 X86.736700 Y55.062400 Z-0.125000
G01 X86.971600 Y55.040000 Z-0.125000
G01 X87.256900 Y55.208400 Z-0.125000
G01 X110.516000 Y78.467200 Z-0.125000
G01 X110.726000 Y78.560800 Z-0.125000
G01 X110.796000 Y78.373700 Z-0.125000
G01 X110.516000 Y77.718900 Z-0.125000
G01 X87.713800 Y54.916900 Z-0.125000
G01 X87.571200 Y54.657400 Z-0.125000
G01 X87.650300 Y54.479300 Z-0.125000
G01 X87.869800 Y54.441500 Z-0.125000
G01 X88.148100 Y54.602900 Z-0.125000
G01 X110.516000 Y76.970500 Z-0.125000
G01 X110.726000 Y77.064100 Z-0.125000
G01 X110.796000 Y76.877000 Z-0.125000
G01 X110.516000 Y76.222200 Z-0.125000
G01 X88.561700 Y54.268100 Z-0.125000
G01 X88.412700 Y54.002200 Z-0.125000
G01 X88.477700 Y53.810000 Z-0.125000
G01 X88.683100 Y53.758100 Z-0.125000
G01 X88.955100 Y53.913100 Z-0.125000
G01 X110.516000 Y75.473800 Z-0.125000
G01 X110.726000 Y75.567400 Z-0.125000
G01 X110.796000 Y75.380300 Z-0.125000
G01 X110.516000 Y74.725500 Z-0.125000
G01 X89.326400 Y53.536100 Z-0.125000
G01 X89.170900 Y53.263700 Z-0.125000
G01 X89.221600 Y53.057200 Z-0.125000
G01 X89.412700 Y52.991000 Z-0.125000
G01 X89.678100 Y53.139500 Z-0.125000
G01 X110.516000 Y73.977100 Z-0.125000
G01 X110.726000 Y74.070600 Z-0.125000
G01 X110.796000 Y73.883600 Z-0.125000
G01 X110.516000 Y73.228800 Z-0.125000
G01 X90.008500 Y52.721500 Z-0.125000
G01 X89.846300 Y52.442400 Z-0.125000
G01 X89.882200 Y52.221100 Z-0.125000
G01 X90.058500 Y52.140100 Z-0.125000
G01 X90.317200 Y52.281900 Z-0.125000
G01 X110.516000 Y72.480400 Z-0.125000
G01 X110.726000 Y72.573900 Z-0.125000
G01 X110.796000 Y72.386900 Z-0.125000
G01 X110.516000 Y71.732000 Z-0.125000
G01 X90.604800 Y51.821100 Z-0.125000
G01 X90.435800 Y51.535200 Z-0.125000
G01 X90.456900 Y51.299000 Z-0.125000
G01 X90.618300 Y51.203200 Z-0.125000
G01 X90.870300 Y51.338200 Z-0.125000
G01 X110.516000 Y70.983700 Z-0.125000
G01 X110.726000 Y71.077200 Z-0.125000
G01 X110.796000 Y70.890100 Z-0.125000
G01 X110.516000 Y70.235300 Z-0.125000
G01 X91.109600 Y50.829200 Z-0.125000
G01 X90.932800 Y50.535500 Z-0.125000
G01 X90.936600 Y50.282100 Z-0.125000
G01 X91.080800 Y50.169000 Z-0.125000
G01 X91.324900 Y50.296100 Z-0.125000
G01 X110.516000 Y69.487000 Z-0.125000
G01 X110.726000 Y69.580500 Z-0.125000
G01 X110.796000 Y69.393400 Z-0.125000
G01 X110.516000 Y68.738600 Z-0.125000
G01 X91.513100 Y49.736000 Z-0.125000
G01 X91.327400 Y49.433300 Z-0.125000
G01 X91.311700 Y49.160400 Z-0.125000
G01 X91.436300 Y49.027800 Z-0.125000
G01 X91.671500 Y49.146100 Z-0.125000
G01 X110.516000 Y67.990300 Z-0.125000
G01 X110.726000 Y68.083800 Z-0.125000
G01 X110.796000 Y67.896700 Z-0.125000
G01 X110.516000 Y67.241900 Z-0.125000
G01 X91.796500 Y48.522700 Z-0.125000
G01 X91.599600 Y48.208800 Z-0.125000
G01 X91.559200 Y47.911200 Z-0.125000
G01 X91.659200 Y47.754000 Z-0.125000
G01 X91.883200 Y47.861100 Z-0.125000
G01 X110.516000 Y66.493600 Z-0.125000
G01 X110.726000 Y66.587100 Z-0.125000
G01 X110.796000 Y66.400000 Z-0.125000
G01 X110.516000 Y65.745200 Z-0.125000
G01 X91.925200 Y47.154700 Z-0.125000
G01 X91.720100 Y46.832700 Z-0.125000
G01 X91.661800 Y46.517100 Z-0.125000
G01 X91.743900 Y46.341900 Z-0.125000
G01 X91.959700 Y46.440800 Z-0.125000
G01 X110.516000 Y64.996800 Z-0.125000
G01 X110.726000 Y65.090400 Z-0.125000
G01 X110.796000 Y64.903300 Z-0.125000
G01 X110.516000 Y64.248500 Z-0.125000
G01 X92.096300 Y45.829100 Z-0.125000
G01 X91.921300 Y45.537100 Z-0.125000
G01 X91.929200 Y45.287800 Z-0.125000
G01 X92.077400 Y45.178800 Z-0.125000
G01 X92.323400 Y45.307800 Z-0.125000
G01 X110.516000 Y63.500100 Z-0.125000
G01 X110.726000 Y63.593700 Z-0.125000
G01 X110.796000 Y63.406600 Z-0.125000
G01 X110.516000 Y62.751800 Z-0.125000
G01 X92.675100 Y44.911200 Z-0.125000
G01 X92.550000 Y44.669100 Z-0.125000
G01 X92.667700 Y44.529500 Z-0.125000
G01 X92.925600 Y44.530200 Z-0.125000
G01 X93.221400 Y44.709100 Z-0.125000
G01 X110.516000 Y62.003400 Z-0.125000
G01 X110.726000 Y62.097000 Z-0.125000
G01 X110.796000 Y61.909900 Z-0.125000
G01 X110.516000 Y61.255100 Z-0.125000
G01 X94.109100 Y44.848500 Z-0.125000
G01 X94.026200 Y44.648600 Z-0.125000
G01 X94.236500 Y44.601700 Z-0.125000
G01 X94.925100 Y44.916100 Z-0.125000
G01 X110.516000 Y60.506700 Z-0.125000
G01 X110.726000 Y60.600300 Z-0.125000
G01 X110.796000 Y60.413200 Z-0.125000
G01 X110.516000 Y59.758400 Z-0.125000
G01 X95.628500 Y44.871100 Z-0.125000
G01 X95.515900 Y44.641600 Z-0.125000
G01 X95.661200 Y44.529700 Z-0.125000
G01 X95.946800 Y44.558000 Z-0.125000
G01 X96.255200 Y44.749500 Z-0.125000
G01 X110.516000 Y59.010000 Z-0.125000
G01 X110.726000 Y59.103600 Z-0.125000
G01 X110.796000 Y58.916500 Z-0.125000
G01 X110.516000 Y58.261700 Z-0.125000
G01 X96.823600 Y44.569500 Z-0.125000
G01 X96.694100 Y44.323100 Z-0.125000
G01 X96.802300 Y44.174000 Z-0.125000
G01 X97.050700 Y44.165200 Z-0.125000
G01 X97.342200 Y44.339800 Z-0.125000
G01 X110.516000 Y57.513300 Z-0.125000
G01 X110.726000 Y57.606800 Z-0.125000
G01 X110.796000 Y57.419800 Z-0.125000
G01 X110.516000 Y56.764900 Z-0.125000
G01 X97.817000 Y44.066200 Z-0.125000
G01 X97.674500 Y43.806800 Z-0.125000
G01 X97.753800 Y43.628800 Z-0.125000
G01 X97.973400 Y43.591200 Z-0.125000
G01 X98.251900 Y43.752700 Z-0.125000
G01 X110.516000 Y56.016600 Z-0.125000
G01 X110.726000 Y56.110100 Z-0.125000
G01 X110.796000 Y55.923000 Z-0.125000
G01 X110.516000 Y55.268200 Z-0.125000
G01 X98.648200 Y43.400700 Z-0.125000
G01 X98.493700 Y43.129300 Z-0.125000
G01 X98.546800 Y42.925100 Z-0.125000
G01 X98.740200 Y42.861200 Z-0.125000
G01 X99.006600 Y43.010800 Z-0.125000
G01 X110.516000 Y54.519900 Z-0.125000
G01 X110.726000 Y54.613400 Z-0.125000
G01 X110.796000 Y54.426300 Z-0.125000
G01 X110.516000 Y53.771500 Z-0.125000
G01 X99.326600 Y42.582400 Z-0.125000
G01 X99.159900 Y42.298800 Z-0.125000
G01 X99.186000 Y42.067600 Z-0.125000
G01 X99.352400 Y41.976800 Z-0.125000
G01 X99.606600 Y42.114100 Z-0.125000
G01 X110.516000 Y53.023200 Z-0.125000
G01 X110.726000 Y53.116700 Z-0.125000
G01 X110.796000 Y52.929600 Z-0.125000
G01 X110.516000 Y52.274800 Z-0.125000
G01 X99.843700 Y41.602800 Z-0.125000
G01 X99.663200 Y41.305400 Z-0.125000
G01 X99.658900 Y41.043800 Z-0.125000
G01 X99.794900 Y40.922600 Z-0.125000
G01 X100.035000 Y41.046100 Z-0.125000
G01 X110.516000 Y51.526500 Z-0.125000
G01 X110.726000 Y51.620000 Z-0.125000
G01 X110.796000 Y51.432900 Z-0.125000
G01 X110.516000 Y50.778100 Z-0.125000
G01 X100.165000 Y40.427900 Z-0.125000
G01 X99.964700 Y40.110100 Z-0.125000
G01 X99.915700 Y39.803900 Z-0.125000
G01 X100.007000 Y39.638000 Z-0.125000
G01 X100.227000 Y39.741200 Z-0.125000
G01 X110.516000 Y50.029800 Z-0.125000
G01 X110.726000 Y50.123300 Z-0.125000
G01 X110.796000 Y49.936200 Z-0.125000
G01 X110.516000 Y49.281400 Z-0.125000
G01 X100.185000 Y38.951100 Z-0.125000
G01 X99.797500 Y38.189000 Z-0.125000
G01 X99.793800 Y37.928100 Z-0.125000
G01 X99.970800 Y37.988100 Z-0.125000
G01 X110.516000 Y48.533000 Z-0.125000
G01 X110.726000 Y48.626600 Z-0.125000
G01 X110.796000 Y48.439500 Z-0.125000
G01 X110.516000 Y47.784700 Z-0.125000
G01 X71.448600 Y8.718000 Z-0.125000
G01 X71.355100 Y8.507000 Z-0.125000
G01 X71.542200 Y8.437000 Z-0.125000
G01 X72.197000 Y8.718000 Z-0.125000
G01 X110.516000 Y47.036300 Z-0.125000
G01 X110.726000 Y47.129900 Z-0.125000
G01 X110.796000 Y46.942800 Z-0.125000
G01 X110.516000 Y46.288000 Z-0.125000
G01 X72.945300 Y8.718000 Z-0.125000
G01 X72.851800 Y8.507000 Z-0.125000
G01 X73.038900 Y8.437000 Z-0.125000
G01 X73.693700 Y8.718000 Z-0.125000
G01 X110.516000 Y45.539600 Z-0.125000
G01 X110.726000 Y45.633200 Z-0.125000
G01 X110.796000 Y45.446100 Z-0.125000
G01 X110.516000 Y44.791300 Z-0.125000
G01 X74.442100 Y8.718000 Z-0.125000
G01 X74.348500 Y8.507000 Z-0.125000
G01 X74.535600 Y8.437000 Z-0.125000
G01 X75.190400 Y8.718000 Z-0.125000
G01 X110.516000 Y44.042900 Z-0.125000
G01 X110.726000 Y44.136500 Z-0.125000
G01 X110.796000 Y43.949400 Z-0.125000
G01 X110.516000 Y43.294600 Z-0.125000
G01 X75.938800 Y8.718000 Z-0.125000
G01 X75.845200 Y8.507000 Z-0.125000
G01 X76.032300 Y8.437000 Z-0.125000
G01 X76.687100 Y8.718000 Z-0.125000
G01 X110.516000 Y42.546200 Z-0.125000
G01 X110.726000 Y42.639700 Z-0.125000
G01 X110.796000 Y42.452700 Z-0.125000
G01 X110.516000 Y41.797800 Z-0.125000
G01 X77.435500 Y8.718000 Z-0.125000
G01 X77.341900 Y8.507000 Z-0.125000
G01 X77.529000 Y8.437000 Z-0.125000
G01 X78.183800 Y8.718000 Z-0.125000
G01 X110.516000 Y41.049500 Z-0.125000
G01 X110.726000 Y41.143000 Z-0.125000
G01 X110.796000 Y40.956000 Z-0.125000
G01 X110.516000 Y40.301100 Z-0.125000
G01 X78.932200 Y8.718000 Z-0.125000
G01 X78.838600 Y8.507000 Z-0.125000
G01 X79.025700 Y8.437000 Z-0.125000
G01 X79.680500 Y8.718000 Z-0.125000
G01 X110.516000 Y39.552800 Z-0.125000
G01 X110.726000 Y39.646300 Z-0.125000
G01 X110.796000 Y39.459200 Z-0.125000
G01 X110.516000 Y38.804400 Z-0.125000
G01 X80.428900 Y8.718000 Z-0.125000
G01 X80.335400 Y8.507000 Z-0.125000
G01 X80.522400 Y8.437000 Z-0.125000
G01 X81.177300 Y8.718000 Z-0.125000
G01 X110.516000 Y38.056100 Z-0.125000
G01 X110.726000 Y38.149600 Z-0.125000
G01 X110.796000 Y37.962500 Z-0.125000
G01 X110.516000 Y37.307700 Z-0.125000
G01 X81.925600 Y8.718000 Z-0.125000
G01 X81.832100 Y8.507000 Z-0.125000
G01 X82.019200 Y8.437000 Z-0.125000
G01 X82.674000 Y8.718000 Z-0.125000
G01 X110.516000 Y36.559400 Z-0.125000
G01 X110.726000 Y36.652900 Z-0.125000
G01 X110.796000 Y36.465800 Z-0.125000
G01 X110.516000 Y35.811000 Z-0.125000
G01 X83.422300 Y8.718000 Z-0.125000
G01 X83.328800 Y8.507000 Z-0.125000
G01 X83.515900 Y8.437000 Z-0.125000
G01 X84.170700 Y8.718000 Z-0.125000
G01 X110.516000 Y35.062700 Z-0.125000
G01 X110.726000 Y35.156200 Z-0.125000
G01 X110.796000 Y34.969100 Z-0.125000
G01 X110.516000 Y34.314300 Z-0.125000
G01 X84.919000 Y8.718000 Z-0.125000
G01 X84.825500 Y8.507000 Z-0.125000
G01 X85.012600 Y8.437000 Z-0.125000
G01 X85.667400 Y8.718000 Z-0.125000
G01 X110.516000 Y33.565900 Z-0.125000
G01 X110.726000 Y33.659500 Z-0.125000
G01 X110.796000 Y33.472400 Z-0.125000
G01 X110.516000 Y32.817600 Z-0.125000
G01 X86.415700 Y8.718000 Z-0.125000
G01 X86.322200 Y8.507000 Z-0.125000
G01 X86.509300 Y8.437000 Z-0.125000
G01 X87.164100 Y8.718000 Z-0.125000
G01 X110.516000 Y32.069200 Z-0.125000
G01 X110.726000 Y32.162800 Z-0.125000
G01 X110.796000 Y31.975700 Z-0.125000
G01 X110.516000 Y31.320900 Z-0.125000
G01 X87.912400 Y8.718000 Z-0.125000
G01 X87.818900 Y8.507000 Z-0.125000
G01 X88.006000 Y8.437000 Z-0.125000
G01 X88.660800 Y8.718000 Z-0.125000
G01 X110.516000 Y30.572500 Z-0.125000
G01 X110.726000 Y30.666100 Z-0.125000
G01 X110.796000 Y30.479000 Z-0.125000
G01 X110.516000 Y29.824200 Z-0.125000
G01 X89.409200 Y8.718000 Z-0.125000
G01 X89.315600 Y8.507000 Z-0.125000
G01 X89.502700 Y8.437000 Z-0.125000
G01 X90.157500 Y8.718000 Z-0.125000
G01 X110.516000 Y29.075800 Z-0.125000
G01 X110.726000 Y29.169400 Z-0.125000
G01 X110.796000 Y28.982300 Z-0.125000
G01 X110.516000 Y28.327500 Z-0.125000
G01 X90.905900 Y8.718000 Z-0.125000
G01 X90.812300 Y8.507000 Z-0.125000
G01 X90.999400 Y8.437000 Z-0.125000
G01 X91.654200 Y8.718000 Z-0.125000
G01 X110.516000 Y27.579100 Z-0.125000
G01 X110.726000 Y27.672700 Z-0.125000
G01 X110.796000 Y27.485600 Z-0.125000
G01 X110.516000 Y26.831000 Z-0.125000
G01 X92.402600 Y8.718000 Z-0.125000
G01 X92.309000 Y8.507000 Z-0.125000
G01 X92.496100 Y8.437000 Z-0.125000
G01 X93.150900 Y8.718000 Z-0.125000
G01 X110.516000 Y26.082000 Z-0.125000
G01 X110.726000 Y26.176000 Z-0.125000
G01 X110.796000 Y25.989000 Z-0.125000
G01 X110.516000 Y25.334000 Z-0.125000
G01 X93.899300 Y8.718000 Z-0.125000
G01 X93.805700 Y8.507000 Z-0.125000
G01 X93.992800 Y8.437000 Z-0.125000
G01 X94.647600 Y8.718000 Z-0.125000
G01 X110.516000 Y24.586000 Z-0.125000
G01 X110.726000 Y24.679000 Z-0.125000
G01 X110.796000 Y24.492000 Z-0.125000
G01 X110.516000 Y23.837000 Z-0.125000
G01 X95.396000 Y8.718000 Z-0.125000
G01 X95.302400 Y8.507000 Z-0.125000
G01 X95.489500 Y8.437000 Z-0.125000
G01 X96.144300 Y8.718000 Z-0.125000
G01 X110.516000 Y23.089000 Z-0.125000
G01 X110.726000 Y23.183000 Z-0.125000
G01 X110.796000 Y22.995000 Z-0.125000
G01 X110.516000 Y22.341000 Z-0.125000
G01 X96.892700 Y8.718000 Z-0.125000
G01 X96.799200 Y8.507000 Z-0.125000
G01 X96.986200 Y8.437000 Z-0.125000
G01 X97.641100 Y8.718000 Z-0.125000
G01 X110.516000 Y21.592000 Z-0.125000
G01 X110.726000 Y21.686000 Z-0.125000
G01 X110.796000 Y21.499000 Z-0.125000
G01 X110.516000 Y20.844000 Z-0.125000
G01 X98.389400 Y8.718000 Z-0.125000
G01 X98.295900 Y8.507000 Z-0.125000
G01 X98.483000 Y8.437000 Z-0.125000
G01 X99.137800 Y8.718000 Z-0.125000
G01 X110.516000 Y20.096000 Z-0.125000
G01 X110.726000 Y20.189000 Z-0.125000
G01 X110.796000 Y20.002000 Z-0.125000
G01 X110.516000 Y19.347000 Z-0.125000
G01 X99.886100 Y8.718000 Z-0.125000
G01 X99.792600 Y8.507000 Z-0.125000
G01 X99.979700 Y8.437000 Z-0.125000
G01 X100.634000 Y8.718000 Z-0.125000
G01 X110.516000 Y18.599000 Z-0.125000
G01 X110.726000 Y18.692000 Z-0.125000
G01 X110.796000 Y18.505000 Z-0.125000
G01 X110.516000 Y17.850000 Z-0.125000
G01 X101.383000 Y8.718000 Z-0.125000
G01 X101.289000 Y8.507000 Z-0.125000
G01 X101.476000 Y8.437000 Z-0.125000
G01 X102.131000 Y8.718000 Z-0.125000
G01 X110.516000 Y17.102000 Z-0.125000
G01 X110.726000 Y17.196000 Z-0.125000
G01 X110.796000 Y17.009000 Z-0.125000
G01 X110.516000 Y16.354000 Z-0.125000
G01 X102.880000 Y8.718000 Z-0.125000
G01 X102.786000 Y8.507000 Z-0.125000
G01 X102.973000 Y8.437000 Z-0.125000
G01 X103.628000 Y8.718000 Z-0.125000
G01 X110.516000 Y15.605000 Z-0.125000
G01 X110.726000 Y15.699000 Z-0.125000
G01 X110.796000 Y15.512000 Z-0.125000
G01 X110.516000 Y14.857000 Z-0.125000
G01 X104.376000 Y8.718000 Z-0.125000
G01 X104.283000 Y8.507000 Z-0.125000
G01 X104.470000 Y8.437000 Z-0.125000
G01 X105.125000 Y8.718000 Z-0.125000
G01 X110.516000 Y14.109000 Z-0.125000
G01 X110.726000 Y14.202000 Z-0.125000
G01 X110.796000 Y14.015000 Z-0.125000
G01 X110.516000 Y13.360000 Z-0.125000
G01 X105.873000 Y8.718000 Z-0.125000
G01 X105.779000 Y8.507000 Z-0.125000
G01 X105.966000 Y8.437000 Z-0.125000
G01 X106.621000 Y8.718000 Z-0.125000
G01 X110.516000 Y12.612000 Z-0.125000
G01 X110.726000 Y12.706000 Z-0.125000
G01 X110.796000 Y12.518000 Z-0.125000
G01 X110.516000 Y11.864000 Z-0.125000
G01 X107.370000 Y8.718000 Z-0.125000
G01 X107.276000 Y8.507000 Z-0.125000
G01 X107.463000 Y8.437000 Z-0.125000
G01 X108.118000 Y8.718000 Z-0.125000
G01 X110.516000 Y11.115000 Z-0.125000
G01 X110.726000 Y11.209000 Z-0.125000
G01 X110.796000 Y11.022000 Z-0.125000
G01 X110.516000 Y10.367000 Z-0.125000
G01 X108.866000 Y8.718000 Z-0.125000
G01 X108.803000 Y8.537000 Z-0.125000
G01 X109.056000 Y8.533000 Z-0.125000
G01 X109.807000 Y8.910000 Z-0.125000
G01 X110.604000 Y9.707000 Z-0.125000
G00 Z5.000000

(End cutting path id: path7836)


(Start cutting path id: path7937)
(Change tool to Default tool)

G00 Z5.000000
G00 X79.407800 Y42.184700

G01 Z-0.125000 F100.0(Penetrate)
G01 X80.361400 Y41.756600 Z-0.125000 F400.000000
G01 X81.350900 Y41.533500 Z-0.125000
G01 X82.348100 Y41.507900 Z-0.125000
G01 X83.324600 Y41.672100 Z-0.125000
G01 X84.252300 Y42.018600 Z-0.125000
G01 X85.102700 Y42.539800 Z-0.125000
G01 X85.847700 Y43.228100 Z-0.125000
G01 X86.458900 Y44.076000 Z-0.125000
G01 X86.887800 Y45.029000 Z-0.125000
G01 X87.111500 Y46.018500 Z-0.125000
G01 X87.137700 Y47.015900 Z-0.125000
G01 X86.973800 Y47.992800 Z-0.125000
G01 X86.627500 Y48.920800 Z-0.125000
G01 X86.106400 Y49.771400 Z-0.125000
G01 X85.418000 Y50.516200 Z-0.125000
G01 X84.570000 Y51.126700 Z-0.125000
G01 X83.616200 Y51.556400 Z-0.125000
G01 X82.626500 Y51.780600 Z-0.125000
G01 X81.629000 Y51.806900 Z-0.125000
G01 X80.652200 Y51.643000 Z-0.125000
G01 X79.724400 Y51.296700 Z-0.125000
G01 X78.874000 Y50.775800 Z-0.125000
G01 X78.129400 Y50.087800 Z-0.125000
G01 X77.518800 Y49.240600 Z-0.125000
G01 X77.089200 Y48.286100 Z-0.125000
G01 X76.865200 Y47.295800 Z-0.125000
G01 X76.839000 Y46.298100 Z-0.125000
G01 X77.003000 Y45.321200 Z-0.125000
G01 X77.349600 Y44.393100 Z-0.125000
G01 X77.871000 Y43.542200 Z-0.125000
G01 X78.559600 Y42.796700 Z-0.125000
G01 X79.407800 Y42.184700 Z-0.125000
G01 X79.407800 Y42.184700 Z-0.125000
G00 Z5.000000

(End cutting path id: path7937)


(Start cutting path id: path7819)
(Change tool to Default tool)

G00 Z5.000000
G00 X79.407700 Y42.184700

G01 Z-0.125000 F100.0(Penetrate)
G01 X80.361400 Y41.756600 Z-0.125000 F400.000000
G01 X81.350900 Y41.533500 Z-0.125000
G01 X82.348100 Y41.507900 Z-0.125000
G01 X83.324600 Y41.672100 Z-0.125000
G01 X84.252200 Y42.018600 Z-0.125000
G01 X85.102700 Y42.539800 Z-0.125000
G01 X85.847600 Y43.228100 Z-0.125000
G01 X86.458900 Y44.076000 Z-0.125000
G01 X86.887800 Y45.029000 Z-0.125000
G01 X87.111500 Y46.018500 Z-0.125000
G01 X87.137600 Y47.015900 Z-0.125000
G01 X86.973800 Y47.992800 Z-0.125000
G01 X86.627500 Y48.920800 Z-0.125000
G01 X86.106400 Y49.771400 Z-0.125000
G01 X85.418000 Y50.516200 Z-0.125000
G01 X84.570000 Y51.126700 Z-0.125000
G01 X83.616200 Y51.556400 Z-0.125000
G01 X82.626500 Y51.780600 Z-0.125000
G01 X81.629000 Y51.806900 Z-0.125000
G01 X80.652200 Y51.643000 Z-0.125000
G01 X79.724400 Y51.296700 Z-0.125000
G01 X78.874000 Y50.775800 Z-0.125000
G01 X78.129400 Y50.087800 Z-0.125000
G01 X77.518800 Y49.240600 Z-0.125000
G01 X77.089200 Y48.286100 Z-0.125000
G01 X76.865200 Y47.295800 Z-0.125000
G01 X76.839000 Y46.298100 Z-0.125000
G01 X77.003000 Y45.321200 Z-0.125000
G01 X77.349600 Y44.393100 Z-0.125000
G01 X77.871000 Y43.542200 Z-0.125000
G01 X78.559600 Y42.796700 Z-0.125000
G01 X79.407700 Y42.184700 Z-0.125000
G01 X79.407700 Y42.184700 Z-0.125000
G00 Z5.000000

(End cutting path id: path7819)


(Start cutting path id: path7818)
(Change tool to Default tool)

G00 Z5.000000
G00 X77.333500 Y48.582700

G01 Z-0.125000 F100.0(Penetrate)
G01 X79.830300 Y51.079500 Z-0.125000 F400.000000
G01 X80.610400 Y51.485500 Z-0.125000
G01 X80.883700 Y51.501500 Z-0.125000
G01 X80.829300 Y51.330200 Z-0.125000
G01 X77.315300 Y47.816200 Z-0.125000
G01 X76.997300 Y47.124000 Z-0.125000
G01 X77.041800 Y46.911300 Z-0.125000
G01 X77.240600 Y46.993100 Z-0.125000
G01 X81.652900 Y51.405400 Z-0.125000
G01 X81.973800 Y51.609400 Z-0.125000
G01 X82.287000 Y51.665400 Z-0.125000
G01 X82.459900 Y51.581000 Z-0.125000
G01 X82.359900 Y51.364100 Z-0.125000
G01 X77.283100 Y46.287300 Z-0.125000
G01 X77.091600 Y45.978800 Z-0.125000
G01 X77.063100 Y45.693100 Z-0.125000
G01 X77.175000 Y45.547700 Z-0.125000
G01 X77.404400 Y45.660200 Z-0.125000
G01 X82.997800 Y51.253600 Z-0.125000
G01 X83.294400 Y51.433300 Z-0.125000
G01 X83.554200 Y51.435800 Z-0.125000
G01 X83.673600 Y51.298000 Z-0.125000
G01 X83.549300 Y51.056700 Z-0.125000
G01 X77.590100 Y45.097600 Z-0.125000
G01 X77.416400 Y44.806900 Z-0.125000
G01 X77.427100 Y44.560400 Z-0.125000
G01 X77.578100 Y44.454100 Z-0.125000
G01 X77.825300 Y44.584400 Z-0.125000
G01 X84.060700 Y50.819900 Z-0.125000
G01 X84.344300 Y50.986400 Z-0.125000
G01 X84.575100 Y50.960000 Z-0.125000
G01 X84.665600 Y50.793300 Z-0.125000
G01 X84.528200 Y50.539000 Z-0.125000
G01 X78.104600 Y44.115400 Z-0.125000
G01 X77.944600 Y43.838500 Z-0.125000
G01 X77.985500 Y43.622100 Z-0.125000
G01 X78.166800 Y43.546100 Z-0.125000
G01 X78.427700 Y43.690100 Z-0.125000
G01 X84.954400 Y50.216800 Z-0.125000
G01 X85.225200 Y50.370700 Z-0.125000
G01 X85.428100 Y50.316300 Z-0.125000
G01 X85.490700 Y50.121700 Z-0.125000
G01 X85.340500 Y49.854600 Z-0.125000
G01 X78.790600 Y43.304700 Z-0.125000
G01 X78.643000 Y43.040100 Z-0.125000
G01 X78.711200 Y42.851000 Z-0.125000
G01 X78.919600 Y42.802300 Z-0.125000
G01 X79.193000 Y42.958700 Z-0.125000
G01 X85.687000 Y49.452700 Z-0.125000
G01 X85.945300 Y49.594100 Z-0.125000
G01 X86.120700 Y49.512200 Z-0.125000
G01 X86.155800 Y49.290000 Z-0.125000
G01 X85.993100 Y49.010500 Z-0.125000
G01 X79.635600 Y42.652900 Z-0.125000
G01 X79.500900 Y42.401300 Z-0.125000
G01 X79.597700 Y42.240800 Z-0.125000
G01 X79.834700 Y42.220600 Z-0.125000
G01 X80.121000 Y42.390000 Z-0.125000
G01 X86.254700 Y48.523700 Z-0.125000
G01 X86.498700 Y48.650800 Z-0.125000
G01 X86.642700 Y48.537500 Z-0.125000
G01 X86.646400 Y48.284000 Z-0.125000
G01 X86.469500 Y47.990100 Z-0.125000
G01 X80.653200 Y42.173800 Z-0.125000
G01 X80.532300 Y41.936000 Z-0.125000
G01 X80.659100 Y41.805600 Z-0.125000
G01 X80.926300 Y41.815500 Z-0.125000
G01 X81.226300 Y41.998600 Z-0.125000
G01 X86.631700 Y47.404000 Z-0.125000
G01 X86.856500 Y47.511800 Z-0.125000
G01 X86.958000 Y47.356100 Z-0.125000
G01 X86.919200 Y47.060100 Z-0.125000
G01 X86.723000 Y46.747000 Z-0.125000
G01 X81.897000 Y41.920900 Z-0.125000
G01 X81.803600 Y41.710600 Z-0.125000
G01 X81.990900 Y41.640700 Z-0.125000
G01 X82.646200 Y41.921900 Z-0.125000
G01 X86.723800 Y45.999500 Z-0.125000
G01 X86.919700 Y46.078400 Z-0.125000
G01 X86.957700 Y45.859200 Z-0.125000
G01 X86.630400 Y45.157800 Z-0.125000
G01 X83.547600 Y42.075000 Z-0.125000
G01 X83.504900 Y41.915300 Z-0.125000
G01 X83.803800 Y41.957000 Z-0.125000
G01 X84.621300 Y42.400300 Z-0.125000
G01 X86.459800 Y44.238800 Z-0.125000
G00 Z5.000000

(End cutting path id: path7818)


(Start cutting path id: path7837)
(Change tool to Default tool)

G00 Z5.000000
G00 X66.304700 Y43.984800

G01 Z-0.125000 F100.0(Penetrate)
G01 X67.528900 Y45.209100 Z-0.125000 F400.000000
G01 X68.371100 Y45.677000 Z-0.125000
G01 X68.687000 Y45.735700 Z-0.125000
G01 X68.652000 Y45.583800 Z-0.125000
G01 X66.125100 Y43.056800 Z-0.125000
G01 X65.926200 Y42.741000 Z-0.125000
G01 X65.881500 Y42.439100 Z-0.125000
G01 X65.977100 Y42.277400 Z-0.125000
G01 X66.199200 Y42.382600 Z-0.125000
G01 X69.645400 Y45.828800 Z-0.125000
G01 X70.305500 Y46.114700 Z-0.125000
G01 X70.496200 Y46.048200 Z-0.125000
G01 X70.404300 Y45.839400 Z-0.125000
G01 X66.410500 Y41.845500 Z-0.125000
G01 X66.249900 Y41.568000 Z-0.125000
G01 X66.289300 Y41.350200 Z-0.125000
G01 X66.469100 Y41.272700 Z-0.125000
G01 X66.729400 Y41.416100 Z-0.125000
G01 X71.024200 Y45.710900 Z-0.125000
G01 X71.311200 Y45.880900 Z-0.125000
G01 X71.549500 Y45.862100 Z-0.125000
G01 X71.647600 Y45.702900 Z-0.125000
G01 X71.513600 Y45.451900 Z-0.125000
G01 X67.107600 Y41.046000 Z-0.125000
G01 X66.954000 Y40.775400 Z-0.125000
G01 X67.008800 Y40.573000 Z-0.125000
G01 X67.204000 Y40.510900 Z-0.125000
G01 X67.471300 Y40.661200 Z-0.125000
G01 X71.892700 Y45.082700 Z-0.125000
G01 X72.146600 Y45.219700 Z-0.125000
G01 X72.312200 Y45.128000 Z-0.125000
G01 X72.337500 Y44.896000 Z-0.125000
G01 X72.170400 Y44.612000 Z-0.125000
G01 X67.815000 Y40.256700 Z-0.125000
G01 X67.654700 Y39.979400 Z-0.125000
G01 X67.695000 Y39.762400 Z-0.125000
G01 X67.875500 Y39.685700 Z-0.125000
G01 X68.136100 Y39.829400 Z-0.125000
G01 X72.339500 Y44.032800 Z-0.125000
G01 X72.575600 Y44.152000 Z-0.125000
G01 X72.702200 Y44.021300 Z-0.125000
G01 X72.688400 Y43.750300 Z-0.125000
G01 X72.503600 Y43.448500 Z-0.125000
G01 X68.436100 Y39.381000 Z-0.125000
G01 X68.269000 Y39.097000 Z-0.125000
G01 X68.294400 Y38.865200 Z-0.125000
G01 X68.460100 Y38.773600 Z-0.125000
G01 X68.714100 Y38.910600 Z-0.125000
G01 X72.696800 Y42.893400 Z-0.125000
G01 X72.942200 Y43.021900 Z-0.125000
G01 X73.089200 Y42.911600 Z-0.125000
G01 X73.095900 Y42.661000 Z-0.125000
G01 X72.920400 Y42.368600 Z-0.125000
G01 X68.969100 Y38.417400 Z-0.125000
G01 X68.794800 Y38.126000 Z-0.125000
G01 X68.804000 Y37.878000 Z-0.125000
G01 X68.953500 Y37.770300 Z-0.125000
G01 X69.200100 Y37.899900 Z-0.125000
G01 X73.167000 Y41.866800 Z-0.125000
G01 X73.419600 Y42.002600 Z-0.125000
G01 X73.582500 Y41.908200 Z-0.125000
G01 X73.605100 Y41.673600 Z-0.125000
G01 X73.436800 Y41.388300 Z-0.125000
G01 X69.405300 Y37.356800 Z-0.125000
G01 X69.222700 Y37.057300 Z-0.125000
G01 X69.214000 Y36.791300 Z-0.125000
G01 X69.345600 Y36.665600 Z-0.125000
G01 X69.584000 Y36.787100 Z-0.125000
G01 X73.729000 Y40.932100 Z-0.125000
G01 X73.988500 Y41.074700 Z-0.125000
G01 X74.166500 Y40.995400 Z-0.125000
G01 X74.204200 Y40.775900 Z-0.125000
G01 X74.042700 Y40.497500 Z-0.125000
G01 X69.726200 Y36.181000 Z-0.125000
G01 X69.532500 Y35.870400 Z-0.125000
G01 X69.499400 Y35.580000 Z-0.125000
G01 X69.606500 Y35.429900 Z-0.125000
G01 X69.833800 Y35.540300 Z-0.125000
G01 X74.377600 Y40.084000 Z-0.125000
G01 X74.643700 Y40.233200 Z-0.125000
G01 X74.836100 Y40.168300 Z-0.125000
G01 X74.888200 Y39.963200 Z-0.125000
G01 X74.733300 Y39.691400 Z-0.125000
G01 X69.881700 Y34.839800 Z-0.125000
G01 X69.677700 Y34.518800 Z-0.125000
G01 X69.621700 Y34.205600 Z-0.125000
G01 X69.706100 Y34.032700 Z-0.125000
G01 X69.923000 Y34.132700 Z-0.125000
G01 X75.109700 Y39.319400 Z-0.125000
G01 X75.382200 Y39.475000 Z-0.125000
G01 X75.588900 Y39.424400 Z-0.125000
G01 X75.655200 Y39.233500 Z-0.125000
G01 X75.506800 Y38.968100 Z-0.125000
G01 X69.855200 Y33.316600 Z-0.125000
G01 X69.528800 Y32.616000 Z-0.125000
G01 X69.567600 Y32.397500 Z-0.125000
G01 X69.763800 Y32.476800 Z-0.125000
G01 X75.924700 Y38.637700 Z-0.125000
G01 X76.203800 Y38.799800 Z-0.125000
G01 X76.424800 Y38.763700 Z-0.125000
G01 X76.505600 Y38.587200 Z-0.125000
G01 X76.363700 Y38.328400 Z-0.125000
G01 X69.443700 Y31.408400 Z-0.125000
G01 X68.936700 Y30.527100 Z-0.125000
G01 X68.851100 Y30.184300 Z-0.125000
G01 X68.990800 Y30.207100 Z-0.125000
G01 X76.824300 Y38.040600 Z-0.125000
G01 X77.110200 Y38.209600 Z-0.125000
G01 X77.346400 Y38.188500 Z-0.125000
G01 X77.442300 Y38.027200 Z-0.125000
G01 X77.307300 Y37.775200 Z-0.125000
G01 X63.701100 Y24.169000 Z-0.125000
G01 X63.513300 Y23.864000 Z-0.125000
G01 X63.492900 Y23.587000 Z-0.125000
G01 X63.612800 Y23.449000 Z-0.125000
G01 X63.845900 Y23.566000 Z-0.125000
G01 X77.813100 Y37.532700 Z-0.125000
G01 X78.106800 Y37.709400 Z-0.125000
G01 X78.359900 Y37.705300 Z-0.125000
G01 X78.472700 Y37.560800 Z-0.125000
G01 X78.345400 Y37.316600 Z-0.125000
G01 X64.182700 Y23.154000 Z-0.125000
G01 X64.024900 Y22.879000 Z-0.125000
G01 X64.070800 Y22.668000 Z-0.125000
G01 X64.257000 Y22.597000 Z-0.125000
G01 X64.520200 Y22.743000 Z-0.125000
G01 X78.905100 Y37.128000 Z-0.125000
G01 X79.207700 Y37.313600 Z-0.125000
G01 X79.480500 Y37.329200 Z-0.125000
G01 X79.613000 Y37.204500 Z-0.125000
G01 X79.494700 Y36.969200 Z-0.125000
G01 X64.820000 Y22.295000 Z-0.125000
G01 X64.649700 Y22.007000 Z-0.125000
G01 X64.667900 Y21.768000 Z-0.125000
G01 X64.826500 Y21.670000 Z-0.125000
G01 X65.077100 Y21.803000 Z-0.125000
G01 X80.118000 Y36.844100 Z-0.125000
G01 X80.431900 Y37.041100 Z-0.125000
G01 X80.729600 Y37.081600 Z-0.125000
G01 X80.887000 Y36.981700 Z-0.125000
G01 X80.779900 Y36.757800 Z-0.125000
G01 X65.288700 Y21.267000 Z-0.125000
G01 X65.103300 Y20.964000 Z-0.125000
G01 X65.088400 Y20.692000 Z-0.125000
G01 X65.213800 Y20.560000 Z-0.125000
G01 X65.449400 Y20.679000 Z-0.125000
G01 X81.513100 Y36.742500 Z-0.125000
G01 X82.161200 Y37.016500 Z-0.125000
G01 X82.343700 Y36.941700 Z-0.125000
G01 X82.248100 Y36.729200 Z-0.125000
G01 X65.540400 Y20.022000 Z-0.125000
G01 X65.263200 Y19.370000 Z-0.125000
G01 X65.335700 Y19.185000 Z-0.125000
G01 X65.547200 Y19.280000 Z-0.125000
G01 X83.101000 Y36.833800 Z-0.125000
G01 X83.847800 Y37.206300 Z-0.125000
G01 X84.098100 Y37.199400 Z-0.125000
G01 X84.033200 Y37.017600 Z-0.125000
G01 X65.400100 Y18.384000 Z-0.125000
G01 X64.809800 Y17.420000 Z-0.125000
G01 X64.667100 Y17.020000 Z-0.125000
G01 X64.780800 Y17.017000 Z-0.125000
G01 X85.210500 Y37.446600 Z-0.125000
G01 X86.206100 Y38.068000 Z-0.125000
G01 X86.627500 Y38.232200 Z-0.125000
G01 X86.701800 Y38.221700 Z-0.125000
G01 X86.640500 Y38.128200 Z-0.125000
G01 X57.229900 Y8.718000 Z-0.125000
G01 X57.136400 Y8.507000 Z-0.125000
G01 X57.323500 Y8.437000 Z-0.125000
G01 X57.978300 Y8.718000 Z-0.125000
G01 X87.712800 Y38.452200 Z-0.125000
G01 X88.366300 Y38.731400 Z-0.125000
G01 X88.552500 Y38.660300 Z-0.125000
G01 X88.458500 Y38.449300 Z-0.125000
G01 X58.726600 Y8.717000 Z-0.125000
G01 X58.633100 Y8.507000 Z-0.125000
G01 X58.820200 Y8.437000 Z-0.125000
G01 X59.475000 Y8.717000 Z-0.125000
G01 X88.954000 Y38.196400 Z-0.125000
G01 X89.210400 Y38.335800 Z-0.125000
G01 X89.381500 Y38.249700 Z-0.125000
G01 X89.412300 Y38.023300 Z-0.125000
G01 X89.247700 Y37.741800 Z-0.125000
G01 X60.223300 Y8.717000 Z-0.125000
G01 X60.129800 Y8.507000 Z-0.125000
G01 X60.316900 Y8.437000 Z-0.125000
G01 X60.971700 Y8.717000 Z-0.125000
G01 X89.433500 Y37.179200 Z-0.125000
G01 X89.679600 Y37.308300 Z-0.125000
G01 X89.828100 Y37.199600 Z-0.125000
G01 X89.836200 Y36.950500 Z-0.125000
G01 X89.661300 Y36.658700 Z-0.125000
G01 X61.720000 Y8.717000 Z-0.125000
G01 X61.626500 Y8.507000 Z-0.125000
G01 X61.813600 Y8.437000 Z-0.125000
G01 X62.468400 Y8.717000 Z-0.125000
G01 X89.935100 Y36.184100 Z-0.125000
G01 X90.194500 Y36.326600 Z-0.125000
G01 X90.372300 Y36.247100 Z-0.125000
G01 X90.409800 Y36.027400 Z-0.125000
G01 X90.248300 Y35.748900 Z-0.125000
G01 X63.216700 Y8.717000 Z-0.125000
G01 X63.123200 Y8.507000 Z-0.125000
G01 X63.310300 Y8.437000 Z-0.125000
G01 X63.965100 Y8.717000 Z-0.125000
G01 X90.599900 Y35.352200 Z-0.125000
G01 X90.871300 Y35.506600 Z-0.125000
G01 X91.075400 Y35.453500 Z-0.125000
G01 X91.139200 Y35.260000 Z-0.125000
G01 X90.989600 Y34.993500 Z-0.125000
G01 X64.713500 Y8.717000 Z-0.125000
G01 X64.619900 Y8.507000 Z-0.125000
G01 X64.807000 Y8.437000 Z-0.125000
G01 X65.461800 Y8.717000 Z-0.125000
G01 X91.417700 Y34.673200 Z-0.125000
G01 X91.701300 Y34.839900 Z-0.125000
G01 X91.932200 Y34.813600 Z-0.125000
G01 X92.022900 Y34.647000 Z-0.125000
G01 X91.885500 Y34.392700 Z-0.125000
G01 X66.210200 Y8.717000 Z-0.125000
G01 X66.116600 Y8.507000 Z-0.125000
G01 X66.303700 Y8.437000 Z-0.125000
G01 X66.958500 Y8.717000 Z-0.125000
G01 X92.395700 Y34.154500 Z-0.125000
G01 X92.693300 Y34.335200 Z-0.125000
G01 X92.955100 Y34.339800 Z-0.125000
G01 X93.076600 Y34.204000 Z-0.125000
G01 X92.953300 Y33.963800 Z-0.125000
G01 X67.706900 Y8.717000 Z-0.125000
G01 X67.613300 Y8.507000 Z-0.125000
G01 X67.800400 Y8.437000 Z-0.125000
G01 X68.455200 Y8.717000 Z-0.125000
G01 X93.570600 Y33.832700 Z-0.125000
G01 X93.888600 Y34.033800 Z-0.125000
G01 X94.195200 Y34.083200 Z-0.125000
G01 X94.361500 Y33.992300 Z-0.125000
G01 X94.258600 Y33.772300 Z-0.125000
G01 X69.203600 Y8.717000 Z-0.125000
G01 X69.110000 Y8.507000 Z-0.125000
G01 X69.297100 Y8.437000 Z-0.125000
G01 X69.951900 Y8.717000 Z-0.125000
G01 X95.050100 Y33.815600 Z-0.125000
G01 X95.855300 Y34.246500 Z-0.125000
G01 X96.145700 Y34.279700 Z-0.125000
G01 X96.099100 Y34.116200 Z-0.125000
G01 X70.419700 Y8.437000 Z-0.125000
G00 Z5.000000

(End cutting path id: path7837)


(Start cutting path id: path7839)
(Change tool to Default tool)

G00 Z5.000000
G00 X55.414900 Y21.869000

G01 Z-0.125000 F100.0(Penetrate)
G01 X42.262800 Y8.717000 Z-0.125000 F400.000000
G01 X42.169300 Y8.507000 Z-0.125000
G01 X42.356400 Y8.437000 Z-0.125000
G01 X43.011200 Y8.717000 Z-0.125000
G01 X54.546800 Y20.253000 Z-0.125000
G01 X54.737800 Y20.327000 Z-0.125000
G01 X54.765100 Y20.097000 Z-0.125000
G01 X54.422000 Y19.380000 Z-0.125000
G01 X43.759500 Y8.717000 Z-0.125000
G01 X43.666000 Y8.507000 Z-0.125000
G01 X43.853100 Y8.437000 Z-0.125000
G01 X44.507900 Y8.717000 Z-0.125000
G01 X54.427400 Y18.637000 Z-0.125000
G01 X54.652000 Y18.745000 Z-0.125000
G01 X54.753200 Y18.588000 Z-0.125000
G01 X54.714000 Y18.292000 Z-0.125000
G01 X54.517600 Y17.979000 Z-0.125000
G01 X45.256200 Y8.717000 Z-0.125000
G01 X45.162700 Y8.507000 Z-0.125000
G01 X45.349800 Y8.437000 Z-0.125000
G01 X46.004600 Y8.717000 Z-0.125000
G01 X54.675900 Y17.389000 Z-0.125000
G01 X54.919300 Y17.515000 Z-0.125000
G01 X55.061800 Y17.400000 Z-0.125000
G01 X55.064000 Y17.145000 Z-0.125000
G01 X54.886500 Y16.851000 Z-0.125000
G01 X46.752900 Y8.717000 Z-0.125000
G01 X46.659400 Y8.507000 Z-0.125000
G01 X46.846500 Y8.437000 Z-0.125000
G01 X47.501300 Y8.717000 Z-0.125000
G01 X55.142700 Y16.359000 Z-0.125000
G01 X55.399700 Y16.499000 Z-0.125000
G01 X55.572100 Y16.414000 Z-0.125000
G01 X55.604300 Y16.189000 Z-0.125000
G01 X55.440300 Y15.908000 Z-0.125000
G01 X48.249700 Y8.717000 Z-0.125000
G01 X48.156100 Y8.507000 Z-0.125000
G01 X48.343200 Y8.437000 Z-0.125000
G01 X48.998000 Y8.717000 Z-0.125000
G01 X55.776600 Y15.496000 Z-0.125000
G01 X56.045500 Y15.648000 Z-0.125000
G01 X56.244200 Y15.589000 Z-0.125000
G01 X56.302600 Y15.391000 Z-0.125000
G01 X56.150600 Y15.122000 Z-0.125000
G01 X49.746400 Y8.717000 Z-0.125000
G01 X49.652800 Y8.507000 Z-0.125000
G01 X49.839900 Y8.437000 Z-0.125000
G01 X50.494700 Y8.717000 Z-0.125000
G01 X56.562500 Y14.785000 Z-0.125000
G01 X56.843400 Y14.949000 Z-0.125000
G01 X57.068400 Y14.917000 Z-0.125000
G01 X57.153200 Y14.745000 Z-0.125000
G01 X57.013100 Y14.488000 Z-0.125000
G01 X51.243100 Y8.718000 Z-0.125000
G01 X51.149500 Y8.507000 Z-0.125000
G01 X51.336600 Y8.437000 Z-0.125000
G01 X51.991400 Y8.718000 Z-0.125000
G01 X57.505000 Y14.231000 Z-0.125000
G01 X57.799500 Y14.409000 Z-0.125000
G01 X58.054500 Y14.406000 Z-0.125000
G01 X58.169100 Y14.264000 Z-0.125000
G01 X58.042600 Y14.020000 Z-0.125000
G01 X52.739800 Y8.718000 Z-0.125000
G01 X52.646200 Y8.507000 Z-0.125000
G01 X52.833300 Y8.437000 Z-0.125000
G01 X53.488100 Y8.718000 Z-0.125000
G01 X58.632200 Y13.862000 Z-0.125000
G01 X58.945500 Y14.058000 Z-0.125000
G01 X59.241800 Y14.097000 Z-0.125000
G01 X59.397700 Y13.996000 Z-0.125000
G01 X59.290000 Y13.771000 Z-0.125000
G01 X54.236500 Y8.718000 Z-0.125000
G01 X54.142900 Y8.507000 Z-0.125000
G01 X54.330000 Y8.437000 Z-0.125000
G01 X54.984800 Y8.718000 Z-0.125000
G01 X60.032100 Y13.765000 Z-0.125000
G01 X60.759300 Y14.118000 Z-0.125000
G01 X60.996200 Y14.097000 Z-0.125000
G01 X60.925300 Y13.910000 Z-0.125000
G01 X55.733200 Y8.718000 Z-0.125000
G01 X55.639700 Y8.507000 Z-0.125000
G01 X55.826700 Y8.437000 Z-0.125000
G01 X56.481600 Y8.718000 Z-0.125000
G01 X62.573800 Y14.810000 Z-0.125000
G00 Z5.000000

(End cutting path id: path7839)


(Start cutting path id: path7851)
(Change tool to Default tool)

G00 Z5.000000
G00 X58.130500 Y38.680800

G01 Z-0.125000 F100.0(Penetrate)
G01 X55.535300 Y36.085600 Z-0.125000 F400.000000
G01 X55.133900 Y35.310000 Z-0.125000
G01 X55.121000 Y35.039800 Z-0.125000
G01 X55.293700 Y35.095600 Z-0.125000
G01 X58.840800 Y38.642700 Z-0.125000
G01 X59.525800 Y38.953600 Z-0.125000
G01 X59.733700 Y38.904200 Z-0.125000
G01 X59.649600 Y38.703100 Z-0.125000
G01 X55.234400 Y34.287900 Z-0.125000
G01 X55.030900 Y33.967500 Z-0.125000
G01 X54.976100 Y33.655400 Z-0.125000
G01 X55.061500 Y33.483700 Z-0.125000
G01 X55.279000 Y33.584200 Z-0.125000
G01 X60.353200 Y38.658400 Z-0.125000
G01 X60.661700 Y38.849900 Z-0.125000
G01 X60.947400 Y38.878400 Z-0.125000
G01 X61.092800 Y38.766600 Z-0.125000
G01 X60.980300 Y38.537200 Z-0.125000
G01 X55.399900 Y32.956700 Z-0.125000
G01 X55.218300 Y32.658200 Z-0.125000
G01 X55.211700 Y32.394300 Z-0.125000
G01 X55.345400 Y32.270800 Z-0.125000
G01 X55.584700 Y32.393200 Z-0.125000
G01 X61.543500 Y38.352000 Z-0.125000
G01 X61.834100 Y38.525600 Z-0.125000
G01 X62.080500 Y38.514800 Z-0.125000
G01 X62.186500 Y38.363600 Z-0.125000
G01 X62.056200 Y38.116300 Z-0.125000
G01 X55.820200 Y31.880300 Z-0.125000
G01 X55.653600 Y31.596700 Z-0.125000
G01 X55.679900 Y31.365900 Z-0.125000
G01 X55.846600 Y31.275300 Z-0.125000
G01 X56.100900 Y31.412700 Z-0.125000
G01 X62.523500 Y37.835300 Z-0.125000
G01 X62.800400 Y37.995200 Z-0.125000
G01 X63.016500 Y37.954100 Z-0.125000
G01 X63.092400 Y37.772700 Z-0.125000
G01 X62.948300 Y37.511700 Z-0.125000
G01 X56.424500 Y30.987900 Z-0.125000
G01 X56.270700 Y30.717200 Z-0.125000
G01 X56.325300 Y30.514500 Z-0.125000
G01 X56.520200 Y30.452200 Z-0.125000
G01 X56.787400 Y30.602400 Z-0.125000
G01 X63.333700 Y37.148800 Z-0.125000
G01 X63.598300 Y37.296500 Z-0.125000
G01 X63.787600 Y37.228500 Z-0.125000
G01 X63.836600 Y37.020200 Z-0.125000
G01 X63.680300 Y36.747000 Z-0.125000
G01 X57.189300 Y30.256000 Z-0.125000
G01 X57.047900 Y29.997600 Z-0.125000
G01 X57.129600 Y29.822100 Z-0.125000
G01 X57.351600 Y29.786900 Z-0.125000
G01 X57.631100 Y29.949500 Z-0.125000
G01 X63.986900 Y36.305300 Z-0.125000
G01 X64.238700 Y36.440200 Z-0.125000
G01 X64.399800 Y36.344000 Z-0.125000
G01 X64.420600 Y36.107500 Z-0.125000
G01 X64.251500 Y35.821500 Z-0.125000
G01 X58.115200 Y29.685200 Z-0.125000
G01 X57.988300 Y29.441400 Z-0.125000
G01 X58.102100 Y29.297900 Z-0.125000
G01 X58.356100 Y29.294700 Z-0.125000
G01 X58.650200 Y29.471800 Z-0.125000
G01 X64.465300 Y35.286900 Z-0.125000
G01 X64.701000 Y35.405700 Z-0.125000
G01 X64.826500 Y35.274000 Z-0.125000
G01 X64.811800 Y35.002000 Z-0.125000
G01 X64.626500 Y34.699800 Z-0.125000
G01 X59.237700 Y29.311000 Z-0.125000
G01 X59.130100 Y29.086500 Z-0.125000
G01 X59.286200 Y28.985400 Z-0.125000
G01 X59.582700 Y29.024600 Z-0.125000
G01 X59.896000 Y29.221000 Z-0.125000
G01 X64.716900 Y34.041800 Z-0.125000
G01 X64.931900 Y34.139900 Z-0.125000
G01 X65.012100 Y33.962800 Z-0.125000
G01 X64.952000 Y33.645500 Z-0.125000
G01 X64.746100 Y33.322600 Z-0.125000
G01 X60.614900 Y29.191400 Z-0.125000
G01 X60.549100 Y29.008700 Z-0.125000
G01 X60.797300 Y28.999700 Z-0.125000
G01 X61.541000 Y29.369200 Z-0.125000
G01 X64.568900 Y32.397100 Z-0.125000
G01 X64.703800 Y32.415100 Z-0.125000
G01 X64.607600 Y32.061600 Z-0.125000
G01 X64.085000 Y31.164900 Z-0.125000
G01 X62.491400 Y29.571300 Z-0.125000
G00 Z5.000000

(End cutting path id: path7851)


(Start cutting path id: path7852)
(Change tool to Default tool)

G00 Z5.000000
G00 X59.982500 Y39.114700

G01 Z-0.125000 F100.0(Penetrate)
G01 X58.942400 Y39.008900 Z-0.125000 F400.000000
G01 X57.973700 Y38.707500 Z-0.125000
G01 X57.097200 Y38.231200 Z-0.125000
G01 X56.333700 Y37.600900 Z-0.125000
G01 X55.703700 Y36.837300 Z-0.125000
G01 X55.228100 Y35.961300 Z-0.125000
G01 X54.927500 Y34.993600 Z-0.125000
G01 X54.822700 Y33.955000 Z-0.125000
G01 X54.927500 Y32.913900 Z-0.125000
G01 X55.228100 Y31.944600 Z-0.125000
G01 X55.703700 Y31.067800 Z-0.125000
G01 X56.333700 Y30.304000 Z-0.125000
G01 X57.097200 Y29.674100 Z-0.125000
G01 X57.973700 Y29.198500 Z-0.125000
G01 X58.942400 Y28.898000 Z-0.125000
G01 X59.982500 Y28.793200 Z-0.125000
G01 X61.022800 Y28.898000 Z-0.125000
G01 X61.991700 Y29.198600 Z-0.125000
G01 X62.868600 Y29.674200 Z-0.125000
G01 X63.632600 Y30.304200 Z-0.125000
G01 X64.263000 Y31.068000 Z-0.125000
G01 X64.739000 Y31.944800 Z-0.125000
G01 X65.039800 Y32.914000 Z-0.125000
G01 X65.144700 Y33.955000 Z-0.125000
G01 X65.039800 Y34.993700 Z-0.125000
G01 X64.739000 Y35.961700 Z-0.125000
G01 X64.263000 Y36.838100 Z-0.125000
G01 X63.632600 Y37.602000 Z-0.125000
G01 X62.868600 Y38.232500 Z-0.125000
G01 X61.991700 Y38.708700 Z-0.125000
G01 X61.022800 Y39.009800 Z-0.125000
G01 X59.982500 Y39.114700 Z-0.125000
G01 X59.982500 Y39.114700 Z-0.125000
G00 Z5.000000

(End cutting path id: path7852)


(Start cutting path id: path7944)
(Change tool to Default tool)

G00 Z5.000000
G00 X59.982500 Y39.114800

G01 Z-0.125000 F100.0(Penetrate)
G01 X58.942400 Y39.008900 Z-0.125000 F400.000000
G01 X57.973700 Y38.707500 Z-0.125000
G01 X57.097200 Y38.231200 Z-0.125000
G01 X56.333700 Y37.600900 Z-0.125000
G01 X55.703700 Y36.837400 Z-0.125000
G01 X55.228100 Y35.961300 Z-0.125000
G01 X54.927500 Y34.993600 Z-0.125000
G01 X54.822700 Y33.955000 Z-0.125000
G01 X54.927500 Y32.913900 Z-0.125000
G01 X55.228100 Y31.944600 Z-0.125000
G01 X55.703700 Y31.067800 Z-0.125000
G01 X56.333700 Y30.304000 Z-0.125000
G01 X57.097200 Y29.674100 Z-0.125000
G01 X57.973700 Y29.198500 Z-0.125000
G01 X58.942400 Y28.898000 Z-0.125000
G01 X59.982500 Y28.793200 Z-0.125000
G01 X61.022800 Y28.898000 Z-0.125000
G01 X61.991700 Y29.198600 Z-0.125000
G01 X62.868600 Y29.674200 Z-0.125000
G01 X63.632600 Y30.304200 Z-0.125000
G01 X64.263000 Y31.068000 Z-0.125000
G01 X64.739000 Y31.944800 Z-0.125000
G01 X65.039800 Y32.914100 Z-0.125000
G01 X65.144700 Y33.955000 Z-0.125000
G01 X65.039800 Y34.993700 Z-0.125000
G01 X64.739000 Y35.961700 Z-0.125000
G01 X64.263000 Y36.838100 Z-0.125000
G01 X63.632600 Y37.602000 Z-0.125000
G01 X62.868600 Y38.232500 Z-0.125000
G01 X61.991700 Y38.708700 Z-0.125000
G01 X61.022800 Y39.009800 Z-0.125000
G01 X59.982500 Y39.114800 Z-0.125000
G01 X59.982500 Y39.114800 Z-0.125000
G00 Z5.000000

(End cutting path id: path7944)


(Start cutting path id: path7834)
(Change tool to Default tool)

G00 Z5.000000
G00 X52.482200 Y39.890900

G01 Z-0.125000 F100.0(Penetrate)
G01 X21.308900 Y8.718000 Z-0.125000 F400.000000
G01 X21.215300 Y8.507000 Z-0.125000
G01 X21.402400 Y8.437000 Z-0.125000
G01 X22.057200 Y8.718000 Z-0.125000
G01 X50.885800 Y37.546100 Z-0.125000
G01 X51.022000 Y37.565400 Z-0.125000
G01 X50.928900 Y37.215100 Z-0.125000
G01 X50.410800 Y36.322800 Z-0.125000
G01 X22.805600 Y8.718000 Z-0.125000
G01 X22.712100 Y8.507000 Z-0.125000
G01 X22.899100 Y8.437000 Z-0.125000
G01 X23.554000 Y8.718000 Z-0.125000
G01 X50.188400 Y35.352100 Z-0.125000
G01 X50.381700 Y35.428400 Z-0.125000
G01 X50.414100 Y35.203600 Z-0.125000
G01 X50.078500 Y34.493800 Z-0.125000
G01 X24.302300 Y8.718000 Z-0.125000
G01 X24.208800 Y8.507000 Z-0.125000
G01 X24.395900 Y8.437000 Z-0.125000
G01 X25.050700 Y8.718000 Z-0.125000
G01 X50.041600 Y33.708500 Z-0.125000
G01 X50.255700 Y33.805700 Z-0.125000
G01 X50.333900 Y33.626700 Z-0.125000
G01 X50.271800 Y33.307300 Z-0.125000
G01 X50.065000 Y32.983500 Z-0.125000
G01 X25.799000 Y8.718000 Z-0.125000
G01 X25.705500 Y8.507000 Z-0.125000
G01 X25.892600 Y8.437000 Z-0.125000
G01 X26.547400 Y8.718000 Z-0.125000
G01 X50.136700 Y32.306900 Z-0.125000
G01 X50.364700 Y32.418000 Z-0.125000
G01 X50.473500 Y32.269500 Z-0.125000
G01 X50.442000 Y31.980800 Z-0.125000
G01 X50.249000 Y31.670900 Z-0.125000
G01 X27.295700 Y8.718000 Z-0.125000
G01 X27.202200 Y8.507000 Z-0.125000
G01 X27.389300 Y8.437000 Z-0.125000
G01 X28.044100 Y8.718000 Z-0.125000
G01 X50.396700 Y31.070200 Z-0.125000
G01 X50.635200 Y31.191700 Z-0.125000
G01 X50.766800 Y31.066100 Z-0.125000
G01 X50.758200 Y30.800200 Z-0.125000
G01 X50.575600 Y30.500800 Z-0.125000
G01 X28.792500 Y8.718000 Z-0.125000
G01 X28.698900 Y8.507000 Z-0.125000
G01 X28.886000 Y8.437000 Z-0.125000
G01 X29.540800 Y8.718000 Z-0.125000
G01 X50.782600 Y29.959400 Z-0.125000
G01 X51.029400 Y30.089300 Z-0.125000
G01 X51.179500 Y29.982100 Z-0.125000
G01 X51.189300 Y29.734700 Z-0.125000
G01 X51.015200 Y29.443600 Z-0.125000
G01 X30.289200 Y8.718000 Z-0.125000
G01 X30.195600 Y8.507000 Z-0.125000
G01 X30.382700 Y8.437000 Z-0.125000
G01 X31.037500 Y8.718000 Z-0.125000
G01 X51.272100 Y28.952200 Z-0.125000
G01 X51.526500 Y29.089600 Z-0.125000
G01 X51.693200 Y28.999100 Z-0.125000
G01 X51.719700 Y28.768300 Z-0.125000
G01 X51.553100 Y28.484800 Z-0.125000
G01 X31.785900 Y8.718000 Z-0.125000
G01 X31.692300 Y8.507000 Z-0.125000
G01 X31.879400 Y8.437000 Z-0.125000
G01 X32.534200 Y8.718000 Z-0.125000
G01 X51.855300 Y28.038700 Z-0.125000
G01 X52.116300 Y28.182700 Z-0.125000
G01 X52.297400 Y28.106600 Z-0.125000
G01 X52.338200 Y27.890200 Z-0.125000
G01 X52.178200 Y27.613200 Z-0.125000
G01 X33.282600 Y8.718000 Z-0.125000
G01 X33.189000 Y8.507000 Z-0.125000
G01 X33.376100 Y8.437000 Z-0.125000
G01 X34.030900 Y8.718000 Z-0.125000
G01 X52.523300 Y27.210000 Z-0.125000
G01 X52.790800 Y27.360500 Z-0.125000
G01 X52.986300 Y27.298800 Z-0.125000
G01 X53.041500 Y27.096800 Z-0.125000
G01 X52.888100 Y26.826000 Z-0.125000
G01 X34.779300 Y8.718000 Z-0.125000
G01 X34.685700 Y8.507000 Z-0.125000
G01 X34.872800 Y8.437000 Z-0.125000
G01 X35.527600 Y8.718000 Z-0.125000
G01 X53.272600 Y26.463000 Z-0.125000
G01 X53.546500 Y26.620000 Z-0.125000
G01 X53.756400 Y26.572000 Z-0.125000
G01 X53.825900 Y26.384000 Z-0.125000
G01 X53.679000 Y26.121000 Z-0.125000
G01 X36.276000 Y8.718000 Z-0.125000
G01 X36.182400 Y8.507000 Z-0.125000
G01 X36.369500 Y8.437000 Z-0.125000
G01 X37.024300 Y8.718000 Z-0.125000
G01 X54.105300 Y25.799000 Z-0.125000
G01 X54.385600 Y25.962000 Z-0.125000
G01 X54.609300 Y25.928000 Z-0.125000
G01 X54.692800 Y25.755000 Z-0.125000
G01 X54.552100 Y25.497000 Z-0.125000
G01 X37.772700 Y8.718000 Z-0.125000
G01 X37.679100 Y8.507000 Z-0.125000
G01 X37.866200 Y8.437000 Z-0.125000
G01 X38.521000 Y8.718000 Z-0.125000
G01 X55.022900 Y25.219000 Z-0.125000
G01 X55.300100 Y25.380000 Z-0.125000
G01 X55.517000 Y25.339000 Z-0.125000
G01 X55.593600 Y25.159000 Z-0.125000
G01 X55.449800 Y24.898000 Z-0.125000
G01 X39.269400 Y8.718000 Z-0.125000
G01 X39.175900 Y8.507000 Z-0.125000
G01 X39.362900 Y8.437000 Z-0.125000
G01 X40.017800 Y8.718000 Z-0.125000
G01 X55.825800 Y24.526000 Z-0.125000
G01 X56.083800 Y24.667000 Z-0.125000
G01 X56.258600 Y24.584000 Z-0.125000
G01 X56.293000 Y24.361000 Z-0.125000
G01 X56.130100 Y24.082000 Z-0.125000
G01 X40.766100 Y8.718000 Z-0.125000
G01 X40.672600 Y8.507000 Z-0.125000
G01 X40.859700 Y8.437000 Z-0.125000
G01 X41.514500 Y8.718000 Z-0.125000
G01 X56.545200 Y23.748000 Z-0.125000
G00 Z5.000000

(End cutting path id: path7834)


(Start cutting path id: path7832)
(Change tool to Default tool)

G00 Z5.000000
G00 X46.315500 Y41.956200

G01 Z-0.125000 F100.0(Penetrate)
G01 X50.114400 Y45.755000 Z-0.125000 F400.000000
G01 X50.417300 Y45.941000 Z-0.125000
G01 X50.690800 Y45.957300 Z-0.125000
G01 X50.824100 Y45.833300 Z-0.125000
G01 X50.706100 Y45.598300 Z-0.125000
G01 X13.825300 Y8.718000 Z-0.125000
G01 X13.731800 Y8.507000 Z-0.125000
G01 X13.918900 Y8.437000 Z-0.125000
G01 X14.573700 Y8.718000 Z-0.125000
G01 X51.256800 Y45.400800 Z-0.125000
G01 X51.546800 Y45.573800 Z-0.125000
G01 X51.791900 Y45.561700 Z-0.125000
G01 X51.896700 Y45.409200 Z-0.125000
G01 X51.765800 Y45.161300 Z-0.125000
G01 X15.322100 Y8.718000 Z-0.125000
G01 X15.228500 Y8.507000 Z-0.125000
G01 X15.415600 Y8.437000 Z-0.125000
G01 X16.070400 Y8.718000 Z-0.125000
G01 X52.187900 Y44.835200 Z-0.125000
G01 X52.460800 Y44.991100 Z-0.125000
G01 X52.668100 Y44.941200 Z-0.125000
G01 X52.735200 Y44.751000 Z-0.125000
G01 X52.587100 Y44.485900 Z-0.125000
G01 X16.818800 Y8.718000 Z-0.125000
G01 X16.725200 Y8.507000 Z-0.125000
G01 X16.912300 Y8.437000 Z-0.125000
G01 X17.567100 Y8.718000 Z-0.125000
G01 X52.957600 Y44.108200 Z-0.125000
G01 X53.220000 Y44.253600 Z-0.125000
G01 X53.404400 Y44.180700 Z-0.125000
G01 X53.448400 Y43.967500 Z-0.125000
G01 X53.289900 Y43.692000 Z-0.125000
G01 X18.315500 Y8.718000 Z-0.125000
G01 X18.221900 Y8.507000 Z-0.125000
G01 X18.409000 Y8.437000 Z-0.125000
G01 X19.063800 Y8.718000 Z-0.125000
G01 X53.570500 Y43.224300 Z-0.125000
G01 X53.812100 Y43.348900 Z-0.125000
G01 X53.950500 Y43.230200 Z-0.125000
G01 X53.948700 Y42.971100 Z-0.125000
G01 X53.769300 Y42.674700 Z-0.125000
G01 X19.812200 Y8.718000 Z-0.125000
G01 X19.718600 Y8.507000 Z-0.125000
G01 X19.905700 Y8.437000 Z-0.125000
G01 X20.560500 Y8.718000 Z-0.125000
G01 X54.079100 Y42.236100 Z-0.125000
G00 Z5.000000

(End cutting path id: path7832)


(Start cutting path id: path7831)
(Change tool to Default tool)

G00 Z5.000000
G00 X47.404900 Y44.542200

G01 Z-0.125000 F100.0(Penetrate)
G01 X48.708500 Y45.845800 Z-0.125000 F400.000000
G01 X49.361800 Y46.125000 Z-0.125000
G01 X49.547900 Y46.053800 Z-0.125000
G01 X49.453900 Y45.842900 Z-0.125000
G01 X47.102400 Y43.491400 Z-0.125000
G00 Z5.000000

(End cutting path id: path7831)


(Start cutting path id: path7847)
(Change tool to Default tool)

G00 Z5.000000
G00 X36.053300 Y51.313400

G01 Z-0.125000 F100.0(Penetrate)
G01 X33.556100 Y48.816100 Z-0.125000 F400.000000
G01 X33.149700 Y48.035500 Z-0.125000
G01 X33.133300 Y47.762000 Z-0.125000
G01 X33.304500 Y47.816200 Z-0.125000
G01 X36.818600 Y51.330300 Z-0.125000
G01 X37.510900 Y51.648400 Z-0.125000
G01 X37.723700 Y51.604000 Z-0.125000
G01 X37.641900 Y51.405200 Z-0.125000
G01 X33.229600 Y46.993000 Z-0.125000
G01 X33.025700 Y46.672100 Z-0.125000
G01 X32.969800 Y46.359000 Z-0.125000
G01 X33.054300 Y46.186200 Z-0.125000
G01 X33.271200 Y46.286200 Z-0.125000
G01 X38.347800 Y51.362800 Z-0.125000
G01 X38.656300 Y51.554300 Z-0.125000
G01 X38.942000 Y51.582800 Z-0.125000
G01 X39.087400 Y51.470900 Z-0.125000
G01 X38.974900 Y51.241500 Z-0.125000
G01 X33.382200 Y45.648900 Z-0.125000
G01 X33.202500 Y45.352200 Z-0.125000
G01 X33.199800 Y45.092300 Z-0.125000
G01 X33.337500 Y44.972700 Z-0.125000
G01 X33.578700 Y45.097000 Z-0.125000
G01 X39.537600 Y51.055900 Z-0.125000
G01 X39.828300 Y51.229600 Z-0.125000
G01 X40.074800 Y51.218900 Z-0.125000
G01 X40.181100 Y51.067900 Z-0.125000
G01 X40.050800 Y50.820700 Z-0.125000
G01 X33.815400 Y44.585400 Z-0.125000
G01 X33.648800 Y44.301800 Z-0.125000
G01 X33.675200 Y44.071000 Z-0.125000
G01 X33.841900 Y43.980400 Z-0.125000
G01 X34.096300 Y44.117900 Z-0.125000
G01 X40.519900 Y50.541400 Z-0.125000
G01 X40.796800 Y50.701400 Z-0.125000
G01 X41.013100 Y50.660500 Z-0.125000
G01 X41.089200 Y50.479300 Z-0.125000
G01 X40.945100 Y50.218300 Z-0.125000
G01 X34.418500 Y43.691700 Z-0.125000
G01 X34.264600 Y43.420900 Z-0.125000
G01 X34.318900 Y43.217900 Z-0.125000
G01 X34.513600 Y43.155300 Z-0.125000
G01 X34.780600 Y43.305500 Z-0.125000
G01 X41.330600 Y49.855400 Z-0.125000
G01 X41.595100 Y50.003000 Z-0.125000
G01 X41.784200 Y49.934900 Z-0.125000
G01 X41.832900 Y49.726300 Z-0.125000
G01 X41.676500 Y49.453000 Z-0.125000
G01 X35.182400 Y42.958900 Z-0.125000
G01 X35.041000 Y42.700600 Z-0.125000
G01 X35.122900 Y42.525200 Z-0.125000
G01 X35.345000 Y42.490100 Z-0.125000
G01 X35.624600 Y42.652700 Z-0.125000
G01 X41.982100 Y49.010200 Z-0.125000
G01 X42.233600 Y49.144800 Z-0.125000
G01 X42.394100 Y49.048000 Z-0.125000
G01 X42.414200 Y48.811000 Z-0.125000
G01 X42.244800 Y48.524600 Z-0.125000
G01 X36.111300 Y42.391100 Z-0.125000
G01 X35.984200 Y42.147100 Z-0.125000
G01 X36.097400 Y42.003000 Z-0.125000
G01 X36.350900 Y41.999300 Z-0.125000
G01 X36.644800 Y42.176200 Z-0.125000
G01 X42.461000 Y47.992400 Z-0.125000
G01 X42.699000 Y48.113500 Z-0.125000
G01 X42.829800 Y47.987000 Z-0.125000
G01 X42.820200 Y47.720200 Z-0.125000
G01 X42.637300 Y47.420400 Z-0.125000
G01 X37.230700 Y42.013800 Z-0.125000
G01 X37.122900 Y41.789000 Z-0.125000
G01 X37.278500 Y41.687400 Z-0.125000
G01 X37.574500 Y41.726200 Z-0.125000
G01 X37.887600 Y41.922400 Z-0.125000
G01 X42.714100 Y46.748800 Z-0.125000
G01 X42.924500 Y46.842300 Z-0.125000
G01 X42.994500 Y46.655000 Z-0.125000
G01 X42.713600 Y45.999900 Z-0.125000
G01 X38.635000 Y41.921300 Z-0.125000
G01 X38.556100 Y41.725400 Z-0.125000
G01 X38.775300 Y41.687400 Z-0.125000
G01 X39.476900 Y42.014800 Z-0.125000
G01 X42.561000 Y45.099000 Z-0.125000
G01 X42.720600 Y45.141600 Z-0.125000
G01 X42.678700 Y44.842400 Z-0.125000
G01 X42.235000 Y44.024600 Z-0.125000
G01 X40.395900 Y42.185400 Z-0.125000
G00 Z5.000000

(End cutting path id: path7847)


(Start cutting path id: path7848)
(Change tool to Default tool)

G00 Z5.000000
G00 X35.397500 Y51.126700

G01 Z-0.125000 F100.0(Penetrate)
G01 X34.548700 Y50.516500 Z-0.125000 F400.000000
G01 X33.859700 Y49.772300 Z-0.125000
G01 X33.338300 Y48.922300 Z-0.125000
G01 X32.991900 Y47.994800 Z-0.125000
G01 X32.828100 Y47.018200 Z-0.125000
G01 X32.854600 Y46.020600 Z-0.125000
G01 X33.078900 Y45.030500 Z-0.125000
G01 X33.508600 Y44.076000 Z-0.125000
G01 X34.119100 Y43.228000 Z-0.125000
G01 X34.863700 Y42.539600 Z-0.125000
G01 X35.714000 Y42.018400 Z-0.125000
G01 X36.641800 Y41.671900 Z-0.125000
G01 X37.618500 Y41.507700 Z-0.125000
G01 X38.616000 Y41.533400 Z-0.125000
G01 X39.605900 Y41.756600 Z-0.125000
G01 X40.559700 Y42.184700 Z-0.125000
G01 X41.407800 Y42.796700 Z-0.125000
G01 X42.096100 Y43.542200 Z-0.125000
G01 X42.617200 Y44.393100 Z-0.125000
G01 X42.963500 Y45.321200 Z-0.125000
G01 X43.127400 Y46.298100 Z-0.125000
G01 X43.101300 Y47.295800 Z-0.125000
G01 X42.877500 Y48.286100 Z-0.125000
G01 X42.448600 Y49.240600 Z-0.125000
G01 X41.837300 Y50.087800 Z-0.125000
G01 X41.092100 Y50.775800 Z-0.125000
G01 X40.241400 Y51.296700 Z-0.125000
G01 X39.313500 Y51.643000 Z-0.125000
G01 X38.336800 Y51.806900 Z-0.125000
G01 X37.339600 Y51.780600 Z-0.125000
G01 X36.350400 Y51.556400 Z-0.125000
G01 X35.397500 Y51.126700 Z-0.125000
G01 X35.397500 Y51.126700 Z-0.125000
G00 Z5.000000

(End cutting path id: path7848)


(Start cutting path id: path7942)
(Change tool to Default tool)

G00 Z5.000000
G00 X35.397500 Y51.126700

G01 Z-0.125000 F100.0(Penetrate)
G01 X34.548700 Y50.516500 Z-0.125000 F400.000000
G01 X33.859700 Y49.772300 Z-0.125000
G01 X33.338300 Y48.922300 Z-0.125000
G01 X32.991900 Y47.994800 Z-0.125000
G01 X32.828100 Y47.018200 Z-0.125000
G01 X32.854600 Y46.020600 Z-0.125000
G01 X33.078900 Y45.030500 Z-0.125000
G01 X33.508600 Y44.076000 Z-0.125000
G01 X34.119100 Y43.228000 Z-0.125000
G01 X34.863700 Y42.539600 Z-0.125000
G01 X35.714000 Y42.018400 Z-0.125000
G01 X36.641800 Y41.671900 Z-0.125000
G01 X37.618500 Y41.507700 Z-0.125000
G01 X38.616000 Y41.533400 Z-0.125000
G01 X39.605900 Y41.756600 Z-0.125000
G01 X40.559700 Y42.184700 Z-0.125000
G01 X41.407800 Y42.796700 Z-0.125000
G01 X42.096100 Y43.542200 Z-0.125000
G01 X42.617200 Y44.393100 Z-0.125000
G01 X42.963500 Y45.321200 Z-0.125000
G01 X43.127400 Y46.298100 Z-0.125000
G01 X43.101300 Y47.295800 Z-0.125000
G01 X42.877500 Y48.286100 Z-0.125000
G01 X42.448600 Y49.240600 Z-0.125000
G01 X41.837300 Y50.087800 Z-0.125000
G01 X41.092100 Y50.775800 Z-0.125000
G01 X40.241400 Y51.296700 Z-0.125000
G01 X39.313500 Y51.643000 Z-0.125000
G01 X38.336800 Y51.806900 Z-0.125000
G01 X37.339600 Y51.780600 Z-0.125000
G01 X36.350400 Y51.556400 Z-0.125000
G01 X35.397500 Y51.126700 Z-0.125000
G01 X35.397500 Y51.126700 Z-0.125000
G00 Z5.000000

(End cutting path id: path7942)


(Start cutting path id: path7825)
(Change tool to Default tool)

G00 Z5.000000
G00 X34.647300 Y55.732000

G01 Z-0.125000 F100.0(Penetrate)
G01 X41.541500 Y62.626200 Z-0.125000 F400.000000
G01 X41.839900 Y62.807600 Z-0.125000
G01 X42.103300 Y62.813800 Z-0.125000
G01 X42.226400 Y62.679600 Z-0.125000
G01 X42.103800 Y62.440100 Z-0.125000
G01 X35.941300 Y56.277600 Z-0.125000
G01 X35.882100 Y56.101500 Z-0.125000
G01 X36.144900 Y56.107000 Z-0.125000
G01 X36.909800 Y56.497700 Z-0.125000
G01 X42.541100 Y62.129100 Z-0.125000
G01 X42.805400 Y62.276500 Z-0.125000
G01 X42.994100 Y62.207900 Z-0.125000
G01 X43.042500 Y61.999000 Z-0.125000
G01 X42.885900 Y61.725500 Z-0.125000
G01 X37.746700 Y56.586300 Z-0.125000
G01 X37.654400 Y56.377100 Z-0.125000
G01 X37.844300 Y56.309700 Z-0.125000
G01 X38.503200 Y56.594400 Z-0.125000
G01 X43.156500 Y61.247700 Z-0.125000
G01 X43.400100 Y61.374400 Z-0.125000
G01 X43.543100 Y61.260100 Z-0.125000
G01 X43.545800 Y61.005600 Z-0.125000
G01 X43.368400 Y60.711300 Z-0.125000
G01 X39.208000 Y56.550900 Z-0.125000
G01 X39.099700 Y56.325600 Z-0.125000
G01 X39.254200 Y56.222900 Z-0.125000
G01 X39.549100 Y56.260500 Z-0.125000
G01 X39.861700 Y56.456200 Z-0.125000
G01 X43.527900 Y60.122400 Z-0.125000
G01 X43.756000 Y60.233600 Z-0.125000
G01 X43.864900 Y60.085200 Z-0.125000
G01 X43.833500 Y59.796600 Z-0.125000
G01 X43.640700 Y59.486800 Z-0.125000
G01 X40.488200 Y56.334300 Z-0.125000
G01 X40.369700 Y56.098900 Z-0.125000
G01 X40.501900 Y55.973800 Z-0.125000
G01 X40.774400 Y55.989100 Z-0.125000
G01 X41.076800 Y56.174600 Z-0.125000
G01 X43.650400 Y58.748200 Z-0.125000
G01 X43.833700 Y58.814500 Z-0.125000
G01 X43.843900 Y58.567500 Z-0.125000
G01 X43.476100 Y57.825600 Z-0.125000
G01 X41.712200 Y56.061600 Z-0.125000
G01 X41.632700 Y55.865200 Z-0.125000
G01 X41.850600 Y55.825900 Z-0.125000
G01 X42.550300 Y56.151400 Z-0.125000
G01 X43.370400 Y56.971500 Z-0.125000
G00 Z5.000000

(End cutting path id: path7825)


(Start cutting path id: path7824)
(Change tool to Default tool)

G00 Z5.000000
G00 X29.629400 Y51.462400

G01 Z-0.125000 F100.0(Penetrate)
G01 X9.450290 Y31.283300 Z-0.125000 F400.000000
G01 X9.169650 Y30.628500 Z-0.125000
G01 X9.239810 Y30.441400 Z-0.125000
G01 X9.450290 Y30.535000 Z-0.125000
G01 X20.391000 Y41.475600 Z-0.125000
G01 X20.518900 Y41.486700 Z-0.125000
G01 X20.407500 Y41.118000 Z-0.125000
G01 X19.862800 Y40.199100 Z-0.125000
G01 X9.450290 Y29.786600 Z-0.125000
G01 X9.169660 Y29.131800 Z-0.125000
G01 X9.239810 Y28.944700 Z-0.125000
G01 X9.450290 Y29.038200 Z-0.125000
G01 X19.757900 Y39.345800 Z-0.125000
G01 X19.968200 Y39.439200 Z-0.125000
G01 X20.038000 Y39.251800 Z-0.125000
G01 X19.756900 Y38.596500 Z-0.125000
G01 X9.450310 Y28.289900 Z-0.125000
G01 X9.169670 Y27.635100 Z-0.125000
G01 X9.239830 Y27.448000 Z-0.125000
G01 X9.450310 Y27.541500 Z-0.125000
G01 X19.857800 Y37.949100 Z-0.125000
G01 X20.093400 Y38.067700 Z-0.125000
G01 X20.218800 Y37.935900 Z-0.125000
G01 X20.203900 Y37.663700 Z-0.125000
G01 X20.018500 Y37.361400 Z-0.125000
G01 X9.450310 Y26.793000 Z-0.125000
G01 X9.169670 Y26.138000 Z-0.125000
G01 X9.239830 Y25.951000 Z-0.125000
G01 X9.450310 Y26.045000 Z-0.125000
G01 X20.234900 Y36.829400 Z-0.125000
G01 X20.485900 Y36.963500 Z-0.125000
G01 X20.645300 Y36.865700 Z-0.125000
G01 X20.664400 Y36.627500 Z-0.125000
G01 X20.494500 Y36.340700 Z-0.125000
G01 X9.450310 Y25.296000 Z-0.125000
G01 X9.169670 Y24.642000 Z-0.125000
G01 X9.239830 Y24.455000 Z-0.125000
G01 X9.450310 Y24.548000 Z-0.125000
G01 X20.794600 Y35.892500 Z-0.125000
G01 X21.058000 Y36.038900 Z-0.125000
G01 X21.244700 Y35.968300 Z-0.125000
G01 X21.291000 Y35.757400 Z-0.125000
G01 X21.133500 Y35.483000 Z-0.125000
G01 X9.450290 Y23.800000 Z-0.125000
G01 X9.169660 Y23.145000 Z-0.125000
G01 X9.239810 Y22.958000 Z-0.125000
G01 X9.450290 Y23.051000 Z-0.125000
G01 X21.510300 Y35.111500 Z-0.125000
G01 X21.785600 Y35.269800 Z-0.125000
G01 X21.998400 Y35.225400 Z-0.125000
G01 X22.070900 Y35.040600 Z-0.125000
G01 X21.925300 Y34.778000 Z-0.125000
G01 X9.450290 Y22.303000 Z-0.125000
G01 X9.169660 Y21.648000 Z-0.125000
G01 X9.239810 Y21.461000 Z-0.125000
G01 X9.450290 Y21.555000 Z-0.125000
G01 X22.379400 Y34.483800 Z-0.125000
G01 X22.667300 Y34.654800 Z-0.125000
G01 X22.907900 Y34.638100 Z-0.125000
G01 X23.008100 Y34.481100 Z-0.125000
G01 X22.875100 Y34.231200 Z-0.125000
G01 X9.450290 Y20.806000 Z-0.125000
G01 X9.169660 Y20.152000 Z-0.125000
G01 X9.239810 Y19.964000 Z-0.125000
G01 X9.450290 Y20.058000 Z-0.125000
G01 X23.416000 Y34.023800 Z-0.125000
G01 X23.719700 Y34.210500 Z-0.125000
G01 X23.995000 Y34.228500 Z-0.125000
G01 X24.129900 Y34.106200 Z-0.125000
G01 X24.012700 Y33.872000 Z-0.125000
G01 X9.450290 Y19.310000 Z-0.125000
G01 X9.169660 Y18.655000 Z-0.125000
G01 X9.239810 Y18.468000 Z-0.125000
G01 X9.450290 Y18.561000 Z-0.125000
G01 X24.672600 Y33.783600 Z-0.125000
G01 X25.328000 Y34.064800 Z-0.125000
G01 X25.515500 Y33.995000 Z-0.125000
G01 X25.422100 Y33.784600 Z-0.125000
G01 X9.450290 Y17.813000 Z-0.125000
G01 X9.169660 Y17.158000 Z-0.125000
G01 X9.239810 Y16.971000 Z-0.125000
G01 X9.450290 Y17.064000 Z-0.125000
G01 X26.345300 Y33.959400 Z-0.125000
G01 X27.330600 Y34.570600 Z-0.125000
G01 X27.745000 Y34.727700 Z-0.125000
G01 X27.817000 Y34.714900 Z-0.125000
G01 X27.754800 Y34.620500 Z-0.125000
G01 X9.450290 Y16.316000 Z-0.125000
G01 X9.169660 Y15.661000 Z-0.125000
G01 X9.239810 Y15.474000 Z-0.125000
G01 X9.450290 Y15.568000 Z-0.125000
G01 X32.201800 Y38.319200 Z-0.125000
G01 X32.494700 Y38.495200 Z-0.125000
G01 X32.746000 Y38.489300 Z-0.125000
G01 X32.857100 Y38.343100 Z-0.125000
G01 X32.729000 Y38.098000 Z-0.125000
G01 X9.450290 Y14.819000 Z-0.125000
G01 X9.169660 Y14.165000 Z-0.125000
G01 X9.239810 Y13.977000 Z-0.125000
G01 X9.450290 Y14.071000 Z-0.125000
G01 X33.206900 Y37.827600 Z-0.125000
G01 X33.496000 Y37.999800 Z-0.125000
G01 X33.739100 Y37.985600 Z-0.125000
G01 X33.841900 Y37.831200 Z-0.125000
G01 X33.710100 Y37.582400 Z-0.125000
G01 X9.450290 Y13.323000 Z-0.125000
G01 X9.169660 Y12.668000 Z-0.125000
G01 X9.239810 Y12.481000 Z-0.125000
G01 X9.450290 Y12.574000 Z-0.125000
G01 X34.237600 Y37.361600 Z-0.125000
G01 X34.534600 Y37.541700 Z-0.125000
G01 X34.795200 Y37.545000 Z-0.125000
G01 X34.915500 Y37.408100 Z-0.125000
G01 X34.791600 Y37.167200 Z-0.125000
G01 X9.450290 Y11.826000 Z-0.125000
G01 X9.166510 Y11.168000 Z-0.125000
G01 X9.234510 Y10.979000 Z-0.125000
G01 X9.444000 Y11.071000 Z-0.125000
G01 X35.374700 Y37.002000 Z-0.125000
G01 X35.681400 Y37.191800 Z-0.125000
G01 X35.963300 Y37.216400 Z-0.125000
G01 X36.104800 Y37.100600 Z-0.125000
G01 X35.990500 Y36.869500 Z-0.125000
G01 X9.528660 Y10.408000 Z-0.125000
G01 X9.351880 Y10.114000 Z-0.125000
G01 X9.355840 Y9.861000 Z-0.125000
G01 X9.500120 Y9.748000 Z-0.125000
G01 X9.744290 Y9.875000 Z-0.125000
G01 X36.643400 Y36.774000 Z-0.125000
G01 X36.962600 Y36.976300 Z-0.125000
G01 X37.272100 Y37.028500 Z-0.125000
G01 X37.441200 Y36.940400 Z-0.125000
G01 X37.339500 Y36.721700 Z-0.125000
G01 X10.061300 Y9.444000 Z-0.125000
G01 X9.913700 Y9.179000 Z-0.125000
G01 X9.981810 Y8.990000 Z-0.125000
G01 X10.190200 Y8.941000 Z-0.125000
G01 X10.463600 Y9.097000 Z-0.125000
G01 X38.085200 Y36.719100 Z-0.125000
G01 X38.774500 Y37.034200 Z-0.125000
G01 X38.985300 Y36.987700 Z-0.125000
G01 X38.902500 Y36.788000 Z-0.125000
G01 X10.964500 Y8.850000 Z-0.125000
G01 X10.848100 Y8.617000 Z-0.125000
G01 X10.984900 Y8.496000 Z-0.125000
G01 X11.262000 Y8.516000 Z-0.125000
G01 X11.566500 Y8.704000 Z-0.125000
G01 X39.807900 Y36.945200 Z-0.125000
G01 X40.630800 Y37.393900 Z-0.125000
G01 X40.933400 Y37.439300 Z-0.125000
G01 X40.892400 Y37.281400 Z-0.125000
G01 X12.328600 Y8.718000 Z-0.125000
G01 X12.235100 Y8.507000 Z-0.125000
G01 X12.422200 Y8.437000 Z-0.125000
G01 X13.077000 Y8.718000 Z-0.125000
G01 X42.658200 Y38.298800 Z-0.125000
G00 Z5.000000

(End cutting path id: path7824)


(Start cutting path id: path7828)
(Change tool to Default tool)

G00 Z5.000000
G00 X30.383000 Y37.997200

G01 Z-0.125000 F100.0(Penetrate)
G01 X30.818500 Y38.432800 Z-0.125000 F400.000000
G01 X31.489200 Y38.729300 Z-0.125000
G01 X31.687100 Y38.670000 Z-0.125000
G01 X31.598600 Y38.464500 Z-0.125000
G01 X29.798600 Y36.664600 Z-0.125000
G00 Z5.000000

(End cutting path id: path7828)


(Start cutting path id: path7826)
(Change tool to Default tool)

G00 Z5.000000
G00 X22.825400 Y43.910000

G01 Z-0.125000 F100.0(Penetrate)
G01 X28.666200 Y49.750800 Z-0.125000 F400.000000
G01 X28.821000 Y49.788700 Z-0.125000
G01 X28.768800 Y49.479300 Z-0.125000
G01 X28.310200 Y48.646500 Z-0.125000
G01 X24.454900 Y44.791200 Z-0.125000
G01 X24.380200 Y44.599600 Z-0.125000
G01 X24.608800 Y44.570900 Z-0.125000
G01 X25.324000 Y44.911900 Z-0.125000
G01 X28.134100 Y47.722100 Z-0.125000
G01 X28.332200 Y47.803200 Z-0.125000
G01 X28.375000 Y47.588700 Z-0.125000
G01 X28.054500 Y46.894100 Z-0.125000
G01 X26.052500 Y44.892100 Z-0.125000
G01 X25.943700 Y44.666400 Z-0.125000
G01 X26.097200 Y44.562600 Z-0.125000
G01 X26.391100 Y44.599200 Z-0.125000
G01 X26.703200 Y44.794500 Z-0.125000
G01 X28.042500 Y46.133800 Z-0.125000
G01 X28.237000 Y46.211300 Z-0.125000
G01 X28.271800 Y45.988900 Z-0.125000
G01 X27.939800 Y45.282700 Z-0.125000
G01 X27.085500 Y44.428300 Z-0.125000
G00 Z5.000000

(End cutting path id: path7826)


(Start cutting path id: path7842)
(Change tool to Default tool)

G00 Z5.000000
G00 X33.322000 Y73.990800

G01 Z-0.125000 F100.0(Penetrate)
G01 X35.819600 Y76.488400 Z-0.125000 F400.000000
G01 X36.599400 Y76.894100 Z-0.125000
G01 X36.872500 Y76.909900 Z-0.125000
G01 X36.818000 Y76.738500 Z-0.125000
G01 X33.305000 Y73.225500 Z-0.125000
G01 X32.986800 Y72.533100 Z-0.125000
G01 X33.031100 Y72.320200 Z-0.125000
G01 X33.229900 Y72.402000 Z-0.125000
G01 X37.642100 Y76.814200 Z-0.125000
G01 X37.963100 Y77.018300 Z-0.125000
G01 X38.276500 Y77.074500 Z-0.125000
G01 X38.449600 Y76.990300 Z-0.125000
G01 X38.349700 Y76.773500 Z-0.125000
G01 X33.272100 Y71.695900 Z-0.125000
G01 X33.080500 Y71.387400 Z-0.125000
G01 X33.052000 Y71.101600 Z-0.125000
G01 X33.163800 Y70.956200 Z-0.125000
G01 X33.393300 Y71.068700 Z-0.125000
G01 X38.987700 Y76.663100 Z-0.125000
G01 X39.284500 Y76.843000 Z-0.125000
G01 X39.544500 Y76.845700 Z-0.125000
G01 X39.664200 Y76.708200 Z-0.125000
G01 X39.540000 Y76.467100 Z-0.125000
G01 X33.579000 Y70.506000 Z-0.125000
G01 X33.405300 Y70.215400 Z-0.125000
G01 X33.416000 Y69.968900 Z-0.125000
G01 X33.567100 Y69.862700 Z-0.125000
G01 X33.814300 Y69.993100 Z-0.125000
G01 X40.052000 Y76.230700 Z-0.125000
G01 X40.335500 Y76.397300 Z-0.125000
G01 X40.566300 Y76.370900 Z-0.125000
G01 X40.656800 Y76.204100 Z-0.125000
G01 X40.519300 Y75.949700 Z-0.125000
G01 X34.093900 Y69.524300 Z-0.125000
G01 X33.934000 Y69.247500 Z-0.125000
G01 X33.975100 Y69.031300 Z-0.125000
G01 X34.156500 Y68.955400 Z-0.125000
G01 X34.417500 Y69.099500 Z-0.125000
G01 X40.945200 Y75.627200 Z-0.125000
G01 X41.215900 Y75.781000 Z-0.125000
G01 X41.418800 Y75.726600 Z-0.125000
G01 X41.481300 Y75.531800 Z-0.125000
G01 X41.331100 Y75.264700 Z-0.125000
G01 X34.781000 Y68.714700 Z-0.125000
G01 X34.633600 Y68.450300 Z-0.125000
G01 X34.702000 Y68.261500 Z-0.125000
G01 X34.910800 Y68.213000 Z-0.125000
G01 X35.184200 Y68.369500 Z-0.125000
G01 X41.677400 Y74.862700 Z-0.125000
G01 X41.935700 Y75.004000 Z-0.125000
G01 X42.111000 Y74.922100 Z-0.125000
G01 X42.146000 Y74.699900 Z-0.125000
G01 X41.983400 Y74.420300 Z-0.125000
G01 X35.627900 Y68.064900 Z-0.125000
G01 X35.493300 Y67.813300 Z-0.125000
G01 X35.589900 Y67.652600 Z-0.125000
G01 X35.826800 Y67.632300 Z-0.125000
G01 X36.113100 Y67.801700 Z-0.125000
G01 X42.244800 Y73.933400 Z-0.125000
G01 X42.488800 Y74.060500 Z-0.125000
G01 X42.632800 Y73.947200 Z-0.125000
G01 X42.636400 Y73.693600 Z-0.125000
G01 X42.459500 Y73.399700 Z-0.125000
G01 X36.644500 Y67.584700 Z-0.125000
G01 X36.523300 Y67.346600 Z-0.125000
G01 X36.649500 Y67.215500 Z-0.125000
G01 X36.916000 Y67.224800 Z-0.125000
G01 X37.215700 Y67.407600 Z-0.125000
G01 X42.621700 Y72.813600 Z-0.125000
G01 X42.846400 Y72.921400 Z-0.125000
G01 X42.947900 Y72.765600 Z-0.125000
G01 X42.909100 Y72.469600 Z-0.125000
G01 X42.712900 Y72.156400 Z-0.125000
G01 X37.887200 Y67.330700 Z-0.125000
G01 X37.793800 Y67.120400 Z-0.125000
G01 X37.981100 Y67.050400 Z-0.125000
G01 X38.636200 Y67.331200 Z-0.125000
G01 X42.713500 Y71.408500 Z-0.125000
G01 X42.909500 Y71.487600 Z-0.125000
G01 X42.947700 Y71.268600 Z-0.125000
G01 X42.620600 Y70.567300 Z-0.125000
G01 X39.537700 Y67.484400 Z-0.125000
G01 X39.494900 Y67.324700 Z-0.125000
G01 X39.793600 Y67.366100 Z-0.125000
G01 X40.610700 Y67.809000 Z-0.125000
G01 X42.449600 Y69.647900 Z-0.125000
G00 Z5.000000

(End cutting path id: path7842)


(Start cutting path id: path7843)
(Change tool to Default tool)

G00 Z5.000000
G00 X40.559700 Y76.538700

G01 Z-0.125000 F100.0(Penetrate)
G01 X39.606000 Y76.966800 Z-0.125000 F400.000000
G01 X38.616200 Y77.189900 Z-0.125000
G01 X37.618700 Y77.215500 Z-0.125000
G01 X36.641900 Y77.051300 Z-0.125000
G01 X35.714200 Y76.704800 Z-0.125000
G01 X34.863800 Y76.183600 Z-0.125000
G01 X34.119100 Y75.495300 Z-0.125000
G01 X33.508600 Y74.647400 Z-0.125000
G01 X33.078900 Y73.693500 Z-0.125000
G01 X32.854600 Y72.703700 Z-0.125000
G01 X32.828100 Y71.706300 Z-0.125000
G01 X32.991900 Y70.729700 Z-0.125000
G01 X33.338300 Y69.802300 Z-0.125000
G01 X33.859700 Y68.952400 Z-0.125000
G01 X34.548700 Y68.208400 Z-0.125000
G01 X35.397500 Y67.598700 Z-0.125000
G01 X36.350400 Y67.168200 Z-0.125000
G01 X37.339600 Y66.943700 Z-0.125000
G01 X38.336800 Y66.917400 Z-0.125000
G01 X39.313500 Y67.081500 Z-0.125000
G01 X40.241400 Y67.428100 Z-0.125000
G01 X41.092100 Y67.949400 Z-0.125000
G01 X41.837300 Y68.637700 Z-0.125000
G01 X42.448600 Y69.485200 Z-0.125000
G01 X42.877500 Y70.438900 Z-0.125000
G01 X43.101300 Y71.428700 Z-0.125000
G01 X43.127400 Y72.426300 Z-0.125000
G01 X42.963500 Y73.403200 Z-0.125000
G01 X42.617200 Y74.331300 Z-0.125000
G01 X42.096100 Y75.182100 Z-0.125000
G01 X41.407800 Y75.927400 Z-0.125000
G01 X40.559700 Y76.538700 Z-0.125000
G01 X40.559700 Y76.538700 Z-0.125000
G00 Z5.000000

(End cutting path id: path7843)


(Start cutting path id: path7940)
(Change tool to Default tool)

G00 Z5.000000
G00 X40.559700 Y76.538700

G01 Z-0.125000 F100.0(Penetrate)
G01 X39.606000 Y76.966800 Z-0.125000 F400.000000
G01 X38.616200 Y77.189900 Z-0.125000
G01 X37.618700 Y77.215500 Z-0.125000
G01 X36.641900 Y77.051300 Z-0.125000
G01 X35.714200 Y76.704800 Z-0.125000
G01 X34.863800 Y76.183600 Z-0.125000
G01 X34.119100 Y75.495300 Z-0.125000
G01 X33.508600 Y74.647400 Z-0.125000
G01 X33.078900 Y73.693500 Z-0.125000
G01 X32.854600 Y72.703700 Z-0.125000
G01 X32.828100 Y71.706300 Z-0.125000
G01 X32.991900 Y70.729700 Z-0.125000
G01 X33.338300 Y69.802300 Z-0.125000
G01 X33.859700 Y68.952400 Z-0.125000
G01 X34.548700 Y68.208400 Z-0.125000
G01 X35.397500 Y67.598700 Z-0.125000
G01 X36.350400 Y67.168200 Z-0.125000
G01 X37.339600 Y66.943700 Z-0.125000
G01 X38.336800 Y66.917400 Z-0.125000
G01 X39.313500 Y67.081500 Z-0.125000
G01 X40.241400 Y67.428100 Z-0.125000
G01 X41.092100 Y67.949400 Z-0.125000
G01 X41.837300 Y68.637700 Z-0.125000
G01 X42.448600 Y69.485200 Z-0.125000
G01 X42.877500 Y70.438900 Z-0.125000
G01 X43.101300 Y71.428700 Z-0.125000
G01 X43.127400 Y72.426300 Z-0.125000
G01 X42.963500 Y73.403200 Z-0.125000
G01 X42.617200 Y74.331300 Z-0.125000
G01 X42.096100 Y75.182100 Z-0.125000
G01 X41.407800 Y75.927400 Z-0.125000
G01 X40.559700 Y76.538700 Z-0.125000
G01 X40.559700 Y76.538700 Z-0.125000
G00 Z5.000000

(End cutting path id: path7940)


(Start cutting path id: path7844)
(Change tool to Default tool)

G00 Z5.000000
G00 X54.955800 Y67.406400

G01 Z-0.125000 F100.0(Penetrate)
G01 X52.216900 Y64.667400 Z-0.125000 F400.000000
G01 X51.633200 Y63.709500 Z-0.125000
G01 X51.494900 Y63.314000 Z-0.125000
G01 X51.610700 Y63.312800 Z-0.125000
G01 X56.031600 Y67.733700 Z-0.125000
G01 X56.916200 Y68.244200 Z-0.125000
G01 X57.261300 Y68.332100 Z-0.125000
G01 X57.239600 Y68.193400 Z-0.125000
G01 X51.148900 Y62.102700 Z-0.125000
G01 X50.776400 Y61.356000 Z-0.125000
G01 X50.783300 Y61.105700 Z-0.125000
G01 X50.965100 Y61.170600 Z-0.125000
G01 X58.171700 Y68.377100 Z-0.125000
G01 X58.861900 Y68.693200 Z-0.125000
G01 X59.073400 Y68.647400 Z-0.125000
G01 X58.990900 Y68.448100 Z-0.125000
G01 X50.895900 Y60.353000 Z-0.125000
G01 X50.601200 Y59.684100 Z-0.125000
G01 X50.661700 Y59.487400 Z-0.125000
G01 X50.867700 Y59.576500 Z-0.125000
G01 X59.767200 Y68.475900 Z-0.125000
G01 X60.089400 Y68.681200 Z-0.125000
G01 X60.405400 Y68.740000 Z-0.125000
G01 X60.581100 Y68.658400 Z-0.125000
G01 X60.482400 Y68.442800 Z-0.125000
G01 X50.900800 Y58.861200 Z-0.125000
G01 X50.702400 Y58.545900 Z-0.125000
G01 X50.658700 Y58.245000 Z-0.125000
G01 X50.755400 Y58.084400 Z-0.125000
G01 X50.977900 Y58.190000 Z-0.125000
G01 X61.153500 Y68.365600 Z-0.125000
G01 X61.461900 Y68.557000 Z-0.125000
G01 X61.747500 Y68.585400 Z-0.125000
G01 X61.892800 Y68.473400 Z-0.125000
G01 X61.780200 Y68.243900 Z-0.125000
G01 X51.099500 Y57.563300 Z-0.125000
G01 X50.913200 Y57.260000 Z-0.125000
G01 X50.896100 Y56.985600 Z-0.125000
G01 X51.019300 Y56.851600 Z-0.125000
G01 X51.253900 Y56.969300 Z-0.125000
G01 X62.374200 Y68.089600 Z-0.125000
G01 X62.672800 Y68.271200 Z-0.125000
G01 X62.936700 Y68.277900 Z-0.125000
G01 X63.060400 Y68.144300 Z-0.125000
G01 X62.938000 Y67.905000 Z-0.125000
G01 X51.438500 Y56.405500 Z-0.125000
G01 X51.261800 Y56.111900 Z-0.125000
G01 X51.266000 Y55.858800 Z-0.125000
G01 X51.410500 Y55.746100 Z-0.125000
G01 X51.654700 Y55.873400 Z-0.125000
G01 X63.470100 Y67.688700 Z-0.125000
G01 X63.759700 Y67.861500 Z-0.125000
G01 X64.004200 Y67.848600 Z-0.125000
G01 X64.108300 Y67.695500 Z-0.125000
G01 X63.977000 Y67.447300 Z-0.125000
G01 X51.896100 Y55.366400 Z-0.125000
G01 X51.727100 Y55.080400 Z-0.125000
G01 X51.748100 Y54.844200 Z-0.125000
G01 X51.909400 Y54.748200 Z-0.125000
G01 X52.161200 Y54.883200 Z-0.125000
G01 X64.460200 Y67.182100 Z-0.125000
G01 X64.742600 Y67.347600 Z-0.125000
G01 X64.971100 Y67.318800 Z-0.125000
G01 X65.059200 Y67.149700 Z-0.125000
G01 X64.920700 Y66.894300 Z-0.125000
G01 X52.449000 Y54.422600 Z-0.125000
G01 X52.287200 Y54.143800 Z-0.125000
G01 X52.323900 Y53.923300 Z-0.125000
G01 X52.501000 Y53.843200 Z-0.125000
G01 X52.760100 Y53.985300 Z-0.125000
G01 X65.357900 Y66.583100 Z-0.125000
G01 X65.633200 Y66.741500 Z-0.125000
G01 X65.845900 Y66.697000 Z-0.125000
G01 X65.918300 Y66.512100 Z-0.125000
G01 X65.772600 Y66.249500 Z-0.125000
G01 X53.093600 Y53.570500 Z-0.125000
G01 X52.938500 Y53.298400 Z-0.125000
G01 X52.990100 Y53.092800 Z-0.125000
G01 X53.182000 Y53.027500 Z-0.125000
G01 X53.447800 Y53.176300 Z-0.125000
G01 X66.166700 Y65.895200 Z-0.125000
G01 X66.435500 Y66.047200 Z-0.125000
G01 X66.634100 Y65.988500 Z-0.125000
G01 X66.692400 Y65.789500 Z-0.125000
G01 X66.540200 Y65.520400 Z-0.125000
G01 X53.822500 Y52.802700 Z-0.125000
G01 X53.673800 Y52.537000 Z-0.125000
G01 X53.739500 Y52.345500 Z-0.125000
G01 X53.945500 Y52.294200 Z-0.125000
G01 X54.217700 Y52.449500 Z-0.125000
G01 X66.893300 Y65.125100 Z-0.125000
G01 X67.155700 Y65.270600 Z-0.125000
G01 X67.340100 Y65.197700 Z-0.125000
G01 X67.384200 Y64.984500 Z-0.125000
G01 X67.225600 Y64.709100 Z-0.125000
G01 X54.633600 Y52.117100 Z-0.125000
G01 X54.491800 Y51.858300 Z-0.125000
G01 X54.572700 Y51.682000 Z-0.125000
G01 X54.794000 Y51.646000 Z-0.125000
G01 X55.073100 Y51.808200 Z-0.125000
G01 X67.534300 Y64.269400 Z-0.125000
G01 X67.789500 Y64.407700 Z-0.125000
G01 X67.958200 Y64.319100 Z-0.125000
G01 X67.986500 Y64.090200 Z-0.125000
G01 X67.820800 Y63.807500 Z-0.125000
G01 X55.534800 Y51.521600 Z-0.125000
G01 X55.400000 Y51.269900 Z-0.125000
G01 X55.496400 Y51.109000 Z-0.125000
G01 X55.733100 Y51.088400 Z-0.125000
G01 X56.019200 Y51.257600 Z-0.125000
G01 X68.084600 Y63.323000 Z-0.125000
G01 X68.332600 Y63.454000 Z-0.125000
G01 X68.485200 Y63.349400 Z-0.125000
G01 X68.497600 Y63.104500 Z-0.125000
G01 X68.324600 Y62.814600 Z-0.125000
G01 X56.527400 Y51.017400 Z-0.125000
G01 X56.400300 Y50.773400 Z-0.125000
G01 X56.513500 Y50.629300 Z-0.125000
G01 X56.767000 Y50.625600 Z-0.125000
G01 X57.060800 Y50.802400 Z-0.125000
G01 X68.539400 Y62.281100 Z-0.125000
G01 X68.778300 Y62.403000 Z-0.125000
G01 X68.910800 Y62.278300 Z-0.125000
G01 X68.903100 Y62.013300 Z-0.125000
G01 X68.721000 Y61.714300 Z-0.125000
G01 X57.627400 Y50.620700 Z-0.125000
G01 X57.510000 Y50.386400 Z-0.125000
G01 X57.644500 Y50.263700 Z-0.125000
G01 X57.919400 Y50.281300 Z-0.125000
G01 X58.222900 Y50.467900 Z-0.125000
G01 X68.873700 Y61.118700 Z-0.125000
G01 X69.102900 Y61.230900 Z-0.125000
G01 X69.214300 Y61.085100 Z-0.125000
G01 X69.185300 Y60.798900 Z-0.125000
G01 X68.993600 Y60.490200 Z-0.125000
G01 X58.851300 Y50.347900 Z-0.125000
G01 X58.746200 Y50.125900 Z-0.125000
G01 X58.908100 Y50.030500 Z-0.125000
G01 X59.210200 Y50.075400 Z-0.125000
G01 X59.526200 Y50.274400 Z-0.125000
G01 X69.066900 Y59.815200 Z-0.125000
G01 X69.282200 Y59.913600 Z-0.125000
G01 X69.363000 Y59.737100 Z-0.125000
G01 X69.303500 Y59.420400 Z-0.125000
G01 X69.097900 Y59.097800 Z-0.125000
G01 X60.243500 Y50.243400 Z-0.125000
G01 X60.155100 Y50.038100 Z-0.125000
G01 X60.353500 Y49.979200 Z-0.125000
G01 X61.024800 Y50.276300 Z-0.125000
G01 X69.065000 Y58.316500 Z-0.125000
G01 X69.258500 Y58.393100 Z-0.125000
G01 X69.291300 Y58.168700 Z-0.125000
G01 X68.956400 Y57.459600 Z-0.125000
G01 X61.881600 Y50.384800 Z-0.125000
G01 X61.822900 Y50.209200 Z-0.125000
G01 X62.086600 Y50.215600 Z-0.125000
G01 X62.852800 Y50.607700 Z-0.125000
G01 X68.733400 Y56.488300 Z-0.125000
G01 X68.879800 Y56.517800 Z-0.125000
G01 X68.809000 Y56.189600 Z-0.125000
G01 X68.323200 Y55.329700 Z-0.125000
G01 X63.730800 Y50.737300 Z-0.125000
G00 Z5.000000

(End cutting path id: path7844)


(Start cutting path id: path7845)
(Change tool to Default tool)

G00 Z5.000000
G00 X65.354800 Y51.613000

G01 Z-0.125000 F100.0(Penetrate)
G01 X67.730300 Y53.988400 Z-0.125000 F400.000000
G00 Z5.000000

(End cutting path id: path7845)


(Start cutting path id: path7846)
(Change tool to Default tool)

G00 Z5.000000
G00 X59.982500 Y68.890500

G01 Z-0.125000 F100.0(Penetrate)
G01 X58.062200 Y68.696800 Z-0.125000 F400.000000
G01 X56.273500 Y68.141300 Z-0.125000
G01 X54.654800 Y67.262300 Z-0.125000
G01 X53.244400 Y66.098300 Z-0.125000
G01 X52.080800 Y64.687500 Z-0.125000
G01 X51.202100 Y63.068400 Z-0.125000
G01 X50.646800 Y61.279400 Z-0.125000
G01 X50.453200 Y59.358800 Z-0.125000
G01 X50.646800 Y57.440000 Z-0.125000
G01 X51.202100 Y55.652100 Z-0.125000
G01 X52.080800 Y54.033500 Z-0.125000
G01 X53.244400 Y52.622900 Z-0.125000
G01 X54.654800 Y51.458800 Z-0.125000
G01 X56.273500 Y50.579500 Z-0.125000
G01 X58.062200 Y50.023800 Z-0.125000
G01 X59.982500 Y49.829900 Z-0.125000
G01 X61.902900 Y50.023800 Z-0.125000
G01 X63.691500 Y50.579500 Z-0.125000
G01 X65.310100 Y51.458800 Z-0.125000
G01 X66.720400 Y52.622900 Z-0.125000
G01 X67.884000 Y54.033500 Z-0.125000
G01 X68.762500 Y55.652100 Z-0.125000
G01 X69.317800 Y57.440000 Z-0.125000
G01 X69.511400 Y59.358800 Z-0.125000
G01 X69.317800 Y61.279400 Z-0.125000
G01 X68.762500 Y63.068400 Z-0.125000
G01 X67.884000 Y64.687500 Z-0.125000
G01 X66.720400 Y66.098300 Z-0.125000
G01 X65.310100 Y67.262300 Z-0.125000
G01 X63.691500 Y68.141300 Z-0.125000
G01 X61.902900 Y68.696800 Z-0.125000
G01 X59.982500 Y68.890500 Z-0.125000
G01 X59.982500 Y68.890500 Z-0.125000
G00 Z5.000000

(End cutting path id: path7846)


(Start cutting path id: path7941)
(Change tool to Default tool)

G00 Z5.000000
G00 X59.982500 Y68.890500

G01 Z-0.125000 F100.0(Penetrate)
G01 X58.062200 Y68.696800 Z-0.125000 F400.000000
G01 X56.273500 Y68.141300 Z-0.125000
G01 X54.654800 Y67.262300 Z-0.125000
G01 X53.244400 Y66.098300 Z-0.125000
G01 X52.080800 Y64.687500 Z-0.125000
G01 X51.202100 Y63.068400 Z-0.125000
G01 X50.646800 Y61.279400 Z-0.125000
G01 X50.453200 Y59.358800 Z-0.125000
G01 X50.646800 Y57.440000 Z-0.125000
G01 X51.202100 Y55.652100 Z-0.125000
G01 X52.080800 Y54.033500 Z-0.125000
G01 X53.244400 Y52.622900 Z-0.125000
G01 X54.654800 Y51.458800 Z-0.125000
G01 X56.273500 Y50.579500 Z-0.125000
G01 X58.062200 Y50.023800 Z-0.125000
G01 X59.982500 Y49.829900 Z-0.125000
G01 X61.902900 Y50.023800 Z-0.125000
G01 X63.691500 Y50.579500 Z-0.125000
G01 X65.310100 Y51.458800 Z-0.125000
G01 X66.720400 Y52.622900 Z-0.125000
G01 X67.884000 Y54.033500 Z-0.125000
G01 X68.762500 Y55.652100 Z-0.125000
G01 X69.317800 Y57.440000 Z-0.125000
G01 X69.511400 Y59.358800 Z-0.125000
G01 X69.317800 Y61.279400 Z-0.125000
G01 X68.762500 Y63.068400 Z-0.125000
G01 X67.884000 Y64.687500 Z-0.125000
G01 X66.720400 Y66.098300 Z-0.125000
G01 X65.310100 Y67.262300 Z-0.125000
G01 X63.691500 Y68.141300 Z-0.125000
G01 X61.902900 Y68.696800 Z-0.125000
G01 X59.982500 Y68.890500 Z-0.125000
G01 X59.982500 Y68.890500 Z-0.125000
G00 Z5.000000

(End cutting path id: path7941)


(Start cutting path id: path7850)
(Change tool to Default tool)

G00 Z5.000000
G00 X59.982500 Y79.608600

G01 Z-0.125000 F100.0(Penetrate)
G01 X61.022800 Y79.713400 Z-0.125000 F400.000000
G01 X61.991700 Y80.014000 Z-0.125000
G01 X62.868600 Y80.489700 Z-0.125000
G01 X63.632600 Y81.119900 Z-0.125000
G01 X64.263000 Y81.883700 Z-0.125000
G01 X64.739000 Y82.760600 Z-0.125000
G01 X65.039800 Y83.729900 Z-0.125000
G01 X65.144700 Y84.770800 Z-0.125000
G01 X65.039800 Y85.811000 Z-0.125000
G01 X64.739000 Y86.779600 Z-0.125000
G01 X64.263000 Y87.656100 Z-0.125000
G01 X63.632600 Y88.419700 Z-0.125000
G01 X62.868600 Y89.049700 Z-0.125000
G01 X61.991700 Y89.525300 Z-0.125000
G01 X61.022800 Y89.825800 Z-0.125000
G01 X59.982500 Y89.930600 Z-0.125000
G01 X58.942300 Y89.825800 Z-0.125000
G01 X57.973400 Y89.525300 Z-0.125000
G01 X57.096500 Y89.049700 Z-0.125000
G01 X56.332500 Y88.419700 Z-0.125000
G01 X55.702100 Y87.656100 Z-0.125000
G01 X55.226100 Y86.779600 Z-0.125000
G01 X54.925200 Y85.811000 Z-0.125000
G01 X54.820300 Y84.770800 Z-0.125000
G01 X54.925200 Y83.729800 Z-0.125000
G01 X55.226100 Y82.760400 Z-0.125000
G01 X55.702100 Y81.883500 Z-0.125000
G01 X56.332500 Y81.119700 Z-0.125000
G01 X57.096500 Y80.489600 Z-0.125000
G01 X57.973400 Y80.014000 Z-0.125000
G01 X58.942300 Y79.713400 Z-0.125000
G01 X59.982500 Y79.608600 Z-0.125000
G01 X59.982500 Y79.608600 Z-0.125000
G00 Z5.000000

(End cutting path id: path7850)


(Start cutting path id: path7943)
(Change tool to Default tool)

G00 Z5.000000
G00 X59.982500 Y79.608600

G01 Z-0.125000 F100.0(Penetrate)
G01 X61.022800 Y79.713400 Z-0.125000 F400.000000
G01 X61.991700 Y80.014000 Z-0.125000
G01 X62.868600 Y80.489700 Z-0.125000
G01 X63.632600 Y81.119900 Z-0.125000
G01 X64.263000 Y81.883700 Z-0.125000
G01 X64.739000 Y82.760600 Z-0.125000
G01 X65.039800 Y83.729900 Z-0.125000
G01 X65.144700 Y84.770800 Z-0.125000
G01 X65.039800 Y85.811000 Z-0.125000
G01 X64.739000 Y86.779600 Z-0.125000
G01 X64.263000 Y87.656100 Z-0.125000
G01 X63.632600 Y88.419700 Z-0.125000
G01 X62.868600 Y89.049700 Z-0.125000
G01 X61.991700 Y89.525300 Z-0.125000
G01 X61.022800 Y89.825800 Z-0.125000
G01 X59.982500 Y89.930600 Z-0.125000
G01 X58.942300 Y89.825800 Z-0.125000
G01 X57.973300 Y89.525300 Z-0.125000
G01 X57.096500 Y89.049700 Z-0.125000
G01 X56.332500 Y88.419700 Z-0.125000
G01 X55.702100 Y87.656100 Z-0.125000
G01 X55.226100 Y86.779600 Z-0.125000
G01 X54.925200 Y85.811000 Z-0.125000
G01 X54.820300 Y84.770800 Z-0.125000
G01 X54.925200 Y83.729800 Z-0.125000
G01 X55.226100 Y82.760400 Z-0.125000
G01 X55.702100 Y81.883500 Z-0.125000
G01 X56.332500 Y81.119700 Z-0.125000
G01 X57.096500 Y80.489600 Z-0.125000
G01 X57.973300 Y80.014000 Z-0.125000
G01 X58.942300 Y79.713400 Z-0.125000
G01 X59.982500 Y79.608600 Z-0.125000
G01 X59.982500 Y79.608600 Z-0.125000
G00 Z5.000000

(End cutting path id: path7943)


(Start cutting path id: path7827)
(Change tool to Default tool)

G00 Z5.000000
G00 X67.482600 Y78.838600

G01 Z-0.125000 F100.0(Penetrate)
G01 X98.427000 Y109.783000 Z-0.125000 F400.000000
G01 X99.081800 Y110.063700 Z-0.125000
G01 X99.268900 Y109.993500 Z-0.125000
G01 X99.175300 Y109.783000 Z-0.125000
G01 X66.169600 Y76.777300 Z-0.125000
G01 X65.963300 Y76.454000 Z-0.125000
G01 X65.902100 Y76.135600 Z-0.125000
G01 X65.981300 Y75.957500 Z-0.125000
G01 X66.195800 Y76.055200 Z-0.125000
G01 X99.923700 Y109.783000 Z-0.125000
G01 X100.579000 Y110.063700 Z-0.125000
G01 X100.766000 Y109.993500 Z-0.125000
G01 X100.672000 Y109.783000 Z-0.125000
G01 X66.393100 Y75.504100 Z-0.125000
G01 X66.226400 Y75.220400 Z-0.125000
G01 X66.252300 Y74.989100 Z-0.125000
G01 X66.418600 Y74.898100 Z-0.125000
G01 X66.672700 Y75.035400 Z-0.125000
G01 X101.420000 Y109.783000 Z-0.125000
G01 X102.075000 Y110.063700 Z-0.125000
G01 X102.262000 Y109.993500 Z-0.125000
G01 X102.169000 Y109.783000 Z-0.125000
G01 X67.003900 Y74.618200 Z-0.125000
G01 X66.851200 Y74.348500 Z-0.125000
G01 X66.908000 Y74.148200 Z-0.125000
G01 X67.105200 Y74.088100 Z-0.125000
G01 X67.373500 Y74.239400 Z-0.125000
G01 X102.917000 Y109.783000 Z-0.125000
G01 X103.572000 Y110.063700 Z-0.125000
G01 X103.759000 Y109.993500 Z-0.125000
G01 X103.665000 Y109.783000 Z-0.125000
G01 X67.771600 Y73.889100 Z-0.125000
G01 X67.626900 Y73.627600 Z-0.125000
G01 X67.701600 Y73.445000 Z-0.125000
G01 X67.916600 Y73.402700 Z-0.125000
G01 X68.192900 Y73.562100 Z-0.125000
G01 X104.414000 Y109.783000 Z-0.125000
G01 X105.069000 Y110.063700 Z-0.125000
G01 X105.256000 Y109.993500 Z-0.125000
G01 X105.162000 Y109.783000 Z-0.125000
G01 X68.706100 Y73.327000 Z-0.125000
G01 X68.581600 Y73.085500 Z-0.125000
G01 X68.700600 Y72.947300 Z-0.125000
G01 X68.959900 Y72.949300 Z-0.125000
G01 X69.256300 Y73.128800 Z-0.125000
G01 X105.911000 Y109.783000 Z-0.125000
G01 X106.565000 Y110.063700 Z-0.125000
G01 X106.752000 Y109.993500 Z-0.125000
G01 X106.659000 Y109.783000 Z-0.125000
G01 X77.303400 Y80.427600 Z-0.125000
G00 Z5.000000

(End cutting path id: path7827)


(Start cutting path id: path7830)
(Change tool to Default tool)

G00 Z5.000000
G00 X78.789300 Y81.165100

G01 Z-0.125000 F100.0(Penetrate)
G01 X107.407000 Y109.783100 Z-0.125000 F400.000000
G01 X108.065000 Y110.066700 Z-0.125000
G01 X108.254000 Y109.998500 Z-0.125000
G01 X108.162000 Y109.789000 Z-0.125000
G01 X80.140700 Y81.768100 Z-0.125000
G01 X80.072100 Y81.582600 Z-0.125000
G01 X80.314100 Y81.567300 Z-0.125000
G01 X81.048700 Y81.927800 Z-0.125000
G01 X108.826000 Y109.704600 Z-0.125000
G01 X109.119000 Y109.881400 Z-0.125000
G01 X109.372000 Y109.877400 Z-0.125000
G01 X109.485000 Y109.733100 Z-0.125000
G01 X109.358000 Y109.488900 Z-0.125000
G01 X81.867500 Y81.998300 Z-0.125000
G01 X81.773900 Y81.787700 Z-0.125000
G01 X81.960700 Y81.717300 Z-0.125000
G01 X82.615200 Y81.997500 Z-0.125000
G01 X109.789000 Y109.171800 Z-0.125000
G01 X110.054000 Y109.319400 Z-0.125000
G01 X110.243000 Y109.251300 Z-0.125000
G01 X110.292000 Y109.042800 Z-0.125000
G01 X110.135000 Y108.769500 Z-0.125000
G01 X83.312500 Y81.946500 Z-0.125000
G01 X83.204200 Y81.721300 Z-0.125000
G01 X83.358900 Y81.618800 Z-0.125000
G01 X83.653900 Y81.656500 Z-0.125000
G01 X83.966600 Y81.852300 Z-0.125000
G01 X110.383000 Y108.268500 Z-0.125000
G01 X110.616000 Y108.384900 Z-0.125000
G01 X110.737000 Y108.248100 Z-0.125000
G01 X110.717000 Y107.970900 Z-0.125000
G01 X110.529000 Y107.666400 Z-0.125000
G01 X84.583500 Y81.720900 Z-0.125000
G01 X84.464400 Y81.484800 Z-0.125000
G01 X84.595100 Y81.358200 Z-0.125000
G01 X84.866100 Y81.372000 Z-0.125000
G01 X85.167900 Y81.556800 Z-0.125000
G01 X110.516000 Y106.904700 Z-0.125000
G01 X110.726000 Y106.998200 Z-0.125000
G01 X110.796000 Y106.811200 Z-0.125000
G01 X110.516000 Y106.156300 Z-0.125000
G01 X85.723000 Y81.363600 Z-0.125000
G01 X85.595100 Y81.118800 Z-0.125000
G01 X85.706600 Y80.973100 Z-0.125000
G01 X85.958500 Y80.967700 Z-0.125000
G01 X86.251600 Y81.143800 Z-0.125000
G01 X110.516000 Y105.408000 Z-0.125000
G01 X110.726000 Y105.501500 Z-0.125000
G01 X110.796000 Y105.314400 Z-0.125000
G01 X110.516000 Y104.659600 Z-0.125000
G01 X86.755700 Y80.899600 Z-0.125000
G01 X86.620100 Y80.647000 Z-0.125000
G01 X86.714600 Y80.484300 Z-0.125000
G01 X86.949400 Y80.461900 Z-0.125000
G01 X87.234700 Y80.630300 Z-0.125000
G01 X110.516000 Y103.911300 Z-0.125000
G01 X110.726000 Y104.004800 Z-0.125000
G01 X110.796000 Y103.817700 Z-0.125000
G01 X110.516000 Y103.162900 Z-0.125000
G01 X87.760900 Y80.408100 Z-0.125000
G01 X87.644500 Y80.174700 Z-0.125000
G01 X87.781200 Y80.054200 Z-0.125000
G01 X88.058200 Y80.074000 Z-0.125000
G01 X88.362700 Y80.261600 Z-0.125000
G01 X89.883900 Y81.782800 Z-0.125000
G01 X90.002900 Y81.784800 Z-0.125000
G01 X89.871700 Y81.396300 Z-0.125000
G01 X89.298100 Y80.448600 Z-0.125000
G01 X88.865900 Y80.016400 Z-0.125000
G00 Z5.000000

(End cutting path id: path7830)


(Start cutting path id: path7833)
(Change tool to Default tool)

G00 Z5.000000
G00 X91.928800 Y83.827700

G01 Z-0.125000 F100.0(Penetrate)
G01 X110.516000 Y102.414600 Z-0.125000 F400.000000
G01 X110.726000 Y102.508100 Z-0.125000
G01 X110.796000 Y102.321100 Z-0.125000
G01 X110.516000 Y101.666200 Z-0.125000
G01 X93.619100 Y84.769600 Z-0.125000
G01 X93.551900 Y84.585500 Z-0.125000
G01 X93.796900 Y84.573300 Z-0.125000
G01 X94.536100 Y84.938200 Z-0.125000
G01 X110.516000 Y100.917900 Z-0.125000
G01 X110.726000 Y101.011400 Z-0.125000
G01 X110.796000 Y100.824300 Z-0.125000
G01 X110.516000 Y100.169500 Z-0.125000
G01 X95.286100 Y84.939900 Z-0.125000
G01 X95.178900 Y84.715700 Z-0.125000
G01 X95.335700 Y84.615300 Z-0.125000
G01 X95.632800 Y84.655200 Z-0.125000
G01 X95.946500 Y84.851900 Z-0.125000
G01 X110.516000 Y99.421200 Z-0.125000
G01 X110.726000 Y99.514700 Z-0.125000
G01 X110.796000 Y99.327600 Z-0.125000
G01 X110.516000 Y98.672800 Z-0.125000
G01 X96.543100 Y84.700200 Z-0.125000
G01 X96.417200 Y84.457400 Z-0.125000
G01 X96.533200 Y84.316100 Z-0.125000
G01 X96.789400 Y84.315100 Z-0.125000
G01 X97.084500 Y84.493200 Z-0.125000
G01 X110.516000 Y97.924400 Z-0.125000
G01 X110.726000 Y98.018000 Z-0.125000
G01 X110.796000 Y97.830900 Z-0.125000
G01 X110.516000 Y97.176100 Z-0.125000
G01 X97.580400 Y84.240700 Z-0.125000
G01 X97.440900 Y83.984300 Z-0.125000
G01 X97.527000 Y83.813200 Z-0.125000
G01 X97.753400 Y83.782300 Z-0.125000
G01 X98.034800 Y83.946800 Z-0.125000
G01 X110.516000 Y96.427700 Z-0.125000
G01 X110.726000 Y96.521300 Z-0.125000
G01 X110.796000 Y96.334200 Z-0.125000
G01 X110.516000 Y95.679400 Z-0.125000
G01 X98.450200 Y83.613900 Z-0.125000
G01 X98.298700 Y83.345400 Z-0.125000
G01 X98.358400 Y83.147800 Z-0.125000
G01 X98.558300 Y83.090400 Z-0.125000
G01 X98.827700 Y83.242900 Z-0.125000
G01 X110.516000 Y94.931000 Z-0.125000
G01 X110.726000 Y95.024600 Z-0.125000
G01 X110.796000 Y94.837500 Z-0.125000
G01 X110.516000 Y94.182700 Z-0.125000
G01 X99.167300 Y82.834200 Z-0.125000
G01 X99.003900 Y82.553900 Z-0.125000
G01 X99.037200 Y82.330000 Z-0.125000
G01 X99.210800 Y82.246400 Z-0.125000
G01 X99.468400 Y82.387000 Z-0.125000
G01 X110.516000 Y93.434300 Z-0.125000
G01 X110.726000 Y93.527900 Z-0.125000
G01 X110.796000 Y93.340800 Z-0.125000
G01 X110.516000 Y92.686000 Z-0.125000
G01 X99.729000 Y81.899200 Z-0.125000
G01 X99.552500 Y81.605800 Z-0.125000
G01 X99.557100 Y81.353200 Z-0.125000
G01 X99.702100 Y81.240900 Z-0.125000
G01 X99.946500 Y81.368400 Z-0.125000
G01 X110.516000 Y91.937600 Z-0.125000
G01 X110.726000 Y92.031200 Z-0.125000
G01 X110.796000 Y91.844100 Z-0.125000
G01 X110.516000 Y91.189300 Z-0.125000
G01 X100.108000 Y80.781500 Z-0.125000
G01 X99.912500 Y80.469100 Z-0.125000
G01 X99.875400 Y80.174800 Z-0.125000
G01 X99.978700 Y80.020800 Z-0.125000
G01 X100.204000 Y80.129400 Z-0.125000
G01 X110.516000 Y90.440900 Z-0.125000
G01 X110.726000 Y90.534400 Z-0.125000
G01 X110.796000 Y90.347400 Z-0.125000
G01 X110.516000 Y89.692500 Z-0.125000
G01 X100.203000 Y79.380300 Z-0.125000
G01 X99.874800 Y78.677500 Z-0.125000
G01 X99.912000 Y78.457400 Z-0.125000
G01 X100.107000 Y78.536000 Z-0.125000
G01 X110.516000 Y88.944200 Z-0.125000
G01 X110.726000 Y89.037700 Z-0.125000
G01 X110.796000 Y88.850600 Z-0.125000
G01 X110.516000 Y88.195800 Z-0.125000
G01 X99.291300 Y76.971400 Z-0.125000
G00 Z5.000000

(End cutting path id: path7833)


(Start cutting path id: path7841)
(Change tool to Default tool)

G00 Z5.000000
G00 X93.417500 Y74.367000

G01 Z-0.125000 F100.0(Penetrate)
G01 X93.380300 Y74.383000 Z-0.125000 F400.000000
G01 X93.300800 Y74.404300 Z-0.125000
G01 X92.895100 Y74.429200 Z-0.125000
G01 X92.353200 Y74.235700 Z-0.125000
G01 X91.838000 Y73.611300 Z-0.125000
G01 X91.512600 Y72.343500 Z-0.125000
G01 X91.464200 Y71.079000 Z-0.125000
G01 X91.250500 Y69.836800 Z-0.125000
G01 X90.876200 Y68.634100 Z-0.125000
G01 X90.345700 Y67.488000 Z-0.125000
G01 X89.663600 Y66.415800 Z-0.125000
G01 X88.834200 Y65.434500 Z-0.125000
G01 X87.862100 Y64.561400 Z-0.125000
G01 X86.751800 Y63.813600 Z-0.125000
G01 X84.871500 Y62.983300 Z-0.125000
G01 X82.919000 Y62.582500 Z-0.125000
G01 X80.957600 Y62.594400 Z-0.125000
G01 X79.050900 Y63.002000 Z-0.125000
G01 X78.376900 Y63.069700 Z-0.125000
G01 X77.404300 Y62.774200 Z-0.125000
G01 X76.907600 Y62.357000 Z-0.125000
G01 X76.458400 Y61.689200 Z-0.125000
G01 X76.097200 Y60.717400 Z-0.125000
G01 X75.864800 Y59.388300 Z-0.125000
G01 X75.862400 Y59.396000 Z-0.125000
G01 X75.862400 Y59.359200 Z-0.125000
G01 X75.862400 Y59.327800 Z-0.125000
G01 X75.867700 Y59.337900 Z-0.125000
G01 X76.104300 Y57.991600 Z-0.125000
G01 X76.472800 Y57.012700 Z-0.125000
G01 X76.930700 Y56.345300 Z-0.125000
G01 X77.435600 Y55.933800 Z-0.125000
G01 X77.945000 Y55.722400 Z-0.125000
G01 X78.416300 Y55.655500 Z-0.125000
G01 X79.075100 Y55.732000 Z-0.125000
G01 X79.156900 Y55.753300 Z-0.125000
G01 X79.178200 Y55.763500 Z-0.125000
G01 X81.057500 Y56.140700 Z-0.125000
G01 X82.986000 Y56.135200 Z-0.125000
G01 X84.904200 Y55.729900 Z-0.125000
G01 X86.752300 Y54.907900 Z-0.125000
G01 X87.859100 Y54.163000 Z-0.125000
G01 X88.828700 Y53.293400 Z-0.125000
G01 X89.656600 Y52.316300 Z-0.125000
G01 X90.338200 Y51.248700 Z-0.125000
G01 X90.869200 Y50.107800 Z-0.125000
G01 X91.245000 Y48.910800 Z-0.125000
G01 X91.461100 Y47.674900 Z-0.125000
G01 X91.513100 Y46.417200 Z-0.125000
G01 X91.673200 Y45.558700 Z-0.125000
G01 X91.925900 Y44.964100 Z-0.125000
G01 X92.236200 Y44.587400 Z-0.125000
G01 X92.568800 Y44.382400 Z-0.125000
G01 X93.160700 Y44.303600 Z-0.125000
G01 X93.420400 Y44.359200 Z-0.125000
G01 X93.415100 Y44.350500 Z-0.125000
G01 X94.369800 Y44.493800 Z-0.125000
G01 X95.342000 Y44.458000 Z-0.125000
G01 X96.305700 Y44.234500 Z-0.125000
G01 X97.235100 Y43.814500 Z-0.125000
G01 X98.083100 Y43.204700 Z-0.125000
G01 X98.771500 Y42.460300 Z-0.125000
G01 X99.292600 Y41.609900 Z-0.125000
G01 X99.638900 Y40.681800 Z-0.125000
G01 X99.802700 Y39.704500 Z-0.125000
G01 X99.776500 Y38.706400 Z-0.125000
G01 X99.552600 Y37.715900 Z-0.125000
G01 X99.123500 Y36.761500 Z-0.125000
G01 X98.512200 Y35.913600 Z-0.125000
G01 X97.767100 Y35.225800 Z-0.125000
