%
(Header)
(Generated by gcodetools from Inkscape.)
(Using default header. To add your own header create file "header" in the output dir.)
M3
(Header end.)
G21 (All units in mm)

(Start cutting path id: path7853)
(Change tool to Default tool)

G00 Z5.000000
G00 X156.678000 Y38.463900

G01 Z-0.125000 F100.0(Penetrate)
G01 X156.106000 Y37.891700 Z-0.125000 F400.000000
G01 X155.674000 Y37.085100 Z-0.125000
G01 X155.640000 Y36.793600 Z-0.125000
G01 X155.803000 Y36.839800 Z-0.125000
G01 X157.450000 Y38.487400 Z-0.125000
G01 X158.110000 Y38.772800 Z-0.125000
G01 X158.300000 Y38.706000 Z-0.125000
G01 X158.208000 Y38.497000 Z-0.125000
G01 X155.793000 Y36.081800 Z-0.125000
G01 X155.512000 Y35.427000 Z-0.125000
G01 X155.582000 Y35.239900 Z-0.125000
G01 X155.793000 Y35.333400 Z-0.125000
G01 X158.957000 Y38.497000 Z-0.125000
G01 X159.611000 Y38.777600 Z-0.125000
G01 X159.798000 Y38.707500 Z-0.125000
G01 X159.705000 Y38.497000 Z-0.125000
G01 X155.793000 Y34.585100 Z-0.125000
G01 X155.512000 Y33.930300 Z-0.125000
G01 X155.582000 Y33.743200 Z-0.125000
G01 X155.793000 Y33.836700 Z-0.125000
G01 X160.453000 Y38.497000 Z-0.125000
G01 X161.108000 Y38.777600 Z-0.125000
G01 X161.295000 Y38.707500 Z-0.125000
G01 X161.202000 Y38.497000 Z-0.125000
G01 X155.793000 Y33.088400 Z-0.125000
G01 X155.512000 Y32.433600 Z-0.125000
G01 X155.582000 Y32.246500 Z-0.125000
G01 X155.793000 Y32.340000 Z-0.125000
G01 X161.950000 Y38.497000 Z-0.125000
G01 X162.605000 Y38.777600 Z-0.125000
G01 X162.792000 Y38.707500 Z-0.125000
G01 X162.698000 Y38.497000 Z-0.125000
G01 X155.793000 Y31.591700 Z-0.125000
G01 X155.512000 Y30.936800 Z-0.125000
G01 X155.582000 Y30.749800 Z-0.125000
G01 X155.793000 Y30.843300 Z-0.125000
G01 X163.447000 Y38.497000 Z-0.125000
G01 X164.101000 Y38.777600 Z-0.125000
G01 X164.289000 Y38.707500 Z-0.125000
G01 X164.195000 Y38.497000 Z-0.125000
G01 X155.793000 Y30.094900 Z-0.125000
G01 X155.512000 Y29.440100 Z-0.125000
G01 X155.582000 Y29.253000 Z-0.125000
G01 X155.793000 Y29.346600 Z-0.125000
G01 X164.943000 Y38.497000 Z-0.125000
G01 X165.598000 Y38.777600 Z-0.125000
G01 X165.785000 Y38.707500 Z-0.125000
G01 X165.692000 Y38.497000 Z-0.125000
G01 X155.793000 Y28.598200 Z-0.125000
G01 X155.512000 Y27.943400 Z-0.125000
G01 X155.582000 Y27.756300 Z-0.125000
G01 X155.793000 Y27.849900 Z-0.125000
G01 X160.096000 Y32.152700 Z-0.125000
G01 X160.307000 Y32.246500 Z-0.125000
G01 X160.377000 Y32.060200 Z-0.125000
G01 X160.098000 Y31.406400 Z-0.125000
G01 X155.793000 Y27.101500 Z-0.125000
G01 X155.512000 Y26.447000 Z-0.125000
G01 X155.582000 Y26.260000 Z-0.125000
G01 X155.793000 Y26.353000 Z-0.125000
G01 X160.098000 Y30.658100 Z-0.125000
G01 X160.308000 Y30.751600 Z-0.125000
G01 X160.378000 Y30.564500 Z-0.125000
G01 X160.098000 Y29.909700 Z-0.125000
G01 X155.793000 Y25.605000 Z-0.125000
G01 X155.512000 Y24.950000 Z-0.125000
G01 X155.582000 Y24.763000 Z-0.125000
G01 X155.793000 Y24.856000 Z-0.125000
G01 X160.098000 Y29.161300 Z-0.125000
G01 X160.308000 Y29.254900 Z-0.125000
G01 X160.378000 Y29.067800 Z-0.125000
G01 X160.098000 Y28.413000 Z-0.125000
G01 X155.793000 Y24.108000 Z-0.125000
G01 X155.512000 Y23.453000 Z-0.125000
G01 X155.582000 Y23.266000 Z-0.125000
G01 X155.793000 Y23.360000 Z-0.125000
G01 X160.098000 Y27.664600 Z-0.125000
G01 X160.309000 Y27.759000 Z-0.125000
G01 X160.381000 Y27.573700 Z-0.125000
G01 X160.103000 Y26.921000 Z-0.125000
G01 X155.793000 Y22.611000 Z-0.125000
G01 X155.512000 Y21.957000 Z-0.125000
G01 X155.582000 Y21.769000 Z-0.125000
G01 X155.793000 Y21.863000 Z-0.125000
G01 X160.248000 Y26.318000 Z-0.125000
G01 X160.512000 Y26.466000 Z-0.125000
G01 X160.701000 Y26.398000 Z-0.125000
G01 X160.750000 Y26.189000 Z-0.125000
G01 X160.594000 Y25.916000 Z-0.125000
G01 X155.793000 Y21.115000 Z-0.125000
G01 X155.512000 Y20.460000 Z-0.125000
G01 X155.582000 Y20.273000 Z-0.125000
G01 X155.793000 Y20.366000 Z-0.125000
G01 X161.128000 Y25.702000 Z-0.125000
G01 X161.450000 Y25.907000 Z-0.125000
G01 X161.767000 Y25.966000 Z-0.125000
G01 X161.942000 Y25.885000 Z-0.125000
G01 X161.844000 Y25.669000 Z-0.125000
G01 X155.793000 Y19.618000 Z-0.125000
G01 X155.512000 Y18.963000 Z-0.125000
G01 X155.582000 Y18.776000 Z-0.125000
G01 X155.793000 Y18.870000 Z-0.125000
G01 X162.592000 Y25.669000 Z-0.125000
G01 X163.247000 Y25.950000 Z-0.125000
G01 X163.434000 Y25.880000 Z-0.125000
G01 X163.341000 Y25.669000 Z-0.125000
G01 X155.793000 Y18.121000 Z-0.125000
G01 X155.512000 Y17.466000 Z-0.125000
G01 X155.582000 Y17.279000 Z-0.125000
G01 X155.793000 Y17.373000 Z-0.125000
G01 X164.089000 Y25.669000 Z-0.125000
G01 X164.744000 Y25.950000 Z-0.125000
G01 X164.931000 Y25.880000 Z-0.125000
G01 X164.837000 Y25.669000 Z-0.125000
G01 X155.793000 Y16.625000 Z-0.125000
G01 X155.512000 Y15.970000 Z-0.125000
G01 X155.582000 Y15.783000 Z-0.125000
G01 X155.793000 Y15.876000 Z-0.125000
G01 X165.586000 Y25.669000 Z-0.125000
G01 X166.240000 Y25.950000 Z-0.125000
G01 X166.428000 Y25.880000 Z-0.125000
G01 X166.334000 Y25.669000 Z-0.125000
G01 X162.004000 Y21.339000 Z-0.125000
G01 X161.914000 Y21.132000 Z-0.125000
G01 X162.110000 Y21.071000 Z-0.125000
G01 X162.777000 Y21.364000 Z-0.125000
G01 X167.082000 Y25.669000 Z-0.125000
G01 X167.404000 Y25.874000 Z-0.125000
G01 X167.719000 Y25.932000 Z-0.125000
G01 X167.894000 Y25.849000 Z-0.125000
G01 X167.795000 Y25.633000 Z-0.125000
G01 X163.526000 Y21.364000 Z-0.125000
G01 X163.432000 Y21.154000 Z-0.125000
G01 X163.619000 Y21.084000 Z-0.125000
G01 X164.274000 Y21.364000 Z-0.125000
G01 X167.795000 Y24.885000 Z-0.125000
G01 X168.005000 Y24.978000 Z-0.125000
G01 X168.075000 Y24.791000 Z-0.125000
G01 X167.795000 Y24.136000 Z-0.125000
G01 X165.023000 Y21.364000 Z-0.125000
G01 X164.929000 Y21.154000 Z-0.125000
G01 X165.116000 Y21.084000 Z-0.125000
G01 X165.771000 Y21.364000 Z-0.125000
G01 X167.795000 Y23.388000 Z-0.125000
G01 X168.005000 Y23.482000 Z-0.125000
G01 X168.075000 Y23.294000 Z-0.125000
G01 X167.795000 Y22.640000 Z-0.125000
G01 X166.519000 Y21.364000 Z-0.125000
G01 X166.426000 Y21.154000 Z-0.125000
G01 X166.613000 Y21.084000 Z-0.125000
G01 X167.268000 Y21.364000 Z-0.125000
G01 X167.905000 Y22.002000 Z-0.125000
G01 X168.033000 Y22.013000 Z-0.125000
G01 X168.075000 Y21.798000 Z-0.125000
G01 X167.905000 Y21.254000 Z-0.125000
G01 X167.735000 Y21.084000 Z-0.125000
G00 Z5.000000

(End cutting path id: path7853)


(Start cutting path id: path7855)
(Change tool to Default tool)

G00 Z5.000000
G00 X160.404000 Y19.740000

G01 Z-0.125000 F100.0(Penetrate)
G01 X155.793000 Y15.128000 Z-0.125000 F400.000000
G01 X155.512000 Y14.473000 Z-0.125000
G01 X155.582000 Y14.286000 Z-0.125000
G01 X155.793000 Y14.380000 Z-0.125000
G01 X160.098000 Y18.685000 Z-0.125000
G01 X160.308000 Y18.778000 Z-0.125000
G01 X160.378000 Y18.591000 Z-0.125000
G01 X160.098000 Y17.936000 Z-0.125000
G01 X155.793000 Y13.631000 Z-0.125000
G01 X155.512000 Y12.976000 Z-0.125000
G01 X155.582000 Y12.789000 Z-0.125000
G01 X155.793000 Y12.883000 Z-0.125000
G01 X160.098000 Y17.188000 Z-0.125000
G01 X160.308000 Y17.281000 Z-0.125000
G01 X160.378000 Y17.094000 Z-0.125000
G01 X160.098000 Y16.439000 Z-0.125000
G01 X155.793000 Y12.135000 Z-0.125000
G01 X155.512000 Y11.480000 Z-0.125000
G01 X155.582000 Y11.293000 Z-0.125000
G01 X155.793000 Y11.386000 Z-0.125000
G01 X160.098000 Y15.691000 Z-0.125000
G01 X160.308000 Y15.785000 Z-0.125000
G01 X160.378000 Y15.598000 Z-0.125000
G01 X160.098000 Y14.943000 Z-0.125000
G01 X155.812000 Y10.657000 Z-0.125000
G01 X155.624000 Y10.352000 Z-0.125000
G01 X155.604000 Y10.075000 Z-0.125000
G01 X155.723000 Y9.937000 Z-0.125000
G01 X155.956000 Y10.053000 Z-0.125000
G01 X160.098000 Y14.194000 Z-0.125000
G01 X160.327000 Y14.307000 Z-0.125000
G01 X160.439000 Y14.161000 Z-0.125000
G01 X160.410000 Y13.875000 Z-0.125000
G01 X160.218000 Y13.567000 Z-0.125000
G01 X156.222000 Y9.571000 Z-0.125000
G01 X156.067000 Y9.298000 Z-0.125000
G01 X156.117000 Y9.092000 Z-0.125000
G01 X156.308000 Y9.025000 Z-0.125000
G01 X156.573000 Y9.174000 Z-0.125000
G01 X160.533000 Y13.134000 Z-0.125000
G01 X160.823000 Y13.306000 Z-0.125000
G01 X161.067000 Y13.293000 Z-0.125000
G01 X161.172000 Y13.140000 Z-0.125000
G01 X161.040000 Y12.892000 Z-0.125000
G01 X157.002000 Y8.854000 Z-0.125000
G01 X156.873000 Y8.608000 Z-0.125000
G01 X156.983000 Y8.460000 Z-0.125000
G01 X157.233000 Y8.453000 Z-0.125000
G01 X157.525000 Y8.628000 Z-0.125000
G01 X161.739000 Y12.843000 Z-0.125000
G01 X162.394000 Y13.123000 Z-0.125000
G01 X162.581000 Y13.053000 Z-0.125000
G01 X162.487000 Y12.843000 Z-0.125000
G01 X158.184000 Y8.539000 Z-0.125000
G01 X158.090000 Y8.328000 Z-0.125000
G01 X158.276000 Y8.257000 Z-0.125000
G01 X158.930000 Y8.537000 Z-0.125000
G01 X163.236000 Y12.843000 Z-0.125000
G01 X163.891000 Y13.123000 Z-0.125000
G01 X164.078000 Y13.053000 Z-0.125000
G01 X163.984000 Y12.843000 Z-0.125000
G01 X159.678000 Y8.537000 Z-0.125000
G01 X159.585000 Y8.326000 Z-0.125000
G01 X159.772000 Y8.256000 Z-0.125000
G01 X160.427000 Y8.537000 Z-0.125000
G01 X164.732000 Y12.843000 Z-0.125000
G01 X165.387000 Y13.123000 Z-0.125000
G01 X165.574000 Y13.053000 Z-0.125000
G01 X165.481000 Y12.843000 Z-0.125000
G01 X161.175000 Y8.537000 Z-0.125000
G01 X161.081000 Y8.326000 Z-0.125000
G01 X161.269000 Y8.256000 Z-0.125000
G01 X161.923000 Y8.537000 Z-0.125000
G01 X166.229000 Y12.843000 Z-0.125000
G01 X166.884000 Y13.123000 Z-0.125000
G01 X167.071000 Y13.053000 Z-0.125000
G01 X166.978000 Y12.843000 Z-0.125000
G01 X162.672000 Y8.537000 Z-0.125000
G01 X162.578000 Y8.326000 Z-0.125000
G01 X162.765000 Y8.256000 Z-0.125000
G01 X163.420000 Y8.537000 Z-0.125000
G01 X167.726000 Y12.843000 Z-0.125000
G01 X168.381000 Y13.123000 Z-0.125000
G01 X168.568000 Y13.053000 Z-0.125000
G01 X168.474000 Y12.843000 Z-0.125000
G01 X164.168000 Y8.537000 Z-0.125000
G01 X164.075000 Y8.326000 Z-0.125000
G01 X164.262000 Y8.256000 Z-0.125000
G01 X164.917000 Y8.537000 Z-0.125000
G01 X169.223000 Y12.843000 Z-0.125000
G01 X169.877000 Y13.123000 Z-0.125000
G01 X170.065000 Y13.053000 Z-0.125000
G01 X169.971000 Y12.843000 Z-0.125000
G01 X165.665000 Y8.537000 Z-0.125000
G01 X165.572000 Y8.326000 Z-0.125000
G01 X165.759000 Y8.256000 Z-0.125000
G01 X166.413000 Y8.537000 Z-0.125000
G01 X170.360000 Y12.483000 Z-0.125000
G01 X170.570000 Y12.576000 Z-0.125000
G01 X170.640000 Y12.389000 Z-0.125000
G01 X170.360000 Y11.734000 Z-0.125000
G01 X167.162000 Y8.537000 Z-0.125000
G01 X167.068000 Y8.326000 Z-0.125000
G01 X167.255000 Y8.256000 Z-0.125000
G01 X167.910000 Y8.537000 Z-0.125000
G01 X170.360000 Y10.986000 Z-0.125000
G01 X170.570000 Y11.080000 Z-0.125000
G01 X170.640000 Y10.892000 Z-0.125000
G01 X170.360000 Y10.238000 Z-0.125000
G01 X168.659000 Y8.537000 Z-0.125000
G01 X168.565000 Y8.326000 Z-0.125000
G01 X168.752000 Y8.256000 Z-0.125000
G01 X169.407000 Y8.537000 Z-0.125000
G01 X170.360000 Y9.489000 Z-0.125000
G01 X170.570000 Y9.583000 Z-0.125000
G01 X170.640000 Y9.396000 Z-0.125000
G01 X170.360000 Y8.741000 Z-0.125000
G01 X169.875000 Y8.256000 Z-0.125000
G00 Z5.000000

(End cutting path id: path7855)


(Start cutting path id: path7861)
(Change tool to Default tool)

G00 Z5.000000
G00 X151.584000 Y8.123000

G01 Z-0.125000 F100.0(Penetrate)
G01 X146.452000 Y8.123000 Z-0.125000 F400.000000
G01 X142.040000 Y21.360000 Z-0.125000
G01 X141.758000 Y22.054000 Z-0.125000
G01 X141.527000 Y22.285000 Z-0.125000
G01 X141.398000 Y22.067000 Z-0.125000
G01 X141.322000 Y21.412000 Z-0.125000
G01 X141.322000 Y8.123000 Z-0.125000
G01 X136.190000 Y8.123000 Z-0.125000
G01 X136.190000 Y38.909400 Z-0.125000
G01 X141.322000 Y38.909400 Z-0.125000
G01 X145.837000 Y25.415000 Z-0.125000
G01 X146.041000 Y24.914000 Z-0.125000
G01 X146.247000 Y24.747000 Z-0.125000
G01 X146.401000 Y24.939000 Z-0.125000
G01 X146.452000 Y25.517000 Z-0.125000
G01 X146.452000 Y38.909400 Z-0.125000
G01 X151.584000 Y38.909400 Z-0.125000
G01 X151.584000 Y8.123000 Z-0.125000
G00 Z5.000000

(End cutting path id: path7861)


(Start cutting path id: path7946)
(Change tool to Default tool)

G00 Z5.000000
G00 X151.584000 Y8.123000

G01 Z-0.125000 F100.0(Penetrate)
G01 X146.453000 Y8.123000 Z-0.125000 F400.000000
G01 X142.040000 Y21.361000 Z-0.125000
G01 X141.758000 Y22.054000 Z-0.125000
G01 X141.527000 Y22.285000 Z-0.125000
G01 X141.398000 Y22.067000 Z-0.125000
G01 X141.322000 Y21.412000 Z-0.125000
G01 X141.322000 Y8.123000 Z-0.125000
G01 X136.190000 Y8.123000 Z-0.125000
G01 X136.190000 Y38.909400 Z-0.125000
G01 X141.322000 Y38.909400 Z-0.125000
G01 X145.837000 Y25.415000 Z-0.125000
G01 X146.041000 Y24.914000 Z-0.125000
G01 X146.247000 Y24.747000 Z-0.125000
G01 X146.401000 Y24.939000 Z-0.125000
G01 X146.453000 Y25.517000 Z-0.125000
G01 X146.453000 Y38.909400 Z-0.125000
G01 X151.584000 Y38.909400 Z-0.125000
G01 X151.584000 Y8.123000 Z-0.125000
G00 Z5.000000

(End cutting path id: path7946)


(Start cutting path id: path7859)
(Change tool to Default tool)

G00 Z5.000000
G00 X141.313000 Y22.082000

G01 Z-0.125000 F100.0(Penetrate)
G01 X136.603000 Y17.372000 Z-0.125000 F400.000000
G01 X136.322000 Y16.717000 Z-0.125000
G01 X136.392000 Y16.530000 Z-0.125000
G01 X136.603000 Y16.624000 Z-0.125000
G01 X140.909000 Y20.930000 Z-0.125000
G01 X141.119000 Y21.023000 Z-0.125000
G01 X141.189000 Y20.836000 Z-0.125000
G01 X140.909000 Y20.181000 Z-0.125000
G01 X136.603000 Y15.875000 Z-0.125000
G01 X136.322000 Y15.221000 Z-0.125000
G01 X136.392000 Y15.034000 Z-0.125000
G01 X136.603000 Y15.127000 Z-0.125000
G01 X140.909000 Y19.433000 Z-0.125000
G01 X141.119000 Y19.526000 Z-0.125000
G01 X141.189000 Y19.339000 Z-0.125000
G01 X140.909000 Y18.685000 Z-0.125000
G01 X136.603000 Y14.379000 Z-0.125000
G01 X136.322000 Y13.724000 Z-0.125000
G01 X136.392000 Y13.537000 Z-0.125000
G01 X136.603000 Y13.630000 Z-0.125000
G01 X140.909000 Y17.936000 Z-0.125000
G01 X141.119000 Y18.030000 Z-0.125000
G01 X141.189000 Y17.843000 Z-0.125000
G01 X140.909000 Y17.188000 Z-0.125000
G01 X136.603000 Y12.882000 Z-0.125000
G01 X136.322000 Y12.227000 Z-0.125000
G01 X136.392000 Y12.040000 Z-0.125000
G01 X136.603000 Y12.134000 Z-0.125000
G01 X140.909000 Y16.439000 Z-0.125000
G01 X141.119000 Y16.533000 Z-0.125000
G01 X141.189000 Y16.346000 Z-0.125000
G01 X140.909000 Y15.691000 Z-0.125000
G01 X136.603000 Y11.385000 Z-0.125000
G01 X136.322000 Y10.730000 Z-0.125000
G01 X136.392000 Y10.543000 Z-0.125000
G01 X136.603000 Y10.637000 Z-0.125000
G01 X140.909000 Y14.943000 Z-0.125000
G01 X141.119000 Y15.036000 Z-0.125000
G01 X141.189000 Y14.849000 Z-0.125000
G01 X140.909000 Y14.194000 Z-0.125000
G01 X136.603000 Y9.889000 Z-0.125000
G01 X136.322000 Y9.234000 Z-0.125000
G01 X136.392000 Y9.047000 Z-0.125000
G01 X136.603000 Y9.140000 Z-0.125000
G01 X140.909000 Y13.446000 Z-0.125000
G01 X141.119000 Y13.540000 Z-0.125000
G01 X141.189000 Y13.353000 Z-0.125000
G01 X140.909000 Y12.698000 Z-0.125000
G01 X136.747000 Y8.536000 Z-0.125000
G01 X136.654000 Y8.325000 Z-0.125000
G01 X136.841000 Y8.255000 Z-0.125000
G01 X137.495000 Y8.536000 Z-0.125000
G01 X140.909000 Y11.949000 Z-0.125000
G01 X141.119000 Y12.043000 Z-0.125000
G01 X141.189000 Y11.856000 Z-0.125000
G01 X140.909000 Y11.201000 Z-0.125000
G01 X138.244000 Y8.536000 Z-0.125000
G01 X138.150000 Y8.325000 Z-0.125000
G01 X138.337000 Y8.255000 Z-0.125000
G01 X138.992000 Y8.536000 Z-0.125000
G01 X140.909000 Y10.453000 Z-0.125000
G01 X141.119000 Y10.546000 Z-0.125000
G01 X141.189000 Y10.359000 Z-0.125000
G01 X140.909000 Y9.704000 Z-0.125000
G01 X139.740000 Y8.536000 Z-0.125000
G01 X139.647000 Y8.325000 Z-0.125000
G01 X139.834000 Y8.255000 Z-0.125000
G01 X140.489000 Y8.536000 Z-0.125000
G01 X141.073000 Y9.120000 Z-0.125000
G01 X141.160000 Y9.091000 Z-0.125000
G01 X141.189000 Y8.862000 Z-0.125000
G01 X141.073000 Y8.372000 Z-0.125000
G01 X140.957000 Y8.255000 Z-0.125000
G00 Z5.000000

(End cutting path id: path7859)


(Start cutting path id: path7866)
(Change tool to Default tool)

G00 Z5.000000
G00 X132.394000 Y15.820000

G01 Z-0.125000 F100.0(Penetrate)
G01 X132.253000 Y14.286000 Z-0.125000 F400.000000
G01 X131.830000 Y12.869000 Z-0.125000
G01 X131.124000 Y11.567000 Z-0.125000
G01 X130.136000 Y10.381000 Z-0.125000
G01 X128.949000 Y9.393000 Z-0.125000
G01 X127.647000 Y8.688000 Z-0.125000
G01 X126.230000 Y8.265000 Z-0.125000
G01 X124.697000 Y8.124000 Z-0.125000
G01 X123.164000 Y8.265000 Z-0.125000
G01 X121.747000 Y8.688000 Z-0.125000
G01 X120.445000 Y9.393000 Z-0.125000
G01 X119.258000 Y10.381000 Z-0.125000
G01 X118.271000 Y11.567000 Z-0.125000
G01 X117.565000 Y12.869000 Z-0.125000
G01 X117.142000 Y14.287000 Z-0.125000
G01 X117.001000 Y15.820000 Z-0.125000
G01 X117.001000 Y31.212400 Z-0.125000
G01 X117.142000 Y32.745400 Z-0.125000
G01 X117.565000 Y34.162700 Z-0.125000
G01 X118.271000 Y35.464500 Z-0.125000
G01 X119.258000 Y36.651100 Z-0.125000
G01 X120.445000 Y37.638600 Z-0.125000
G01 X121.747000 Y38.344400 Z-0.125000
G01 X123.165000 Y38.768100 Z-0.125000
G01 X124.697000 Y38.909400 Z-0.125000
G01 X126.230000 Y38.768100 Z-0.125000
G01 X127.647000 Y38.344400 Z-0.125000
G01 X128.949000 Y37.638600 Z-0.125000
G01 X130.136000 Y36.651100 Z-0.125000
G01 X131.124000 Y35.464400 Z-0.125000
G01 X131.830000 Y34.162500 Z-0.125000
G01 X132.253000 Y32.745200 Z-0.125000
G01 X132.394000 Y31.212400 Z-0.125000
G01 X132.394000 Y15.820000 Z-0.125000
G00 Z5.000000

(End cutting path id: path7866)


(Start cutting path id: path7947)
(Change tool to Default tool)

G00 Z5.000000
G00 X132.394000 Y15.820000

G01 Z-0.125000 F100.0(Penetrate)
G01 X132.253000 Y14.287000 Z-0.125000 F400.000000
G01 X131.830000 Y12.869000 Z-0.125000
G01 X131.124000 Y11.567000 Z-0.125000
G01 X130.136000 Y10.381000 Z-0.125000
G01 X128.949000 Y9.393000 Z-0.125000
G01 X127.647000 Y8.688000 Z-0.125000
G01 X126.230000 Y8.265000 Z-0.125000
G01 X124.697000 Y8.124000 Z-0.125000
G01 X123.165000 Y8.265000 Z-0.125000
G01 X121.747000 Y8.688000 Z-0.125000
G01 X120.445000 Y9.393000 Z-0.125000
G01 X119.259000 Y10.381000 Z-0.125000
G01 X118.271000 Y11.567000 Z-0.125000
G01 X117.566000 Y12.869000 Z-0.125000
G01 X117.142000 Y14.287000 Z-0.125000
G01 X117.001000 Y15.820000 Z-0.125000
G01 X117.001000 Y31.212400 Z-0.125000
G01 X117.142000 Y32.745400 Z-0.125000
G01 X117.566000 Y34.162700 Z-0.125000
G01 X118.271000 Y35.464500 Z-0.125000
G01 X119.259000 Y36.651100 Z-0.125000
G01 X120.445000 Y37.638600 Z-0.125000
G01 X121.747000 Y38.344400 Z-0.125000
G01 X123.165000 Y38.768100 Z-0.125000
G01 X124.697000 Y38.909400 Z-0.125000
G01 X126.230000 Y38.768100 Z-0.125000
G01 X127.648000 Y38.344400 Z-0.125000
G01 X128.950000 Y37.638600 Z-0.125000
G01 X130.136000 Y36.651100 Z-0.125000
G01 X131.124000 Y35.464400 Z-0.125000
G01 X131.830000 Y34.162500 Z-0.125000
G01 X132.253000 Y32.745200 Z-0.125000
G01 X132.394000 Y31.212400 Z-0.125000
G01 X132.394000 Y15.820000 Z-0.125000
G00 Z5.000000

(End cutting path id: path7947)


(Start cutting path id: path7864)
(Change tool to Default tool)

G00 Z5.000000
G00 X132.262000 Y18.750000

G01 Z-0.125000 F100.0(Penetrate)
G01 X122.457000 Y8.945000 Z-0.125000 F400.000000
G01 X122.337000 Y8.708000 Z-0.125000
G01 X122.465000 Y8.579000 Z-0.125000
G01 X122.734000 Y8.590000 Z-0.125000
G01 X123.034000 Y8.774000 Z-0.125000
G01 X131.981000 Y17.721000 Z-0.125000
G01 X132.192000 Y17.814000 Z-0.125000
G01 X132.262000 Y17.627000 Z-0.125000
G01 X131.981000 Y16.972000 Z-0.125000
G01 X123.654000 Y8.645000 Z-0.125000
G01 X123.543000 Y8.417000 Z-0.125000
G01 X123.691000 Y8.308000 Z-0.125000
G01 X123.980000 Y8.340000 Z-0.125000
G01 X124.290000 Y8.533000 Z-0.125000
G01 X131.981000 Y16.224000 Z-0.125000
G01 X132.192000 Y16.318000 Z-0.125000
G01 X132.262000 Y16.131000 Z-0.125000
G01 X131.981000 Y15.476000 Z-0.125000
G01 X125.041000 Y8.535000 Z-0.125000
G01 X124.954000 Y8.331000 Z-0.125000
G01 X125.155000 Y8.275000 Z-0.125000
G01 X125.831000 Y8.577000 Z-0.125000
G01 X131.941000 Y14.687000 Z-0.125000
G01 X132.128000 Y14.757000 Z-0.125000
G01 X132.146000 Y14.518000 Z-0.125000
G01 X131.790000 Y13.787000 Z-0.125000
G01 X126.731000 Y8.728000 Z-0.125000
G01 X126.690000 Y8.571000 Z-0.125000
G01 X126.994000 Y8.618000 Z-0.125000
G01 X127.819000 Y9.068000 Z-0.125000
G01 X131.731000 Y12.980000 Z-0.125000
G00 Z5.000000

(End cutting path id: path7864)


(Start cutting path id: path7865)
(Change tool to Default tool)

G00 Z5.000000
G00 X129.017000 Y9.518000

G01 Z-0.125000 F100.0(Penetrate)
G01 X130.998000 Y11.499000 Z-0.125000 F400.000000
G00 Z5.000000

(End cutting path id: path7865)


(Start cutting path id: path7867)
(Change tool to Default tool)

G00 Z5.000000
G00 X127.263000 Y15.820000

G01 Z-0.125000 F100.0(Penetrate)
G01 X127.263000 Y31.212400 Z-0.125000 F400.000000
G01 X127.077000 Y32.206700 Z-0.125000
G01 X126.518000 Y33.034000 Z-0.125000
G01 X125.691000 Y33.592200 Z-0.125000
G01 X124.697000 Y33.778200 Z-0.125000
G01 X123.703000 Y33.592200 Z-0.125000
G01 X122.875000 Y33.034000 Z-0.125000
G01 X122.317000 Y32.207100 Z-0.125000
G01 X122.131000 Y31.212400 Z-0.125000
G01 X122.131000 Y15.820000 Z-0.125000
G01 X122.317000 Y14.826000 Z-0.125000
G01 X122.875000 Y13.999000 Z-0.125000
G01 X123.702000 Y13.441000 Z-0.125000
G01 X124.697000 Y13.255000 Z-0.125000
G01 X125.691000 Y13.441000 Z-0.125000
G01 X126.518000 Y13.999000 Z-0.125000
G01 X127.077000 Y14.826000 Z-0.125000
G01 X127.263000 Y15.820000 Z-0.125000
G01 X127.263000 Y15.820000 Z-0.125000
G00 Z5.000000

(End cutting path id: path7867)


(Start cutting path id: path7948)
(Change tool to Default tool)

G00 Z5.000000
G00 X127.263000 Y15.820000

G01 Z-0.125000 F100.0(Penetrate)
G01 X127.263000 Y31.212400 Z-0.125000 F400.000000
G01 X127.077000 Y32.206700 Z-0.125000
G01 X126.518000 Y33.034000 Z-0.125000
G01 X125.691000 Y33.592200 Z-0.125000
G01 X124.697000 Y33.778200 Z-0.125000
G01 X123.703000 Y33.592200 Z-0.125000
G01 X122.875000 Y33.034000 Z-0.125000
G01 X122.317000 Y32.207100 Z-0.125000
G01 X122.131000 Y31.212400 Z-0.125000
G01 X122.131000 Y15.820000 Z-0.125000
G01 X122.317000 Y14.826000 Z-0.125000
G01 X122.875000 Y13.999000 Z-0.125000
G01 X123.702000 Y13.441000 Z-0.125000
G01 X124.697000 Y13.255000 Z-0.125000
G01 X125.691000 Y13.441000 Z-0.125000
G01 X126.518000 Y13.999000 Z-0.125000
G01 X127.077000 Y14.826000 Z-0.125000
G01 X127.263000 Y15.820000 Z-0.125000
G01 X127.263000 Y15.820000 Z-0.125000
G00 Z5.000000

(End cutting path id: path7948)


(Start cutting path id: path7862)
(Change tool to Default tool)

G00 Z5.000000
G00 X120.362000 Y37.532200

G01 Z-0.125000 F100.0(Penetrate)
G01 X118.377000 Y35.547600 Z-0.125000 F400.000000
G00 Z5.000000

(End cutting path id: path7862)


(Start cutting path id: path7863)
(Change tool to Default tool)

G00 Z5.000000
G00 X121.801000 Y38.223500

G01 Z-0.125000 F100.0(Penetrate)
G01 X117.967000 Y34.388900 Z-0.125000 F400.000000
G01 X117.511000 Y33.558300 Z-0.125000
G01 X117.460000 Y33.250400 Z-0.125000
G01 X117.615000 Y33.289000 Z-0.125000
G01 X122.621000 Y38.294800 Z-0.125000
G01 X123.367000 Y38.666900 Z-0.125000
G01 X123.617000 Y38.659700 Z-0.125000
G01 X123.552000 Y38.477800 Z-0.125000
G01 X117.432000 Y32.357600 Z-0.125000
G01 X117.135000 Y31.686400 Z-0.125000
G01 X117.194000 Y31.488000 Z-0.125000
G01 X117.399000 Y31.576400 Z-0.125000
G01 X124.333000 Y38.510100 Z-0.125000
G01 X124.654000 Y38.714500 Z-0.125000
G01 X124.969000 Y38.771400 Z-0.125000
G01 X125.142000 Y38.687900 Z-0.125000
G01 X125.043000 Y38.471400 Z-0.125000
G01 X117.414000 Y30.842600 Z-0.125000
G01 X117.133000 Y30.187800 Z-0.125000
G01 X117.204000 Y30.000700 Z-0.125000
G01 X117.414000 Y30.094300 Z-0.125000
G01 X125.712000 Y38.392700 Z-0.125000
G01 X126.020000 Y38.583300 Z-0.125000
G01 X126.304000 Y38.609800 Z-0.125000
G01 X126.447000 Y38.496000 Z-0.125000
G01 X126.334000 Y38.265700 Z-0.125000
G01 X117.414000 Y29.345900 Z-0.125000
G01 X117.133000 Y28.691100 Z-0.125000
G01 X117.204000 Y28.504000 Z-0.125000
G01 X117.414000 Y28.597600 Z-0.125000
G01 X126.910000 Y38.093900 Z-0.125000
G01 X127.205000 Y38.271400 Z-0.125000
G01 X127.460000 Y38.269000 Z-0.125000
G01 X127.574000 Y38.126300 Z-0.125000
G01 X127.448000 Y37.882800 Z-0.125000
G01 X117.414000 Y27.849200 Z-0.125000
G01 X117.133000 Y27.194400 Z-0.125000
G01 X117.204000 Y27.007300 Z-0.125000
G01 X117.414000 Y27.100800 Z-0.125000
G01 X121.760000 Y31.446900 Z-0.125000
G01 X121.964000 Y31.533900 Z-0.125000
G01 X122.020000 Y31.332300 Z-0.125000
G01 X121.718000 Y30.656400 Z-0.125000
G01 X117.414000 Y26.352000 Z-0.125000
G01 X117.133000 Y25.698000 Z-0.125000
G01 X117.203000 Y25.511000 Z-0.125000
G01 X117.414000 Y25.604000 Z-0.125000
G01 X121.718000 Y29.908100 Z-0.125000
G01 X121.928000 Y30.001600 Z-0.125000
G01 X121.999000 Y29.814500 Z-0.125000
G01 X121.718000 Y29.159700 Z-0.125000
G01 X117.414000 Y24.856000 Z-0.125000
G01 X117.133000 Y24.201000 Z-0.125000
G01 X117.203000 Y24.014000 Z-0.125000
G01 X117.414000 Y24.107000 Z-0.125000
G01 X121.718000 Y28.411300 Z-0.125000
G01 X121.928000 Y28.504900 Z-0.125000
G01 X121.999000 Y28.317800 Z-0.125000
G01 X121.718000 Y27.663000 Z-0.125000
G01 X117.414000 Y23.359000 Z-0.125000
G01 X117.133000 Y22.704000 Z-0.125000
G01 X117.203000 Y22.517000 Z-0.125000
G01 X117.414000 Y22.611000 Z-0.125000
G01 X121.718000 Y26.915000 Z-0.125000
G01 X121.928000 Y27.008200 Z-0.125000
G01 X121.999000 Y26.821000 Z-0.125000
G01 X121.718000 Y26.166000 Z-0.125000
G01 X117.414000 Y21.862000 Z-0.125000
G01 X117.133000 Y21.208000 Z-0.125000
G01 X117.203000 Y21.020000 Z-0.125000
G01 X117.414000 Y21.114000 Z-0.125000
G01 X121.718000 Y25.418000 Z-0.125000
G01 X121.928000 Y25.511000 Z-0.125000
G01 X121.999000 Y25.324000 Z-0.125000
G01 X121.718000 Y24.670000 Z-0.125000
G01 X117.414000 Y20.366000 Z-0.125000
G01 X117.133000 Y19.711000 Z-0.125000
G01 X117.203000 Y19.524000 Z-0.125000
G01 X117.414000 Y19.617000 Z-0.125000
G01 X121.718000 Y23.921000 Z-0.125000
G01 X121.928000 Y24.015000 Z-0.125000
G01 X121.999000 Y23.828000 Z-0.125000
G01 X121.718000 Y23.173000 Z-0.125000
G01 X117.414000 Y18.869000 Z-0.125000
G01 X117.133000 Y18.214000 Z-0.125000
G01 X117.203000 Y18.027000 Z-0.125000
G01 X117.414000 Y18.121000 Z-0.125000
G01 X121.718000 Y22.425000 Z-0.125000
G01 X121.928000 Y22.518000 Z-0.125000
G01 X121.999000 Y22.331000 Z-0.125000
G01 X121.718000 Y21.676000 Z-0.125000
G01 X117.414000 Y17.372000 Z-0.125000
G01 X117.133000 Y16.717000 Z-0.125000
G01 X117.203000 Y16.530000 Z-0.125000
G01 X117.414000 Y16.624000 Z-0.125000
G01 X121.718000 Y20.928000 Z-0.125000
G01 X121.928000 Y21.021000 Z-0.125000
G01 X121.999000 Y20.834000 Z-0.125000
G01 X121.718000 Y20.179000 Z-0.125000
G01 X117.419000 Y15.880000 Z-0.125000
G01 X117.216000 Y15.560000 Z-0.125000
G01 X117.162000 Y15.249000 Z-0.125000
G01 X117.248000 Y15.079000 Z-0.125000
G01 X117.466000 Y15.180000 Z-0.125000
G01 X121.718000 Y19.431000 Z-0.125000
G01 X121.928000 Y19.525000 Z-0.125000
G01 X121.998000 Y19.338000 Z-0.125000
G01 X121.718000 Y18.683000 Z-0.125000
G01 X117.566000 Y14.531000 Z-0.125000
G01 X117.378000 Y14.226000 Z-0.125000
G01 X117.358000 Y13.949000 Z-0.125000
G01 X117.478000 Y13.811000 Z-0.125000
G01 X117.711000 Y13.928000 Z-0.125000
G01 X121.718000 Y17.934000 Z-0.125000
G01 X121.928000 Y18.028000 Z-0.125000
G01 X121.998000 Y17.841000 Z-0.125000
G01 X121.718000 Y17.186000 Z-0.125000
G01 X117.903000 Y13.371000 Z-0.125000
G01 X117.727000 Y13.079000 Z-0.125000
G01 X117.734000 Y12.828000 Z-0.125000
G01 X117.882000 Y12.718000 Z-0.125000
G01 X118.127000 Y12.847000 Z-0.125000
G01 X121.718000 Y16.438000 Z-0.125000
G01 X121.928000 Y16.531000 Z-0.125000
G01 X121.998000 Y16.344000 Z-0.125000
G01 X121.718000 Y15.689000 Z-0.125000
G01 X118.388000 Y12.359000 Z-0.125000
G01 X118.223000 Y12.077000 Z-0.125000
G01 X118.252000 Y11.849000 Z-0.125000
G01 X118.421000 Y11.761000 Z-0.125000
G01 X118.677000 Y11.900000 Z-0.125000
G01 X121.767000 Y14.991000 Z-0.125000
G01 X122.006000 Y15.112000 Z-0.125000
G01 X122.138000 Y14.987000 Z-0.125000
G01 X122.130000 Y14.722000 Z-0.125000
G01 X121.948000 Y14.423000 Z-0.125000
G01 X118.996000 Y11.471000 Z-0.125000
G01 X118.839000 Y11.197000 Z-0.125000
G01 X118.887000 Y10.987000 Z-0.125000
G01 X119.075000 Y10.918000 Z-0.125000
G01 X119.339000 Y11.065000 Z-0.125000
G01 X122.224000 Y13.951000 Z-0.125000
G01 X122.490000 Y14.099000 Z-0.125000
G01 X122.681000 Y14.033000 Z-0.125000
G01 X122.732000 Y13.827000 Z-0.125000
G01 X122.577000 Y13.555000 Z-0.125000
G01 X119.706000 Y10.684000 Z-0.125000
G01 X119.557000 Y10.418000 Z-0.125000
G01 X119.621000 Y10.225000 Z-0.125000
G01 X119.825000 Y10.172000 Z-0.125000
G01 X120.097000 Y10.326000 Z-0.125000
G01 X123.000000 Y13.230000 Z-0.125000
G01 X123.290000 Y13.403000 Z-0.125000
G01 X123.535000 Y13.391000 Z-0.125000
G01 X123.639000 Y13.238000 Z-0.125000
G01 X123.508000 Y12.990000 Z-0.125000
G01 X120.509000 Y9.991000 Z-0.125000
G01 X120.368000 Y9.732000 Z-0.125000
G01 X120.450000 Y9.557000 Z-0.125000
G01 X120.672000 Y9.522000 Z-0.125000
G01 X120.952000 Y9.685000 Z-0.125000
G01 X124.122000 Y12.855000 Z-0.125000
G01 X124.786000 Y13.145000 Z-0.125000
G01 X124.980000 Y13.081000 Z-0.125000
G01 X124.889000 Y12.874000 Z-0.125000
G01 X121.420000 Y9.405000 Z-0.125000
G01 X121.288000 Y9.156000 Z-0.125000
G01 X121.391000 Y9.002000 Z-0.125000
G01 X121.634000 Y8.987000 Z-0.125000
G01 X121.923000 Y9.160000 Z-0.125000
G01 X131.981000 Y19.218000 Z-0.125000
G01 X132.262000 Y19.872000 Z-0.125000
G01 X132.192000 Y20.059000 Z-0.125000
G01 X131.981000 Y19.966000 Z-0.125000
G01 X127.644000 Y15.628000 Z-0.125000
G01 X127.438000 Y15.540000 Z-0.125000
G01 X127.379000 Y15.738000 Z-0.125000
G01 X127.675000 Y16.408000 Z-0.125000
G01 X131.981000 Y20.714000 Z-0.125000
G01 X132.262000 Y21.369000 Z-0.125000
G01 X132.192000 Y21.556000 Z-0.125000
G01 X131.981000 Y21.463000 Z-0.125000
G01 X127.675000 Y17.157000 Z-0.125000
G01 X127.465000 Y17.063000 Z-0.125000
G01 X127.395000 Y17.250000 Z-0.125000
G01 X127.675000 Y17.905000 Z-0.125000
G01 X131.981000 Y22.211000 Z-0.125000
G01 X132.262000 Y22.866000 Z-0.125000
G01 X132.192000 Y23.053000 Z-0.125000
G01 X131.981000 Y22.959000 Z-0.125000
G01 X127.675000 Y18.653000 Z-0.125000
G01 X127.465000 Y18.560000 Z-0.125000
G01 X127.395000 Y18.747000 Z-0.125000
G01 X127.675000 Y19.402000 Z-0.125000
G01 X131.981000 Y23.708000 Z-0.125000
G01 X132.262000 Y24.362000 Z-0.125000
G01 X132.192000 Y24.550000 Z-0.125000
G01 X131.981000 Y24.456000 Z-0.125000
G01 X127.675000 Y20.150000 Z-0.125000
G01 X127.465000 Y20.057000 Z-0.125000
G01 X127.395000 Y20.244000 Z-0.125000
G01 X127.675000 Y20.899000 Z-0.125000
G01 X131.981000 Y25.204000 Z-0.125000
G01 X132.262000 Y25.859000 Z-0.125000
G01 X132.192000 Y26.046000 Z-0.125000
G01 X131.981000 Y25.953000 Z-0.125000
G01 X127.675000 Y21.647000 Z-0.125000
G01 X127.465000 Y21.553000 Z-0.125000
G01 X127.395000 Y21.740000 Z-0.125000
G01 X127.675000 Y22.395000 Z-0.125000
G01 X131.981000 Y26.701000 Z-0.125000
G01 X132.262000 Y27.355900 Z-0.125000
G01 X132.192000 Y27.543000 Z-0.125000
G01 X131.981000 Y27.449400 Z-0.125000
G01 X127.675000 Y23.144000 Z-0.125000
G01 X127.465000 Y23.050000 Z-0.125000
G01 X127.395000 Y23.237000 Z-0.125000
G01 X127.675000 Y23.892000 Z-0.125000
G01 X131.981000 Y28.197800 Z-0.125000
G01 X132.262000 Y28.852600 Z-0.125000
G01 X132.192000 Y29.039700 Z-0.125000
G01 X131.981000 Y28.946200 Z-0.125000
G01 X127.675000 Y24.640000 Z-0.125000
G01 X127.465000 Y24.547000 Z-0.125000
G01 X127.395000 Y24.734000 Z-0.125000
G01 X127.675000 Y25.389000 Z-0.125000
G01 X131.981000 Y29.694500 Z-0.125000
G01 X132.262000 Y30.349300 Z-0.125000
G01 X132.192000 Y30.536400 Z-0.125000
G01 X131.981000 Y30.442900 Z-0.125000
G01 X127.675000 Y26.137000 Z-0.125000
G01 X127.465000 Y26.043000 Z-0.125000
G01 X127.395000 Y26.231000 Z-0.125000
G01 X127.675000 Y26.885000 Z-0.125000
G01 X131.976000 Y31.185500 Z-0.125000
G01 X132.178000 Y31.505000 Z-0.125000
G01 X132.231000 Y31.815100 Z-0.125000
G01 X132.144000 Y31.984900 Z-0.125000
G01 X131.925000 Y31.883500 Z-0.125000
G01 X127.675000 Y27.633700 Z-0.125000
G01 X127.465000 Y27.540200 Z-0.125000
G01 X127.395000 Y27.727300 Z-0.125000
G01 X127.675000 Y28.382100 Z-0.125000
G01 X131.823000 Y32.529500 Z-0.125000
G01 X132.010000 Y32.833900 Z-0.125000
G01 X132.030000 Y33.110600 Z-0.125000
G01 X131.909000 Y33.247000 Z-0.125000
G01 X131.675000 Y33.130500 Z-0.125000
G01 X127.675000 Y29.130400 Z-0.125000
G01 X127.465000 Y29.036900 Z-0.125000
G01 X127.395000 Y29.224000 Z-0.125000
G01 X127.675000 Y29.878800 Z-0.125000
G01 X131.483000 Y33.686000 Z-0.125000
G01 X131.658000 Y33.977900 Z-0.125000
G01 X131.650000 Y34.227400 Z-0.125000
G01 X131.502000 Y34.336500 Z-0.125000
G01 X131.256000 Y34.207600 Z-0.125000
G01 X127.675000 Y30.627100 Z-0.125000
G01 X127.465000 Y30.533600 Z-0.125000
G01 X127.395000 Y30.720700 Z-0.125000
G01 X127.675000 Y31.375500 Z-0.125000
G01 X130.994000 Y34.694200 Z-0.125000
G01 X131.159000 Y34.976100 Z-0.125000
G01 X131.129000 Y35.203600 Z-0.125000
G01 X130.959000 Y35.290700 Z-0.125000
G01 X130.703000 Y35.151700 Z-0.125000
G01 X127.622000 Y32.070400 Z-0.125000
G01 X127.382000 Y31.947700 Z-0.125000
G01 X127.248000 Y32.070600 Z-0.125000
G01 X127.254000 Y32.333800 Z-0.125000
G01 X127.435000 Y32.632000 Z-0.125000
G01 X130.383000 Y35.580100 Z-0.125000
G01 X130.540000 Y35.853800 Z-0.125000
G01 X130.492000 Y36.063200 Z-0.125000
G01 X130.304000 Y36.132200 Z-0.125000
G01 X130.040000 Y35.985000 Z-0.125000
G01 X127.156000 Y33.100800 Z-0.125000
G01 X126.890000 Y32.951600 Z-0.125000
G01 X126.697000 Y33.016300 Z-0.125000
G01 X126.645000 Y33.221300 Z-0.125000
G01 X126.800000 Y33.493100 Z-0.125000
G01 X129.671000 Y36.364000 Z-0.125000
G01 X129.820000 Y36.630300 Z-0.125000
G01 X129.756000 Y36.823200 Z-0.125000
G01 X129.551000 Y36.875900 Z-0.125000
G01 X129.279000 Y36.721200 Z-0.125000
G01 X126.373000 Y33.814800 Z-0.125000
G01 X126.083000 Y33.641300 Z-0.125000
G01 X125.837000 Y33.652500 Z-0.125000
G01 X125.731000 Y33.804000 Z-0.125000
G01 X125.861000 Y34.051500 Z-0.125000
G01 X128.865000 Y37.054700 Z-0.125000
G01 X129.006000 Y37.312900 Z-0.125000
G01 X128.924000 Y37.488000 Z-0.125000
G01 X128.701000 Y37.522800 Z-0.125000
G01 X128.421000 Y37.360000 Z-0.125000
G01 X125.241000 Y34.179600 Z-0.125000
G01 X124.571000 Y33.883600 Z-0.125000
G01 X124.373000 Y33.943300 Z-0.125000
G01 X124.462000 Y34.148900 Z-0.125000
G01 X128.233000 Y37.920000 Z-0.125000
G00 Z5.000000

(End cutting path id: path7863)


(Start cutting path id: path7857)
(Change tool to Default tool)

G00 Z5.000000
G00 X137.054000 Y38.777100

G01 Z-0.125000 F100.0(Penetrate)
G01 X136.603000 Y38.326000 Z-0.125000 F400.000000
G01 X136.322000 Y37.671200 Z-0.125000
G01 X136.392000 Y37.484100 Z-0.125000
G01 X136.603000 Y37.577700 Z-0.125000
G01 X137.522000 Y38.496400 Z-0.125000
G01 X138.177000 Y38.777100 Z-0.125000
G01 X138.364000 Y38.706900 Z-0.125000
G01 X138.270000 Y38.496400 Z-0.125000
G01 X136.603000 Y36.829300 Z-0.125000
G01 X136.322000 Y36.174500 Z-0.125000
G01 X136.392000 Y35.987400 Z-0.125000
G01 X136.603000 Y36.081000 Z-0.125000
G01 X139.018000 Y38.496400 Z-0.125000
G01 X139.673000 Y38.777100 Z-0.125000
G01 X139.860000 Y38.706900 Z-0.125000
G01 X139.767000 Y38.496400 Z-0.125000
G01 X136.603000 Y35.332600 Z-0.125000
G01 X136.322000 Y34.677800 Z-0.125000
G01 X136.392000 Y34.490700 Z-0.125000
G01 X136.603000 Y34.584300 Z-0.125000
G01 X140.515000 Y38.496400 Z-0.125000
G01 X140.805000 Y38.669700 Z-0.125000
G01 X141.051000 Y38.658100 Z-0.125000
G01 X141.156000 Y38.506100 Z-0.125000
G01 X141.025000 Y38.258400 Z-0.125000
G01 X136.603000 Y33.835900 Z-0.125000
G01 X136.322000 Y33.181100 Z-0.125000
G01 X136.392000 Y32.994000 Z-0.125000
G01 X136.603000 Y33.087600 Z-0.125000
G01 X141.213000 Y37.697700 Z-0.125000
G01 X141.453000 Y37.820600 Z-0.125000
G01 X141.588000 Y37.698000 Z-0.125000
G01 X141.582000 Y37.435000 Z-0.125000
G01 X141.401000 Y37.136900 Z-0.125000
G01 X136.603000 Y32.339200 Z-0.125000
G01 X136.322000 Y31.684400 Z-0.125000
G01 X136.392000 Y31.497300 Z-0.125000
G01 X136.603000 Y31.590800 Z-0.125000
G01 X141.588000 Y36.576200 Z-0.125000
G01 X141.828000 Y36.699100 Z-0.125000
G01 X141.963000 Y36.576500 Z-0.125000
G01 X141.957000 Y36.313500 Z-0.125000
G01 X141.776000 Y36.015500 Z-0.125000
G01 X136.603000 Y30.842500 Z-0.125000
G01 X136.322000 Y30.187700 Z-0.125000
G01 X136.392000 Y30.000600 Z-0.125000
G01 X136.603000 Y30.094100 Z-0.125000
G01 X141.964000 Y35.454700 Z-0.125000
G01 X142.203000 Y35.577600 Z-0.125000
G01 X142.338000 Y35.455000 Z-0.125000
G01 X142.332000 Y35.192000 Z-0.125000
G01 X142.151000 Y34.894000 Z-0.125000
G01 X136.603000 Y29.345800 Z-0.125000
G01 X136.322000 Y28.691000 Z-0.125000
G01 X136.392000 Y28.503900 Z-0.125000
G01 X136.603000 Y28.597400 Z-0.125000
G01 X142.339000 Y34.333200 Z-0.125000
G01 X142.579000 Y34.456100 Z-0.125000
G01 X142.713000 Y34.333500 Z-0.125000
G01 X142.707000 Y34.070600 Z-0.125000
G01 X142.526000 Y33.772500 Z-0.125000
G01 X136.603000 Y27.849100 Z-0.125000
G01 X136.322000 Y27.194300 Z-0.125000
G01 X136.392000 Y27.007200 Z-0.125000
G01 X136.603000 Y27.100700 Z-0.125000
G01 X142.714000 Y33.211700 Z-0.125000
G01 X142.954000 Y33.334600 Z-0.125000
G01 X143.088000 Y33.212000 Z-0.125000
G01 X143.083000 Y32.949100 Z-0.125000
G01 X142.902000 Y32.651000 Z-0.125000
G01 X136.603000 Y26.352000 Z-0.125000
G01 X136.322000 Y25.698000 Z-0.125000
G01 X136.392000 Y25.510000 Z-0.125000
G01 X136.603000 Y25.604000 Z-0.125000
G01 X143.089000 Y32.090200 Z-0.125000
G01 X143.329000 Y32.213100 Z-0.125000
G01 X143.464000 Y32.090500 Z-0.125000
G01 X143.458000 Y31.827600 Z-0.125000
G01 X143.277000 Y31.529500 Z-0.125000
G01 X136.603000 Y24.856000 Z-0.125000
G01 X136.322000 Y24.201000 Z-0.125000
G01 X136.392000 Y24.014000 Z-0.125000
G01 X136.603000 Y24.107000 Z-0.125000
G01 X143.464000 Y30.968700 Z-0.125000
G01 X143.704000 Y31.091600 Z-0.125000
G01 X143.839000 Y30.969000 Z-0.125000
G01 X143.833000 Y30.706100 Z-0.125000
G01 X143.652000 Y30.408000 Z-0.125000
G01 X136.603000 Y23.359000 Z-0.125000
G01 X136.322000 Y22.704000 Z-0.125000
G01 X136.392000 Y22.517000 Z-0.125000
G01 X136.603000 Y22.611000 Z-0.125000
G01 X143.840000 Y29.847200 Z-0.125000
G01 X144.079000 Y29.970100 Z-0.125000
G01 X144.214000 Y29.847500 Z-0.125000
G01 X144.208000 Y29.584600 Z-0.125000
G01 X144.027000 Y29.286500 Z-0.125000
G01 X136.603000 Y21.862000 Z-0.125000
G01 X136.322000 Y21.207000 Z-0.125000
G01 X136.392000 Y21.020000 Z-0.125000
G01 X136.603000 Y21.114000 Z-0.125000
G01 X144.215000 Y28.725700 Z-0.125000
G01 X144.455000 Y28.848600 Z-0.125000
G01 X144.589000 Y28.726000 Z-0.125000
G01 X144.584000 Y28.463100 Z-0.125000
G01 X144.402000 Y28.165000 Z-0.125000
G01 X136.603000 Y20.366000 Z-0.125000
G01 X136.322000 Y19.711000 Z-0.125000
G01 X136.392000 Y19.524000 Z-0.125000
G01 X136.603000 Y19.617000 Z-0.125000
G01 X144.590000 Y27.604200 Z-0.125000
G01 X144.830000 Y27.727100 Z-0.125000
G01 X144.964000 Y27.604500 Z-0.125000
G01 X144.959000 Y27.341600 Z-0.125000
G01 X144.778000 Y27.043500 Z-0.125000
G01 X136.603000 Y18.869000 Z-0.125000
G01 X136.322000 Y18.214000 Z-0.125000
G01 X136.392000 Y18.027000 Z-0.125000
G01 X136.603000 Y18.120000 Z-0.125000
G01 X144.965000 Y26.483000 Z-0.125000
G01 X145.205000 Y26.606000 Z-0.125000
G01 X145.340000 Y26.483000 Z-0.125000
G01 X145.334000 Y26.220000 Z-0.125000
G01 X145.153000 Y25.922000 Z-0.125000
G01 X141.897000 Y22.666000 Z-0.125000
G01 X141.738000 Y22.391000 Z-0.125000
G01 X141.782000 Y22.177000 Z-0.125000
G01 X141.966000 Y22.104000 Z-0.125000
G01 X142.229000 Y22.250000 Z-0.125000
G01 X145.340000 Y25.361000 Z-0.125000
G01 X145.581000 Y25.485000 Z-0.125000
G01 X145.717000 Y25.363000 Z-0.125000
G01 X145.712000 Y25.101000 Z-0.125000
G01 X145.531000 Y24.804000 Z-0.125000
G01 X142.437000 Y21.710000 Z-0.125000
G01 X142.256000 Y21.411000 Z-0.125000
G01 X142.250000 Y21.148000 Z-0.125000
G01 X142.384000 Y21.026000 Z-0.125000
G01 X142.624000 Y21.148000 Z-0.125000
G01 X146.115000 Y24.639000 Z-0.125000
G00 Z5.000000

(End cutting path id: path7857)


(Start cutting path id: path7860)
(Change tool to Default tool)

G00 Z5.000000
G00 X151.452000 Y29.227600

G01 Z-0.125000 F100.0(Penetrate)
G01 X142.811000 Y20.587000 Z-0.125000 F400.000000
G01 X142.630000 Y20.289000 Z-0.125000
G01 X142.624000 Y20.026000 Z-0.125000
G01 X142.759000 Y19.903000 Z-0.125000
G01 X142.998000 Y20.026000 Z-0.125000
G01 X151.171000 Y28.198600 Z-0.125000
G01 X151.382000 Y28.292200 Z-0.125000
G01 X151.452000 Y28.105100 Z-0.125000
G01 X151.171000 Y27.450300 Z-0.125000
G01 X143.185000 Y19.464000 Z-0.125000
G01 X143.004000 Y19.166000 Z-0.125000
G01 X142.998000 Y18.903000 Z-0.125000
G01 X143.133000 Y18.780000 Z-0.125000
G01 X143.373000 Y18.903000 Z-0.125000
G01 X151.171000 Y26.702000 Z-0.125000
G01 X151.382000 Y26.795000 Z-0.125000
G01 X151.452000 Y26.608000 Z-0.125000
G01 X151.171000 Y25.954000 Z-0.125000
G01 X143.560000 Y18.342000 Z-0.125000
G01 X143.378000 Y18.044000 Z-0.125000
G01 X143.373000 Y17.781000 Z-0.125000
G01 X143.507000 Y17.658000 Z-0.125000
G01 X143.747000 Y17.781000 Z-0.125000
G01 X151.171000 Y25.205000 Z-0.125000
G01 X151.382000 Y25.299000 Z-0.125000
G01 X151.452000 Y25.112000 Z-0.125000
G01 X151.171000 Y24.457000 Z-0.125000
G01 X143.934000 Y17.219000 Z-0.125000
G01 X143.753000 Y16.921000 Z-0.125000
G01 X143.747000 Y16.658000 Z-0.125000
G01 X143.881000 Y16.535000 Z-0.125000
G01 X144.121000 Y16.658000 Z-0.125000
G01 X151.171000 Y23.709000 Z-0.125000
G01 X151.382000 Y23.802000 Z-0.125000
G01 X151.452000 Y23.615000 Z-0.125000
G01 X151.171000 Y22.960000 Z-0.125000
G01 X144.308000 Y16.097000 Z-0.125000
G01 X144.127000 Y15.799000 Z-0.125000
G01 X144.121000 Y15.536000 Z-0.125000
G01 X144.255000 Y15.413000 Z-0.125000
G01 X144.495000 Y15.536000 Z-0.125000
G01 X151.171000 Y22.212000 Z-0.125000
G01 X151.382000 Y22.305000 Z-0.125000
G01 X151.452000 Y22.118000 Z-0.125000
G01 X151.171000 Y21.463000 Z-0.125000
G01 X144.682000 Y14.974000 Z-0.125000
G01 X144.501000 Y14.676000 Z-0.125000
G01 X144.495000 Y14.413000 Z-0.125000
G01 X144.630000 Y14.290000 Z-0.125000
G01 X144.869000 Y14.413000 Z-0.125000
G01 X151.171000 Y20.715000 Z-0.125000
G01 X151.382000 Y20.809000 Z-0.125000
G01 X151.452000 Y20.622000 Z-0.125000
G01 X151.171000 Y19.967000 Z-0.125000
G01 X145.056000 Y13.852000 Z-0.125000
G01 X144.875000 Y13.554000 Z-0.125000
G01 X144.869000 Y13.291000 Z-0.125000
G01 X145.004000 Y13.168000 Z-0.125000
G01 X145.243000 Y13.291000 Z-0.125000
G01 X151.171000 Y19.218000 Z-0.125000
G01 X151.382000 Y19.312000 Z-0.125000
G01 X151.452000 Y19.125000 Z-0.125000
G01 X151.171000 Y18.470000 Z-0.125000
G01 X145.431000 Y12.729000 Z-0.125000
G01 X145.249000 Y12.431000 Z-0.125000
G01 X145.244000 Y12.168000 Z-0.125000
G01 X145.378000 Y12.045000 Z-0.125000
G01 X145.618000 Y12.168000 Z-0.125000
G01 X151.171000 Y17.722000 Z-0.125000
G01 X151.382000 Y17.815000 Z-0.125000
G01 X151.452000 Y17.628000 Z-0.125000
G01 X151.171000 Y16.973000 Z-0.125000
G01 X145.805000 Y11.607000 Z-0.125000
G01 X145.624000 Y11.309000 Z-0.125000
G01 X145.618000 Y11.046000 Z-0.125000
G01 X145.752000 Y10.923000 Z-0.125000
G01 X145.992000 Y11.046000 Z-0.125000
G01 X151.171000 Y16.225000 Z-0.125000
G01 X151.382000 Y16.319000 Z-0.125000
G01 X151.452000 Y16.131000 Z-0.125000
G01 X151.171000 Y15.477000 Z-0.125000
G01 X146.179000 Y10.484000 Z-0.125000
G01 X145.998000 Y10.186000 Z-0.125000
G01 X145.992000 Y9.923000 Z-0.125000
G01 X146.126000 Y9.800000 Z-0.125000
G01 X146.366000 Y9.923000 Z-0.125000
G01 X151.171000 Y14.728000 Z-0.125000
G01 X151.382000 Y14.822000 Z-0.125000
G01 X151.452000 Y14.635000 Z-0.125000
G01 X151.171000 Y13.980000 Z-0.125000
G01 X146.553000 Y9.362000 Z-0.125000
G01 X146.372000 Y9.064000 Z-0.125000
G01 X146.366000 Y8.801000 Z-0.125000
G01 X146.501000 Y8.678000 Z-0.125000
G01 X146.740000 Y8.801000 Z-0.125000
G01 X151.171000 Y13.232000 Z-0.125000
G01 X151.382000 Y13.325000 Z-0.125000
G01 X151.452000 Y13.138000 Z-0.125000
G01 X151.171000 Y12.483000 Z-0.125000
G01 X147.224000 Y8.536000 Z-0.125000
G01 X147.130000 Y8.325000 Z-0.125000
G01 X147.318000 Y8.255000 Z-0.125000
G01 X147.972000 Y8.536000 Z-0.125000
G01 X151.171000 Y11.735000 Z-0.125000
G01 X151.382000 Y11.828000 Z-0.125000
G01 X151.452000 Y11.641000 Z-0.125000
G01 X151.171000 Y10.986000 Z-0.125000
G01 X148.721000 Y8.536000 Z-0.125000
G01 X148.627000 Y8.325000 Z-0.125000
G01 X148.814000 Y8.255000 Z-0.125000
G01 X149.469000 Y8.536000 Z-0.125000
G01 X151.171000 Y10.238000 Z-0.125000
G01 X151.382000 Y10.332000 Z-0.125000
G01 X151.452000 Y10.145000 Z-0.125000
G01 X151.171000 Y9.490000 Z-0.125000
G01 X150.217000 Y8.536000 Z-0.125000
G01 X150.124000 Y8.325000 Z-0.125000
G01 X150.311000 Y8.255000 Z-0.125000
G01 X150.966000 Y8.536000 Z-0.125000
G01 X151.452000 Y9.022000 Z-0.125000
G00 Z5.000000

(End cutting path id: path7860)


(Start cutting path id: path7858)
(Change tool to Default tool)

G00 Z5.000000
G00 X146.783000 Y38.777100

G01 Z-0.125000 F100.0(Penetrate)
G01 X146.684000 Y38.678200 Z-0.125000 F400.000000
G01 X146.585000 Y38.205100 Z-0.125000
G01 X146.684000 Y37.929800 Z-0.125000
G01 X147.250000 Y38.496400 Z-0.125000
G01 X147.905000 Y38.777100 Z-0.125000
G01 X148.092000 Y38.706900 Z-0.125000
G01 X147.999000 Y38.496400 Z-0.125000
G01 X146.865000 Y37.363200 Z-0.125000
G01 X146.585000 Y36.708400 Z-0.125000
G01 X146.655000 Y36.521300 Z-0.125000
G01 X146.865000 Y36.614800 Z-0.125000
G01 X148.747000 Y38.496400 Z-0.125000
G01 X149.402000 Y38.777100 Z-0.125000
G01 X149.589000 Y38.706900 Z-0.125000
G01 X149.495000 Y38.496400 Z-0.125000
G01 X146.865000 Y35.866500 Z-0.125000
G01 X146.585000 Y35.211600 Z-0.125000
G01 X146.655000 Y35.024600 Z-0.125000
G01 X146.865000 Y35.118100 Z-0.125000
G01 X150.244000 Y38.496400 Z-0.125000
G01 X150.899000 Y38.777100 Z-0.125000
G01 X151.086000 Y38.706900 Z-0.125000
G01 X150.992000 Y38.496400 Z-0.125000
G01 X146.865000 Y34.369700 Z-0.125000
G01 X146.585000 Y33.714900 Z-0.125000
G01 X146.655000 Y33.527800 Z-0.125000
G01 X146.865000 Y33.621400 Z-0.125000
G01 X151.171000 Y37.927200 Z-0.125000
G01 X151.382000 Y38.020800 Z-0.125000
G01 X151.452000 Y37.833700 Z-0.125000
G01 X151.171000 Y37.178900 Z-0.125000
G01 X146.865000 Y32.873000 Z-0.125000
G01 X146.585000 Y32.218200 Z-0.125000
G01 X146.655000 Y32.031100 Z-0.125000
G01 X146.865000 Y32.124700 Z-0.125000
G01 X151.171000 Y36.430500 Z-0.125000
G01 X151.382000 Y36.524100 Z-0.125000
G01 X151.452000 Y36.337000 Z-0.125000
G01 X151.171000 Y35.682200 Z-0.125000
G01 X146.865000 Y31.376300 Z-0.125000
G01 X146.585000 Y30.721500 Z-0.125000
G01 X146.655000 Y30.534400 Z-0.125000
G01 X146.865000 Y30.628000 Z-0.125000
G01 X151.171000 Y34.933800 Z-0.125000
G01 X151.382000 Y35.027400 Z-0.125000
G01 X151.452000 Y34.840300 Z-0.125000
G01 X151.171000 Y34.185500 Z-0.125000
G01 X146.865000 Y29.879600 Z-0.125000
G01 X146.585000 Y29.224800 Z-0.125000
G01 X146.655000 Y29.037700 Z-0.125000
G01 X146.865000 Y29.131300 Z-0.125000
G01 X151.171000 Y33.437100 Z-0.125000
G01 X151.382000 Y33.530700 Z-0.125000
G01 X151.452000 Y33.343600 Z-0.125000
G01 X151.171000 Y32.688800 Z-0.125000
G01 X146.865000 Y28.382900 Z-0.125000
G01 X146.585000 Y27.728100 Z-0.125000
G01 X146.655000 Y27.541000 Z-0.125000
G01 X146.865000 Y27.634500 Z-0.125000
G01 X151.171000 Y31.940400 Z-0.125000
G01 X151.382000 Y32.033900 Z-0.125000
G01 X151.452000 Y31.846900 Z-0.125000
G01 X151.171000 Y31.192100 Z-0.125000
G01 X146.865000 Y26.886000 Z-0.125000
G01 X146.585000 Y26.231000 Z-0.125000
G01 X146.655000 Y26.044000 Z-0.125000
G01 X146.865000 Y26.138000 Z-0.125000
G01 X151.171000 Y30.443700 Z-0.125000
G01 X151.382000 Y30.537200 Z-0.125000
G01 X151.452000 Y30.350100 Z-0.125000
G01 X151.171000 Y29.695300 Z-0.125000
G01 X146.503000 Y25.027000 Z-0.125000
G00 Z5.000000

(End cutting path id: path7858)


(Start cutting path id: path7854)
(Change tool to Default tool)

G00 Z5.000000
G00 X166.720000 Y38.777600

G01 Z-0.125000 F100.0(Penetrate)
G01 X162.136000 Y34.193200 Z-0.125000 F400.000000
G01 X162.042000 Y33.982400 Z-0.125000
G01 X162.228000 Y33.911500 Z-0.125000
G01 X162.882000 Y34.191300 Z-0.125000
G01 X167.188000 Y38.497100 Z-0.125000
G01 X167.843000 Y38.777800 Z-0.125000
G01 X168.030000 Y38.707600 Z-0.125000
G01 X167.936000 Y38.497100 Z-0.125000
G01 X163.631000 Y34.191300 Z-0.125000
G01 X163.537000 Y33.980800 Z-0.125000
G01 X163.724000 Y33.910700 Z-0.125000
G01 X164.379000 Y34.191300 Z-0.125000
G01 X168.685000 Y38.497100 Z-0.125000
G01 X169.340000 Y38.777800 Z-0.125000
G01 X169.527000 Y38.707600 Z-0.125000
G01 X169.433000 Y38.497100 Z-0.125000
G01 X165.127000 Y34.191300 Z-0.125000
G01 X165.034000 Y33.980800 Z-0.125000
G01 X165.221000 Y33.910700 Z-0.125000
G01 X165.876000 Y34.191300 Z-0.125000
G01 X170.182000 Y38.497100 Z-0.125000
G01 X170.420000 Y38.618500 Z-0.125000
G01 X170.551000 Y38.492600 Z-0.125000
G01 X170.542000 Y38.226400 Z-0.125000
G01 X170.360000 Y37.926800 Z-0.125000
G01 X166.624000 Y34.191300 Z-0.125000
G01 X166.531000 Y33.980800 Z-0.125000
G01 X166.718000 Y33.910700 Z-0.125000
G01 X167.372000 Y34.191300 Z-0.125000
G01 X170.360000 Y37.178400 Z-0.125000
G01 X170.570000 Y37.271900 Z-0.125000
G01 X170.640000 Y37.084900 Z-0.125000
G01 X170.360000 Y36.430000 Z-0.125000
G01 X168.121000 Y34.191300 Z-0.125000
G01 X168.027000 Y33.980800 Z-0.125000
G01 X168.214000 Y33.910700 Z-0.125000
G01 X168.869000 Y34.191300 Z-0.125000
G01 X170.360000 Y35.681700 Z-0.125000
G01 X170.570000 Y35.775200 Z-0.125000
G01 X170.640000 Y35.588200 Z-0.125000
G01 X170.360000 Y34.933300 Z-0.125000
G01 X169.614000 Y34.188100 Z-0.125000
G01 X169.523000 Y33.980000 Z-0.125000
G01 X169.711000 Y33.910700 Z-0.125000
G01 X170.363000 Y34.188100 Z-0.125000
G01 X170.640000 Y34.465600 Z-0.125000
G00 Z5.000000

(End cutting path id: path7854)


(Start cutting path id: path7856)
(Change tool to Default tool)

G00 Z5.000000
G00 X170.773000 Y33.778200

G01 Z-0.125000 F100.0(Penetrate)
G01 X161.794000 Y33.778200 Z-0.125000 F400.000000
G01 X161.232000 Y33.698000 Z-0.125000
G01 X160.831000 Y33.457500 Z-0.125000
G01 X160.591000 Y33.056800 Z-0.125000
G01 X160.511000 Y32.496000 Z-0.125000
G01 X160.511000 Y27.365200 Z-0.125000
G01 X160.591000 Y26.804000 Z-0.125000
G01 X160.831000 Y26.403000 Z-0.125000
G01 X161.232000 Y26.162000 Z-0.125000
G01 X161.794000 Y26.082000 Z-0.125000
G01 X168.208000 Y26.082000 Z-0.125000
G01 X168.208000 Y20.951000 Z-0.125000
G01 X161.794000 Y20.951000 Z-0.125000
G01 X161.232000 Y20.871000 Z-0.125000
G01 X160.831000 Y20.631000 Z-0.125000
G01 X160.591000 Y20.230000 Z-0.125000
G01 X160.511000 Y19.669000 Z-0.125000
G01 X160.511000 Y14.537000 Z-0.125000
G01 X160.591000 Y13.976000 Z-0.125000
G01 X160.831000 Y13.575000 Z-0.125000
G01 X161.232000 Y13.335000 Z-0.125000
G01 X161.794000 Y13.255000 Z-0.125000
G01 X170.773000 Y13.255000 Z-0.125000
G01 X170.773000 Y8.124000 Z-0.125000
G01 X157.946000 Y8.124000 Z-0.125000
G01 X156.951000 Y8.310000 Z-0.125000
G01 X156.124000 Y8.868000 Z-0.125000
G01 X155.566000 Y9.695000 Z-0.125000
G01 X155.380000 Y10.688000 Z-0.125000
G01 X155.380000 Y36.344100 Z-0.125000
G01 X155.566000 Y37.338100 Z-0.125000
G01 X156.124000 Y38.165700 Z-0.125000
G01 X156.951000 Y38.723600 Z-0.125000
G01 X157.946000 Y38.909900 Z-0.125000
G01 X170.773000 Y38.909900 Z-0.125000
G01 X170.773000 Y33.778200 Z-0.125000
G00 Z5.000000

(End cutting path id: path7856)


(Start cutting path id: path7945)
(Change tool to Default tool)

G00 Z5.000000
G00 X170.773000 Y33.778200

G01 Z-0.125000 F100.0(Penetrate)
G01 X161.794000 Y33.778200 Z-0.125000 F400.000000
G01 X161.232000 Y33.698100 Z-0.125000
G01 X160.831000 Y33.457600 Z-0.125000
G01 X160.591000 Y33.056900 Z-0.125000
G01 X160.511000 Y32.496000 Z-0.125000
G01 X160.511000 Y27.365300 Z-0.125000
G01 X160.591000 Y26.804000 Z-0.125000
G01 X160.831000 Y26.403000 Z-0.125000
G01 X161.232000 Y26.162000 Z-0.125000
G01 X161.794000 Y26.082000 Z-0.125000
G01 X168.208000 Y26.082000 Z-0.125000
G01 X168.208000 Y20.951000 Z-0.125000
G01 X161.794000 Y20.951000 Z-0.125000
G01 X161.232000 Y20.871000 Z-0.125000
G01 X160.831000 Y20.631000 Z-0.125000
G01 X160.591000 Y20.230000 Z-0.125000
G01 X160.511000 Y19.669000 Z-0.125000
G01 X160.511000 Y14.537000 Z-0.125000
G01 X160.591000 Y13.976000 Z-0.125000
G01 X160.831000 Y13.575000 Z-0.125000
G01 X161.232000 Y13.335000 Z-0.125000
G01 X161.794000 Y13.255000 Z-0.125000
G01 X170.773000 Y13.255000 Z-0.125000
G01 X170.773000 Y8.124000 Z-0.125000
G01 X157.946000 Y8.124000 Z-0.125000
G01 X156.952000 Y8.310000 Z-0.125000
G01 X156.124000 Y8.868000 Z-0.125000
G01 X155.566000 Y9.695000 Z-0.125000
G01 X155.380000 Y10.688000 Z-0.125000
G01 X155.380000 Y36.344100 Z-0.125000
G01 X155.566000 Y37.338100 Z-0.125000
G01 X156.124000 Y38.165700 Z-0.125000
G01 X156.951000 Y38.723600 Z-0.125000
G01 X157.946000 Y38.909900 Z-0.125000
G01 X170.773000 Y38.909900 Z-0.125000
G01 X170.773000 Y33.778200 Z-0.125000
G00 Z5.000000

(End cutting path id: path7945)


(Start cutting path id: path7892)
(Change tool to Default tool)

G00 Z5.000000
G00 X167.383000 Y43.857600

G01 Z-0.125000 F100.0(Penetrate)
G01 X162.252000 Y43.857600 Z-0.125000 F400.000000
G01 X162.252000 Y55.402300 Z-0.125000
G01 X162.172000 Y55.963300 Z-0.125000
G01 X161.931000 Y56.364300 Z-0.125000
G01 X161.530000 Y56.605100 Z-0.125000
G01 X160.969000 Y56.685400 Z-0.125000
G01 X158.404000 Y56.685400 Z-0.125000
G01 X157.842000 Y56.605100 Z-0.125000
G01 X157.441000 Y56.364300 Z-0.125000
G01 X157.201000 Y55.963300 Z-0.125000
G01 X157.121000 Y55.402300 Z-0.125000
G01 X157.121000 Y43.857600 Z-0.125000
G01 X151.990000 Y43.857600 Z-0.125000
G01 X151.990000 Y66.946900 Z-0.125000
G01 X152.131000 Y68.479900 Z-0.125000
G01 X152.555000 Y69.897000 Z-0.125000
G01 X153.260000 Y71.198800 Z-0.125000
G01 X154.248000 Y72.385600 Z-0.125000
G01 X155.434000 Y73.373100 Z-0.125000
G01 X156.737000 Y74.078700 Z-0.125000
G01 X158.154000 Y74.502300 Z-0.125000
G01 X159.686000 Y74.643500 Z-0.125000
G01 X161.219000 Y74.502300 Z-0.125000
G01 X162.637000 Y74.078700 Z-0.125000
G01 X163.939000 Y73.373100 Z-0.125000
G01 X165.125000 Y72.385600 Z-0.125000
G01 X166.113000 Y71.198700 Z-0.125000
G01 X166.818000 Y69.896900 Z-0.125000
G01 X167.241000 Y68.479700 Z-0.125000
G01 X167.382000 Y66.946900 Z-0.125000
G01 X167.382000 Y43.857600 Z-0.125000
G01 X167.383000 Y43.857600 Z-0.125000
G00 Z5.000000

(End cutting path id: path7892)


(Start cutting path id: path7956)
(Change tool to Default tool)

G00 Z5.000000
G00 X167.383000 Y43.857600

G01 Z-0.125000 F100.0(Penetrate)
G01 X162.252000 Y43.857600 Z-0.125000 F400.000000
G01 X162.252000 Y55.402300 Z-0.125000
G01 X162.172000 Y55.963300 Z-0.125000
G01 X161.931000 Y56.364300 Z-0.125000
G01 X161.530000 Y56.605100 Z-0.125000
G01 X160.969000 Y56.685400 Z-0.125000
G01 X158.404000 Y56.685400 Z-0.125000
G01 X157.843000 Y56.605100 Z-0.125000
G01 X157.442000 Y56.364300 Z-0.125000
G01 X157.201000 Y55.963300 Z-0.125000
G01 X157.121000 Y55.402300 Z-0.125000
G01 X157.121000 Y43.857600 Z-0.125000
G01 X151.991000 Y43.857600 Z-0.125000
G01 X151.991000 Y66.946900 Z-0.125000
G01 X152.132000 Y68.479900 Z-0.125000
G01 X152.555000 Y69.897000 Z-0.125000
G01 X153.261000 Y71.198800 Z-0.125000
G01 X154.248000 Y72.385600 Z-0.125000
G01 X155.435000 Y73.373100 Z-0.125000
G01 X156.737000 Y74.078700 Z-0.125000
G01 X158.154000 Y74.502300 Z-0.125000
G01 X159.687000 Y74.643500 Z-0.125000
G01 X161.220000 Y74.502300 Z-0.125000
G01 X162.637000 Y74.078700 Z-0.125000
G01 X163.939000 Y73.373100 Z-0.125000
G01 X165.125000 Y72.385600 Z-0.125000
G01 X166.113000 Y71.198800 Z-0.125000
G01 X166.819000 Y69.896900 Z-0.125000
G01 X167.242000 Y68.479700 Z-0.125000
G01 X167.383000 Y66.946900 Z-0.125000
G01 X167.383000 Y43.857600 Z-0.125000
G01 X167.383000 Y43.857600 Z-0.125000
G00 Z5.000000

(End cutting path id: path7956)


(Start cutting path id: path7891)
(Change tool to Default tool)

G00 Z5.000000
G00 X158.334000 Y56.791800

G01 Z-0.125000 F100.0(Penetrate)
G01 X166.970000 Y65.427700 Z-0.125000 F400.000000
G01 X167.180000 Y65.521200 Z-0.125000
G01 X167.250000 Y65.334200 Z-0.125000
G01 X166.970000 Y64.679300 Z-0.125000
G01 X159.389000 Y57.098300 Z-0.125000
G01 X159.295000 Y56.887900 Z-0.125000
G01 X159.482000 Y56.817700 Z-0.125000
G01 X160.137000 Y57.098300 Z-0.125000
G01 X166.970000 Y63.931000 Z-0.125000
G01 X167.180000 Y64.024500 Z-0.125000
G01 X167.250000 Y63.837500 Z-0.125000
G01 X166.970000 Y63.182600 Z-0.125000
G01 X160.885000 Y57.098300 Z-0.125000
G01 X160.788000 Y56.883900 Z-0.125000
G01 X160.966000 Y56.805000 Z-0.125000
G01 X161.285000 Y56.866400 Z-0.125000
G01 X161.608000 Y57.073000 Z-0.125000
G01 X166.970000 Y62.434300 Z-0.125000
G01 X167.180000 Y62.527800 Z-0.125000
G01 X167.250000 Y62.340800 Z-0.125000
G01 X166.970000 Y61.685900 Z-0.125000
G01 X162.149000 Y56.865200 Z-0.125000
G01 X161.993000 Y56.592700 Z-0.125000
G01 X162.044000 Y56.385900 Z-0.125000
G01 X162.235000 Y56.319500 Z-0.125000
G01 X162.500000 Y56.467800 Z-0.125000
G01 X166.970000 Y60.937600 Z-0.125000
G01 X167.180000 Y61.031100 Z-0.125000
G01 X167.250000 Y60.844100 Z-0.125000
G01 X166.970000 Y60.189200 Z-0.125000
G01 X162.659000 Y55.878600 Z-0.125000
G01 X162.382000 Y55.226900 Z-0.125000
G01 X162.454000 Y55.042000 Z-0.125000
G01 X162.665000 Y55.136500 Z-0.125000
G01 X166.969000 Y59.440900 Z-0.125000
G01 X167.180000 Y59.534400 Z-0.125000
G01 X167.250000 Y59.347300 Z-0.125000
G01 X166.969000 Y58.692500 Z-0.125000
G01 X162.665000 Y54.388100 Z-0.125000
G01 X162.384000 Y53.733300 Z-0.125000
G01 X162.455000 Y53.546200 Z-0.125000
G01 X162.665000 Y53.639800 Z-0.125000
G01 X166.969000 Y57.944200 Z-0.125000
G01 X167.180000 Y58.037700 Z-0.125000
G01 X167.250000 Y57.850600 Z-0.125000
G01 X166.969000 Y57.195800 Z-0.125000
G01 X162.665000 Y52.891400 Z-0.125000
G01 X162.384000 Y52.236600 Z-0.125000
G01 X162.455000 Y52.049500 Z-0.125000
G01 X162.665000 Y52.143100 Z-0.125000
G01 X166.969000 Y56.447500 Z-0.125000
G01 X167.180000 Y56.541000 Z-0.125000
G01 X167.250000 Y56.353900 Z-0.125000
G01 X166.969000 Y55.699100 Z-0.125000
G01 X162.665000 Y51.394700 Z-0.125000
G01 X162.384000 Y50.739900 Z-0.125000
G01 X162.455000 Y50.552800 Z-0.125000
G01 X162.665000 Y50.646400 Z-0.125000
G01 X166.969000 Y54.950800 Z-0.125000
G01 X167.180000 Y55.044300 Z-0.125000
G01 X167.250000 Y54.857200 Z-0.125000
G01 X166.969000 Y54.202400 Z-0.125000
G01 X162.665000 Y49.898000 Z-0.125000
G01 X162.384000 Y49.243200 Z-0.125000
G01 X162.455000 Y49.056100 Z-0.125000
G01 X162.665000 Y49.149600 Z-0.125000
G01 X166.969000 Y53.454000 Z-0.125000
G01 X167.180000 Y53.547600 Z-0.125000
G01 X167.250000 Y53.360500 Z-0.125000
G01 X166.969000 Y52.705700 Z-0.125000
G01 X162.665000 Y48.401300 Z-0.125000
G01 X162.384000 Y47.746500 Z-0.125000
G01 X162.455000 Y47.559400 Z-0.125000
G01 X162.665000 Y47.652900 Z-0.125000
G01 X166.969000 Y51.957300 Z-0.125000
G01 X167.180000 Y52.050900 Z-0.125000
G01 X167.250000 Y51.863800 Z-0.125000
G01 X166.969000 Y51.209000 Z-0.125000
G01 X162.665000 Y46.904600 Z-0.125000
G01 X162.384000 Y46.249800 Z-0.125000
G01 X162.455000 Y46.062700 Z-0.125000
G01 X162.665000 Y46.156200 Z-0.125000
G01 X166.969000 Y50.460600 Z-0.125000
G01 X167.180000 Y50.554200 Z-0.125000
G01 X167.250000 Y50.367100 Z-0.125000
G01 X166.969000 Y49.712300 Z-0.125000
G01 X162.665000 Y45.407900 Z-0.125000
G01 X162.384000 Y44.753100 Z-0.125000
G01 X162.455000 Y44.566000 Z-0.125000
G01 X162.665000 Y44.659500 Z-0.125000
G01 X166.969000 Y48.963900 Z-0.125000
G01 X167.180000 Y49.057500 Z-0.125000
G01 X167.250000 Y48.870400 Z-0.125000
G01 X166.969000 Y48.215600 Z-0.125000
G01 X163.024000 Y44.270500 Z-0.125000
G01 X162.931000 Y44.060100 Z-0.125000
G01 X163.118000 Y43.989900 Z-0.125000
G01 X163.773000 Y44.270500 Z-0.125000
G01 X166.969000 Y47.467200 Z-0.125000
G01 X167.180000 Y47.560800 Z-0.125000
G01 X167.250000 Y47.373700 Z-0.125000
G01 X166.969000 Y46.718900 Z-0.125000
G01 X164.521000 Y44.270500 Z-0.125000
G01 X164.428000 Y44.060100 Z-0.125000
G01 X164.615000 Y43.989900 Z-0.125000
G01 X165.270000 Y44.270500 Z-0.125000
G01 X166.969000 Y45.970500 Z-0.125000
G01 X167.180000 Y46.064000 Z-0.125000
G01 X167.250000 Y45.877000 Z-0.125000
G01 X166.969000 Y45.222100 Z-0.125000
G01 X166.018000 Y44.270500 Z-0.125000
G01 X165.924000 Y44.060100 Z-0.125000
G01 X166.111000 Y43.989900 Z-0.125000
G01 X166.766000 Y44.270500 Z-0.125000
G01 X167.250000 Y44.754400 Z-0.125000
G00 Z5.000000

(End cutting path id: path7891)


(Start cutting path id: path7893)
(Change tool to Default tool)

G00 Z5.000000
G00 X162.253000 Y63.098400

G01 Z-0.125000 F100.0(Penetrate)
G01 X162.253000 Y66.946900 Z-0.125000 F400.000000
G01 X162.067000 Y67.940400 Z-0.125000
G01 X161.508000 Y68.768000 Z-0.125000
G01 X160.681000 Y69.326300 Z-0.125000
G01 X159.687000 Y69.512300 Z-0.125000
G01 X158.693000 Y69.326300 Z-0.125000
G01 X157.865000 Y68.768000 Z-0.125000
G01 X157.307000 Y67.940800 Z-0.125000
G01 X157.121000 Y66.946900 Z-0.125000
G01 X157.121000 Y63.098400 Z-0.125000
G01 X157.201000 Y62.537300 Z-0.125000
G01 X157.442000 Y62.136600 Z-0.125000
G01 X157.843000 Y61.896300 Z-0.125000
G01 X158.404000 Y61.816200 Z-0.125000
G01 X160.969000 Y61.816200 Z-0.125000
G01 X161.530000 Y61.896300 Z-0.125000
G01 X161.931000 Y62.136600 Z-0.125000
G01 X162.172000 Y62.537300 Z-0.125000
G01 X162.253000 Y63.098400 Z-0.125000
G01 X162.253000 Y63.098400 Z-0.125000
G00 Z5.000000

(End cutting path id: path7893)


(Start cutting path id: path7957)
(Change tool to Default tool)

G00 Z5.000000
G00 X162.253000 Y63.098400

G01 Z-0.125000 F100.0(Penetrate)
G01 X162.253000 Y66.946900 Z-0.125000 F400.000000
G01 X162.067000 Y67.940500 Z-0.125000
G01 X161.509000 Y68.768000 Z-0.125000
G01 X160.681000 Y69.326300 Z-0.125000
G01 X159.687000 Y69.512300 Z-0.125000
G01 X158.693000 Y69.326300 Z-0.125000
G01 X157.866000 Y68.768000 Z-0.125000
G01 X157.308000 Y67.940800 Z-0.125000
G01 X157.121000 Y66.946900 Z-0.125000
G01 X157.121000 Y63.098400 Z-0.125000
G01 X157.201000 Y62.537300 Z-0.125000
G01 X157.442000 Y62.136600 Z-0.125000
G01 X157.843000 Y61.896300 Z-0.125000
G01 X158.404000 Y61.816200 Z-0.125000
G01 X160.969000 Y61.816200 Z-0.125000
G01 X161.531000 Y61.896300 Z-0.125000
G01 X161.932000 Y62.136600 Z-0.125000
G01 X162.173000 Y62.537300 Z-0.125000
G01 X162.253000 Y63.098400 Z-0.125000
G01 X162.253000 Y63.098400 Z-0.125000
G00 Z5.000000

(End cutting path id: path7957)


(Start cutting path id: path7890)
(Change tool to Default tool)

G00 Z5.000000
G00 X167.250000 Y66.456700

G01 Z-0.125000 F100.0(Penetrate)
G01 X152.403000 Y51.609700 Z-0.125000 F400.000000
G01 X152.123000 Y50.954900 Z-0.125000
G01 X152.193000 Y50.767800 Z-0.125000
G01 X152.403000 Y50.861300 Z-0.125000
G01 X156.734000 Y55.191900 Z-0.125000
G01 X156.940000 Y55.281400 Z-0.125000
G01 X157.002000 Y55.085500 Z-0.125000
G01 X156.708000 Y54.417900 Z-0.125000
G01 X152.403000 Y50.113000 Z-0.125000
G01 X152.123000 Y49.458200 Z-0.125000
G01 X152.193000 Y49.271100 Z-0.125000
G01 X152.403000 Y49.364600 Z-0.125000
G01 X156.708000 Y53.669500 Z-0.125000
G01 X156.919000 Y53.763100 Z-0.125000
G01 X156.989000 Y53.576000 Z-0.125000
G01 X156.708000 Y52.921200 Z-0.125000
G01 X152.403000 Y48.616300 Z-0.125000
G01 X152.123000 Y47.961500 Z-0.125000
G01 X152.193000 Y47.774400 Z-0.125000
G01 X152.403000 Y47.867900 Z-0.125000
G01 X156.708000 Y52.172800 Z-0.125000
G01 X156.919000 Y52.266400 Z-0.125000
G01 X156.989000 Y52.079300 Z-0.125000
G01 X156.708000 Y51.424500 Z-0.125000
G01 X152.403000 Y47.119600 Z-0.125000
G01 X152.123000 Y46.464800 Z-0.125000
G01 X152.193000 Y46.277700 Z-0.125000
G01 X152.403000 Y46.371200 Z-0.125000
G01 X156.708000 Y50.676100 Z-0.125000
G01 X156.919000 Y50.769600 Z-0.125000
G01 X156.989000 Y50.582600 Z-0.125000
G01 X156.708000 Y49.927700 Z-0.125000
G01 X152.403000 Y45.622900 Z-0.125000
G01 X152.123000 Y44.968100 Z-0.125000
G01 X152.193000 Y44.781000 Z-0.125000
G01 X152.403000 Y44.874500 Z-0.125000
G01 X156.708000 Y49.179400 Z-0.125000
G01 X156.919000 Y49.272900 Z-0.125000
G01 X156.989000 Y49.085800 Z-0.125000
G01 X156.708000 Y48.431000 Z-0.125000
G01 X152.548000 Y44.270500 Z-0.125000
G01 X152.454000 Y44.060100 Z-0.125000
G01 X152.641000 Y43.989900 Z-0.125000
G01 X153.296000 Y44.270500 Z-0.125000
G01 X156.708000 Y47.682700 Z-0.125000
G01 X156.919000 Y47.776200 Z-0.125000
G01 X156.989000 Y47.589100 Z-0.125000
G01 X156.708000 Y46.934300 Z-0.125000
G01 X154.044000 Y44.270500 Z-0.125000
G01 X153.951000 Y44.060100 Z-0.125000
G01 X154.138000 Y43.989900 Z-0.125000
G01 X154.793000 Y44.270500 Z-0.125000
G01 X156.708000 Y46.186000 Z-0.125000
G01 X156.919000 Y46.279500 Z-0.125000
G01 X156.989000 Y46.092400 Z-0.125000
G01 X156.708000 Y45.437600 Z-0.125000
G01 X155.541000 Y44.270500 Z-0.125000
G01 X155.448000 Y44.060100 Z-0.125000
G01 X155.635000 Y43.989900 Z-0.125000
G01 X156.289000 Y44.270500 Z-0.125000
G01 X156.873000 Y44.854100 Z-0.125000
G01 X156.960000 Y44.824000 Z-0.125000
G01 X156.989000 Y44.595700 Z-0.125000
G01 X156.873000 Y44.105700 Z-0.125000
G01 X156.757000 Y43.989900 Z-0.125000
G00 Z5.000000

(End cutting path id: path7890)


(Start cutting path id: path7903)
(Change tool to Default tool)

G00 Z5.000000
G00 X132.394000 Y51.554200

G01 Z-0.125000 F100.0(Penetrate)
G01 X132.253000 Y50.021000 Z-0.125000 F400.000000
G01 X131.830000 Y48.603400 Z-0.125000
G01 X131.124000 Y47.301300 Z-0.125000
G01 X130.136000 Y46.114600 Z-0.125000
G01 X128.950000 Y45.127300 Z-0.125000
G01 X127.647000 Y44.422200 Z-0.125000
G01 X126.230000 Y43.999100 Z-0.125000
G01 X124.697000 Y43.858100 Z-0.125000
G01 X123.165000 Y43.999100 Z-0.125000
G01 X121.747000 Y44.422200 Z-0.125000
G01 X120.445000 Y45.127300 Z-0.125000
G01 X119.259000 Y46.114600 Z-0.125000
G01 X118.271000 Y47.301400 Z-0.125000
G01 X117.566000 Y48.603600 Z-0.125000
G01 X117.142000 Y50.021200 Z-0.125000
G01 X117.001000 Y51.554200 Z-0.125000
G01 X122.132000 Y51.554200 Z-0.125000
G01 X122.318000 Y50.560200 Z-0.125000
G01 X122.876000 Y49.732600 Z-0.125000
G01 X123.704000 Y49.174700 Z-0.125000
G01 X124.698000 Y48.988400 Z-0.125000
G01 X125.560000 Y49.100500 Z-0.125000
G01 X126.250000 Y49.436900 Z-0.125000
G01 X126.766000 Y49.998100 Z-0.125000
G01 X127.109000 Y50.784300 Z-0.125000
G01 X127.263000 Y54.119100 Z-0.125000
G01 X127.077000 Y55.113100 Z-0.125000
G01 X126.519000 Y55.941200 Z-0.125000
G01 X125.692000 Y56.499100 Z-0.125000
G01 X124.697000 Y56.685400 Z-0.125000
G01 X123.165000 Y56.826400 Z-0.125000
G01 X121.747000 Y57.249500 Z-0.125000
G01 X120.445000 Y57.954600 Z-0.125000
G01 X119.259000 Y58.941900 Z-0.125000
G01 X118.271000 Y60.128300 Z-0.125000
G01 X117.566000 Y61.430600 Z-0.125000
G01 X117.142000 Y62.848400 Z-0.125000
G01 X117.001000 Y64.381500 Z-0.125000
G01 X117.001000 Y66.946400 Z-0.125000
G01 X117.142000 Y68.479400 Z-0.125000
G01 X117.566000 Y69.896600 Z-0.125000
G01 X118.271000 Y71.198300 Z-0.125000
G01 X119.259000 Y72.385100 Z-0.125000
G01 X120.445000 Y73.372600 Z-0.125000
G01 X121.747000 Y74.078200 Z-0.125000
G01 X123.165000 Y74.501800 Z-0.125000
G01 X124.697000 Y74.643000 Z-0.125000
G01 X126.230000 Y74.501800 Z-0.125000
G01 X127.648000 Y74.078200 Z-0.125000
G01 X128.950000 Y73.372600 Z-0.125000
G01 X130.136000 Y72.385100 Z-0.125000
G01 X131.124000 Y71.198300 Z-0.125000
G01 X131.830000 Y69.896400 Z-0.125000
G01 X132.253000 Y68.479200 Z-0.125000
G01 X132.394000 Y66.946400 Z-0.125000
G01 X127.263000 Y66.946400 Z-0.125000
G01 X127.077000 Y67.940000 Z-0.125000
G01 X126.518000 Y68.767600 Z-0.125000
G01 X125.691000 Y69.325800 Z-0.125000
G01 X124.697000 Y69.511800 Z-0.125000
G01 X123.834000 Y69.399700 Z-0.125000
G01 X123.145000 Y69.063300 Z-0.125000
G01 X122.629000 Y68.502300 Z-0.125000
G01 X122.285000 Y67.716300 Z-0.125000
G01 X122.132000 Y64.381500 Z-0.125000
G01 X122.318000 Y63.387100 Z-0.125000
G01 X122.876000 Y62.559000 Z-0.125000
G01 X123.703000 Y62.001600 Z-0.125000
G01 X124.697000 Y61.815700 Z-0.125000
G01 X126.230000 Y61.674500 Z-0.125000
G01 X127.648000 Y61.251200 Z-0.125000
G01 X128.950000 Y60.545700 Z-0.125000
G01 X130.136000 Y59.558300 Z-0.125000
G01 X131.124000 Y58.371500 Z-0.125000
G01 X131.830000 Y57.069200 Z-0.125000
G01 X132.253000 Y55.651600 Z-0.125000
G01 X132.394000 Y54.118600 Z-0.125000
G01 X132.394000 Y51.554200 Z-0.125000
G00 Z5.000000

(End cutting path id: path7903)


(Start cutting path id: path7959)
(Change tool to Default tool)

G00 Z5.000000
G00 X132.394000 Y51.554200

G01 Z-0.125000 F100.0(Penetrate)
G01 X132.253000 Y50.021000 Z-0.125000 F400.000000
G01 X131.830000 Y48.603400 Z-0.125000
G01 X131.124000 Y47.301300 Z-0.125000
G01 X130.136000 Y46.114600 Z-0.125000
G01 X128.949000 Y45.127300 Z-0.125000
G01 X127.647000 Y44.422200 Z-0.125000
G01 X126.230000 Y43.999100 Z-0.125000
G01 X124.697000 Y43.858100 Z-0.125000
G01 X123.165000 Y43.999100 Z-0.125000
G01 X121.747000 Y44.422200 Z-0.125000
G01 X120.445000 Y45.127300 Z-0.125000
G01 X119.259000 Y46.114600 Z-0.125000
G01 X118.271000 Y47.301400 Z-0.125000
G01 X117.566000 Y48.603600 Z-0.125000
G01 X117.142000 Y50.021200 Z-0.125000
G01 X117.001000 Y51.554200 Z-0.125000
G01 X122.132000 Y51.554200 Z-0.125000
G01 X122.318000 Y50.560300 Z-0.125000
G01 X122.876000 Y49.732600 Z-0.125000
G01 X123.703000 Y49.174700 Z-0.125000
G01 X124.698000 Y48.988400 Z-0.125000
G01 X125.560000 Y49.100500 Z-0.125000
G01 X126.250000 Y49.436900 Z-0.125000
G01 X126.766000 Y49.998100 Z-0.125000
G01 X127.109000 Y50.784300 Z-0.125000
G01 X127.263000 Y54.119100 Z-0.125000
G01 X127.077000 Y55.113100 Z-0.125000
G01 X126.519000 Y55.941200 Z-0.125000
G01 X125.692000 Y56.499100 Z-0.125000
G01 X124.697000 Y56.685400 Z-0.125000
G01 X123.165000 Y56.826400 Z-0.125000
G01 X121.747000 Y57.249500 Z-0.125000
G01 X120.445000 Y57.954600 Z-0.125000
G01 X119.259000 Y58.941900 Z-0.125000
G01 X118.271000 Y60.128300 Z-0.125000
G01 X117.566000 Y61.430600 Z-0.125000
G01 X117.142000 Y62.848400 Z-0.125000
G01 X117.001000 Y64.381500 Z-0.125000
G01 X117.001000 Y66.946400 Z-0.125000
G01 X117.142000 Y68.479400 Z-0.125000
G01 X117.566000 Y69.896600 Z-0.125000
G01 X118.271000 Y71.198300 Z-0.125000
G01 X119.259000 Y72.385100 Z-0.125000
G01 X120.445000 Y73.372600 Z-0.125000
G01 X121.747000 Y74.078200 Z-0.125000
G01 X123.165000 Y74.501800 Z-0.125000
G01 X124.697000 Y74.643000 Z-0.125000
G01 X126.230000 Y74.501800 Z-0.125000
G01 X127.648000 Y74.078200 Z-0.125000
G01 X128.950000 Y73.372600 Z-0.125000
G01 X130.136000 Y72.385100 Z-0.125000
G01 X131.124000 Y71.198300 Z-0.125000
G01 X131.830000 Y69.896400 Z-0.125000
G01 X132.253000 Y68.479200 Z-0.125000
G01 X132.394000 Y66.946400 Z-0.125000
G01 X127.263000 Y66.946400 Z-0.125000
G01 X127.077000 Y67.940000 Z-0.125000
G01 X126.518000 Y68.767600 Z-0.125000
G01 X125.691000 Y69.325800 Z-0.125000
G01 X124.697000 Y69.511800 Z-0.125000
G01 X123.834000 Y69.399700 Z-0.125000
G01 X123.145000 Y69.063300 Z-0.125000
G01 X122.629000 Y68.502300 Z-0.125000
G01 X122.285000 Y67.716300 Z-0.125000
G01 X122.131000 Y64.381500 Z-0.125000
G01 X122.318000 Y63.387100 Z-0.125000
G01 X122.876000 Y62.559000 Z-0.125000
G01 X123.703000 Y62.001600 Z-0.125000
G01 X124.697000 Y61.815700 Z-0.125000
G01 X126.230000 Y61.674500 Z-0.125000
G01 X127.648000 Y61.251200 Z-0.125000
G01 X128.950000 Y60.545700 Z-0.125000
G01 X130.136000 Y59.558300 Z-0.125000
G01 X131.124000 Y58.371500 Z-0.125000
G01 X131.830000 Y57.069200 Z-0.125000
G01 X132.253000 Y55.651600 Z-0.125000
G01 X132.394000 Y54.118600 Z-0.125000
G01 X132.394000 Y51.554200 Z-0.125000
G00 Z5.000000

(End cutting path id: path7959)


(Start cutting path id: path7901)
(Change tool to Default tool)

G00 Z5.000000
G00 X132.217000 Y55.186900

G01 Z-0.125000 F100.0(Penetrate)
G01 X121.924000 Y44.893700 Z-0.125000 F400.000000
G01 X121.797000 Y44.649700 Z-0.125000
G01 X121.910000 Y44.505700 Z-0.125000
G01 X122.164000 Y44.502100 Z-0.125000
G01 X122.457000 Y44.679000 Z-0.125000
G01 X131.974000 Y54.196000 Z-0.125000
G01 X132.186000 Y54.290600 Z-0.125000
G01 X132.258000 Y54.105800 Z-0.125000
G01 X131.981000 Y53.454300 Z-0.125000
G01 X123.035000 Y44.508200 Z-0.125000
G01 X122.922000 Y44.277600 Z-0.125000
G01 X123.064000 Y44.163000 Z-0.125000
G01 X123.347000 Y44.188800 Z-0.125000
G01 X123.655000 Y44.379100 Z-0.125000
G01 X131.981000 Y52.705900 Z-0.125000
G01 X132.192000 Y52.799500 Z-0.125000
G01 X132.262000 Y52.612400 Z-0.125000
G01 X131.981000 Y51.957600 Z-0.125000
G01 X124.322000 Y44.298000 Z-0.125000
G01 X124.224000 Y44.083100 Z-0.125000
G01 X124.401000 Y44.003200 Z-0.125000
G01 X124.719000 Y44.063600 Z-0.125000
G01 X125.042000 Y44.269600 Z-0.125000
G01 X131.981000 Y51.209200 Z-0.125000
G01 X132.185000 Y51.296400 Z-0.125000
G01 X132.242000 Y51.095400 Z-0.125000
G01 X131.941000 Y50.420300 Z-0.125000
G01 X125.832000 Y44.311600 Z-0.125000
G01 X125.762000 Y44.124800 Z-0.125000
G01 X126.001000 Y44.106800 Z-0.125000
G01 X126.732000 Y44.463200 Z-0.125000
G01 X131.789000 Y49.520400 Z-0.125000
G01 X131.947000 Y49.560900 Z-0.125000
G01 X131.900000 Y49.257000 Z-0.125000
G01 X131.449000 Y48.432200 Z-0.125000
G01 X127.540000 Y44.522400 Z-0.125000
G00 Z5.000000

(End cutting path id: path7901)


(Start cutting path id: path7902)
(Change tool to Default tool)

G00 Z5.000000
G00 X130.999000 Y47.233200

G01 Z-0.125000 F100.0(Penetrate)
G01 X129.018000 Y45.252100 Z-0.125000 F400.000000
G00 Z5.000000

(End cutting path id: path7902)


(Start cutting path id: path7900)
(Change tool to Default tool)

G00 Z5.000000
G00 X117.975000 Y51.421900

G01 Z-0.125000 F100.0(Penetrate)
G01 X117.466000 Y50.913100 Z-0.125000 F400.000000
G01 X117.271000 Y50.601300 Z-0.125000
G01 X117.235000 Y50.308200 Z-0.125000
G01 X117.340000 Y50.155400 Z-0.125000
G01 X117.566000 Y50.264600 Z-0.125000
G01 X118.443000 Y51.141300 Z-0.125000
G01 X119.097000 Y51.421900 Z-0.125000
G01 X119.285000 Y51.351700 Z-0.125000
G01 X119.191000 Y51.141300 Z-0.125000
G01 X117.711000 Y49.661200 Z-0.125000
G01 X117.530000 Y49.363800 Z-0.125000
G01 X117.526000 Y49.102300 Z-0.125000
G01 X117.662000 Y48.981100 Z-0.125000
G01 X117.903000 Y49.104600 Z-0.125000
G01 X119.939000 Y51.141300 Z-0.125000
G01 X120.594000 Y51.421900 Z-0.125000
G01 X120.781000 Y51.351700 Z-0.125000
G01 X120.688000 Y51.141300 Z-0.125000
G01 X118.127000 Y48.580800 Z-0.125000
G01 X117.958000 Y48.294200 Z-0.125000
G01 X117.977000 Y48.056400 Z-0.125000
G01 X118.137000 Y47.958900 Z-0.125000
G01 X118.388000 Y48.093200 Z-0.125000
G01 X121.436000 Y51.141300 Z-0.125000
G01 X121.698000 Y51.286700 Z-0.125000
G01 X121.883000 Y51.213800 Z-0.125000
G01 X121.927000 Y51.000500 Z-0.125000
G01 X121.768000 Y50.725000 Z-0.125000
G01 X118.677000 Y47.633700 Z-0.125000
G01 X118.516000 Y47.356100 Z-0.125000
G01 X118.556000 Y47.138400 Z-0.125000
G01 X118.736000 Y47.061000 Z-0.125000
G01 X118.996000 Y47.204400 Z-0.125000
G01 X121.949000 Y50.157100 Z-0.125000
G01 X122.202000 Y50.293800 Z-0.125000
G01 X122.367000 Y50.201600 Z-0.125000
G01 X122.392000 Y49.969000 Z-0.125000
G01 X122.225000 Y49.684800 Z-0.125000
G01 X119.338000 Y46.798600 Z-0.125000
G01 X119.185000 Y46.528600 Z-0.125000
G01 X119.242000 Y46.327700 Z-0.125000
G01 X119.438000 Y46.267000 Z-0.125000
G01 X119.706000 Y46.418000 Z-0.125000
G01 X122.577000 Y49.289100 Z-0.125000
G01 X122.854000 Y49.448800 Z-0.125000
G01 X123.070000 Y49.407300 Z-0.125000
G01 X123.145000 Y49.225500 Z-0.125000
G01 X123.001000 Y48.964300 Z-0.125000
G01 X120.097000 Y46.060100 Z-0.125000
G01 X119.951000 Y45.797200 Z-0.125000
G01 X120.022000 Y45.611600 Z-0.125000
G01 X120.234000 Y45.566400 Z-0.125000
G01 X120.509000 Y45.724500 Z-0.125000
G01 X123.509000 Y48.723700 Z-0.125000
G01 X123.815000 Y48.913000 Z-0.125000
G01 X124.096000 Y48.936600 Z-0.125000
G01 X124.236000 Y48.819900 Z-0.125000
G01 X124.122000 Y48.588300 Z-0.125000
G01 X120.952000 Y45.419000 Z-0.125000
G01 X120.815000 Y45.164800 Z-0.125000
G01 X120.906000 Y44.998300 Z-0.125000
G01 X121.137000 Y44.972200 Z-0.125000
G01 X121.421000 Y45.138900 Z-0.125000
G01 X125.167000 Y48.885000 Z-0.125000
G00 Z5.000000

(End cutting path id: path7900)


(Start cutting path id: path7899)
(Change tool to Default tool)

G00 Z5.000000
G00 X124.125000 Y69.545600

G01 Z-0.125000 F100.0(Penetrate)
G01 X127.952000 Y73.373100 Z-0.125000 F400.000000
G01 X128.236000 Y73.539900 Z-0.125000
G01 X128.468000 Y73.514100 Z-0.125000
G01 X128.559000 Y73.347900 Z-0.125000
G01 X128.421000 Y73.093800 Z-0.125000
G01 X125.241000 Y69.913200 Z-0.125000
G01 X125.127000 Y69.682700 Z-0.125000
G01 X125.270000 Y69.568500 Z-0.125000
G01 X125.554000 Y69.594600 Z-0.125000
G01 X125.861000 Y69.785000 Z-0.125000
G01 X128.865000 Y72.788500 Z-0.125000
G01 X129.140000 Y72.946900 Z-0.125000
G01 X129.353000 Y72.902400 Z-0.125000
G01 X129.425000 Y72.717600 Z-0.125000
G01 X129.279000 Y72.455000 Z-0.125000
G01 X126.373000 Y69.548400 Z-0.125000
G01 X126.229000 Y69.287600 Z-0.125000
G01 X126.305000 Y69.106800 Z-0.125000
G01 X126.522000 Y69.066400 Z-0.125000
G01 X126.799000 Y69.226600 Z-0.125000
G01 X129.670000 Y72.097700 Z-0.125000
G01 X129.939000 Y72.249000 Z-0.125000
G01 X130.136000 Y72.188900 Z-0.125000
G01 X130.193000 Y71.988400 Z-0.125000
G01 X130.040000 Y71.718700 Z-0.125000
G01 X127.155000 Y68.834200 Z-0.125000
G01 X126.989000 Y68.550500 Z-0.125000
G01 X127.014000 Y68.319200 Z-0.125000
G01 X127.181000 Y68.228200 Z-0.125000
G01 X127.435000 Y68.365400 Z-0.125000
G01 X130.383000 Y71.313700 Z-0.125000
G01 X130.644000 Y71.457300 Z-0.125000
G01 X130.824000 Y71.380200 Z-0.125000
G01 X130.864000 Y71.162800 Z-0.125000
G01 X130.703000 Y70.885400 Z-0.125000
G01 X127.622000 Y67.803900 Z-0.125000
G01 X127.459000 Y67.524000 Z-0.125000
G01 X127.493000 Y67.301000 Z-0.125000
G01 X127.668000 Y67.218300 Z-0.125000
G01 X127.925000 Y67.359300 Z-0.125000
G01 X130.994000 Y70.427800 Z-0.125000
G01 X131.245000 Y70.562200 Z-0.125000
G01 X131.405000 Y70.465100 Z-0.125000
G01 X131.425000 Y70.227700 Z-0.125000
G01 X131.256000 Y69.941200 Z-0.125000
G01 X128.674000 Y67.359300 Z-0.125000
G01 X128.580000 Y67.148800 Z-0.125000
G01 X128.767000 Y67.078700 Z-0.125000
G01 X129.422000 Y67.359300 Z-0.125000
G01 X131.482000 Y69.419500 Z-0.125000
G01 X131.723000 Y69.543200 Z-0.125000
G01 X131.859000 Y69.422400 Z-0.125000
G01 X131.856000 Y69.161300 Z-0.125000
G01 X131.675000 Y68.864000 Z-0.125000
G01 X130.171000 Y67.359300 Z-0.125000
G01 X130.077000 Y67.148800 Z-0.125000
G01 X130.264000 Y67.078700 Z-0.125000
G01 X130.919000 Y67.359300 Z-0.125000
G01 X131.823000 Y68.263100 Z-0.125000
G01 X132.049000 Y68.372600 Z-0.125000
G01 X132.154000 Y68.220700 Z-0.125000
G01 X132.119000 Y67.928500 Z-0.125000
G01 X131.925000 Y67.617000 Z-0.125000
G01 X131.447000 Y67.139100 Z-0.125000
G01 X131.761000 Y67.078700 Z-0.125000
G01 X132.195000 Y67.139100 Z-0.125000
G01 X132.256000 Y67.199600 Z-0.125000
G00 Z5.000000

(End cutting path id: path7899)


(Start cutting path id: path7894)
(Change tool to Default tool)

G00 Z5.000000
G00 X135.118000 Y74.511200

G01 Z-0.125000 F100.0(Penetrate)
G01 X134.667000 Y74.060100 Z-0.125000 F400.000000
G01 X134.386000 Y73.405300 Z-0.125000
G01 X134.456000 Y73.218200 Z-0.125000
G01 X134.667000 Y73.311800 Z-0.125000
G01 X135.586000 Y74.230600 Z-0.125000
G01 X136.240000 Y74.511200 Z-0.125000
G01 X136.428000 Y74.441000 Z-0.125000
G01 X136.334000 Y74.230600 Z-0.125000
G01 X134.667000 Y72.563400 Z-0.125000
G01 X134.386000 Y71.908600 Z-0.125000
G01 X134.456000 Y71.721500 Z-0.125000
G01 X134.667000 Y71.815000 Z-0.125000
G01 X137.082000 Y74.230600 Z-0.125000
G01 X137.737000 Y74.511200 Z-0.125000
G01 X137.924000 Y74.441000 Z-0.125000
G01 X137.831000 Y74.230600 Z-0.125000
G01 X134.667000 Y71.066700 Z-0.125000
G01 X134.386000 Y70.411900 Z-0.125000
G01 X134.456000 Y70.224800 Z-0.125000
G01 X134.667000 Y70.318300 Z-0.125000
G01 X138.579000 Y74.230600 Z-0.125000
G01 X139.234000 Y74.511200 Z-0.125000
G01 X139.421000 Y74.441000 Z-0.125000
G01 X139.327000 Y74.230600 Z-0.125000
G01 X135.022000 Y69.925200 Z-0.125000
G01 X134.928000 Y69.714700 Z-0.125000
G01 X135.116000 Y69.644600 Z-0.125000
G01 X135.770000 Y69.925200 Z-0.125000
G01 X140.076000 Y74.230600 Z-0.125000
G01 X140.731000 Y74.511200 Z-0.125000
G01 X140.918000 Y74.441000 Z-0.125000
G01 X140.824000 Y74.230600 Z-0.125000
G01 X136.519000 Y69.925200 Z-0.125000
G01 X136.425000 Y69.714700 Z-0.125000
G01 X136.612000 Y69.644600 Z-0.125000
G01 X137.267000 Y69.925200 Z-0.125000
G01 X141.572000 Y74.230600 Z-0.125000
G01 X142.227000 Y74.511200 Z-0.125000
G01 X142.414000 Y74.441000 Z-0.125000
G01 X142.321000 Y74.230600 Z-0.125000
G01 X138.015000 Y69.925200 Z-0.125000
G01 X137.918000 Y69.710800 Z-0.125000
G01 X138.096000 Y69.632000 Z-0.125000
G01 X138.415000 Y69.693600 Z-0.125000
G01 X138.739000 Y69.900100 Z-0.125000
G01 X143.069000 Y74.230600 Z-0.125000
G01 X143.724000 Y74.511200 Z-0.125000
G01 X143.911000 Y74.441000 Z-0.125000
G01 X143.818000 Y74.230600 Z-0.125000
G01 X139.280000 Y69.693500 Z-0.125000
G01 X139.125000 Y69.421000 Z-0.125000
G01 X139.176000 Y69.214500 Z-0.125000
G01 X139.367000 Y69.148300 Z-0.125000
G01 X139.632000 Y69.296800 Z-0.125000
G01 X144.566000 Y74.230600 Z-0.125000
G01 X145.221000 Y74.511200 Z-0.125000
G01 X145.408000 Y74.441000 Z-0.125000
G01 X145.314000 Y74.230600 Z-0.125000
G01 X139.792000 Y68.708100 Z-0.125000
G01 X139.514000 Y68.056400 Z-0.125000
G01 X139.586000 Y67.871500 Z-0.125000
G01 X139.798000 Y67.966000 Z-0.125000
G01 X146.062000 Y74.230600 Z-0.125000
G01 X146.717000 Y74.511200 Z-0.125000
G01 X146.904000 Y74.441000 Z-0.125000
G01 X146.811000 Y74.230600 Z-0.125000
G01 X139.798000 Y67.217600 Z-0.125000
G01 X139.517000 Y66.562800 Z-0.125000
G01 X139.587000 Y66.375700 Z-0.125000
G01 X139.798000 Y66.469300 Z-0.125000
G01 X147.559000 Y74.230600 Z-0.125000
G01 X148.214000 Y74.511200 Z-0.125000
G01 X148.401000 Y74.441000 Z-0.125000
G01 X148.307000 Y74.230600 Z-0.125000
G01 X139.798000 Y65.720900 Z-0.125000
G01 X139.517000 Y65.066100 Z-0.125000
G01 X139.587000 Y64.879000 Z-0.125000
G01 X139.798000 Y64.972600 Z-0.125000
G01 X149.056000 Y74.230500 Z-0.125000
G01 X149.294000 Y74.352000 Z-0.125000
G01 X149.426000 Y74.226300 Z-0.125000
G01 X149.417000 Y73.960300 Z-0.125000
G01 X149.234000 Y73.660800 Z-0.125000
G01 X139.798000 Y64.224200 Z-0.125000
G01 X139.517000 Y63.569400 Z-0.125000
G01 X139.587000 Y63.382300 Z-0.125000
G01 X139.798000 Y63.475900 Z-0.125000
G01 X144.103000 Y67.780800 Z-0.125000
G01 X144.313000 Y67.874300 Z-0.125000
G01 X144.383000 Y67.687200 Z-0.125000
G01 X144.103000 Y67.032400 Z-0.125000
G01 X139.798000 Y62.727500 Z-0.125000
G01 X139.517000 Y62.072700 Z-0.125000
G01 X139.587000 Y61.885600 Z-0.125000
G01 X139.798000 Y61.979200 Z-0.125000
G01 X144.103000 Y66.284100 Z-0.125000
G01 X144.313000 Y66.377600 Z-0.125000
G01 X144.383000 Y66.190500 Z-0.125000
G01 X144.103000 Y65.535700 Z-0.125000
G01 X139.798000 Y61.230800 Z-0.125000
G01 X139.517000 Y60.576000 Z-0.125000
G01 X139.587000 Y60.388900 Z-0.125000
G01 X139.798000 Y60.482500 Z-0.125000
G01 X144.103000 Y64.787300 Z-0.125000
G01 X144.313000 Y64.880900 Z-0.125000
G01 X144.383000 Y64.693800 Z-0.125000
G01 X144.103000 Y64.039000 Z-0.125000
G01 X139.798000 Y59.734100 Z-0.125000
G01 X139.517000 Y59.079300 Z-0.125000
G01 X139.587000 Y58.892200 Z-0.125000
G01 X139.798000 Y58.985700 Z-0.125000
G01 X144.103000 Y63.290600 Z-0.125000
G01 X144.313000 Y63.384200 Z-0.125000
G01 X144.383000 Y63.197100 Z-0.125000
G01 X144.103000 Y62.542300 Z-0.125000
G01 X139.798000 Y58.237400 Z-0.125000
G01 X139.517000 Y57.582600 Z-0.125000
G01 X139.587000 Y57.395500 Z-0.125000
G01 X139.798000 Y57.489000 Z-0.125000
G01 X144.103000 Y61.793900 Z-0.125000
G01 X144.313000 Y61.887500 Z-0.125000
G01 X144.383000 Y61.700400 Z-0.125000
G01 X144.103000 Y61.045600 Z-0.125000
G01 X139.798000 Y56.740700 Z-0.125000
G01 X139.517000 Y56.085900 Z-0.125000
G01 X139.587000 Y55.898800 Z-0.125000
G01 X139.798000 Y55.992300 Z-0.125000
G01 X144.103000 Y60.297200 Z-0.125000
G01 X144.313000 Y60.390800 Z-0.125000
G01 X144.383000 Y60.203700 Z-0.125000
G01 X144.103000 Y59.548900 Z-0.125000
G01 X139.798000 Y55.244000 Z-0.125000
G01 X139.517000 Y54.589200 Z-0.125000
G01 X139.587000 Y54.402100 Z-0.125000
G01 X139.798000 Y54.495600 Z-0.125000
G01 X144.103000 Y58.800500 Z-0.125000
G01 X144.313000 Y58.894000 Z-0.125000
G01 X144.383000 Y58.707000 Z-0.125000
G01 X144.103000 Y58.052100 Z-0.125000
G01 X139.798000 Y53.747300 Z-0.125000
G01 X139.517000 Y53.092500 Z-0.125000
G01 X139.587000 Y52.905400 Z-0.125000
G01 X139.798000 Y52.998900 Z-0.125000
G01 X144.103000 Y57.303800 Z-0.125000
G01 X144.313000 Y57.397300 Z-0.125000
G01 X144.383000 Y57.210200 Z-0.125000
G01 X144.103000 Y56.555400 Z-0.125000
G01 X139.798000 Y52.250600 Z-0.125000
G01 X139.517000 Y51.595700 Z-0.125000
G01 X139.587000 Y51.408700 Z-0.125000
G01 X139.798000 Y51.502200 Z-0.125000
G01 X144.103000 Y55.807100 Z-0.125000
G01 X144.313000 Y55.900600 Z-0.125000
G01 X144.383000 Y55.713500 Z-0.125000
G01 X144.103000 Y55.058700 Z-0.125000
G01 X139.798000 Y50.753800 Z-0.125000
G01 X139.517000 Y50.099000 Z-0.125000
G01 X139.587000 Y49.911900 Z-0.125000
G01 X139.798000 Y50.005500 Z-0.125000
G01 X144.103000 Y54.310400 Z-0.125000
G01 X144.313000 Y54.403900 Z-0.125000
G01 X144.383000 Y54.216800 Z-0.125000
G01 X144.103000 Y53.562000 Z-0.125000
G01 X139.798000 Y49.257100 Z-0.125000
G01 X139.517000 Y48.602300 Z-0.125000
G01 X139.587000 Y48.415200 Z-0.125000
G01 X139.798000 Y48.508800 Z-0.125000
G01 X144.103000 Y52.813700 Z-0.125000
G01 X144.313000 Y52.907200 Z-0.125000
G01 X144.383000 Y52.720100 Z-0.125000
G01 X144.103000 Y52.065300 Z-0.125000
G01 X139.798000 Y47.760400 Z-0.125000
G01 X139.517000 Y47.105600 Z-0.125000
G01 X139.587000 Y46.918500 Z-0.125000
G01 X139.798000 Y47.012100 Z-0.125000
G01 X144.103000 Y51.317000 Z-0.125000
G01 X144.313000 Y51.410500 Z-0.125000
G01 X144.383000 Y51.223400 Z-0.125000
G01 X144.103000 Y50.568600 Z-0.125000
G01 X139.798000 Y46.263700 Z-0.125000
G01 X139.517000 Y45.608900 Z-0.125000
G01 X139.587000 Y45.421800 Z-0.125000
G01 X139.798000 Y45.515400 Z-0.125000
G01 X144.103000 Y49.820200 Z-0.125000
G01 X144.313000 Y49.913800 Z-0.125000
G01 X144.383000 Y49.726700 Z-0.125000
G01 X144.103000 Y49.071900 Z-0.125000
G01 X139.798000 Y44.767000 Z-0.125000
G01 X139.627000 Y44.479000 Z-0.125000
G01 X139.643000 Y44.238400 Z-0.125000
G01 X139.800000 Y44.138000 Z-0.125000
G01 X140.050000 Y44.271000 Z-0.125000
G01 X144.103000 Y48.323500 Z-0.125000
G01 X144.313000 Y48.417100 Z-0.125000
G01 X144.383000 Y48.230000 Z-0.125000
G01 X144.103000 Y47.575200 Z-0.125000
G01 X140.798000 Y44.271000 Z-0.125000
G01 X140.705000 Y44.060500 Z-0.125000
G01 X140.892000 Y43.990400 Z-0.125000
G01 X141.547000 Y44.271000 Z-0.125000
G01 X144.103000 Y46.826800 Z-0.125000
G01 X144.313000 Y46.920400 Z-0.125000
G01 X144.383000 Y46.733300 Z-0.125000
G01 X144.103000 Y46.078500 Z-0.125000
G01 X142.295000 Y44.271000 Z-0.125000
G01 X142.202000 Y44.060500 Z-0.125000
G01 X142.389000 Y43.990400 Z-0.125000
G01 X143.044000 Y44.271000 Z-0.125000
G01 X144.103000 Y45.330100 Z-0.125000
G01 X144.313000 Y45.423700 Z-0.125000
G01 X144.383000 Y45.236600 Z-0.125000
G01 X144.103000 Y44.581800 Z-0.125000
G01 X143.573000 Y44.052200 Z-0.125000
G01 X143.885000 Y43.990400 Z-0.125000
G01 X144.321000 Y44.052200 Z-0.125000
G01 X144.383000 Y44.114000 Z-0.125000
G00 Z5.000000

(End cutting path id: path7894)


(Start cutting path id: path7896)
(Change tool to Default tool)

G00 Z5.000000
G00 X149.647000 Y69.512300

G01 Z-0.125000 F100.0(Penetrate)
G01 X145.798000 Y69.512300 Z-0.125000 F400.000000
G01 X145.237000 Y69.432100 Z-0.125000
G01 X144.836000 Y69.191700 Z-0.125000
G01 X144.596000 Y68.791100 Z-0.125000
G01 X144.516000 Y68.230500 Z-0.125000
G01 X144.516000 Y43.858100 Z-0.125000
G01 X139.385000 Y43.858100 Z-0.125000
G01 X139.385000 Y68.230500 Z-0.125000
G01 X139.304000 Y68.791400 Z-0.125000
G01 X139.064000 Y69.191900 Z-0.125000
G01 X138.663000 Y69.432200 Z-0.125000
G01 X138.102000 Y69.512300 Z-0.125000
G01 X134.254000 Y69.512300 Z-0.125000
G01 X134.254000 Y74.643500 Z-0.125000
G01 X149.647000 Y74.643500 Z-0.125000
G01 X149.647000 Y69.512300 Z-0.125000
G01 X149.647000 Y69.512300 Z-0.125000
G00 Z5.000000

(End cutting path id: path7896)


(Start cutting path id: path7958)
(Change tool to Default tool)

G00 Z5.000000
G00 X149.647000 Y69.512300

G01 Z-0.125000 F100.0(Penetrate)
G01 X145.798000 Y69.512300 Z-0.125000 F400.000000
G01 X145.237000 Y69.432100 Z-0.125000
G01 X144.837000 Y69.191700 Z-0.125000
G01 X144.596000 Y68.791200 Z-0.125000
G01 X144.516000 Y68.230600 Z-0.125000
G01 X144.516000 Y43.858100 Z-0.125000
G01 X139.385000 Y43.858100 Z-0.125000
G01 X139.385000 Y68.230600 Z-0.125000
G01 X139.305000 Y68.791400 Z-0.125000
G01 X139.064000 Y69.191900 Z-0.125000
G01 X138.663000 Y69.432200 Z-0.125000
G01 X138.102000 Y69.512300 Z-0.125000
G01 X134.254000 Y69.512300 Z-0.125000
G01 X134.254000 Y74.643500 Z-0.125000
G01 X149.648000 Y74.643500 Z-0.125000
G01 X149.648000 Y69.512300 Z-0.125000
G01 X149.647000 Y69.512300 Z-0.125000
G00 Z5.000000

(End cutting path id: path7958)


(Start cutting path id: path7895)
(Change tool to Default tool)

G00 Z5.000000
G00 X149.515000 Y73.193100

G01 Z-0.125000 F100.0(Penetrate)
G01 X146.247000 Y69.925200 Z-0.125000 F400.000000
G01 X146.153000 Y69.714700 Z-0.125000
G01 X146.341000 Y69.644500 Z-0.125000
G01 X146.995000 Y69.925200 Z-0.125000
G01 X149.234000 Y72.164100 Z-0.125000
G01 X149.445000 Y72.257700 Z-0.125000
G01 X149.515000 Y72.070600 Z-0.125000
G01 X149.234000 Y71.415800 Z-0.125000
G01 X147.744000 Y69.925200 Z-0.125000
G01 X147.650000 Y69.714700 Z-0.125000
G01 X147.837000 Y69.644500 Z-0.125000
G01 X148.492000 Y69.925200 Z-0.125000
G01 X149.237000 Y70.670500 Z-0.125000
G01 X149.446000 Y70.761700 Z-0.125000
G01 X149.515000 Y70.573900 Z-0.125000
G01 X149.237000 Y69.922100 Z-0.125000
G01 X148.960000 Y69.644500 Z-0.125000
G00 Z5.000000

(End cutting path id: path7895)


(Start cutting path id: path7888)
(Change tool to Default tool)

G00 Z5.000000
G00 X155.352000 Y73.266700

G01 Z-0.125000 F100.0(Penetrate)
G01 X153.367000 Y71.282000 Z-0.125000 F400.000000
G00 Z5.000000

(End cutting path id: path7888)


(Start cutting path id: path7889)
(Change tool to Default tool)

G00 Z5.000000
G00 X156.791000 Y73.957800

G01 Z-0.125000 F100.0(Penetrate)
G01 X152.956000 Y70.123300 Z-0.125000 F400.000000
G01 X152.500000 Y69.292600 Z-0.125000
G01 X152.449000 Y68.984700 Z-0.125000
G01 X152.605000 Y69.023300 Z-0.125000
G01 X157.611000 Y74.029000 Z-0.125000
G01 X158.357000 Y74.401100 Z-0.125000
G01 X158.607000 Y74.393900 Z-0.125000
G01 X158.542000 Y74.212000 Z-0.125000
G01 X152.422000 Y68.092100 Z-0.125000
G01 X152.125000 Y67.420900 Z-0.125000
G01 X152.184000 Y67.222500 Z-0.125000
G01 X152.389000 Y67.310900 Z-0.125000
G01 X159.322000 Y74.244200 Z-0.125000
G01 X159.644000 Y74.448700 Z-0.125000
G01 X159.958000 Y74.505500 Z-0.125000
G01 X160.132000 Y74.422100 Z-0.125000
G01 X160.032000 Y74.205500 Z-0.125000
G01 X152.403000 Y66.576800 Z-0.125000
G01 X152.123000 Y65.922000 Z-0.125000
G01 X152.193000 Y65.734900 Z-0.125000
G01 X152.403000 Y65.828500 Z-0.125000
G01 X160.702000 Y74.126900 Z-0.125000
G01 X161.009000 Y74.317500 Z-0.125000
G01 X161.293000 Y74.344100 Z-0.125000
G01 X161.437000 Y74.230300 Z-0.125000
G01 X161.323000 Y74.000000 Z-0.125000
G01 X152.403000 Y65.080100 Z-0.125000
G01 X152.123000 Y64.425300 Z-0.125000
G01 X152.193000 Y64.238200 Z-0.125000
G01 X152.403000 Y64.331800 Z-0.125000
G01 X161.900000 Y73.828300 Z-0.125000
G01 X162.194000 Y74.005800 Z-0.125000
G01 X162.449000 Y74.003400 Z-0.125000
G01 X162.564000 Y73.860700 Z-0.125000
G01 X162.437000 Y73.617300 Z-0.125000
G01 X152.403000 Y63.583400 Z-0.125000
G01 X152.123000 Y62.928600 Z-0.125000
G01 X152.193000 Y62.741500 Z-0.125000
G01 X152.403000 Y62.835000 Z-0.125000
G01 X156.751000 Y67.182400 Z-0.125000
G01 X156.955000 Y67.269300 Z-0.125000
G01 X157.010000 Y67.067600 Z-0.125000
G01 X156.708000 Y66.391600 Z-0.125000
G01 X152.403000 Y62.086700 Z-0.125000
G01 X152.123000 Y61.431900 Z-0.125000
G01 X152.193000 Y61.244800 Z-0.125000
G01 X152.403000 Y61.338300 Z-0.125000
G01 X156.708000 Y65.643200 Z-0.125000
G01 X156.919000 Y65.736800 Z-0.125000
G01 X156.989000 Y65.549700 Z-0.125000
G01 X156.708000 Y64.894900 Z-0.125000
G01 X152.403000 Y60.590000 Z-0.125000
G01 X152.123000 Y59.935200 Z-0.125000
G01 X152.193000 Y59.748100 Z-0.125000
G01 X152.403000 Y59.841600 Z-0.125000
G01 X156.708000 Y64.146500 Z-0.125000
G01 X156.919000 Y64.240100 Z-0.125000
G01 X156.989000 Y64.053000 Z-0.125000
G01 X156.708000 Y63.398200 Z-0.125000
G01 X152.403000 Y59.093300 Z-0.125000
G01 X152.123000 Y58.438500 Z-0.125000
G01 X152.193000 Y58.251400 Z-0.125000
G01 X152.403000 Y58.344900 Z-0.125000
G01 X156.713000 Y62.655000 Z-0.125000
G01 X156.947000 Y62.771200 Z-0.125000
G01 X157.067000 Y62.634100 Z-0.125000
G01 X157.047000 Y62.356700 Z-0.125000
G01 X156.859000 Y62.052000 Z-0.125000
G01 X152.403000 Y57.596600 Z-0.125000
G01 X152.123000 Y56.941800 Z-0.125000
G01 X152.193000 Y56.754700 Z-0.125000
G01 X152.403000 Y56.848200 Z-0.125000
G01 X157.204000 Y61.649300 Z-0.125000
G01 X157.498000 Y61.826400 Z-0.125000
G01 X157.752000 Y61.823000 Z-0.125000
G01 X157.866000 Y61.679200 Z-0.125000
G01 X157.739000 Y61.435300 Z-0.125000
G01 X152.403000 Y56.099900 Z-0.125000
G01 X152.123000 Y55.445000 Z-0.125000
G01 X152.193000 Y55.258000 Z-0.125000
G01 X152.403000 Y55.351500 Z-0.125000
G01 X158.455000 Y61.403200 Z-0.125000
G01 X159.110000 Y61.683900 Z-0.125000
G01 X159.297000 Y61.613700 Z-0.125000
G01 X159.203000 Y61.403200 Z-0.125000
G01 X152.403000 Y54.603100 Z-0.125000
G01 X152.123000 Y53.948300 Z-0.125000
G01 X152.193000 Y53.761200 Z-0.125000
G01 X152.403000 Y53.854800 Z-0.125000
G01 X159.952000 Y61.403200 Z-0.125000
G01 X160.607000 Y61.684000 Z-0.125000
G01 X160.794000 Y61.614000 Z-0.125000
G01 X160.701000 Y61.403600 Z-0.125000
G01 X152.403000 Y53.106400 Z-0.125000
G01 X152.123000 Y52.451600 Z-0.125000
G01 X152.193000 Y52.264500 Z-0.125000
G01 X152.403000 Y52.358100 Z-0.125000
G01 X166.964000 Y66.918800 Z-0.125000
G01 X167.167000 Y67.238300 Z-0.125000
G01 X167.220000 Y67.548500 Z-0.125000
G01 X167.132000 Y67.718300 Z-0.125000
G01 X166.914000 Y67.616900 Z-0.125000
G01 X162.666000 Y63.368600 Z-0.125000
G01 X162.455000 Y63.275100 Z-0.125000
G01 X162.385000 Y63.462300 Z-0.125000
G01 X162.666000 Y64.117200 Z-0.125000
G01 X166.812000 Y68.263100 Z-0.125000
G01 X166.999000 Y68.567500 Z-0.125000
G01 X167.019000 Y68.844300 Z-0.125000
G01 X166.898000 Y68.980800 Z-0.125000
G01 X166.664000 Y68.864200 Z-0.125000
G01 X162.666000 Y64.865600 Z-0.125000
G01 X162.455000 Y64.772000 Z-0.125000
G01 X162.385000 Y64.959100 Z-0.125000
G01 X162.666000 Y65.613900 Z-0.125000
G01 X166.472000 Y69.419800 Z-0.125000
G01 X166.647000 Y69.711800 Z-0.125000
G01 X166.639000 Y69.961300 Z-0.125000
G01 X166.491000 Y70.070500 Z-0.125000
G01 X166.245000 Y69.941600 Z-0.125000
G01 X162.666000 Y66.362300 Z-0.125000
G01 X162.455000 Y66.268700 Z-0.125000
G01 X162.385000 Y66.455800 Z-0.125000
G01 X162.666000 Y67.110600 Z-0.125000
G01 X165.983000 Y70.428300 Z-0.125000
G01 X166.148000 Y70.710200 Z-0.125000
G01 X166.119000 Y70.937700 Z-0.125000
G01 X165.949000 Y71.024900 Z-0.125000
G01 X165.693000 Y70.885900 Z-0.125000
G01 X162.612000 Y67.805400 Z-0.125000
G01 X162.373000 Y67.682700 Z-0.125000
G01 X162.238000 Y67.805500 Z-0.125000
G01 X162.244000 Y68.068600 Z-0.125000
G01 X162.425000 Y68.366700 Z-0.125000
G01 X165.373000 Y71.314300 Z-0.125000
G01 X165.530000 Y71.588100 Z-0.125000
G01 X165.482000 Y71.797500 Z-0.125000
G01 X165.294000 Y71.866500 Z-0.125000
G01 X165.029000 Y71.719300 Z-0.125000
G01 X162.146000 Y68.835400 Z-0.125000
G01 X161.879000 Y68.686200 Z-0.125000
G01 X161.687000 Y68.750900 Z-0.125000
G01 X161.635000 Y68.955900 Z-0.125000
G01 X161.789000 Y69.227700 Z-0.125000
G01 X164.660000 Y72.098400 Z-0.125000
G01 X164.809000 Y72.364700 Z-0.125000
G01 X164.745000 Y72.557700 Z-0.125000
G01 X164.541000 Y72.610300 Z-0.125000
G01 X164.269000 Y72.455700 Z-0.125000
G01 X161.363000 Y69.549300 Z-0.125000
G01 X161.072000 Y69.375800 Z-0.125000
G01 X160.826000 Y69.386900 Z-0.125000
G01 X160.720000 Y69.538400 Z-0.125000
G01 X160.851000 Y69.785800 Z-0.125000
G01 X163.854000 Y72.789200 Z-0.125000
G01 X163.995000 Y73.047400 Z-0.125000
G01 X163.913000 Y73.222500 Z-0.125000
G01 X163.691000 Y73.257300 Z-0.125000
G01 X163.411000 Y73.094500 Z-0.125000
G01 X160.230000 Y69.913800 Z-0.125000
G01 X159.560000 Y69.617600 Z-0.125000
G01 X159.362000 Y69.677100 Z-0.125000
G01 X159.451000 Y69.882700 Z-0.125000
G01 X163.223000 Y73.654400 Z-0.125000
G00 Z5.000000

(End cutting path id: path7889)


(Start cutting path id: path7885)
(Change tool to Default tool)

G00 Z5.000000
G00 X170.345000 Y73.779700

G01 Z-0.125000 F100.0(Penetrate)
G01 X170.796000 Y74.230600 Z-0.125000 F400.000000
G01 X171.450000 Y74.511200 Z-0.125000
G01 X171.638000 Y74.441000 Z-0.125000
G01 X171.544000 Y74.230600 Z-0.125000
G01 X170.625000 Y73.311900 Z-0.125000
G01 X170.345000 Y72.657100 Z-0.125000
G01 X170.415000 Y72.470000 Z-0.125000
G01 X170.625000 Y72.563600 Z-0.125000
G01 X172.292000 Y74.230600 Z-0.125000
G01 X172.947000 Y74.511200 Z-0.125000
G01 X173.134000 Y74.441000 Z-0.125000
G01 X173.041000 Y74.230600 Z-0.125000
G01 X170.625000 Y71.815200 Z-0.125000
G01 X170.345000 Y71.160400 Z-0.125000
G01 X170.415000 Y70.973300 Z-0.125000
G01 X170.625000 Y71.066900 Z-0.125000
G01 X173.789000 Y74.230600 Z-0.125000
G01 X174.444000 Y74.511200 Z-0.125000
G01 X174.631000 Y74.441000 Z-0.125000
G01 X174.537000 Y74.230600 Z-0.125000
G01 X170.625000 Y70.318500 Z-0.125000
G01 X170.470000 Y70.046600 Z-0.125000
G01 X170.522000 Y69.841200 Z-0.125000
G01 X170.714000 Y69.776200 Z-0.125000
G01 X170.980000 Y69.925200 Z-0.125000
G01 X175.286000 Y74.230600 Z-0.125000
G01 X175.941000 Y74.511200 Z-0.125000
G01 X176.128000 Y74.441000 Z-0.125000
G01 X176.034000 Y74.230600 Z-0.125000
G01 X171.729000 Y69.925200 Z-0.125000
G01 X171.635000 Y69.714700 Z-0.125000
G01 X171.822000 Y69.644600 Z-0.125000
G01 X172.477000 Y69.925200 Z-0.125000
G01 X176.782000 Y74.230600 Z-0.125000
G01 X177.437000 Y74.511200 Z-0.125000
G01 X177.624000 Y74.441000 Z-0.125000
G01 X177.531000 Y74.230600 Z-0.125000
G01 X173.225000 Y69.925200 Z-0.125000
G01 X173.132000 Y69.714700 Z-0.125000
G01 X173.319000 Y69.644600 Z-0.125000
G01 X173.974000 Y69.925200 Z-0.125000
G01 X178.279000 Y74.230600 Z-0.125000
G01 X178.934000 Y74.511200 Z-0.125000
G01 X179.121000 Y74.441000 Z-0.125000
G01 X179.028000 Y74.230600 Z-0.125000
G01 X174.697000 Y69.900100 Z-0.125000
G01 X174.571000 Y69.657400 Z-0.125000
G01 X174.687000 Y69.516100 Z-0.125000
G01 X174.944000 Y69.515200 Z-0.125000
G01 X175.239000 Y69.693400 Z-0.125000
G01 X179.776000 Y74.230600 Z-0.125000
G01 X180.431000 Y74.511200 Z-0.125000
G01 X180.618000 Y74.441000 Z-0.125000
G01 X180.524000 Y74.230600 Z-0.125000
G01 X175.590000 Y69.296500 Z-0.125000
G01 X175.405000 Y68.993900 Z-0.125000
G01 X175.389000 Y68.721300 Z-0.125000
G01 X175.514000 Y68.588900 Z-0.125000
G01 X175.749000 Y68.707300 Z-0.125000
G01 X181.273000 Y74.230600 Z-0.125000
G01 X181.927000 Y74.511200 Z-0.125000
G01 X182.115000 Y74.441000 Z-0.125000
G01 X182.021000 Y74.230600 Z-0.125000
G01 X175.756000 Y67.965200 Z-0.125000
G01 X175.475000 Y67.310400 Z-0.125000
G01 X175.545000 Y67.123300 Z-0.125000
G01 X175.756000 Y67.216900 Z-0.125000
G01 X182.769000 Y74.230600 Z-0.125000
G01 X183.424000 Y74.511200 Z-0.125000
G01 X183.611000 Y74.441000 Z-0.125000
G01 X183.518000 Y74.230600 Z-0.125000
G01 X175.756000 Y66.468500 Z-0.125000
G01 X175.475000 Y65.813700 Z-0.125000
G01 X175.545000 Y65.626600 Z-0.125000
G01 X175.756000 Y65.720200 Z-0.125000
G01 X184.266000 Y74.230600 Z-0.125000
G01 X184.921000 Y74.511200 Z-0.125000
G01 X185.108000 Y74.441000 Z-0.125000
G01 X185.014000 Y74.230600 Z-0.125000
G01 X175.756000 Y64.971800 Z-0.125000
G01 X175.475000 Y64.317000 Z-0.125000
G01 X175.545000 Y64.129900 Z-0.125000
G01 X175.756000 Y64.223500 Z-0.125000
G01 X185.192000 Y73.660000 Z-0.125000
G01 X185.403000 Y73.753600 Z-0.125000
G01 X185.473000 Y73.566500 Z-0.125000
G01 X185.192000 Y72.911700 Z-0.125000
G01 X182.206000 Y69.925200 Z-0.125000
G01 X182.112000 Y69.714700 Z-0.125000
G01 X182.299000 Y69.644600 Z-0.125000
G01 X182.954000 Y69.925200 Z-0.125000
G01 X185.192000 Y72.163300 Z-0.125000
G01 X185.403000 Y72.256900 Z-0.125000
G01 X185.473000 Y72.069800 Z-0.125000
G01 X185.192000 Y71.415000 Z-0.125000
G01 X183.702000 Y69.925200 Z-0.125000
G01 X183.609000 Y69.714700 Z-0.125000
G01 X183.796000 Y69.644600 Z-0.125000
G01 X184.451000 Y69.925200 Z-0.125000
G01 X185.196000 Y70.670100 Z-0.125000
G01 X185.404000 Y70.761000 Z-0.125000
G01 X185.473000 Y70.573100 Z-0.125000
G01 X185.196000 Y69.921700 Z-0.125000
G01 X184.919000 Y69.644600 Z-0.125000
G00 Z5.000000

(End cutting path id: path7885)


(Start cutting path id: path7887)
(Change tool to Default tool)

G00 Z5.000000
G00 X185.605000 Y69.512300

G01 Z-0.125000 F100.0(Penetrate)
G01 X181.757000 Y69.512300 Z-0.125000 F400.000000
G01 X181.195000 Y69.432100 Z-0.125000
G01 X180.794000 Y69.191700 Z-0.125000
G01 X180.554000 Y68.791200 Z-0.125000
G01 X180.474000 Y68.230600 Z-0.125000
G01 X180.474000 Y43.858100 Z-0.125000
G01 X175.343000 Y43.858100 Z-0.125000
G01 X175.343000 Y68.230600 Z-0.125000
