%
(Header)
(Generated by gcodetools from Inkscape.)
(Using default header. To add your own header create file "header" in the output dir.)
M3
(Header end.)
G21 (All units in mm)

(Start cutting path id: path2)
(Change tool to Default tool)

G00 Z5.000000
G00 X8.821790 Y121.901800

G01 Z-0.125000 F100.0(Penetrate)
G01 X10.360000 Y123.439900 Z-0.125000 F400.000000
G01 X11.170300 Y123.876100 Z-0.125000
G01 X11.464300 Y123.912800 Z-0.125000
G01 X11.419300 Y123.750900 Z-0.125000
G01 X8.611990 Y120.943600 Z-0.125000
G01 X8.293910 Y120.251300 Z-0.125000
G01 X8.338320 Y120.038500 Z-0.125000
G01 X8.537090 Y120.120300 Z-0.125000
G01 X9.924170 Y121.507400 Z-0.125000
G01 X10.052500 Y121.518800 Z-0.125000
G01 X9.941860 Y121.150900 Z-0.125000
G01 X9.398280 Y120.233200 Z-0.125000
G01 X8.612580 Y119.447500 Z-0.125000
G01 X8.426400 Y119.144400 Z-0.125000
G01 X8.409680 Y118.870400 Z-0.125000
G01 X8.533280 Y118.736800 Z-0.125000
G01 X8.768040 Y118.854600 Z-0.125000
G01 X9.382260 Y119.468800 Z-0.125000
G01 X9.606530 Y119.576200 Z-0.125000
G01 X9.707050 Y119.419400 Z-0.125000
G01 X9.667250 Y119.122400 Z-0.125000
G01 X9.470570 Y118.808800 Z-0.125000
G01 X8.970260 Y118.308500 Z-0.125000
G01 X8.795940 Y118.017200 Z-0.125000
G01 X8.805310 Y117.769300 Z-0.125000
G01 X8.954990 Y117.661800 Z-0.125000
G01 X9.201620 Y117.791500 Z-0.125000
G01 X9.622470 Y118.212300 Z-0.125000
G01 X9.862280 Y118.335200 Z-0.125000
G01 X9.996970 Y118.212600 Z-0.125000
G01 X9.991350 Y117.949800 Z-0.125000
G01 X9.810210 Y117.651700 Z-0.125000
G01 X9.454720 Y117.296200 Z-0.125000
G01 X9.285230 Y117.009800 Z-0.125000
G01 X9.305230 Y116.772500 Z-0.125000
G01 X9.465540 Y116.675600 Z-0.125000
G01 X9.717000 Y116.810100 Z-0.125000
G01 X10.024000 Y117.117100 Z-0.125000
G01 X10.270800 Y117.247000 Z-0.125000
G01 X10.421000 Y117.139900 Z-0.125000
G01 X10.430800 Y116.892500 Z-0.125000
G01 X10.256700 Y116.601500 Z-0.125000
G01 X9.991270 Y116.336000 Z-0.125000
G01 X9.824640 Y116.052500 Z-0.125000
G01 X9.850920 Y115.821500 Z-0.125000
G01 X10.017500 Y115.730900 Z-0.125000
G01 X10.271800 Y115.868300 Z-0.125000
G01 X10.504700 Y116.101100 Z-0.125000
G01 X10.755700 Y116.235200 Z-0.125000
G01 X10.915000 Y116.137300 Z-0.125000
G01 X10.934000 Y115.899000 Z-0.125000
G01 X10.764000 Y115.612100 Z-0.125000
G01 X10.556400 Y115.404500 Z-0.125000
G01 X10.391400 Y115.122500 Z-0.125000
G01 X10.421100 Y114.895000 Z-0.125000
G01 X10.591200 Y114.807900 Z-0.125000
G01 X10.847100 Y114.946800 Z-0.125000
G01 X11.032900 Y115.132700 Z-0.125000
G01 X11.286700 Y115.269500 Z-0.125000
G01 X11.452100 Y115.177700 Z-0.125000
G01 X11.477200 Y114.945500 Z-0.125000
G01 X11.310100 Y114.661400 Z-0.125000
G01 X11.139000 Y114.490400 Z-0.125000
G01 X10.974800 Y114.209200 Z-0.125000
G01 X11.006400 Y113.983600 Z-0.125000
G01 X11.178400 Y113.898300 Z-0.125000
G01 X11.435100 Y114.038100 Z-0.125000
G01 X11.597300 Y114.200300 Z-0.125000
G01 X11.852700 Y114.338800 Z-0.125000
G01 X12.021800 Y114.250600 Z-0.125000
G01 X12.050600 Y114.022200 Z-0.125000
G01 X11.885100 Y113.739700 Z-0.125000
G01 X11.732000 Y113.586700 Z-0.125000
G01 X11.568300 Y113.306000 Z-0.125000
G01 X11.600900 Y113.081300 Z-0.125000
G01 X11.773800 Y112.997000 Z-0.125000
G01 X12.030900 Y113.137200 Z-0.125000
G01 X12.179900 Y113.286200 Z-0.125000
G01 X12.436600 Y113.426000 Z-0.125000
G01 X12.608500 Y113.340600 Z-0.125000
G01 X12.640100 Y113.115000 Z-0.125000
G01 X12.475900 Y112.833800 Z-0.125000
G01 X12.331200 Y112.689200 Z-0.125000
G01 X12.167700 Y112.408700 Z-0.125000
G01 X12.200800 Y112.184600 Z-0.125000
G01 X12.374200 Y112.100700 Z-0.125000
G01 X12.631600 Y112.241200 Z-0.125000
G01 X12.776100 Y112.385700 Z-0.125000
G01 X13.033800 Y112.526500 Z-0.125000
G01 X13.208000 Y112.443400 Z-0.125000
G01 X13.241800 Y112.220000 Z-0.125000
G01 X13.078600 Y111.939800 Z-0.125000
G01 X12.933100 Y111.794400 Z-0.125000
G01 X12.769800 Y111.514100 Z-0.125000
G01 X12.803300 Y111.290300 Z-0.125000
G01 X12.977100 Y111.206900 Z-0.125000
G01 X13.234700 Y111.347500 Z-0.125000
G01 X13.384600 Y111.497500 Z-0.125000
G01 X13.643500 Y111.639500 Z-0.125000
G01 X13.820300 Y111.558900 Z-0.125000
G01 X13.856700 Y111.338100 Z-0.125000
G01 X13.694600 Y111.059200 Z-0.125000
G01 X13.536200 Y110.900700 Z-0.125000
G01 X13.372800 Y110.620400 Z-0.125000
G01 X13.406300 Y110.396700 Z-0.125000
G01 X13.580100 Y110.313200 Z-0.125000
G01 X13.837700 Y110.453900 Z-0.125000
G01 X14.006900 Y110.623100 Z-0.125000
G01 X14.267200 Y110.766500 Z-0.125000
G01 X14.447000 Y110.689000 Z-0.125000
G01 X14.486500 Y110.471300 Z-0.125000
G01 X14.325900 Y110.193700 Z-0.125000
G01 X14.139200 Y110.007000 Z-0.125000
G01 X13.975900 Y109.726700 Z-0.125000
G01 X14.009300 Y109.503000 Z-0.125000
G01 X14.183200 Y109.419500 Z-0.125000
G01 X14.440700 Y109.560200 Z-0.125000
G01 X14.648000 Y109.767500 Z-0.125000
G01 X14.909600 Y109.912100 Z-0.125000
G01 X15.092000 Y109.837300 Z-0.125000
G01 X15.134200 Y109.622200 Z-0.125000
G01 X14.974800 Y109.345900 Z-0.125000
G01 X14.742300 Y109.113400 Z-0.125000
G01 X14.578900 Y108.833100 Z-0.125000
G01 X14.612400 Y108.609300 Z-0.125000
G01 X14.786200 Y108.525900 Z-0.125000
G01 X15.043800 Y108.666500 Z-0.125000
G01 X15.309300 Y108.932100 Z-0.125000
G01 X15.573000 Y109.078800 Z-0.125000
G01 X15.760100 Y109.008700 Z-0.125000
G01 X15.807000 Y108.798300 Z-0.125000
G01 X15.649700 Y108.524100 Z-0.125000
G01 X15.345300 Y108.219700 Z-0.125000
G01 X15.181900 Y107.939400 Z-0.125000
G01 X15.215400 Y107.715700 Z-0.125000
G01 X15.389200 Y107.632200 Z-0.125000
G01 X15.646800 Y107.772900 Z-0.125000
G01 X15.997400 Y108.123400 Z-0.125000
G01 X16.263600 Y108.272800 Z-0.125000
G01 X16.456500 Y108.208400 Z-0.125000
G01 X16.509100 Y108.003700 Z-0.125000
G01 X16.354400 Y107.732100 Z-0.125000
G01 X15.802000 Y107.179700 Z-0.125000
G01 X15.419400 Y106.422900 Z-0.125000
G01 X15.419500 Y106.165800 Z-0.125000
G01 X15.598100 Y106.227400 Z-0.125000
G01 X16.724800 Y107.354200 Z-0.125000
G01 X16.995700 Y107.508100 Z-0.125000
G01 X17.198600 Y107.453800 Z-0.125000
G01 X17.261300 Y107.259200 Z-0.125000
G01 X17.111200 Y106.992200 Z-0.125000
G01 X15.394200 Y105.275200 Z-0.125000
G01 X15.011700 Y104.518500 Z-0.125000
G01 X15.011800 Y104.261300 Z-0.125000
G01 X15.190400 Y104.323000 Z-0.125000
G01 X17.521500 Y106.654200 Z-0.125000
G01 X17.802200 Y106.817900 Z-0.125000
G01 X18.026700 Y106.785100 Z-0.125000
G01 X18.110900 Y106.612100 Z-0.125000
G01 X17.970600 Y106.354800 Z-0.125000
G01 X17.516000 Y105.900300 Z-0.125000
G01 X17.454700 Y105.722000 Z-0.125000
G01 X17.712700 Y105.722800 Z-0.125000
G01 X18.470700 Y106.106600 Z-0.125000
G01 X18.509200 Y106.145100 Z-0.125000
G01 X19.381000 Y106.642700 Z-0.125000
G01 X19.717200 Y106.721700 Z-0.125000
G01 X19.691500 Y106.579000 Z-0.125000
G01 X19.247400 Y106.135000 Z-0.125000
G01 X19.175000 Y105.945600 Z-0.125000
G01 X19.408400 Y105.921800 Z-0.125000
G01 X20.130700 Y106.269900 Z-0.125000
G01 X22.574500 Y108.713700 Z-0.125000
G01 X22.776300 Y109.032400 Z-0.125000
G01 X22.827400 Y109.340800 Z-0.125000
G01 X22.738200 Y109.508800 Z-0.125000
G01 X22.519100 Y109.406600 Z-0.125000
G01 X21.490700 Y108.378200 Z-0.125000
G01 X21.297500 Y107.951100 Z-0.125000
G01 X21.265300 Y107.404500 Z-0.125000
G01 X21.373400 Y106.998100 Z-0.125000
G01 X21.601100 Y106.991900 Z-0.125000
G01 X22.601900 Y107.992800 Z-0.125000
G00 Z5.000000

(End cutting path id: path2)


(Start cutting path id: path2)
(Change tool to Default tool)

G00 Z5.000000
G00 X20.728700 Y107.544500

G01 Z-0.125000 F100.0(Penetrate)
G01 X21.433300 Y108.519200 Z-0.125000 F400.000000
G01 X21.726400 Y109.461800 Z-0.125000
G01 X21.489000 Y110.407500 Z-0.125000
G01 X20.850200 Y111.976800 Z-0.125000
G01 X18.810300 Y116.145300 Z-0.125000
G01 X16.489300 Y120.285600 Z-0.125000
G01 X15.499300 Y121.819400 Z-0.125000
G01 X14.770100 Y122.715500 Z-0.125000
G01 X13.971900 Y123.367800 Z-0.125000
G01 X13.336300 Y123.620900 Z-0.125000
G01 X12.646000 Y123.495700 Z-0.125000
G01 X11.683500 Y123.013100 Z-0.125000
G01 X10.802000 Y122.396800 Z-0.125000
G01 X10.190200 Y121.672200 Z-0.125000
G01 X9.849100 Y120.823200 Z-0.125000
G01 X9.779650 Y119.833800 Z-0.125000
G01 X9.982880 Y118.687900 Z-0.125000
G01 X10.459800 Y117.369500 Z-0.125000
G01 X12.238700 Y114.150800 Z-0.125000
G01 X14.401900 Y110.971200 Z-0.125000
G01 X16.298000 Y108.578600 Z-0.125000
G01 X17.840500 Y107.071100 Z-0.125000
G01 X18.452100 Y106.679900 Z-0.125000
G01 X18.942800 Y106.546800 Z-0.125000
G01 X19.792600 Y106.839800 Z-0.125000
G01 X20.728700 Y107.544500 Z-0.125000
G01 X20.728700 Y107.544500 Z-0.125000
G00 Z5.000000

(End cutting path id: path2)


(Start cutting path id: path2)
(Change tool to Default tool)

G00 Z5.000000
G00 X16.379600 Y104.763800

G01 Z-0.125000 F100.0(Penetrate)
G01 X14.986500 Y103.370800 Z-0.125000 F400.000000
G01 X14.604000 Y102.614100 Z-0.125000
G01 X14.604000 Y102.356900 Z-0.125000
G01 X14.782700 Y102.418600 Z-0.125000
G01 X15.654100 Y103.290000 Z-0.125000
G01 X15.824600 Y103.343600 Z-0.125000
G01 X15.806800 Y103.068600 Z-0.125000
G01 X15.398300 Y102.285900 Z-0.125000
G01 X14.579500 Y101.467100 Z-0.125000
G01 X14.174300 Y100.687700 Z-0.125000
G01 X14.158800 Y100.414900 Z-0.125000
G01 X14.330300 Y100.469500 Z-0.125000
G01 X15.174600 Y101.313800 Z-0.125000
G01 X15.353600 Y101.375900 Z-0.125000
G01 X15.354600 Y101.119600 Z-0.125000
G01 X14.973200 Y100.364100 Z-0.125000
G01 X14.201800 Y99.592600 Z-0.125000
G01 X13.835000 Y98.851700 Z-0.125000
G01 X13.845900 Y98.605300 Z-0.125000
G01 X14.029500 Y98.672000 Z-0.125000
G01 X14.787900 Y99.430400 Z-0.125000
G01 X14.971300 Y99.496900 Z-0.125000
G01 X14.981900 Y99.250200 Z-0.125000
G01 X14.614500 Y98.508700 Z-0.125000
G01 X13.865900 Y97.760000 Z-0.125000
G01 X13.509200 Y97.029200 Z-0.125000
G01 X13.527100 Y96.789800 Z-0.125000
G01 X13.713800 Y96.859600 Z-0.125000
G01 X14.458500 Y97.604200 Z-0.125000
G01 X14.645700 Y97.674500 Z-0.125000
G01 X14.664700 Y97.436300 Z-0.125000
G01 X14.309600 Y96.707000 Z-0.125000
G01 X13.569900 Y95.967300 Z-0.125000
G01 X13.220100 Y95.243400 Z-0.125000
G01 X13.242800 Y95.008800 Z-0.125000
G01 X13.431600 Y95.080700 Z-0.125000
G01 X14.167900 Y95.817000 Z-0.125000
G01 X14.358100 Y95.890300 Z-0.125000
G01 X14.383600 Y95.658500 Z-0.125000
G01 X14.038000 Y94.938700 Z-0.125000
G01 X13.302700 Y94.203400 Z-0.125000
G01 X12.960500 Y93.487000 Z-0.125000
G01 X12.988300 Y93.257600 Z-0.125000
G01 X13.179600 Y93.332000 Z-0.125000
G01 X13.911900 Y94.064300 Z-0.125000
G01 X14.104100 Y94.139500 Z-0.125000
G01 X14.134000 Y93.912200 Z-0.125000
G01 X13.794800 Y93.198800 Z-0.125000
G01 X13.060200 Y92.464200 Z-0.125000
G01 X12.724800 Y91.754700 Z-0.125000
G01 X12.757400 Y91.530000 Z-0.125000
G01 X12.950800 Y91.606400 Z-0.125000
G01 X13.682700 Y92.338400 Z-0.125000
G01 X13.876600 Y92.415300 Z-0.125000
G01 X13.910200 Y92.191700 Z-0.125000
G01 X13.576300 Y91.483700 Z-0.125000
G01 X12.843200 Y90.750500 Z-0.125000
G01 X12.512200 Y90.045300 Z-0.125000
G01 X12.547700 Y89.823600 Z-0.125000
G01 X12.742500 Y89.901400 Z-0.125000
G01 X13.476500 Y90.635500 Z-0.125000
G01 X13.671900 Y90.714000 Z-0.125000
G01 X13.709000 Y90.493800 Z-0.125000
G01 X13.380200 Y89.790800 Z-0.125000
G01 X12.645200 Y89.055800 Z-0.125000
G01 X12.318200 Y88.354600 Z-0.125000
G01 X12.356500 Y88.135700 Z-0.125000
G01 X12.552500 Y88.214700 Z-0.125000
G01 X13.291400 Y88.953600 Z-0.125000
G01 X13.488300 Y89.033600 Z-0.125000
G01 X13.528700 Y88.816800 Z-0.125000
G01 X13.204700 Y88.118600 Z-0.125000
G01 X12.464000 Y87.377900 Z-0.125000
G01 X12.140800 Y86.680500 Z-0.125000
G01 X12.181600 Y86.464100 Z-0.125000
G01 X12.378800 Y86.544300 Z-0.125000
G01 X13.126100 Y87.291700 Z-0.125000
G01 X13.324500 Y87.373100 Z-0.125000
G01 X13.368100 Y87.159500 Z-0.125000
G01 X13.048900 Y86.466100 Z-0.125000
G01 X12.298000 Y85.715100 Z-0.125000
G01 X11.978100 Y85.021100 Z-0.125000
G01 X12.021300 Y84.807100 Z-0.125000
G01 X12.219600 Y84.888400 Z-0.125000
G01 X12.980000 Y85.648800 Z-0.125000
G01 X13.179900 Y85.731800 Z-0.125000
G01 X13.226700 Y85.521300 Z-0.125000
G01 X12.912100 Y84.832500 Z-0.125000
G01 X12.145400 Y84.065900 Z-0.125000
G01 X11.828800 Y83.375100 Z-0.125000
G01 X11.874200 Y83.163200 Z-0.125000
G01 X12.073400 Y83.245500 Z-0.125000
G01 X12.852800 Y84.024900 Z-0.125000
G01 X13.054100 Y84.109300 Z-0.125000
G01 X13.104100 Y83.902000 Z-0.125000
G01 X12.794200 Y83.217900 Z-0.125000
G01 X12.005000 Y82.428700 Z-0.125000
G01 X11.691300 Y81.740900 Z-0.125000
G01 X11.738800 Y81.531100 Z-0.125000
G01 X11.938900 Y81.614300 Z-0.125000
G01 X12.744500 Y82.419900 Z-0.125000
G01 X12.947300 Y82.505700 Z-0.125000
G01 X13.000600 Y82.301800 Z-0.125000
G01 X12.695400 Y81.622500 Z-0.125000
G01 X11.875400 Y80.802500 Z-0.125000
G01 X11.564600 Y80.117400 Z-0.125000
G01 X11.614000 Y79.909600 Z-0.125000
G01 X11.815000 Y79.993700 Z-0.125000
G01 X12.655600 Y80.834300 Z-0.125000
G01 X12.860000 Y80.921700 Z-0.125000
G01 X12.916700 Y80.721200 Z-0.125000
G01 X12.616400 Y80.046800 Z-0.125000
G01 X11.755800 Y79.186100 Z-0.125000
G01 X11.447500 Y78.503600 Z-0.125000
G01 X11.498700 Y78.297600 Z-0.125000
G01 X11.700500 Y78.382500 Z-0.125000
G01 X12.583000 Y79.265000 Z-0.125000
G01 X12.788300 Y79.353300 Z-0.125000
G01 X12.847100 Y79.154900 Z-0.125000
G01 X12.549900 Y78.483500 Z-0.125000
G01 X11.645100 Y77.578700 Z-0.125000
G01 X11.338100 Y76.897500 Z-0.125000
G01 X11.390100 Y76.692300 Z-0.125000
G01 X11.592300 Y76.777600 Z-0.125000
G01 X12.516700 Y77.702000 Z-0.125000
G01 X12.722300 Y77.790700 Z-0.125000
G01 X12.781700 Y77.592800 Z-0.125000
G01 X12.485500 Y76.922400 Z-0.125000
G01 X11.539500 Y75.976400 Z-0.125000
G01 X11.232400 Y75.295200 Z-0.125000
G01 X11.284400 Y75.089900 Z-0.125000
G01 X11.486700 Y75.175200 Z-0.125000
G01 X12.458700 Y76.147300 Z-0.125000
G01 X12.665000 Y76.236700 Z-0.125000
G01 X12.726000 Y76.040400 Z-0.125000
G01 X12.432000 Y75.372200 Z-0.125000
G01 X11.433900 Y74.374100 Z-0.125000
G01 X11.126800 Y73.692900 Z-0.125000
G01 X11.178800 Y73.487600 Z-0.125000
G01 X11.381000 Y73.572900 Z-0.125000
G01 X12.411300 Y74.603100 Z-0.125000
G01 X12.620300 Y74.695200 Z-0.125000
G01 X12.687200 Y74.504900 Z-0.125000
G01 X12.402000 Y73.845400 Z-0.125000
G01 X11.328300 Y72.771700 Z-0.125000
G01 X11.021200 Y72.090500 Z-0.125000
G01 X11.073200 Y71.885300 Z-0.125000
G01 X11.275500 Y71.970600 Z-0.125000
G01 X12.410600 Y73.105700 Z-0.125000
G01 X12.627500 Y73.205700 Z-0.125000
G01 X12.711900 Y73.032800 Z-0.125000
G01 X12.655900 Y72.719600 Z-0.125000
G01 X12.451800 Y72.398600 Z-0.125000
G01 X10.337800 Y70.284500 Z-0.125000
G01 X10.300800 Y70.130600 Z-0.125000
G01 X10.612300 Y70.184800 Z-0.125000
G01 X11.448000 Y70.646400 Z-0.125000
G01 X12.580600 Y71.779000 Z-0.125000
G01 X12.846300 Y71.927800 Z-0.125000
G01 X13.038000 Y71.862200 Z-0.125000
G01 X13.089300 Y71.656300 Z-0.125000
G01 X12.934100 Y71.384100 Z-0.125000
G01 X12.471700 Y70.921800 Z-0.125000
G01 X12.408000 Y70.741100 Z-0.125000
G01 X12.660800 Y70.736700 Z-0.125000
G01 X13.411100 Y71.112800 Z-0.125000
G01 X13.819800 Y71.521500 Z-0.125000
G01 X14.523800 Y71.851300 Z-0.125000
G01 X14.744700 Y71.815000 Z-0.125000
G01 X14.666600 Y71.619900 Z-0.125000
G01 X14.271800 Y71.225100 Z-0.125000
G01 X14.182600 Y71.019000 Z-0.125000
G01 X14.379500 Y70.958600 Z-0.125000
G01 X15.048500 Y71.253400 Z-0.125000
G01 X15.323300 Y71.528300 Z-0.125000
G01 X15.625900 Y71.713900 Z-0.125000
G01 X15.898700 Y71.729500 Z-0.125000
G01 X16.031100 Y71.604700 Z-0.125000
G01 X15.912800 Y71.369400 Z-0.125000
G01 X15.746500 Y71.203100 Z-0.125000
G01 X15.632800 Y70.972500 Z-0.125000
G01 X15.775500 Y70.857900 Z-0.125000
G01 X16.058500 Y70.883700 Z-0.125000
G01 X16.365800 Y71.074000 Z-0.125000
G01 X16.445700 Y71.153900 Z-0.125000
G01 X16.733000 Y71.324400 Z-0.125000
G01 X16.972400 Y71.306500 Z-0.125000
G01 X17.071400 Y71.148200 Z-0.125000
G01 X16.937800 Y70.897700 Z-0.125000
G01 X16.905100 Y70.865000 Z-0.125000
G01 X16.766000 Y70.609000 Z-0.125000
G01 X16.853000 Y70.438700 Z-0.125000
G01 X17.080300 Y70.408800 Z-0.125000
G01 X17.362200 Y70.573800 Z-0.125000
G01 X17.382300 Y70.593900 Z-0.125000
G01 X17.655400 Y70.750000 Z-0.125000
G01 X17.863300 Y70.700600 Z-0.125000
G01 X17.930800 Y70.511000 Z-0.125000
G01 X17.782900 Y70.246100 Z-0.125000
G01 X17.733600 Y70.196800 Z-0.125000
G01 X17.567900 Y69.914200 Z-0.125000
G01 X17.596300 Y69.685300 Z-0.125000
G01 X17.765000 Y69.596700 Z-0.125000
G01 X18.020200 Y69.735100 Z-0.125000
G01 X18.131300 Y69.846100 Z-0.125000
G01 X18.385300 Y69.983200 Z-0.125000
G01 X18.551300 Y69.892000 Z-0.125000
G01 X18.577000 Y69.660400 Z-0.125000
G01 X18.410000 Y69.376500 Z-0.125000
G01 X18.238700 Y69.205200 Z-0.125000
G01 X18.045600 Y68.895200 Z-0.125000
G01 X18.013600 Y68.605900 Z-0.125000
G01 X18.122000 Y68.457000 Z-0.125000
G01 X18.349800 Y68.567900 Z-0.125000
G01 X18.584400 Y68.802500 Z-0.125000
G01 X18.813300 Y68.914500 Z-0.125000
G01 X18.924200 Y68.768100 Z-0.125000
G01 X18.894700 Y68.481400 Z-0.125000
G01 X18.702700 Y68.172500 Z-0.125000
G01 X17.956300 Y67.426000 Z-0.125000
G00 Z5.000000

(End cutting path id: path2)


(Start cutting path id: path2)
(Change tool to Default tool)

G00 Z5.000000
G00 X19.025500 Y67.746900

G01 Z-0.125000 F100.0(Penetrate)
G01 X11.923300 Y60.644800 Z-0.125000 F400.000000
G01 X11.763700 Y60.368200 Z-0.125000
G01 X11.805400 Y60.152700 Z-0.125000
G01 X11.987500 Y60.077500 Z-0.125000
G01 X12.248800 Y60.221900 Z-0.125000
G01 X13.087700 Y61.060700 Z-0.125000
G01 X13.308600 Y61.164700 Z-0.125000
G01 X13.401700 Y61.000600 Z-0.125000
G01 X13.354500 Y60.696200 Z-0.125000
G01 X13.154500 Y60.379200 Z-0.125000
G01 X12.453900 Y59.678700 Z-0.125000
G01 X12.268300 Y59.376100 Z-0.125000
G01 X12.252700 Y59.103300 Z-0.125000
G01 X12.377500 Y58.970800 Z-0.125000
G01 X12.612800 Y59.089100 Z-0.125000
G01 X13.221200 Y59.697600 Z-0.125000
G01 X13.442100 Y59.801600 Z-0.125000
G01 X13.535300 Y59.637500 Z-0.125000
G01 X13.488100 Y59.333000 Z-0.125000
G01 X13.288000 Y59.016100 Z-0.125000
G01 X12.748500 Y58.476600 Z-0.125000
G01 X12.557300 Y58.168400 Z-0.125000
G01 X12.529600 Y57.883400 Z-0.125000
G01 X12.642100 Y57.738700 Z-0.125000
G01 X12.871900 Y57.851500 Z-0.125000
G01 X13.354800 Y58.334500 Z-0.125000
G01 X13.575900 Y58.438600 Z-0.125000
G01 X13.669300 Y58.274800 Z-0.125000
G01 X13.622400 Y57.970700 Z-0.125000
G01 X13.422500 Y57.653900 Z-0.125000
G01 X12.988600 Y57.219900 Z-0.125000
G01 X12.795800 Y56.910200 Z-0.125000
G01 X12.764400 Y56.621500 Z-0.125000
G01 X12.873300 Y56.473200 Z-0.125000
G01 X13.101400 Y56.584400 Z-0.125000
G01 X13.498300 Y56.981300 Z-0.125000
G01 X13.722400 Y57.088400 Z-0.125000
G01 X13.822300 Y56.931100 Z-0.125000
G01 X13.781900 Y56.633500 Z-0.125000
G01 X13.585000 Y56.319600 Z-0.125000
G01 X13.211700 Y55.946300 Z-0.125000
G01 X13.018400 Y55.636100 Z-0.125000
G01 X12.986200 Y55.346600 Z-0.125000
G01 X13.094200 Y55.197400 Z-0.125000
G01 X13.321900 Y55.308200 Z-0.125000
G01 X13.680800 Y55.667100 Z-0.125000
G01 X13.907800 Y55.777200 Z-0.125000
G01 X14.014300 Y55.626400 Z-0.125000
G01 X13.980500 Y55.335300 Z-0.125000
G01 X13.786500 Y55.024500 Z-0.125000
G01 X13.433300 Y54.671300 Z-0.125000
G01 X13.240600 Y54.361600 Z-0.125000
G01 X13.209600 Y54.073300 Z-0.125000
G01 X13.318800 Y53.925300 Z-0.125000
G01 X13.547100 Y54.036700 Z-0.125000
G01 X13.896200 Y54.385800 Z-0.125000
G01 X14.125000 Y54.497600 Z-0.125000
G01 X14.235400 Y54.350800 Z-0.125000
G01 X14.205500 Y54.063700 Z-0.125000
G01 X14.013400 Y53.754600 Z-0.125000
G01 X13.660300 Y53.401500 Z-0.125000
G01 X13.469000 Y53.093300 Z-0.125000
G01 X13.441200 Y52.808200 Z-0.125000
G01 X13.553600 Y52.663400 Z-0.125000
G01 X13.783300 Y52.776100 Z-0.125000
G01 X14.135000 Y53.127900 Z-0.125000
G01 X14.365300 Y53.241200 Z-0.125000
G01 X14.479100 Y53.097800 Z-0.125000
G01 X14.452500 Y52.814000 Z-0.125000
G01 X14.261900 Y52.506400 Z-0.125000
G01 X13.906300 Y52.151000 Z-0.125000
G01 X13.715800 Y51.843000 Z-0.125000
G01 X13.689700 Y51.560000 Z-0.125000
G01 X13.803800 Y51.417000 Z-0.125000
G01 X14.034300 Y51.530000 Z-0.125000
G01 X14.393900 Y51.890000 Z-0.125000
G01 X14.625400 Y52.005000 Z-0.125000
G01 X14.741800 Y51.864000 Z-0.125000
G01 X14.717900 Y51.583000 Z-0.125000
G01 X14.528400 Y51.276000 Z-0.125000
G01 X14.166400 Y50.914000 Z-0.125000
G01 X13.976800 Y50.608000 Z-0.125000
G01 X13.952700 Y50.326000 Z-0.125000
G01 X14.068800 Y50.185000 Z-0.125000
G01 X14.300100 Y50.300000 Z-0.125000
G01 X14.669700 Y50.669000 Z-0.125000
G01 X14.902300 Y50.785000 Z-0.125000
G01 X15.021000 Y50.646000 Z-0.125000
G01 X14.999400 Y50.367000 Z-0.125000
G01 X14.811000 Y50.062000 Z-0.125000
G01 X14.441300 Y49.692000 Z-0.125000
G01 X14.252900 Y49.387000 Z-0.125000
G01 X14.231200 Y49.108000 Z-0.125000
G01 X14.349900 Y48.970000 Z-0.125000
G01 X14.582400 Y49.085000 Z-0.125000
G01 X14.960500 Y49.463000 Z-0.125000
G01 X15.194300 Y49.580000 Z-0.125000
G01 X15.316000 Y49.445000 Z-0.125000
G01 X15.297300 Y49.169000 Z-0.125000
G01 X15.110200 Y48.865000 Z-0.125000
G01 X14.730900 Y48.485000 Z-0.125000
G01 X14.543900 Y48.181000 Z-0.125000
G01 X14.525400 Y47.906000 Z-0.125000
G01 X14.647200 Y47.770000 Z-0.125000
G01 X14.881100 Y47.887000 Z-0.125000
G01 X15.264800 Y48.271000 Z-0.125000
G01 X15.499900 Y48.389000 Z-0.125000
G01 X15.624300 Y48.256000 Z-0.125000
G01 X15.608400 Y47.983000 Z-0.125000
G01 X15.422600 Y47.680000 Z-0.125000
G01 X15.035600 Y47.293000 Z-0.125000
G01 X14.850000 Y46.991000 Z-0.125000
G01 X14.834600 Y46.718000 Z-0.125000
G01 X14.959500 Y46.586000 Z-0.125000
G01 X15.194900 Y46.704000 Z-0.125000
G01 X15.581900 Y47.091000 Z-0.125000
G01 X15.818200 Y47.211000 Z-0.125000
G01 X15.945300 Y47.080000 Z-0.125000
G01 X15.932100 Y46.810000 Z-0.125000
G01 X15.747500 Y46.508000 Z-0.125000
G01 X15.355400 Y46.116000 Z-0.125000
G01 X15.171300 Y45.815000 Z-0.125000
G01 X15.159100 Y45.546000 Z-0.125000
G01 X15.287200 Y45.417000 Z-0.125000
G01 X15.524000 Y45.537000 Z-0.125000
G01 X15.913100 Y45.926000 Z-0.125000
G01 X16.150400 Y46.046000 Z-0.125000
G01 X16.279500 Y45.918000 Z-0.125000
G01 X16.268300 Y45.649000 Z-0.125000
G01 X16.084600 Y45.349000 Z-0.125000
G01 X15.692500 Y44.957000 Z-0.125000
G01 X15.509600 Y44.657000 Z-0.125000
G01 X15.500100 Y44.390000 Z-0.125000
G01 X15.630900 Y44.264000 Z-0.125000
G01 X15.869000 Y44.385000 Z-0.125000
G01 X16.258000 Y44.774000 Z-0.125000
G01 X16.496000 Y44.895000 Z-0.125000
G01 X16.626600 Y44.768000 Z-0.125000
G01 X16.617000 Y44.501000 Z-0.125000
G01 X16.434000 Y44.202000 Z-0.125000
G01 X16.047000 Y43.815000 Z-0.125000
G01 X15.865200 Y43.516000 Z-0.125000
G01 X15.858100 Y43.251000 Z-0.125000
G01 X15.991300 Y43.127000 Z-0.125000
G01 X16.230500 Y43.250000 Z-0.125000
G01 X16.615400 Y43.635000 Z-0.125000
G01 X16.854200 Y43.756000 Z-0.125000
G01 X16.986700 Y43.632000 Z-0.125000
G01 X16.978800 Y43.367000 Z-0.125000
G01 X16.796700 Y43.068000 Z-0.125000
G01 X16.418200 Y42.689000 Z-0.125000
G01 X16.237600 Y42.391000 Z-0.125000
G01 X16.233100 Y42.130000 Z-0.125000
G01 X16.369000 Y42.008000 Z-0.125000
G01 X16.609300 Y42.132000 Z-0.125000
G01 X16.985700 Y42.508000 Z-0.125000
G01 X17.225900 Y42.631000 Z-0.125000
G01 X17.361200 Y42.510000 Z-0.125000
G01 X17.356300 Y42.247000 Z-0.125000
G01 X17.175500 Y41.950000 Z-0.125000
G01 X16.807100 Y41.581000 Z-0.125000
G01 X16.627800 Y41.285000 Z-0.125000
G01 X16.626200 Y41.026000 Z-0.125000
G01 X16.764800 Y40.908000 Z-0.125000
G01 X17.006500 Y41.032000 Z-0.125000
G01 X17.370100 Y41.396000 Z-0.125000
G01 X17.611700 Y41.521000 Z-0.125000
G01 X17.750100 Y41.402000 Z-0.125000
G01 X17.748300 Y41.143000 Z-0.125000
G01 X17.568900 Y40.846000 Z-0.125000
G01 X17.214900 Y40.492000 Z-0.125000
G01 X17.037000 Y40.197000 Z-0.125000
G01 X17.038400 Y39.942000 Z-0.125000
G01 X17.180200 Y39.826000 Z-0.125000
G01 X17.423300 Y39.952000 Z-0.125000
G01 X17.770100 Y40.299000 Z-0.125000
G01 X18.013200 Y40.425000 Z-0.125000
G01 X18.155100 Y40.310000 Z-0.125000
G01 X18.156700 Y40.054000 Z-0.125000
G01 X17.978800 Y39.760000 Z-0.125000
G01 X17.642900 Y39.424000 Z-0.125000
G01 X17.466700 Y39.130000 Z-0.125000
G01 X17.472000 Y38.879000 Z-0.125000
G01 X17.617700 Y38.767000 Z-0.125000
G01 X17.862400 Y38.895000 Z-0.125000
G01 X18.187500 Y39.220000 Z-0.125000
G01 X18.431900 Y39.347000 Z-0.125000
G01 X18.576800 Y39.235000 Z-0.125000
G01 X18.581300 Y38.982000 Z-0.125000
G01 X18.404800 Y38.689000 Z-0.125000
G01 X18.090000 Y38.374000 Z-0.125000
G01 X17.916100 Y38.083000 Z-0.125000
G01 X17.926300 Y37.836000 Z-0.125000
G01 X18.076800 Y37.729000 Z-0.125000
G01 X18.323900 Y37.859000 Z-0.125000
G01 X18.627800 Y38.163000 Z-0.125000
G01 X18.874100 Y38.293000 Z-0.125000
G01 X19.023000 Y38.184000 Z-0.125000
G01 X19.031700 Y37.936000 Z-0.125000
G01 X18.857000 Y37.644000 Z-0.125000
G01 X18.564000 Y37.351000 Z-0.125000
G01 X18.392100 Y37.062000 Z-0.125000
G01 X18.406700 Y36.820000 Z-0.125000
G01 X18.561700 Y36.718000 Z-0.125000
G01 X18.810800 Y36.850000 Z-0.125000
G01 X19.093500 Y37.132000 Z-0.125000
G01 X19.342000 Y37.264000 Z-0.125000
G01 X19.496000 Y37.161000 Z-0.125000
G01 X19.509700 Y36.917000 Z-0.125000
G01 X19.337300 Y36.628000 Z-0.125000
G01 X19.064300 Y36.355000 Z-0.125000
G01 X18.894800 Y36.068000 Z-0.125000
G01 X18.914600 Y35.831000 Z-0.125000
G01 X19.074800 Y35.734000 Z-0.125000
G01 X19.326200 Y35.868000 Z-0.125000
G01 X19.581500 Y36.124000 Z-0.125000
G01 X19.830500 Y36.256000 Z-0.125000
G01 X19.985500 Y36.154000 Z-0.125000
G01 X20.000200 Y35.911000 Z-0.125000
G01 X19.828300 Y35.622000 Z-0.125000
G01 X19.596200 Y35.390000 Z-0.125000
G01 X19.429200 Y35.106000 Z-0.125000
G01 X19.454600 Y34.874000 Z-0.125000
G01 X19.620300 Y34.783000 Z-0.125000
G01 X19.874200 Y34.920000 Z-0.125000
G01 X20.081400 Y35.127000 Z-0.125000
G01 X20.332600 Y35.261000 Z-0.125000
G01 X20.492300 Y35.164000 Z-0.125000
G01 X20.511700 Y34.926000 Z-0.125000
G01 X20.342000 Y34.639000 Z-0.125000
G01 X20.155500 Y34.453000 Z-0.125000
G01 X19.988900 Y34.169000 Z-0.125000
G01 X20.015500 Y33.938000 Z-0.125000
G01 X20.182300 Y33.848000 Z-0.125000
G01 X20.436700 Y33.986000 Z-0.125000
G01 X20.614000 Y34.163000 Z-0.125000
G01 X20.869600 Y34.302000 Z-0.125000
G01 X21.039200 Y34.214000 Z-0.125000
G01 X21.068400 Y33.986000 Z-0.125000
G01 X20.903100 Y33.704000 Z-0.125000
G01 X20.718000 Y33.518000 Z-0.125000
G01 X20.551500 Y33.235000 Z-0.125000
G01 X20.578000 Y33.004000 Z-0.125000
G01 X20.744800 Y32.914000 Z-0.125000
G01 X20.999300 Y33.051000 Z-0.125000
G01 X21.226000 Y33.278000 Z-0.125000
G01 X21.497000 Y33.432000 Z-0.125000
G01 X21.700400 Y33.378000 Z-0.125000
G01 X21.763500 Y33.184000 Z-0.125000
G01 X21.613600 Y32.917000 Z-0.125000
G01 X21.280500 Y32.584000 Z-0.125000
G01 X21.114000 Y32.301000 Z-0.125000
G01 X21.140500 Y32.070000 Z-0.125000
G01 X21.307400 Y31.980000 Z-0.125000
G01 X21.561800 Y32.117000 Z-0.125000
G01 X22.162400 Y32.718000 Z-0.125000
G01 X23.004200 Y33.185000 Z-0.125000
G01 X23.319900 Y33.244000 Z-0.125000
G01 X23.284800 Y33.092000 Z-0.125000
G01 X21.843100 Y31.650000 Z-0.125000
G01 X21.643900 Y31.334000 Z-0.125000
G01 X21.598600 Y31.031000 Z-0.125000
G01 X21.693600 Y30.869000 Z-0.125000
G01 X21.915300 Y30.974000 Z-0.125000
G01 X24.342800 Y33.401000 Z-0.125000
G01 X25.070500 Y33.755000 Z-0.125000
G01 X25.307800 Y33.735000 Z-0.125000
G01 X25.237000 Y33.547000 Z-0.125000
G01 X24.827800 Y33.138000 Z-0.125000
G01 X24.761000 Y32.954000 Z-0.125000
G01 X25.007100 Y32.943000 Z-0.125000
G01 X25.747700 Y33.310000 Z-0.125000
G01 X25.987700 Y33.550000 Z-0.125000
G01 X26.299200 Y33.744000 Z-0.125000
G01 X26.591600 Y33.779000 Z-0.125000
G01 X26.743600 Y33.674000 Z-0.125000
G01 X26.634100 Y33.448000 Z-0.125000
G01 X26.459500 Y33.273000 Z-0.125000
G01 X26.350000 Y33.047000 Z-0.125000
G01 X26.501900 Y32.941000 Z-0.125000
G01 X26.794200 Y32.976000 Z-0.125000
G01 X27.105700 Y33.171000 Z-0.125000
G01 X27.178300 Y33.244000 Z-0.125000
G01 X27.460600 Y33.409000 Z-0.125000
G01 X27.688900 Y33.380000 Z-0.125000
G01 X27.776900 Y33.211000 Z-0.125000
G01 X27.638300 Y32.955000 Z-0.125000
G01 X27.618300 Y32.935000 Z-0.125000
G01 X27.482500 Y32.683000 Z-0.125000
G01 X27.557900 Y32.501000 Z-0.125000
G01 X27.766900 Y32.452000 Z-0.125000
G01 X28.031900 Y32.601000 Z-0.125000
G01 X28.031900 Y32.601000 Z-0.125000
G01 X28.280400 Y32.732000 Z-0.125000
G01 X28.452800 Y32.647000 Z-0.125000
G01 X28.491700 Y32.429000 Z-0.125000
G01 X28.339300 Y32.160000 Z-0.125000
G01 X28.338000 Y32.159000 Z-0.125000
G01 X28.168800 Y31.872000 Z-0.125000
G01 X28.172300 Y31.619000 Z-0.125000
G01 X28.310100 Y31.499000 Z-0.125000
G01 X28.543700 Y31.616000 Z-0.125000
G01 X28.567000 Y31.639000 Z-0.125000
G01 X28.805300 Y31.761000 Z-0.125000
G01 X28.936700 Y31.635000 Z-0.125000
G01 X28.927800 Y31.369000 Z-0.125000
G01 X28.745100 Y31.069000 Z-0.125000
G01 X28.670300 Y30.994000 Z-0.125000
G01 X28.467200 Y30.674000 Z-0.125000
G01 X28.413200 Y30.363000 Z-0.125000
G01 X28.499600 Y30.192000 Z-0.125000
G01 X28.717500 Y30.293000 Z-0.125000
G01 X28.863100 Y30.439000 Z-0.125000
G01 X29.082900 Y30.541000 Z-0.125000
G01 X29.173600 Y30.375000 Z-0.125000
G01 X29.124000 Y30.068000 Z-0.125000
G01 X28.922900 Y29.750000 Z-0.125000
G01 X28.703500 Y29.531000 Z-0.125000
G01 X28.394500 Y28.847000 Z-0.125000
G01 X28.445100 Y28.641000 Z-0.125000
G01 X28.646700 Y28.725000 Z-0.125000
G01 X28.934600 Y29.013000 Z-0.125000
G01 X29.147200 Y29.109000 Z-0.125000
G01 X29.222000 Y28.927000 Z-0.125000
G01 X28.948100 Y28.278000 Z-0.125000
G01 X28.552500 Y27.883000 Z-0.125000
G01 X28.214300 Y27.171000 Z-0.125000
G01 X28.244900 Y26.944000 Z-0.125000
G01 X28.437400 Y27.019000 Z-0.125000
G01 X29.035300 Y27.617000 Z-0.125000
G01 X29.285900 Y27.751000 Z-0.125000
G01 X29.444300 Y27.652000 Z-0.125000
G01 X29.462300 Y27.413000 Z-0.125000
G01 X29.292000 Y27.126000 Z-0.125000
G01 X28.022800 Y25.856000 Z-0.125000
G00 Z5.000000

(End cutting path id: path2)


(Start cutting path id: path2)
(Change tool to Default tool)

G00 Z5.000000
G00 X32.011800 Y29.670000

G01 Z-0.125000 F100.0(Penetrate)
G01 X30.351600 Y31.671000 Z-0.125000 F400.000000
G01 X28.768900 Y34.158000 Z-0.125000
G01 X27.276800 Y37.097000 Z-0.125000
G01 X25.888500 Y40.453000 Z-0.125000
G01 X24.617100 Y44.191000 Z-0.125000
G01 X23.475700 Y48.274000 Z-0.125000
G01 X22.477400 Y52.670200 Z-0.125000
G01 X21.635200 Y57.342600 Z-0.125000
G01 X21.072600 Y62.362300 Z-0.125000
G01 X20.795600 Y68.257200 Z-0.125000
G01 X20.789200 Y74.748000 Z-0.125000
G01 X21.038200 Y81.554900 Z-0.125000
G01 X21.527600 Y88.398600 Z-0.125000
G01 X22.242200 Y94.999300 Z-0.125000
G01 X23.166800 Y101.077700 Z-0.125000
G01 X24.286400 Y106.354100 Z-0.125000
G01 X25.221700 Y109.694500 Z-0.125000
G01 X26.288600 Y112.890800 Z-0.125000
G01 X27.458900 Y115.885900 Z-0.125000
G01 X28.704400 Y118.622400 Z-0.125000
G01 X29.996900 Y121.042900 Z-0.125000
G01 X31.308300 Y123.090100 Z-0.125000
G01 X32.610200 Y124.706900 Z-0.125000
G01 X33.874600 Y125.835700 Z-0.125000
G01 X35.341700 Y126.863300 Z-0.125000
G01 X33.178700 Y126.863300 Z-0.125000
G01 X31.890000 Y126.755800 Z-0.125000
G01 X30.556600 Y126.444400 Z-0.125000
G01 X29.208000 Y125.945700 Z-0.125000
G01 X27.873300 Y125.276300 Z-0.125000
G01 X26.581900 Y124.453000 Z-0.125000
G01 X25.363000 Y123.492300 Z-0.125000
G01 X24.245800 Y122.410800 Z-0.125000
G01 X23.259700 Y121.225300 Z-0.125000
G01 X21.561800 Y118.706900 Z-0.125000
G01 X21.064200 Y117.697100 Z-0.125000
G01 X20.787000 Y116.782000 Z-0.125000
G01 X20.719900 Y115.907900 Z-0.125000
G01 X20.852600 Y115.021100 Z-0.125000
G01 X21.676000 Y112.994500 Z-0.125000
G01 X22.608400 Y110.815300 Z-0.125000
G01 X22.996200 Y109.210000 Z-0.125000
G01 X22.894900 Y108.561700 Z-0.125000
G01 X22.609300 Y107.930500 Z-0.125000
G01 X21.593100 Y106.805300 Z-0.125000
G01 X20.164300 Y106.004900 Z-0.125000
G01 X19.363000 Y105.780000 Z-0.125000
G01 X18.539700 Y105.700200 Z-0.125000
G01 X17.528100 Y105.621500 Z-0.125000
G01 X16.866300 Y105.300800 Z-0.125000
G01 X16.414100 Y104.611000 Z-0.125000
G01 X16.031800 Y103.425200 Z-0.125000
G01 X15.028100 Y98.780200 Z-0.125000
G01 X14.144600 Y93.004400 Z-0.125000
G01 X13.453700 Y86.653600 Z-0.125000
G01 X13.027300 Y80.283800 Z-0.125000
G01 X12.831600 Y75.265600 Z-0.125000
G01 X12.864200 Y72.691600 Z-0.125000
G01 X12.991300 Y72.088000 Z-0.125000
G01 X13.205800 Y71.815500 Z-0.125000
G01 X13.517900 Y71.781000 Z-0.125000
G01 X13.937600 Y71.891200 Z-0.125000
G01 X14.653200 Y72.016400 Z-0.125000
G01 X15.420500 Y71.975600 Z-0.125000
G01 X16.955200 Y71.474600 Z-0.125000
G01 X18.232000 Y70.545900 Z-0.125000
G01 X18.676700 Y69.970300 Z-0.125000
G01 X18.940800 Y69.346900 Z-0.125000
G01 X19.157600 Y67.721400 Z-0.125000
G01 X19.067400 Y67.022700 Z-0.125000
G01 X18.829100 Y66.368100 Z-0.125000
G01 X17.861100 Y65.096400 Z-0.125000
G01 X16.159400 Y63.715500 Z-0.125000
G01 X13.457500 Y61.786900 Z-0.125000
G01 X13.822900 Y58.058800 Z-0.125000
G01 X14.605700 Y53.123400 Z-0.125000
G01 X15.959300 Y47.515000 Z-0.125000
G01 X17.665700 Y42.024000 Z-0.125000
G01 X19.507400 Y37.440000 Z-0.125000
G01 X20.668700 Y35.109000 Z-0.125000
G01 X21.514700 Y33.752000 Z-0.125000
G01 X22.189700 Y33.187000 Z-0.125000
G01 X22.838300 Y33.231000 Z-0.125000
G01 X24.300800 Y33.738000 Z-0.125000
G01 X25.593100 Y33.963000 Z-0.125000
G01 X26.707600 Y33.910000 Z-0.125000
G01 X27.636700 Y33.583000 Z-0.125000
G01 X28.372600 Y32.987000 Z-0.125000
G01 X28.907800 Y32.127000 Z-0.125000
G01 X29.234500 Y31.005000 Z-0.125000
G01 X29.345100 Y29.626000 Z-0.125000
G01 X29.387200 Y28.222000 Z-0.125000
G01 X29.668900 Y27.497000 Z-0.125000
G01 X30.423400 Y27.226000 Z-0.125000
G01 X31.884000 Y27.185000 Z-0.125000
G01 X34.422800 Y27.185000 Z-0.125000
G01 X32.011800 Y29.670000 Z-0.125000
G00 Z5.000000

(End cutting path id: path2)


(Start cutting path id: path2)
(Change tool to Default tool)

G00 Z5.000000
G00 X34.150400 Y25.997000

G01 Z-0.125000 F100.0(Penetrate)
G01 X35.743200 Y27.590000 Z-0.125000 F400.000000
G01 X36.035000 Y27.765000 Z-0.125000
G01 X36.284100 Y27.756000 Z-0.125000
G01 X36.392800 Y27.608000 Z-0.125000
G01 X36.263700 Y27.362000 Z-0.125000
G01 X35.221400 Y26.320000 Z-0.125000
G01 X35.135000 Y26.116000 Z-0.125000
G01 X35.337700 Y26.062000 Z-0.125000
G01 X36.015300 Y26.365000 Z-0.125000
G01 X36.817300 Y27.167000 Z-0.125000
G01 X37.120500 Y27.353000 Z-0.125000
G01 X37.394400 Y27.370000 Z-0.125000
G01 X37.528100 Y27.247000 Z-0.125000
G01 X37.410300 Y27.012000 Z-0.125000
G01 X36.814600 Y26.416000 Z-0.125000
G01 X36.731200 Y26.216000 Z-0.125000
G01 X36.940700 Y26.168000 Z-0.125000
G01 X37.628000 Y26.481000 Z-0.125000
G01 X38.064600 Y26.918000 Z-0.125000
G01 X38.385200 Y27.121000 Z-0.125000
G01 X38.697700 Y27.177000 Z-0.125000
G01 X38.869800 Y27.092000 Z-0.125000
G01 X38.769500 Y26.874000 Z-0.125000
G01 X38.450000 Y26.555000 Z-0.125000
G01 X38.370200 Y26.358000 Z-0.125000
G01 X38.587600 Y26.318000 Z-0.125000
G01 X39.286500 Y26.643000 Z-0.125000
G01 X39.560800 Y26.917000 Z-0.125000
G01 X40.328700 Y27.311000 Z-0.125000
G01 X40.593500 Y27.319000 Z-0.125000
G01 X40.535300 Y27.143000 Z-0.125000
G01 X40.141100 Y26.749000 Z-0.125000
G01 X40.067200 Y26.558000 Z-0.125000
G01 X40.297500 Y26.531000 Z-0.125000
G01 X41.015300 Y26.875000 Z-0.125000
G01 X41.965500 Y27.825000 Z-0.125000
G00 Z5.000000

(End cutting path id: path2)


(Start cutting path id: path2)
(Change tool to Default tool)

G00 Z5.000000
G00 X41.611500 Y27.777000

G01 Z-0.125000 F100.0(Penetrate)
G01 X43.307000 Y28.714000 Z-0.125000 F400.000000
G01 X45.012100 Y30.214000 Z-0.125000
G01 X46.696200 Y32.226000 Z-0.125000
G01 X48.328800 Y34.698000 Z-0.125000
G01 X49.879300 Y37.579000 Z-0.125000
G01 X51.317200 Y40.817000 Z-0.125000
G01 X52.612100 Y44.361000 Z-0.125000
G01 X53.733200 Y48.159000 Z-0.125000
G01 X54.625300 Y51.816000 Z-0.125000
G01 X55.352900 Y55.564000 Z-0.125000
G01 X56.942700 Y67.024700 Z-0.125000
G01 X57.036500 Y68.156300 Z-0.125000
G01 X56.879200 Y68.775700 Z-0.125000
G01 X56.351900 Y69.035400 Z-0.125000
G01 X55.335800 Y69.088100 Z-0.125000
G01 X54.329700 Y69.027200 Z-0.125000
G01 X53.768100 Y68.747300 Z-0.125000
G01 X53.524100 Y68.103200 Z-0.125000
G01 X53.471000 Y66.949200 Z-0.125000
G01 X53.153300 Y63.315200 Z-0.125000
G01 X52.333900 Y58.463400 Z-0.125000
G01 X51.213100 Y53.416100 Z-0.125000
G01 X49.991200 Y49.195000 Z-0.125000
G01 X48.587600 Y45.705000 Z-0.125000
G01 X47.037200 Y42.848000 Z-0.125000
G01 X45.365100 Y40.640000 Z-0.125000
G01 X43.596400 Y39.098000 Z-0.125000
G01 X42.683700 Y38.582000 Z-0.125000
G01 X41.756400 Y38.239000 Z-0.125000
G01 X40.817400 Y38.071000 Z-0.125000
G01 X39.870000 Y38.079000 Z-0.125000
G01 X38.917400 Y38.267000 Z-0.125000
G01 X37.962600 Y38.636000 Z-0.125000
G01 X37.008800 Y39.189000 Z-0.125000
G01 X36.059200 Y39.926000 Z-0.125000
G01 X34.566100 Y41.521000 Z-0.125000
G01 X33.205200 Y43.545000 Z-0.125000
G01 X31.979900 Y45.966000 Z-0.125000
G01 X30.893800 Y48.748000 Z-0.125000
G01 X29.950600 Y51.858000 Z-0.125000
G01 X29.153600 Y55.262800 Z-0.125000
G01 X28.506500 Y58.926900 Z-0.125000
G01 X28.012800 Y62.816800 Z-0.125000
G01 X27.676100 Y66.898300 Z-0.125000
G01 X27.499800 Y71.137500 Z-0.125000
G01 X27.487700 Y75.500300 Z-0.125000
G01 X27.643100 Y79.952600 Z-0.125000
G01 X27.969700 Y84.460400 Z-0.125000
G01 X28.471000 Y88.989500 Z-0.125000
G01 X29.150500 Y93.506000 Z-0.125000
G01 X30.011900 Y97.975700 Z-0.125000
G01 X30.629500 Y100.457100 Z-0.125000
G01 X31.409400 Y102.971800 Z-0.125000
G01 X33.305300 Y107.770500 Z-0.125000
G01 X34.345900 Y109.889600 Z-0.125000
G01 X35.398000 Y111.711600 Z-0.125000
G01 X36.424100 Y113.154200 Z-0.125000
G01 X37.386400 Y114.134700 Z-0.125000
G01 X38.850300 Y114.923400 Z-0.125000
G01 X40.648600 Y115.359800 Z-0.125000
G01 X42.528000 Y115.410300 Z-0.125000
G01 X44.235200 Y115.041400 Z-0.125000
G01 X44.808100 Y114.675800 Z-0.125000
G01 X45.493800 Y114.002400 Z-0.125000
G01 X47.057600 Y111.950000 Z-0.125000
G01 X48.634500 Y109.319600 Z-0.125000
G01 X49.932400 Y106.546800 Z-0.125000
G01 X50.615600 Y104.542300 Z-0.125000
G01 X51.270300 Y102.105900 Z-0.125000
G01 X52.444000 Y96.241300 Z-0.125000
G01 X53.352500 Y89.561600 Z-0.125000
G01 X53.894700 Y82.675400 Z-0.125000
G01 X54.302800 Y74.167300 Z-0.125000
G01 X55.886400 Y74.167300 Z-0.125000
G01 X57.470000 Y74.167300 Z-0.125000
G01 X57.073300 Y84.166800 Z-0.125000
G01 X56.816200 Y88.667400 Z-0.125000
G01 X56.412600 Y93.007000 Z-0.125000
G01 X55.869900 Y97.167900 Z-0.125000
G01 X55.195600 Y101.132100 Z-0.125000
G01 X54.396800 Y104.881800 Z-0.125000
G01 X53.481000 Y108.399100 Z-0.125000
G01 X52.455600 Y111.666200 Z-0.125000
G01 X51.327800 Y114.665300 Z-0.125000
G01 X50.105000 Y117.378300 Z-0.125000
G01 X48.794600 Y119.787600 Z-0.125000
G01 X47.403900 Y121.875200 Z-0.125000
G01 X45.940300 Y123.623300 Z-0.125000
G01 X44.411000 Y125.014000 Z-0.125000
G01 X42.823600 Y126.029500 Z-0.125000
G01 X41.185300 Y126.651900 Z-0.125000
G01 X39.503400 Y126.863300 Z-0.125000
G01 X37.942700 Y126.688000 Z-0.125000
G01 X36.432200 Y126.167200 Z-0.125000
G01 X34.975100 Y125.308500 Z-0.125000
G01 X33.574800 Y124.119500 Z-0.125000
G01 X32.234400 Y122.607900 Z-0.125000
G01 X30.957200 Y120.781200 Z-0.125000
G01 X29.746600 Y118.647200 Z-0.125000
G01 X28.605700 Y116.213300 Z-0.125000
G01 X27.537800 Y113.487300 Z-0.125000
G01 X26.546200 Y110.476800 Z-0.125000
G01 X24.804800 Y103.632600 Z-0.125000
G01 X23.407800 Y95.741700 Z-0.125000
G01 X22.381100 Y86.865100 Z-0.125000
G01 X21.894200 Y78.687000 Z-0.125000
G01 X21.885700 Y70.681600 Z-0.125000
G01 X22.336700 Y62.970500 Z-0.125000
G01 X23.228100 Y55.675100 Z-0.125000
G01 X24.540800 Y48.917000 Z-0.125000
G01 X26.255800 Y42.818000 Z-0.125000
G01 X27.258200 Y40.054000 Z-0.125000
G01 X28.354000 Y37.499000 Z-0.125000
G01 X29.540800 Y35.171000 Z-0.125000
G01 X30.816300 Y33.083000 Z-0.125000
G01 X32.085900 Y31.362000 Z-0.125000
G01 X33.379000 Y29.943000 Z-0.125000
G01 X34.695100 Y28.826000 Z-0.125000
G01 X36.033900 Y28.011000 Z-0.125000
G01 X37.395300 Y27.499000 Z-0.125000
G01 X38.778900 Y27.289000 Z-0.125000
G01 X40.184400 Y27.382000 Z-0.125000
G01 X41.611500 Y27.777000 Z-0.125000
G01 X41.611500 Y27.777000 Z-0.125000
G00 Z5.000000

(End cutting path id: path2)


(Start cutting path id: path2)
(Change tool to Default tool)

G00 Z5.000000
G00 X44.902300 Y28.517000

G01 Z-0.125000 F100.0(Penetrate)
G01 X45.730400 Y29.345000 Z-0.125000 F400.000000
G00 Z5.000000

(End cutting path id: path2)


(Start cutting path id: path2)
(Change tool to Default tool)

G00 Z5.000000
G00 X49.898200 Y35.010000

G01 Z-0.125000 F100.0(Penetrate)
G01 X41.915900 Y27.027000 Z-0.125000 F400.000000
G01 X41.859000 Y26.854000 Z-0.125000
G01 X42.126700 Y26.864000 Z-0.125000
G01 X42.898600 Y27.262000 Z-0.125000
G01 X48.697900 Y33.061000 Z-0.125000
G00 Z5.000000

(End cutting path id: path2)


(Start cutting path id: path2)
(Change tool to Default tool)

G00 Z5.000000
G00 X50.736200 Y36.596000

G01 Z-0.125000 F100.0(Penetrate)
G01 X47.629200 Y33.489000 Z-0.125000 F400.000000
G00 Z5.000000

(End cutting path id: path2)


(Start cutting path id: path2)
(Change tool to Default tool)

G00 Z5.000000
G00 X44.123200 Y40.760000

G01 Z-0.125000 F100.0(Penetrate)
G01 X45.424700 Y42.252000 Z-0.125000 F400.000000
G01 X46.685800 Y44.247000 Z-0.125000
G01 X47.879100 Y46.667000 Z-0.125000
G01 X48.977300 Y49.435000 Z-0.125000
G01 X49.953000 Y52.474200 Z-0.125000
G01 X50.778700 Y55.708900 Z-0.125000
G01 X51.427200 Y59.061800 Z-0.125000
G01 X51.871000 Y62.456400 Z-0.125000
G01 X52.625700 Y68.018700 Z-0.125000
G01 X52.707200 Y68.610200 Z-0.125000
G01 X52.458700 Y68.931500 Z-0.125000
G01 X51.765100 Y69.034500 Z-0.125000
G01 X50.511300 Y68.971100 Z-0.125000
G01 X48.074400 Y68.770700 Z-0.125000
G01 X47.881500 Y65.409000 Z-0.125000
G01 X47.855900 Y63.697400 Z-0.125000
G01 X48.019400 Y62.301000 Z-0.125000
G01 X48.402600 Y61.073100 Z-0.125000
G01 X49.036100 Y59.867100 Z-0.125000
G01 X49.629100 Y58.769000 Z-0.125000
G01 X50.008900 Y57.735900 Z-0.125000
G01 X50.175100 Y56.764800 Z-0.125000
G01 X50.127000 Y55.852700 Z-0.125000
G01 X49.864100 Y54.996500 Z-0.125000
G01 X49.385900 Y54.193200 Z-0.125000
G01 X48.691900 Y53.439700 Z-0.125000
G01 X47.781500 Y52.733000 Z-0.125000
G01 X46.768500 Y51.913000 Z-0.125000
G01 X45.870100 Y50.898000 Z-0.125000
G01 X45.105900 Y49.715000 Z-0.125000
G01 X44.495800 Y48.390000 Z-0.125000
G01 X43.213600 Y45.641000 Z-0.125000
G01 X41.670900 Y43.314000 Z-0.125000
G01 X40.032300 Y41.616000 Z-0.125000
G01 X39.228400 Y41.069000 Z-0.125000
G01 X38.462200 Y40.756000 Z-0.125000
G01 X37.392700 Y40.320000 Z-0.125000
G01 X37.381100 Y40.084000 Z-0.125000
G01 X37.697100 Y39.809000 Z-0.125000
G01 X38.380300 Y39.485000 Z-0.125000
G01 X39.165900 Y39.298000 Z-0.125000
G01 X40.907900 Y39.313000 Z-0.125000
G01 X42.651000 Y39.814000 Z-0.125000
G01 X44.123200 Y40.760000 Z-0.125000
G01 X44.123200 Y40.760000 Z-0.125000
G00 Z5.000000

(End cutting path id: path2)


(Start cutting path id: path2)
(Change tool to Default tool)

G00 Z5.000000
G00 X40.318400 Y41.894000

G01 Z-0.125000 F100.0(Penetrate)
G01 X41.161700 Y42.737000 Z-0.125000 F400.000000
G00 Z5.000000

(End cutting path id: path2)


(Start cutting path id: path2)
(Change tool to Default tool)

G00 Z5.000000
G00 X40.157800 Y43.636000

G01 Z-0.125000 F100.0(Penetrate)
G01 X41.156100 Y44.838000 Z-0.125000 F400.000000
G01 X42.127900 Y46.275000 Z-0.125000
G01 X42.961900 Y47.767000 Z-0.125000
G01 X43.547000 Y49.133000 Z-0.125000
G01 X44.573800 Y52.147000 Z-0.125000
G01 X41.570200 Y58.356400 Z-0.125000
G01 X38.566600 Y64.566200 Z-0.125000
G01 X36.529500 Y54.923000 Z-0.125000
G01 X35.165600 Y48.336000 Z-0.125000
G01 X34.593000 Y44.780000 Z-0.125000
G01 X34.572200 Y43.778000 Z-0.125000
G01 X34.711800 Y43.102000 Z-0.125000
G01 X34.999200 Y42.608000 Z-0.125000
G01 X35.421900 Y42.151000 Z-0.125000
G01 X36.413300 Y41.378000 Z-0.125000
G01 X36.876000 Y41.252000 Z-0.125000
G01 X37.360100 Y41.313000 Z-0.125000
G01 X38.521800 Y42.039000 Z-0.125000
G01 X40.157800 Y43.636000 Z-0.125000
G01 X40.157800 Y43.636000 Z-0.125000
G00 Z5.000000

(End cutting path id: path2)


(Start cutting path id: path2)
(Change tool to Default tool)

G00 Z5.000000
G00 X38.544900 Y40.869000

G01 Z-0.125000 F100.0(Penetrate)
G01 X42.698600 Y45.022000 Z-0.125000 F400.000000
G00 Z5.000000

(End cutting path id: path2)


(Start cutting path id: path2)
(Change tool to Default tool)

G00 Z5.000000
G00 X42.899100 Y47.468000

G01 Z-0.125000 F100.0(Penetrate)
G01 X44.781100 Y49.350000 Z-0.125000 F400.000000
G00 Z5.000000

(End cutting path id: path2)


(Start cutting path id: path2)
(Change tool to Default tool)

G00 Z5.000000
G00 X48.264900 Y53.977700

G01 Z-0.125000 F100.0(Penetrate)
G01 X48.665300 Y54.491200 Z-0.125000 F400.000000
G01 X48.902200 Y55.084200 Z-0.125000
G01 X48.970800 Y55.777400 Z-0.125000
G01 X48.866800 Y56.591500 Z-0.125000
G01 X48.122600 Y58.665500 Z-0.125000
G01 X46.633400 Y61.472200 Z-0.125000
G01 X45.267100 Y63.722100 Z-0.125000
G01 X44.244000 Y64.987200 Z-0.125000
G01 X43.225200 Y65.575000 Z-0.125000
G01 X41.871700 Y65.793300 Z-0.125000
G01 X40.199100 Y65.823800 Z-0.125000
G01 X39.503400 Y65.620400 Z-0.125000
G01 X40.315200 Y63.704100 Z-0.125000
G01 X42.157100 Y59.954600 Z-0.125000
G01 X44.138200 Y56.135300 Z-0.125000
G01 X45.368000 Y54.009400 Z-0.125000
G01 X46.023100 Y53.444100 Z-0.125000
G01 X46.751000 Y53.250100 Z-0.125000
G01 X47.511700 Y53.427800 Z-0.125000
G01 X48.264900 Y53.977700 Z-0.125000
G01 X48.264900 Y53.977700 Z-0.125000
G00 Z5.000000

(End cutting path id: path2)


(Start cutting path id: path2)
(Change tool to Default tool)

G00 Z5.000000
G00 X47.440900 Y43.778000

G01 Z-0.125000 F100.0(Penetrate)
G01 X42.357000 Y38.694000 Z-0.125000 F400.000000
G01 X42.362800 Y38.583000 Z-0.125000
G01 X42.768700 Y38.731000 Z-0.125000
G01 X43.741700 Y39.330000 Z-0.125000
G01 X46.044800 Y41.633000 Z-0.125000
G00 Z5.000000

(End cutting path id: path2)


(Start cutting path id: path2)
(Change tool to Default tool)

G00 Z5.000000
G00 X52.862900 Y44.709000

G01 Z-0.125000 F100.0(Penetrate)
G01 X54.278500 Y46.125000 Z-0.125000 F400.000000
G01 X54.428800 Y46.158000 Z-0.125000
G01 X54.366500 Y45.839000 Z-0.125000
G01 X53.893200 Y44.991000 Z-0.125000
G01 X52.706400 Y43.805000 Z-0.125000
G01 X52.252300 Y42.976000 Z-0.125000
G01 X52.203300 Y42.670000 Z-0.125000
G01 X52.359600 Y42.709000 Z-0.125000
G01 X53.581800 Y43.932000 Z-0.125000
G01 X53.727900 Y43.961000 Z-0.125000
G01 X53.656300 Y43.632000 Z-0.125000
G01 X53.169600 Y42.771000 Z-0.125000
G01 X51.898600 Y41.500000 Z-0.125000
G01 X51.362600 Y40.590000 Z-0.125000
G01 X51.257100 Y40.227000 Z-0.125000
G01 X51.387800 Y40.241000 Z-0.125000
G01 X52.922000 Y41.775000 Z-0.125000
G01 X53.110700 Y41.847000 Z-0.125000
G01 X53.132800 Y41.612000 Z-0.125000
G01 X52.782300 Y40.887000 Z-0.125000
G01 X50.625400 Y38.730000 Z-0.125000
G01 X50.088300 Y37.819000 Z-0.125000
G01 X49.982100 Y37.455000 Z-0.125000
G01 X50.112400 Y37.469000 Z-0.125000
G01 X52.768000 Y40.124000 Z-0.125000
G01 X52.996500 Y40.236000 Z-0.125000
G01 X53.106200 Y40.089000 Z-0.125000
G01 X53.075700 Y39.801000 Z-0.125000
G01 X52.883300 Y39.491000 Z-0.125000
G01 X48.846200 Y35.454000 Z-0.125000
G00 Z5.000000

(End cutting path id: path2)


(Start cutting path id: path2)
(Change tool to Default tool)

G00 Z5.000000
G00 X53.352400 Y39.212000

G01 Z-0.125000 F100.0(Penetrate)
G01 X52.731000 Y38.591000 Z-0.125000 F400.000000
G01 X52.584400 Y38.327000 Z-0.125000
G01 X52.654700 Y38.140000 Z-0.125000
G01 X52.865300 Y38.094000 Z-0.125000
G01 X53.139700 Y38.251000 Z-0.125000
G01 X53.342700 Y38.454000 Z-0.125000
G01 X53.604400 Y38.599000 Z-0.125000
G01 X53.787200 Y38.525000 Z-0.125000
G01 X53.829800 Y38.310000 Z-0.125000
G01 X53.670500 Y38.034000 Z-0.125000
G01 X53.534700 Y37.898000 Z-0.125000
G01 X53.384500 Y37.631000 Z-0.125000
G01 X53.447000 Y37.436000 Z-0.125000
G01 X53.649800 Y37.381000 Z-0.125000
G01 X53.920500 Y37.535000 Z-0.125000
G01 X54.035400 Y37.650000 Z-0.125000
G01 X54.307400 Y37.805000 Z-0.125000
G01 X54.512700 Y37.753000 Z-0.125000
G01 X54.577800 Y37.561000 Z-0.125000
G01 X54.428700 Y37.295000 Z-0.125000
G01 X54.298900 Y37.165000 Z-0.125000
G01 X54.148100 Y36.898000 Z-0.125000
G01 X54.209300 Y36.702000 Z-0.125000
G01 X54.410800 Y36.646000 Z-0.125000
G01 X54.681000 Y36.799000 Z-0.125000
G01 X54.840600 Y36.959000 Z-0.125000
G01 X55.117100 Y37.118000 Z-0.125000
G01 X55.332600 Y37.076000 Z-0.125000
G01 X55.407800 Y36.894000 Z-0.125000
G01 X55.263300 Y36.633000 Z-0.125000
G01 X55.078800 Y36.449000 Z-0.125000
G01 X54.933800 Y36.187000 Z-0.125000
G01 X55.007700 Y36.003000 Z-0.125000
G01 X55.221900 Y35.960000 Z-0.125000
G01 X55.497900 Y36.119000 Z-0.125000
G01 X55.696800 Y36.318000 Z-0.125000
G01 X55.978800 Y36.483000 Z-0.125000
G01 X56.206500 Y36.454000 Z-0.125000
G01 X56.293800 Y36.284000 Z-0.125000
G01 X56.154900 Y36.028000 Z-0.125000
G01 X55.947700 Y35.821000 Z-0.125000
G01 X55.814400 Y35.570000 Z-0.125000
G01 X55.913900 Y35.413000 Z-0.125000
G01 X56.153700 Y35.395000 Z-0.125000
G01 X56.441300 Y35.566000 Z-0.125000
G01 X56.674500 Y35.799000 Z-0.125000
G01 X57.355600 Y36.106000 Z-0.125000
G01 X57.560800 Y36.054000 Z-0.125000
G01 X57.475500 Y35.852000 Z-0.125000
G01 X56.997800 Y35.374000 Z-0.125000
G01 X56.887500 Y35.147000 Z-0.125000
G01 X57.037700 Y35.040000 Z-0.125000
G01 X57.328200 Y35.073000 Z-0.125000
G01 X57.638800 Y35.267000 Z-0.125000
G01 X60.514300 Y38.142000 Z-0.125000
G01 X60.705000 Y38.216000 Z-0.125000
G01 X60.731600 Y37.985000 Z-0.125000
G01 X60.387700 Y37.267000 Z-0.125000
G01 X58.234700 Y35.114000 Z-0.125000
G00 Z5.000000

(End cutting path id: path2)


(Start cutting path id: path2)
(Change tool to Default tool)

G00 Z5.000000
G00 X58.868200 Y37.117000

G01 Z-0.125000 F100.0(Penetrate)
G01 X59.283200 Y37.653000 Z-0.125000 F400.000000
G01 X59.524400 Y38.271000 Z-0.125000
G01 X59.588200 Y38.985000 Z-0.125000
G01 X59.470700 Y39.813000 Z-0.125000
G01 X58.676900 Y41.871000 Z-0.125000
G01 X57.113100 Y44.574000 Z-0.125000
G01 X55.131000 Y47.677000 Z-0.125000
G01 X53.980100 Y44.291000 Z-0.125000
G01 X53.289400 Y41.830000 Z-0.125000
G01 X53.175700 Y40.874000 Z-0.125000
G01 X53.225000 Y40.053000 Z-0.125000
G01 X53.443700 Y39.328000 Z-0.125000
G01 X53.838400 Y38.662000 Z-0.125000
G01 X55.181400 Y37.360000 Z-0.125000
G01 X56.404200 Y36.477000 Z-0.125000
G01 X57.265100 Y36.153000 Z-0.125000
G01 X58.005800 Y36.372000 Z-0.125000
G01 X58.868200 Y37.117000 Z-0.125000
G01 X58.868200 Y37.117000 Z-0.125000
G00 Z5.000000

(End cutting path id: path2)


(Start cutting path id: path2)
(Change tool to Default tool)

G00 Z5.000000
G00 X62.486300 Y28.140000

G01 Z-0.125000 F100.0(Penetrate)
G01 X62.723600 Y28.377000 Z-0.125000 F400.000000
G01 X63.660400 Y28.940000 Z-0.125000
G01 X64.082000 Y29.104000 Z-0.125000
G01 X64.166300 Y29.103000 Z-0.125000
G01 X64.122600 Y29.028000 Z-0.125000
G01 X61.869500 Y26.774000 Z-0.125000
G01 X61.478100 Y26.009000 Z-0.125000
G01 X61.472000 Y25.746000 Z-0.125000
G01 X61.647900 Y25.804000 Z-0.125000
G01 X62.573000 Y26.730000 Z-0.125000
G01 X62.708200 Y26.748000 Z-0.125000
G01 X62.612700 Y26.395000 Z-0.125000
G01 X62.091100 Y25.499000 Z-0.125000
G01 X61.456700 Y24.865000 Z-0.125000
G01 X61.112800 Y24.147000 Z-0.125000
G01 X61.139500 Y23.916000 Z-0.125000
G01 X61.330200 Y23.990000 Z-0.125000
G01 X61.978600 Y24.639000 Z-0.125000
G01 X62.184400 Y24.727000 Z-0.125000
G01 X62.244300 Y24.530000 Z-0.125000
G01 X61.948600 Y23.860000 Z-0.125000
G01 X61.249600 Y23.161000 Z-0.125000
G01 X60.939700 Y22.477000 Z-0.125000
G01 X60.989800 Y22.270000 Z-0.125000
G01 X61.191100 Y22.354000 Z-0.125000
G01 X62.007300 Y23.171000 Z-0.125000
G01 X62.239800 Y23.286000 Z-0.125000
G01 X62.358300 Y23.147000 Z-0.125000
G01 X62.336500 Y22.868000 Z-0.125000
G01 X62.148100 Y22.563000 Z-0.125000
G01 X61.136700 Y21.552000 Z-0.125000
G01 X60.828900 Y20.870000 Z-0.125000
G01 X60.880300 Y20.664000 Z-0.125000
G01 X61.082300 Y20.749000 Z-0.125000
G01 X62.377300 Y22.044000 Z-0.125000
G01 X62.633800 Y22.183000 Z-0.125000
G01 X62.805100 Y22.097000 Z-0.125000
G01 X62.836200 Y21.871000 Z-0.125000
G01 X62.671700 Y21.590000 Z-0.125000
G01 X61.027900 Y19.946000 Z-0.125000
G01 X60.720100 Y19.264000 Z-0.125000
G01 X60.771600 Y19.058000 Z-0.125000
G01 X60.973600 Y19.143000 Z-0.125000
G01 X61.019900 Y19.190000 Z-0.125000
G01 X61.287200 Y19.340000 Z-0.125000
G01 X61.482400 Y19.278000 Z-0.125000
G01 X61.537200 Y19.076000 Z-0.125000
G01 X61.383600 Y18.805000 Z-0.125000
G01 X61.131500 Y18.553000 Z-0.125000
G01 X60.997700 Y18.302000 Z-0.125000
G01 X61.096400 Y18.144000 Z-0.125000
G01 X61.335400 Y18.125000 Z-0.125000
G01 X61.622600 Y18.296000 Z-0.125000
G01 X61.792900 Y18.466000 Z-0.125000
G01 X62.072100 Y18.628000 Z-0.125000
G01 X62.293400 Y18.592000 Z-0.125000
G01 X62.374400 Y18.416000 Z-0.125000
G01 X62.232600 Y18.157000 Z-0.125000
G01 X62.113800 Y18.039000 Z-0.125000
G01 X61.980000 Y17.788000 Z-0.125000
G01 X62.078700 Y17.629000 Z-0.125000
G01 X62.317700 Y17.611000 Z-0.125000
G01 X62.604900 Y17.781000 Z-0.125000
G01 X62.710000 Y17.886000 Z-0.125000
G01 X63.000100 Y18.060000 Z-0.125000
G01 X63.245400 Y18.048000 Z-0.125000
G01 X63.350500 Y17.895000 Z-0.125000
G01 X63.219600 Y17.648000 Z-0.125000
G01 X63.102400 Y17.530000 Z-0.125000
G01 X62.976100 Y17.287000 Z-0.125000
G01 X63.091200 Y17.145000 Z-0.125000
G01 X63.346700 Y17.143000 Z-0.125000
G01 X63.641300 Y17.321000 Z-0.125000
G01 X63.761200 Y17.441000 Z-0.125000
G01 X64.061000 Y17.624000 Z-0.125000
G01 X64.327700 Y17.633000 Z-0.125000
G01 X64.454000 Y17.502000 Z-0.125000
G01 X64.332900 Y17.264000 Z-0.125000
G01 X64.214500 Y17.146000 Z-0.125000
G01 X64.097300 Y16.912000 Z-0.125000
G01 X64.232600 Y16.790000 Z-0.125000
G01 X64.508200 Y16.808000 Z-0.125000
G01 X64.812000 Y16.995000 Z-0.125000
G01 X64.938800 Y17.122000 Z-0.125000
G01 X65.248100 Y17.314000 Z-0.125000
G01 X65.535700 Y17.345000 Z-0.125000
G01 X65.683000 Y17.235000 Z-0.125000
G01 X65.571400 Y17.006000 Z-0.125000
G01 X65.429700 Y16.864000 Z-0.125000
G01 X65.318200 Y16.636000 Z-0.125000
G01 X65.465800 Y16.526000 Z-0.125000
G01 X65.753700 Y16.557000 Z-0.125000
G01 X66.063200 Y16.749000 Z-0.125000
G01 X66.228300 Y16.915000 Z-0.125000
G01 X66.544800 Y17.114000 Z-0.125000
G01 X66.848200 Y17.160000 Z-0.125000
G01 X67.011300 Y17.066000 Z-0.125000
G01 X66.906800 Y16.845000 Z-0.125000
G01 X66.709600 Y16.648000 Z-0.125000
G01 X66.602700 Y16.424000 Z-0.125000
G01 X66.760400 Y16.324000 Z-0.125000
G01 X67.058400 Y16.365000 Z-0.125000
G01 X67.372500 Y16.562000 Z-0.125000
G01 X67.604700 Y16.794000 Z-0.125000
G01 X67.926800 Y16.999000 Z-0.125000
G01 X68.242600 Y17.058000 Z-0.125000
G01 X68.418100 Y16.976000 Z-0.125000
G01 X68.319300 Y16.761000 Z-0.125000
G01 X68.043400 Y16.485000 Z-0.125000
G01 X67.939100 Y16.263000 Z-0.125000
G01 X68.102700 Y16.170000 Z-0.125000
G01 X68.406500 Y16.216000 Z-0.125000
G01 X68.723200 Y16.416000 Z-0.125000
G01 X69.048400 Y16.741000 Z-0.125000
G01 X69.699800 Y17.018000 Z-0.125000
G01 X69.884500 Y16.946000 Z-0.125000
G01 X69.789900 Y16.734000 Z-0.125000
G01 X69.418300 Y16.363000 Z-0.125000
G01 X69.317600 Y16.145000 Z-0.125000
G01 X69.488800 Y16.059000 Z-0.125000
G01 X69.800400 Y16.113000 Z-0.125000
G01 X70.120600 Y16.317000 Z-0.125000
G01 X70.540500 Y16.736000 Z-0.125000
G01 X71.198500 Y17.020000 Z-0.125000
G01 X71.387800 Y16.952000 Z-0.125000
G01 X71.295200 Y16.742000 Z-0.125000
G01 X70.833600 Y16.281000 Z-0.125000
G01 X70.736800 Y16.067000 Z-0.125000
G01 X70.916600 Y15.990000 Z-0.125000
G01 X71.236700 Y16.053000 Z-0.125000
G01 X71.560800 Y16.260000 Z-0.125000
G01 X72.050000 Y16.749000 Z-0.125000
G01 X72.708000 Y17.033000 Z-0.125000
G01 X72.897300 Y16.965000 Z-0.125000
G01 X72.804700 Y16.755000 Z-0.125000
G01 X72.297400 Y16.248000 Z-0.125000
G01 X72.204100 Y16.037000 Z-0.125000
G01 X72.391700 Y15.968000 Z-0.125000
G01 X73.047300 Y16.249000 Z-0.125000
G01 X73.559500 Y16.761000 Z-0.125000
G01 X74.217500 Y17.045000 Z-0.125000
G01 X74.406800 Y16.976000 Z-0.125000
G01 X74.314200 Y16.767000 Z-0.125000
G01 X73.814200 Y16.267000 Z-0.125000
G01 X73.726600 Y16.062000 Z-0.125000
G01 X73.926700 Y16.005000 Z-0.125000
G01 X74.600500 Y16.305000 Z-0.125000
G01 X76.279500 Y17.984000 Z-0.125000
G01 X76.377600 Y18.199000 Z-0.125000
G01 X76.200600 Y18.279000 Z-0.125000
G01 X75.883200 Y18.219000 Z-0.125000
G01 X75.560400 Y18.013000 Z-0.125000
G01 X75.206300 Y17.659000 Z-0.125000
G01 X74.892400 Y17.462000 Z-0.125000
G01 X74.594600 Y17.421000 Z-0.125000
G01 X74.437200 Y17.521000 Z-0.125000
G01 X74.544200 Y17.745000 Z-0.125000
G01 X74.846700 Y18.048000 Z-0.125000
G01 X74.946500 Y18.264000 Z-0.125000
G01 X74.773100 Y18.348000 Z-0.125000
G01 X74.459500 Y18.292000 Z-0.125000
G01 X74.138300 Y18.088000 Z-0.125000
G01 X73.882000 Y17.831000 Z-0.125000
G01 X73.568100 Y17.634000 Z-0.125000
G01 X73.270300 Y17.594000 Z-0.125000
G01 X73.112800 Y17.694000 Z-0.125000
G01 X73.219800 Y17.917000 Z-0.125000
G01 X73.439900 Y18.138000 Z-0.125000
G01 X73.542300 Y18.357000 Z-0.125000
G01 X73.374800 Y18.447000 Z-0.125000
G01 X73.067000 Y18.396000 Z-0.125000
G01 X72.748500 Y18.194000 Z-0.125000
G01 X72.557600 Y18.004000 Z-0.125000
G01 X72.243700 Y17.807000 Z-0.125000
G01 X71.945900 Y17.766000 Z-0.125000
G01 X71.788500 Y17.866000 Z-0.125000
G01 X71.895500 Y18.090000 Z-0.125000
G01 X72.064600 Y18.259000 Z-0.125000
G01 X72.169600 Y18.481000 Z-0.125000
G01 X72.007500 Y18.576000 Z-0.125000
G01 X71.705100 Y18.531000 Z-0.125000
G01 X71.389100 Y18.332000 Z-0.125000
G01 X71.239600 Y18.182000 Z-0.125000
G01 X70.929400 Y17.989000 Z-0.125000
G01 X70.640100 Y17.957000 Z-0.125000
G01 X70.491000 Y18.065000 Z-0.125000
G01 X70.601800 Y18.293000 Z-0.125000
G01 X70.735200 Y18.426000 Z-0.125000
G01 X70.841100 Y18.649000 Z-0.125000
G01 X70.681200 Y18.746000 Z-0.125000
G01 X70.381100 Y18.704000 Z-0.125000
G01 X70.066000 Y18.505000 Z-0.125000
G01 X69.972200 Y18.412000 Z-0.125000
G01 X69.665800 Y18.222000 Z-0.125000
G01 X69.384500 Y18.198000 Z-0.125000
G01 X69.243600 Y18.314000 Z-0.125000
G01 X69.358200 Y18.546000 Z-0.125000
G01 X69.421600 Y18.609000 Z-0.125000
G01 X69.533100 Y18.838000 Z-0.125000
G01 X69.385700 Y18.948000 Z-0.125000
G01 X69.097900 Y18.917000 Z-0.125000
G01 X68.788500 Y18.725000 Z-0.125000
G01 X68.751200 Y18.687000 Z-0.125000
G01 X68.446900 Y18.500000 Z-0.125000
G01 X68.170300 Y18.481000 Z-0.125000
G01 X68.034000 Y18.601000 Z-0.125000
G01 X68.150600 Y18.835000 Z-0.125000
G01 X68.169600 Y18.854000 Z-0.125000
G01 X68.284100 Y19.085000 Z-0.125000
G01 X68.145200 Y19.204000 Z-0.125000
G01 X67.866800 Y19.183000 Z-0.125000
G01 X67.562700 Y18.996000 Z-0.125000
G01 X67.557000 Y18.990000 Z-0.125000
G01 X67.261400 Y18.811000 Z-0.125000
G01 X66.993600 Y18.800000 Z-0.125000
G01 X66.862400 Y18.926000 Z-0.125000
G01 X66.976700 Y19.157000 Z-0.125000
G01 X66.978000 Y19.158000 Z-0.125000
G01 X67.092000 Y19.389000 Z-0.125000
G01 X66.962200 Y19.517000 Z-0.125000
G01 X66.696400 Y19.508000 Z-0.125000
G01 X66.402500 Y19.331000 Z-0.125000
G01 X66.402500 Y19.331000 Z-0.125000
G01 X66.111500 Y19.157000 Z-0.125000
G01 X65.851900 Y19.155000 Z-0.125000
G01 X65.728300 Y19.289000 Z-0.125000
G01 X65.845100 Y19.522000 Z-0.125000
G01 X65.845200 Y19.522000 Z-0.125000
G01 X65.965200 Y19.759000 Z-0.125000
G01 X65.848500 Y19.900000 Z-0.125000
G01 X65.595800 Y19.904000 Z-0.125000
G01 X65.307800 Y19.733000 Z-0.125000
G01 X65.302800 Y19.728000 Z-0.125000
G01 X65.013200 Y19.556000 Z-0.125000
G01 X64.763700 Y19.563000 Z-0.125000
G01 X64.652700 Y19.710000 Z-0.125000
G01 X64.778500 Y19.952000 Z-0.125000
G01 X64.783900 Y19.957000 Z-0.125000
G01 X64.918200 Y20.209000 Z-0.125000
G01 X64.820600 Y20.368000 Z-0.125000
G01 X64.582700 Y20.388000 Z-0.125000
G01 X64.296000 Y20.218000 Z-0.125000
G01 X64.248700 Y20.171000 Z-0.125000
G01 X63.951600 Y19.990000 Z-0.125000
G01 X63.690900 Y19.987000 Z-0.125000
G01 X63.570500 Y20.124000 Z-0.125000
G01 X63.694300 Y20.365000 Z-0.125000
G01 X63.836800 Y20.507000 Z-0.125000
G01 X63.980500 Y20.768000 Z-0.125000
G01 X63.903700 Y20.948000 Z-0.125000
G01 X63.686500 Y20.988000 Z-0.125000
G01 X63.409200 Y20.828000 Z-0.125000
G01 X63.113400 Y20.532000 Z-0.125000
G01 X62.802800 Y20.338000 Z-0.125000
G01 X62.512300 Y20.305000 Z-0.125000
G01 X62.362000 Y20.412000 Z-0.125000
G01 X62.472400 Y20.639000 Z-0.125000
G01 X63.297700 Y21.465000 Z-0.125000
G00 Z5.000000

(End cutting path id: path2)


(Start cutting path id: path2)
(Change tool to Default tool)

G00 Z5.000000
G00 X64.352600 Y28.506000

G01 Z-0.125000 F100.0(Penetrate)
G01 X65.031100 Y29.185000 Z-0.125000 F400.000000
G01 X65.715700 Y29.495000 Z-0.125000
G01 X65.923300 Y29.446000 Z-0.125000
G01 X65.839100 Y29.245000 Z-0.125000
G01 X65.657900 Y29.063000 Z-0.125000
G01 X65.572400 Y28.861000 Z-0.125000
G01 X65.777200 Y28.808000 Z-0.125000
G01 X66.457800 Y29.115000 Z-0.125000
G01 X66.569100 Y29.226000 Z-0.125000
G01 X66.887300 Y29.427000 Z-0.125000
G01 X67.194500 Y29.477000 Z-0.125000
G01 X67.361500 Y29.387000 Z-0.125000
G01 X67.258700 Y29.167000 Z-0.125000
G01 X67.172700 Y29.081000 Z-0.125000
G01 X67.066800 Y28.859000 Z-0.125000
G01 X67.226600 Y28.761000 Z-0.125000
G01 X67.526700 Y28.804000 Z-0.125000
G01 X67.841700 Y29.002000 Z-0.125000
G01 X67.919500 Y29.080000 Z-0.125000
G01 X68.229300 Y29.273000 Z-0.125000
G01 X68.518000 Y29.304000 Z-0.125000
G01 X68.666300 Y29.195000 Z-0.125000
G01 X68.555200 Y28.967000 Z-0.125000
G01 X68.483000 Y28.895000 Z-0.125000
G01 X68.368900 Y28.664000 Z-0.125000
G01 X68.510700 Y28.549000 Z-0.125000
G01 X68.792800 Y28.573000 Z-0.125000
G01 X69.099700 Y28.763000 Z-0.125000
G01 X69.174600 Y28.838000 Z-0.125000
G01 X69.480300 Y29.027000 Z-0.125000
G01 X69.759900 Y29.049000 Z-0.125000
G01 X69.899200 Y28.931000 Z-0.125000
G01 X69.784000 Y28.699000 Z-0.125000
G01 X69.700500 Y28.616000 Z-0.125000
G01 X69.581900 Y28.380000 Z-0.125000
G01 X69.713900 Y28.255000 Z-0.125000
G01 X69.986100 Y28.270000 Z-0.125000
G01 X70.288500 Y28.455000 Z-0.125000
G01 X70.374000 Y28.541000 Z-0.125000
G01 X70.675900 Y28.726000 Z-0.125000
G01 X70.947300 Y28.740000 Z-0.125000
G01 X71.078400 Y28.614000 Z-0.125000
G01 X70.959400 Y28.378000 Z-0.125000
G01 X70.865700 Y28.284000 Z-0.125000
G01 X70.744700 Y28.046000 Z-0.125000
G01 X70.871500 Y27.916000 Z-0.125000
G01 X71.138600 Y27.926000 Z-0.125000
G01 X71.438500 Y28.109000 Z-0.125000
G01 X71.537600 Y28.208000 Z-0.125000
G01 X71.837700 Y28.391000 Z-0.125000
G01 X72.105000 Y28.401000 Z-0.125000
G01 X72.232000 Y28.271000 Z-0.125000
G01 X72.111200 Y28.033000 Z-0.125000
G01 X72.012200 Y27.934000 Z-0.125000
G01 X71.892000 Y27.697000 Z-0.125000
G01 X72.020400 Y27.568000 Z-0.125000
G01 X72.289000 Y27.579000 Z-0.125000
G01 X72.589800 Y27.763000 Z-0.125000
G01 X72.683700 Y27.857000 Z-0.125000
G01 X72.983600 Y28.040000 Z-0.125000
G01 X73.250700 Y28.050000 Z-0.125000
G01 X73.377400 Y27.919000 Z-0.125000
G01 X73.256400 Y27.682000 Z-0.125000
G01 X73.171900 Y27.597000 Z-0.125000
G01 X73.053100 Y27.361000 Z-0.125000
G01 X73.184500 Y27.235000 Z-0.125000
G01 X73.456200 Y27.250000 Z-0.125000
G01 X73.758300 Y27.435000 Z-0.125000
G01 X73.838500 Y27.515000 Z-0.125000
G01 X74.142100 Y27.702000 Z-0.125000
G01 X74.417100 Y27.720000 Z-0.125000
G01 X74.551800 Y27.597000 Z-0.125000
G01 X74.434400 Y27.363000 Z-0.125000
G01 X74.350200 Y27.279000 Z-0.125000
G01 X74.233500 Y27.045000 Z-0.125000
G01 X74.369800 Y26.924000 Z-0.125000
G01 X74.646400 Y26.943000 Z-0.125000
G01 X74.950700 Y27.131000 Z-0.125000
G01 X75.054500 Y27.235000 Z-0.125000
G01 X75.370800 Y27.434000 Z-0.125000
G01 X75.673800 Y27.480000 Z-0.125000
G01 X75.836500 Y27.385000 Z-0.125000
G01 X75.731900 Y27.164000 Z-0.125000
G01 X75.568100 Y27.000000 Z-0.125000
G01 X75.456100 Y26.771000 Z-0.125000
G01 X75.602600 Y26.660000 Z-0.125000
G01 X75.889400 Y26.690000 Z-0.125000
G01 X76.198300 Y26.882000 Z-0.125000
G01 X76.574200 Y27.257000 Z-0.125000
G01 X77.363500 Y27.673000 Z-0.125000
G01 X77.643100 Y27.695000 Z-0.125000
G01 X77.591600 Y27.527000 Z-0.125000
G01 X76.701900 Y26.637000 Z-0.125000
G01 X76.562300 Y26.380000 Z-0.125000
G01 X76.648200 Y26.209000 Z-0.125000
G01 X76.874400 Y26.178000 Z-0.125000
G01 X77.155800 Y26.342000 Z-0.125000
G01 X79.326600 Y28.513000 Z-0.125000
G00 Z5.000000

(End cutting path id: path2)


(Start cutting path id: path2)
(Change tool to Default tool)

G00 Z5.000000
G00 X84.800900 Y25.011000

G01 Z-0.125000 F100.0(Penetrate)
G01 X86.218000 Y26.428000 Z-0.125000 F400.000000
G01 X86.446500 Y26.540000 Z-0.125000
G01 X86.556500 Y26.393000 Z-0.125000
G01 X86.526200 Y26.105000 Z-0.125000
G01 X86.333800 Y25.796000 Z-0.125000
G01 X85.600900 Y25.063000 Z-0.125000
G00 Z5.000000

(End cutting path id: path2)


(Start cutting path id: path2)
(Change tool to Default tool)

G00 Z5.000000
G00 X87.142700 Y23.611000

G01 Z-0.125000 F100.0(Penetrate)
G01 X87.902000 Y24.371000 Z-0.125000 F400.000000
G00 Z5.000000

(End cutting path id: path2)


(Start cutting path id: path2)
(Change tool to Default tool)

G00 Z5.000000
G00 X88.920000 Y19.310000

G01 Z-0.125000 F100.0(Penetrate)
G01 X89.561500 Y19.865000 Z-0.125000 F400.000000
G01 X89.976500 Y20.484000 Z-0.125000
G01 X90.176300 Y21.190000 Z-0.125000
G01 X90.172300 Y22.009000 Z-0.125000
G01 X90.000100 Y22.901000 Z-0.125000
G01 X89.642200 Y23.387000 Z-0.125000
G01 X88.945000 Y23.563000 Z-0.125000
G01 X87.755200 Y23.525000 Z-0.125000
G01 X85.533100 Y23.357000 Z-0.125000
G01 X87.596500 Y24.288000 Z-0.125000
G01 X88.905200 Y24.976000 Z-0.125000
G01 X89.527700 Y25.602000 Z-0.125000
G01 X89.596000 Y25.923000 Z-0.125000
G01 X89.510000 Y26.264000 Z-0.125000
G01 X88.898000 Y27.058000 Z-0.125000
G01 X87.977800 Y27.701000 Z-0.125000
G01 X87.180500 Y27.808000 Z-0.125000
G01 X86.883400 Y27.673000 Z-0.125000
G01 X86.683400 Y27.419000 Z-0.125000
G01 X86.602700 Y27.051000 Z-0.125000
G01 X86.663600 Y26.572000 Z-0.125000
G01 X86.729700 Y26.038000 Z-0.125000
G01 X86.629100 Y25.600000 Z-0.125000
G01 X86.370200 Y25.263000 Z-0.125000
G01 X85.961200 Y25.029000 Z-0.125000
G01 X84.727000 Y24.885000 Z-0.125000
G01 X82.993500 Y25.193000 Z-0.125000
G01 X82.194300 Y25.486000 Z-0.125000
G01 X81.613200 Y25.857000 Z-0.125000
G01 X81.268200 Y26.290000 Z-0.125000
G01 X81.177000 Y26.770000 Z-0.125000
G01 X81.137600 Y27.434000 Z-0.125000
G01 X80.839500 Y27.754000 Z-0.125000
G01 X80.224900 Y27.747000 Z-0.125000
G01 X79.236100 Y27.435000 Z-0.125000
G01 X78.496100 Y26.905000 Z-0.125000
G01 X78.270900 Y26.176000 Z-0.125000
G01 X78.555000 Y25.393000 Z-0.125000
G01 X79.342800 Y24.697000 Z-0.125000
G01 X79.898000 Y24.233000 Z-0.125000
G01 X79.883200 Y24.088000 Z-0.125000
G01 X79.660300 Y24.030000 Z-0.125000
G01 X78.726800 Y24.390000 Z-0.125000
G01 X77.596900 Y25.281000 Z-0.125000
G01 X76.467000 Y26.180000 Z-0.125000
G01 X75.533500 Y26.559000 Z-0.125000
G01 X73.791900 Y26.935000 Z-0.125000
G01 X70.719000 Y27.827000 Z-0.125000
G01 X68.644600 Y28.390000 Z-0.125000
G01 X66.892600 Y28.671000 Z-0.125000
G01 X65.448700 Y28.663000 Z-0.125000
G01 X64.299000 Y28.359000 Z-0.125000
G01 X63.429300 Y27.754000 Z-0.125000
G01 X62.825600 Y26.842000 Z-0.125000
G01 X62.473700 Y25.615000 Z-0.125000
G01 X62.359500 Y24.067000 Z-0.125000
G01 X62.616300 Y22.719000 Z-0.125000
G01 X63.393200 Y21.558000 Z-0.125000
G01 X64.699800 Y20.581000 Z-0.125000
G01 X66.546000 Y19.784000 Z-0.125000
G01 X68.941300 Y19.165000 Z-0.125000
G01 X71.895400 Y18.720000 Z-0.125000
G01 X75.418100 Y18.446000 Z-0.125000
G01 X79.519000 Y18.340000 Z-0.125000
G01 X83.487400 Y18.364000 Z-0.125000
G01 X86.154300 Y18.511000 Z-0.125000
G01 X87.853800 Y18.815000 Z-0.125000
G01 X88.919900 Y19.310000 Z-0.125000
G01 X88.920000 Y19.310000 Z-0.125000
G00 Z5.000000

(End cutting path id: path2)


(Start cutting path id: path2)
(Change tool to Default tool)

G00 Z5.000000
G00 X88.908000 Y17.280000

G01 Z-0.125000 F100.0(Penetrate)
G01 X89.204700 Y17.676000 Z-0.125000 F400.000000
G01 X88.998400 Y17.853000 Z-0.125000
G01 X86.685900 Y17.605000 Z-0.125000
G01 X82.358600 Y17.055000 Z-0.125000
G01 X81.500500 Y16.896000 Z-0.125000
G01 X81.603700 Y16.692000 Z-0.125000
G01 X82.041200 Y16.360000 Z-0.125000
G01 X82.630500 Y16.123000 Z-0.125000
G01 X83.456200 Y16.007000 Z-0.125000
G01 X85.497600 Y16.100000 Z-0.125000
G01 X87.527500 Y16.552000 Z-0.125000
G01 X88.338800 Y16.887000 Z-0.125000
G01 X88.908000 Y17.280000 Z-0.125000
G01 X88.908000 Y17.280000 Z-0.125000
G00 Z5.000000

(End cutting path id: path2)


(Start cutting path id: path2)
(Change tool to Default tool)

G00 Z5.000000
G00 X88.110900 Y15.600000

G01 Z-0.125000 F100.0(Penetrate)
G01 X90.232900 Y17.722000 Z-0.125000 F400.000000
G00 Z5.000000

(End cutting path id: path2)


(Start cutting path id: path2)
(Change tool to Default tool)

G00 Z5.000000
G00 X82.207600 Y17.180000

G01 Z-0.125000 F100.0(Penetrate)
G01 X82.974800 Y17.947000 Z-0.125000 F400.000000
G01 X83.640100 Y18.238000 Z-0.125000
G01 X83.834300 Y18.175000 Z-0.125000
G01 X83.744100 Y17.968000 Z-0.125000
G01 X83.296200 Y17.520000 Z-0.125000
G01 X83.217700 Y17.324000 Z-0.125000
G01 X83.438000 Y17.288000 Z-0.125000
G01 X84.141100 Y17.616000 Z-0.125000
G01 X84.524600 Y18.000000 Z-0.125000
G01 X85.203700 Y18.305000 Z-0.125000
G01 X85.407500 Y18.251000 Z-0.125000
G01 X85.321600 Y18.049000 Z-0.125000
G01 X85.001300 Y17.728000 Z-0.125000
G01 X84.926900 Y17.537000 Z-0.125000
G01 X85.156200 Y17.509000 Z-0.125000
G01 X85.872500 Y17.851000 Z-0.125000
G01 X86.151800 Y18.130000 Z-0.125000
G01 X86.876300 Y18.481000 Z-0.125000
G01 X87.111400 Y18.459000 Z-0.125000
G01 X87.039600 Y18.270000 Z-0.125000
G01 X86.757600 Y17.988000 Z-0.125000
G01 X86.685800 Y17.799000 Z-0.125000
G01 X86.920500 Y17.777000 Z-0.125000
G01 X87.644700 Y18.127000 Z-0.125000
G01 X88.398000 Y18.880000 Z-0.125000
G00 Z5.000000

(End cutting path id: path2)


(Start cutting path id: path2)
(Change tool to Default tool)

G00 Z5.000000
G00 X98.891200 Y15.155000

G01 Z-0.125000 F100.0(Penetrate)
G01 X100.143000 Y16.407000 Z-0.125000 F400.000000
G01 X100.354000 Y16.501000 Z-0.125000
G01 X100.424000 Y16.314000 Z-0.125000
G01 X100.144000 Y15.659000 Z-0.125000
G01 X98.995100 Y14.511000 Z-0.125000
G01 X98.710800 Y13.852000 Z-0.125000
G01 X98.778500 Y13.663000 Z-0.125000
G01 X98.987800 Y13.755000 Z-0.125000
G01 X100.305000 Y15.072000 Z-0.125000
G01 X100.551000 Y15.201000 Z-0.125000
G01 X100.698000 Y15.091000 Z-0.125000
G01 X100.706000 Y14.842000 Z-0.125000
G01 X100.531000 Y14.549000 Z-0.125000
G01 X100.465000 Y14.484000 Z-0.125000
G01 X100.367000 Y14.269000 Z-0.125000
G01 X100.454000 Y14.098000 Z-0.125000
G01 X100.649000 Y14.036000 Z-0.125000
G01 X100.875000 Y14.146000 Z-0.125000
G01 X100.902000 Y14.172000 Z-0.125000
G01 X101.094000 Y14.248000 Z-0.125000
G01 X101.252000 Y14.148000 Z-0.125000
G01 X101.314000 Y13.953000 Z-0.125000
G01 X101.221000 Y13.743000 Z-0.125000
G01 X101.213000 Y13.735000 Z-0.125000
G01 X101.133000 Y13.538000 Z-0.125000
G01 X101.212000 Y13.360000 Z-0.125000
G01 X101.382000 Y13.273000 Z-0.125000
G01 X101.575000 Y13.349000 Z-0.125000
G01 X101.575000 Y13.349000 Z-0.125000
G01 X101.769000 Y13.426000 Z-0.125000
G01 X101.941000 Y13.341000 Z-0.125000
G01 X102.022000 Y13.165000 Z-0.125000
G01 X101.943000 Y12.969000 Z-0.125000
G01 X101.937000 Y12.963000 Z-0.125000
G01 X101.849000 Y12.758000 Z-0.125000
G01 X101.919000 Y12.570000 Z-0.125000
G01 X102.083000 Y12.477000 Z-0.125000
G01 X102.277000 Y12.554000 Z-0.125000
G01 X102.301000 Y12.578000 Z-0.125000
G01 X102.523000 Y12.683000 Z-0.125000
G01 X102.714000 Y12.617000 Z-0.125000
G01 X102.800000 Y12.446000 Z-0.125000
G01 X102.704000 Y12.233000 Z-0.125000
G01 X102.663000 Y12.192000 Z-0.125000
G01 X102.518000 Y11.930000 Z-0.125000
G01 X102.555000 Y11.709000 Z-0.125000
G01 X102.718000 Y11.615000 Z-0.125000
G01 X102.953000 Y11.733000 Z-0.125000
G01 X103.052000 Y11.833000 Z-0.125000
G01 X103.330000 Y11.994000 Z-0.125000
G01 X103.549000 Y11.955000 Z-0.125000
G01 X103.627000 Y11.776000 Z-0.125000
G01 X103.483000 Y11.515000 Z-0.125000
G01 X102.945000 Y10.977000 Z-0.125000
G00 Z5.000000

(End cutting path id: path2)


(Start cutting path id: path2)
(Change tool to Default tool)

G00 Z5.000000
G00 X101.436000 Y12.927000

G01 Z-0.125000 F100.0(Penetrate)
G01 X100.548000 Y13.852000 Z-0.125000 F400.000000
G01 X100.062000 Y14.210000 Z-0.125000
G01 X99.859000 Y14.031000 Z-0.125000
G01 X99.818100 Y13.346000 Z-0.125000
G01 X99.934600 Y12.796000 Z-0.125000
G01 X100.245000 Y12.198000 Z-0.125000
G01 X101.209000 Y11.073000 Z-0.125000
G01 X102.239000 Y10.399000 Z-0.125000
G01 X102.631000 Y10.364000 Z-0.125000
G01 X102.861000 Y10.602000 Z-0.125000
G01 X102.809000 Y10.965000 Z-0.125000
G01 X102.522000 Y11.524000 Z-0.125000
G01 X101.436000 Y12.927000 Z-0.125000
G01 X101.436000 Y12.927000 Z-0.125000
G00 Z5.000000

(End cutting path id: path2)


(Start cutting path id: path2)
(Change tool to Default tool)

G00 Z5.000000
G00 X99.689600 Y13.707000

G01 Z-0.125000 F100.0(Penetrate)
G01 X99.140300 Y13.158000 Z-0.125000 F400.000000
G01 X98.966200 Y12.867000 Z-0.125000
G01 X98.976000 Y12.619000 Z-0.125000
G01 X99.126100 Y12.512000 Z-0.125000
G01 X99.372900 Y12.642000 Z-0.125000
G01 X99.447400 Y12.717000 Z-0.125000
G01 X99.691000 Y12.843000 Z-0.125000
G01 X99.834100 Y12.729000 Z-0.125000
G01 X99.836900 Y12.475000 Z-0.125000
G01 X99.659600 Y12.180000 Z-0.125000
G01 X99.640800 Y12.162000 Z-0.125000
G01 X99.484100 Y11.888000 Z-0.125000
G01 X99.522100 Y11.669000 Z-0.125000
G01 X99.696800 Y11.586000 Z-0.125000
G01 X99.950200 Y11.723000 Z-0.125000
G01 X99.957600 Y11.730000 Z-0.125000
G01 X100.208000 Y11.863000 Z-0.125000
G01 X100.385000 Y11.783000 Z-0.125000
G01 X100.430000 Y11.571000 Z-0.125000
G01 X100.281000 Y11.305000 Z-0.125000
G01 X100.278000 Y11.302000 Z-0.125000
G01 X100.137000 Y11.044000 Z-0.125000
G01 X100.197000 Y10.846000 Z-0.125000
G01 X100.387000 Y10.780000 Z-0.125000
G01 X100.642000 Y10.917000 Z-0.125000
G01 X100.642000 Y10.917000 Z-0.125000
G01 X100.901000 Y11.059000 Z-0.125000
G01 X101.101000 Y11.003000 Z-0.125000
G01 X101.170000 Y10.814000 Z-0.125000
G01 X101.034000 Y10.561000 Z-0.125000
G01 X101.032000 Y10.559000 Z-0.125000
G01 X100.898000 Y10.308000 Z-0.125000
G01 X100.974000 Y10.127000 Z-0.125000
G01 X101.182000 Y10.078000 Z-0.125000
G01 X101.446000 Y10.224000 Z-0.125000
G01 X101.455000 Y10.233000 Z-0.125000
G01 X101.739000 Y10.401000 Z-0.125000
G01 X101.980000 Y10.385000 Z-0.125000
G01 X102.085000 Y10.232000 Z-0.125000
G01 X101.958000 Y9.988000 Z-0.125000
G01 X101.902000 Y9.932000 Z-0.125000
G01 X101.765000 Y9.679000 Z-0.125000
G01 X101.857000 Y9.513000 Z-0.125000
G01 X102.090000 Y9.489000 Z-0.125000
G01 X102.374000 Y9.656000 Z-0.125000
G01 X103.925000 Y11.207000 Z-0.125000
G01 X104.206000 Y11.371000 Z-0.125000
G01 X104.432000 Y11.340000 Z-0.125000
G01 X104.518000 Y11.168000 Z-0.125000
G01 X104.378000 Y10.912000 Z-0.125000
G01 X102.889000 Y9.423000 Z-0.125000
G01 X102.768000 Y9.185000 Z-0.125000
G01 X102.894000 Y9.054000 Z-0.125000
G01 X103.161000 Y9.063000 Z-0.125000
G01 X103.461000 Y9.246000 Z-0.125000
G01 X104.841000 Y10.626000 Z-0.125000
G01 X105.126000 Y10.794000 Z-0.125000
G01 X105.359000 Y10.770000 Z-0.125000
G01 X105.451000 Y10.605000 Z-0.125000
G01 X105.315000 Y10.352000 Z-0.125000
G01 X104.143000 Y9.180000 Z-0.125000
G01 X104.034000 Y8.955000 Z-0.125000
G01 X104.188000 Y8.851000 Z-0.125000
G01 X104.482000 Y8.888000 Z-0.125000
G01 X104.794000 Y9.083000 Z-0.125000
G01 X105.797000 Y10.086000 Z-0.125000
G01 X106.085000 Y10.256000 Z-0.125000
G01 X106.324000 Y10.238000 Z-0.125000
G01 X106.422000 Y10.080000 Z-0.125000
G01 X106.289000 Y9.829000 Z-0.125000
G01 X105.372000 Y8.913000 Z-0.125000
G01 X105.246000 Y8.670000 Z-0.125000
G01 X105.361000 Y8.528000 Z-0.125000
G01 X105.617000 Y8.526000 Z-0.125000
G01 X105.912000 Y8.704000 Z-0.125000
G01 X106.789000 Y9.581000 Z-0.125000
G01 X107.079000 Y9.754000 Z-0.125000
G01 X107.324000 Y9.742000 Z-0.125000
G01 X107.429000 Y9.589000 Z-0.125000
G01 X107.298000 Y9.341000 Z-0.125000
G01 X106.419000 Y8.463000 Z-0.125000
G01 X106.283000 Y8.210000 Z-0.125000
G01 X106.378000 Y8.047000 Z-0.125000
G01 X106.612000 Y8.024000 Z-0.125000
G01 X106.897000 Y8.192000 Z-0.125000
G01 X107.816000 Y9.111000 Z-0.125000
G01 X108.109000 Y9.287000 Z-0.125000
G01 X108.360000 Y9.281000 Z-0.125000
G01 X108.471000 Y9.135000 Z-0.125000
G01 X108.343000 Y8.890000 Z-0.125000
G01 X108.194000 Y8.741000 Z-0.125000
G01 X108.083000 Y8.513000 Z-0.125000
G01 X108.230000 Y8.403000 Z-0.125000
G01 X108.518000 Y8.433000 Z-0.125000
G01 X108.827000 Y8.626000 Z-0.125000
G01 X108.882000 Y8.680000 Z-0.125000
G01 X109.175000 Y8.856000 Z-0.125000
G01 X109.431000 Y8.855000 Z-0.125000
G01 X109.549000 Y8.716000 Z-0.125000
G01 X109.426000 Y8.476000 Z-0.125000
G01 X109.409000 Y8.459000 Z-0.125000
G01 X109.306000 Y8.239000 Z-0.125000
G01 X109.443000 Y8.119000 Z-0.125000
G01 X109.710000 Y8.129000 Z-0.125000
G01 X109.998000 Y8.299000 Z-0.125000
G01 X110.006000 Y8.307000 Z-0.125000
G01 X110.283000 Y8.468000 Z-0.125000
G01 X110.540000 Y8.468000 Z-0.125000
G01 X110.671000 Y8.341000 Z-0.125000
G01 X110.570000 Y8.124000 Z-0.125000
G01 X110.570000 Y8.123000 Z-0.125000
G01 X110.471000 Y7.907000 Z-0.125000
G01 X110.606000 Y7.785000 Z-0.125000
G01 X110.867000 Y7.789000 Z-0.125000
G01 X111.145000 Y7.951000 Z-0.125000
G01 X111.145000 Y7.951000 Z-0.125000
G01 X111.426000 Y8.114000 Z-0.125000
G01 X111.690000 Y8.121000 Z-0.125000
G01 X111.828000 Y8.002000 Z-0.125000
G01 X111.731000 Y7.787000 Z-0.125000
G01 X111.725000 Y7.781000 Z-0.125000
G01 X111.622000 Y7.561000 Z-0.125000
G01 X111.755000 Y7.438000 Z-0.125000
G01 X112.018000 Y7.443000 Z-0.125000
G01 X112.301000 Y7.609000 Z-0.125000
G01 X112.312000 Y7.621000 Z-0.125000
G01 X112.610000 Y7.801000 Z-0.125000
G01 X112.887000 Y7.822000 Z-0.125000
G01 X113.031000 Y7.708000 Z-0.125000
G01 X112.925000 Y7.485000 Z-0.125000
G01 X112.909000 Y7.470000 Z-0.125000
G01 X112.791000 Y7.235000 Z-0.125000
G01 X112.925000 Y7.110000 Z-0.125000
G01 X113.198000 Y7.127000 Z-0.125000
G01 X113.501000 Y7.313000 Z-0.125000
G01 X113.539000 Y7.351000 Z-0.125000
G01 X113.850000 Y7.545000 Z-0.125000
G01 X114.143000 Y7.580000 Z-0.125000
G01 X114.294000 Y7.475000 Z-0.125000
G01 X114.185000 Y7.248000 Z-0.125000
G01 X114.098000 Y7.162000 Z-0.125000
G01 X113.983000 Y6.929000 Z-0.125000
G01 X114.122000 Y6.811000 Z-0.125000
G01 X114.402000 Y6.834000 Z-0.125000
G01 X114.707000 Y7.023000 Z-0.125000
G01 X114.848000 Y7.163000 Z-0.125000
G01 X115.167000 Y7.365000 Z-0.125000
G01 X115.474000 Y7.415000 Z-0.125000
G01 X115.641000 Y7.325000 Z-0.125000
G01 X115.539000 Y7.105000 Z-0.125000
G01 X115.326000 Y6.893000 Z-0.125000
G01 X115.214000 Y6.664000 Z-0.125000
G01 X115.361000 Y6.554000 Z-0.125000
G01 X115.648000 Y6.584000 Z-0.125000
G01 X115.958000 Y6.776000 Z-0.125000
G01 X116.258000 Y7.077000 Z-0.125000
G01 X116.919000 Y7.363000 Z-0.125000
G01 X117.110000 Y7.297000 Z-0.125000
G01 X117.018000 Y7.088000 Z-0.125000
G01 X116.611000 Y6.681000 Z-0.125000
G01 X116.513000 Y6.466000 Z-0.125000
G01 X116.690000 Y6.386000 Z-0.125000
G01 X117.008000 Y6.447000 Z-0.125000
G01 X117.331000 Y6.653000 Z-0.125000
G01 X117.837000 Y7.159000 Z-0.125000
G01 X118.572000 Y7.520000 Z-0.125000
G01 X118.814000 Y7.504000 Z-0.125000
G01 X118.746000 Y7.319000 Z-0.125000
G01 X118.220000 Y6.793000 Z-0.125000
G01 X118.164000 Y6.620000 Z-0.125000
G01 X118.434000 Y6.633000 Z-0.125000
G01 X119.209000 Y7.034000 Z-0.125000
G01 X120.265000 Y8.090000 Z-0.125000
G00 Z5.000000

(End cutting path id: path2)


(Start cutting path id: path2)
(Change tool to Default tool)

G00 Z5.000000
G00 X120.335000 Y8.218000

G01 Z-0.125000 F100.0(Penetrate)
G01 X122.235000 Y9.401000 Z-0.125000 F400.000000
G01 X123.556000 Y10.711000 Z-0.125000
G01 X124.328000 Y12.186000 Z-0.125000
G01 X124.579000 Y13.865000 Z-0.125000
G01 X124.506000 Y15.202000 Z-0.125000
G01 X124.250000 Y16.256000 Z-0.125000
G01 X123.759000 Y17.051000 Z-0.125000
G01 X122.978000 Y17.614000 Z-0.125000
G01 X121.854000 Y17.971000 Z-0.125000
G01 X120.332000 Y18.148000 Z-0.125000
G01 X115.884000 Y18.063000 Z-0.125000
G01 X110.867000 Y17.897000 Z-0.125000
G01 X110.584000 Y17.985000 Z-0.125000
G01 X110.607000 Y18.137000 Z-0.125000
G01 X111.405000 Y18.652000 Z-0.125000
G01 X112.638000 Y19.507000 Z-0.125000
G01 X113.151000 Y20.222000 Z-0.125000
G01 X112.973000 Y20.672000 Z-0.125000
G01 X112.545000 Y20.818000 Z-0.125000
G01 X112.023000 Y20.660000 Z-0.125000
G01 X111.564000 Y20.201000 Z-0.125000
G01 X111.183000 Y19.918000 Z-0.125000
G01 X110.512000 Y19.721000 Z-0.125000
G01 X108.684000 Y19.584000 Z-0.125000
G01 X106.853000 Y19.777000 Z-0.125000
G01 X106.179000 Y19.994000 Z-0.125000
G01 X105.796000 Y20.289000 Z-0.125000
G01 X105.739000 Y20.662000 Z-0.125000
G01 X105.921000 Y21.140000 Z-0.125000
G01 X106.869000 Y22.179000 Z-0.125000
G01 X107.722000 Y22.852000 Z-0.125000
G01 X108.020000 Y23.201000 Z-0.125000
G01 X107.776000 Y23.335000 Z-0.125000
G01 X107.002000 Y23.362000 Z-0.125000
G01 X105.547000 Y23.257000 Z-0.125000
G01 X104.340000 Y22.938000 Z-0.125000
G01 X103.408000 Y22.441000 Z-0.125000
G01 X102.776000 Y21.806000 Z-0.125000
G01 X102.472000 Y21.072000 Z-0.125000
G01 X102.521000 Y20.276000 Z-0.125000
G01 X102.951000 Y19.458000 Z-0.125000
G01 X103.786000 Y18.656000 Z-0.125000
G01 X104.763000 Y17.836000 Z-0.125000
G01 X103.945000 Y17.991000 Z-0.125000
G01 X102.662000 Y18.363000 Z-0.125000
G01 X101.887000 Y18.436000 Z-0.125000
G01 X101.381000 Y18.178000 Z-0.125000
G01 X100.904000 Y17.553000 Z-0.125000
G01 X100.551000 Y16.649000 Z-0.125000
G01 X100.609000 Y15.690000 Z-0.125000
G01 X101.036000 Y14.698000 Z-0.125000
G01 X101.787000 Y13.692000 Z-0.125000
G01 X102.819000 Y12.695000 Z-0.125000
G01 X104.090000 Y11.727000 Z-0.125000
G01 X107.171000 Y9.960000 Z-0.125000
G01 X110.684000 Y8.559000 Z-0.125000
G01 X114.280000 Y7.691000 Z-0.125000
G01 X116.001000 Y7.508000 Z-0.125000
G01 X117.613000 Y7.521000 Z-0.125000
G01 X119.072000 Y7.751000 Z-0.125000
G01 X120.335000 Y8.218000 Z-0.125000
G01 X120.335000 Y8.218000 Z-0.125000
G00 Z5.000000

(End cutting path id: path2)


(Start cutting path id: path2)
(Change tool to Default tool)

G00 Z5.000000
G00 X121.625000 Y7.953000

G01 Z-0.125000 F100.0(Penetrate)
G01 X125.918000 Y12.247000 Z-0.125000 F400.000000
G01 X126.166000 Y12.377000 Z-0.125000
G01 X126.317000 Y12.272000 Z-0.125000
G01 X126.329000 Y12.026000 Z-0.125000
G01 X126.155000 Y11.736000 Z-0.125000
G01 X125.986000 Y11.566000 Z-0.125000
G01 X125.875000 Y11.338000 Z-0.125000
G01 X125.977000 Y11.183000 Z-0.125000
G01 X126.202000 Y11.151000 Z-0.125000
G01 X126.461000 Y11.293000 Z-0.125000
G01 X126.461000 Y11.293000 Z-0.125000
G01 X126.675000 Y11.390000 Z-0.125000
G01 X126.802000 Y11.260000 Z-0.125000
G01 X126.806000 Y11.007000 Z-0.125000
G01 X126.652000 Y10.735000 Z-0.125000
G01 X121.396000 Y5.480000 Z-0.125000
G00 Z5.000000

(End cutting path id: path2)


(Start cutting path id: path2)
(Change tool to Default tool)

G00 Z5.000000
G00 X121.277000 Y6.495000

G01 Z-0.125000 F100.0(Penetrate)
G01 X123.036000 Y7.707000 Z-0.125000 F400.000000
G01 X124.798000 Y9.312000 Z-0.125000
G01 X125.977000 Y10.713000 Z-0.125000
G01 X126.166000 Y11.151000 Z-0.125000
G01 X125.990000 Y11.313000 Z-0.125000
G01 X125.283000 Y10.958000 Z-0.125000
G01 X124.612000 Y10.105000 Z-0.125000
G01 X124.138000 Y9.508000 Z-0.125000
G01 X123.367000 Y8.868000 Z-0.125000
G01 X121.244000 Y7.607000 Z-0.125000
G01 X118.856000 Y6.628000 Z-0.125000
G01 X117.755000 Y6.339000 Z-0.125000
G01 X116.816000 Y6.234000 Z-0.125000
G01 X114.517000 Y6.587000 Z-0.125000
G01 X111.303000 Y7.437000 Z-0.125000
G01 X108.680000 Y8.182000 Z-0.125000
G01 X107.591000 Y8.323000 Z-0.125000
G01 X107.631000 Y8.172000 Z-0.125000
G01 X108.066000 Y7.875000 Z-0.125000
G01 X110.135000 Y6.852000 Z-0.125000
G01 X111.434000 Y6.366000 Z-0.125000
G01 X112.885000 Y6.003000 Z-0.125000
G01 X115.994000 Y5.650000 Z-0.125000
G01 X118.958000 Y5.809000 Z-0.125000
G01 X120.230000 Y6.085000 Z-0.125000
G01 X121.277000 Y6.495000 Z-0.125000
G01 X121.277000 Y6.495000 Z-0.125000
G00 Z5.000000

(End cutting path id: path2)


(Start cutting path id: path2)
(Change tool to Default tool)

G00 Z5.000000
G00 X123.636000 Y6.971000

G01 Z-0.125000 F100.0(Penetrate)
G01 X126.875000 Y10.210000 Z-0.125000 F400.000000
G00 Z5.000000

(End cutting path id: path2)


(Start cutting path id: path2)
(Change tool to Default tool)

G00 Z5.000000
G00 X122.533000 Y9.610000

G01 Z-0.125000 F100.0(Penetrate)
G01 X120.114000 Y7.191000 Z-0.125000 F400.000000
G00 Z5.000000

(End cutting path id: path2)


(Start cutting path id: path2)
(Change tool to Default tool)

G00 Z5.000000
G00 X110.728000 Y5.293000

G01 Z-0.125000 F100.0(Penetrate)
G01 X108.762000 Y6.316000 Z-0.125000 F400.000000
G01 X106.992000 Y7.491000 Z-0.125000
G01 X105.362000 Y8.397000 Z-0.125000
G01 X104.495000 Y8.672000 Z-0.125000
G01 X103.735000 Y8.773000 Z-0.125000
G01 X102.895000 Y8.904000 Z-0.125000
G01 X102.018000 Y9.267000 Z-0.125000
G01 X101.150000 Y9.818000 Z-0.125000
G01 X100.336000 Y10.511000 Z-0.125000
G01 X99.623100 Y11.301000 Z-0.125000
G01 X99.057300 Y12.145000 Z-0.125000
G01 X98.684500 Y12.997000 Z-0.125000
G01 X98.550700 Y13.813000 Z-0.125000
G01 X98.924600 Y15.572000 Z-0.125000
G01 X99.820500 Y17.518000 Z-0.125000
G01 X100.716000 Y19.345000 Z-0.125000
G01 X101.088000 Y20.816000 Z-0.125000
G01 X101.198000 Y21.462000 Z-0.125000
G01 X101.515000 Y22.063000 Z-0.125000
G01 X102.017000 Y22.606000 Z-0.125000
G01 X102.683000 Y23.078000 Z-0.125000
G01 X104.419000 Y23.761000 Z-0.125000
G01 X106.552000 Y24.011000 Z-0.125000
G01 X108.006000 Y24.100000 Z-0.125000
G01 X109.133000 Y24.460000 Z-0.125000
G01 X110.204000 Y25.231000 Z-0.125000
G01 X111.490000 Y26.552000 Z-0.125000
G01 X112.689000 Y27.988000 Z-0.125000
G01 X113.385000 Y29.204000 Z-0.125000
G01 X113.707000 Y30.522000 Z-0.125000
G01 X113.786000 Y32.266000 Z-0.125000
G01 X113.746000 Y34.001000 Z-0.125000
G01 X113.550000 Y34.954000 Z-0.125000
G01 X113.085000 Y35.356000 Z-0.125000
G01 X112.240000 Y35.439000 Z-0.125000
G01 X110.649000 Y35.629000 Z-0.125000
G01 X108.994000 Y36.085000 Z-0.125000
G01 X108.167000 Y36.473000 Z-0.125000
G01 X107.694000 Y36.918000 Z-0.125000
G01 X107.520000 Y37.501000 Z-0.125000
G01 X107.594000 Y38.307000 Z-0.125000
G01 X107.691000 Y39.121000 Z-0.125000
G01 X107.550000 Y39.599000 Z-0.125000
G01 X107.102000 Y39.826000 Z-0.125000
G01 X106.279000 Y39.883000 Z-0.125000
G01 X105.534000 Y39.773000 Z-0.125000
G01 X104.702000 Y39.474000 Z-0.125000
G01 X103.883000 Y39.032000 Z-0.125000
G01 X103.181000 Y38.492000 Z-0.125000
G01 X101.700000 Y37.101000 Z-0.125000
G01 X98.378400 Y38.551000 Z-0.125000
G01 X95.353800 Y39.808000 Z-0.125000
G01 X94.326900 Y40.100000 Z-0.125000
G01 X93.491200 Y40.156000 Z-0.125000
G01 X92.747400 Y39.969000 Z-0.125000
G01 X91.996400 Y39.530000 Z-0.125000
G01 X90.075500 Y37.865000 Z-0.125000
G01 X88.547200 Y36.359000 Z-0.125000
G01 X87.587900 Y35.100000 Z-0.125000
G01 X87.040800 Y33.823000 Z-0.125000
G01 X86.749300 Y32.264000 Z-0.125000
G01 X86.599600 Y30.639000 Z-0.125000
G01 X86.745600 Y29.673000 Z-0.125000
G01 X87.333100 Y29.050000 Z-0.125000
G01 X88.508200 Y28.455000 Z-0.125000
G01 X89.488800 Y27.928000 Z-0.125000
G01 X90.147400 Y27.359000 Z-0.125000
G01 X90.523300 Y26.704000 Z-0.125000
G01 X90.655700 Y25.915000 Z-0.125000
G01 X90.838900 Y24.454000 Z-0.125000
G01 X91.218000 Y23.170000 Z-0.125000
G01 X91.364400 Y22.500000 Z-0.125000
G01 X91.346800 Y21.600000 Z-0.125000
G01 X90.913400 Y19.435000 Z-0.125000
G01 X90.106100 Y17.324000 Z-0.125000
G01 X89.621100 Y16.492000 Z-0.125000
G01 X89.113200 Y15.916000 Z-0.125000
G01 X88.379500 Y15.545000 Z-0.125000
G01 X87.306200 Y15.289000 Z-0.125000
G01 X84.625700 Y15.118000 Z-0.125000
G01 X82.041700 Y15.385000 Z-0.125000
G01 X81.088900 Y15.677000 Z-0.125000
G01 X80.523900 Y16.072000 Z-0.125000
G01 X80.066600 Y16.523000 Z-0.125000
G01 X79.471000 Y16.707000 Z-0.125000
G01 X78.592500 Y16.635000 Z-0.125000
G01 X77.286700 Y16.318000 Z-0.125000
G01 X75.767700 Y16.028000 Z-0.125000
G01 X73.886900 Y15.869000 Z-0.125000
G01 X69.578800 Y15.916000 Z-0.125000
G01 X65.440700 Y16.393000 Z-0.125000
G01 X63.772600 Y16.771000 Z-0.125000
G01 X62.551300 Y17.232000 Z-0.125000
G01 X60.521000 Y18.295000 Z-0.125000
G01 X60.811400 Y22.581000 Z-0.125000
G01 X61.106100 Y24.953000 Z-0.125000
G01 X61.657400 Y26.822000 Z-0.125000
G01 X62.500300 Y28.205000 Z-0.125000
G01 X63.670100 Y29.122000 Z-0.125000
G01 X65.201700 Y29.589000 Z-0.125000
G01 X67.130400 Y29.626000 Z-0.125000
G01 X69.491100 Y29.249000 Z-0.125000
G01 X72.319000 Y28.477000 Z-0.125000
G01 X74.549400 Y27.821000 Z-0.125000
G01 X76.025600 Y27.579000 Z-0.125000
G01 X77.236800 Y27.738000 Z-0.125000
G01 X78.672000 Y28.281000 Z-0.125000
G01 X79.994400 Y28.917000 Z-0.125000
G01 X80.736700 Y29.571000 Z-0.125000
G01 X81.078800 Y30.509000 Z-0.125000
G01 X81.200500 Y31.993000 Z-0.125000
G01 X81.556000 Y34.429000 Z-0.125000
G01 X82.265100 Y36.528000 Z-0.125000
G01 X83.595200 Y38.454000 Z-0.125000
G01 X85.535400 Y40.601000 Z-0.125000
G01 X87.549900 Y42.429000 Z-0.125000
G01 X89.102600 Y43.400000 Z-0.125000
G01 X89.536200 Y43.625000 Z-0.125000
G01 X89.806800 Y43.969000 Z-0.125000
G01 X89.909900 Y44.421000 Z-0.125000
G01 X89.841000 Y44.973000 Z-0.125000
G01 X89.780600 Y45.588000 Z-0.125000
G01 X89.979900 Y46.084000 Z-0.125000
G01 X90.469300 Y46.501000 Z-0.125000
G01 X91.279400 Y46.879000 Z-0.125000
G01 X92.083100 Y47.235000 Z-0.125000
G01 X92.503600 Y47.564000 Z-0.125000
G01 X92.567900 Y47.902000 Z-0.125000
G01 X92.302800 Y48.287000 Z-0.125000
G01 X91.968000 Y48.873000 Z-0.125000
G01 X91.740100 Y49.811000 Z-0.125000
G01 X91.599300 Y52.485000 Z-0.125000
G01 X91.869300 Y55.795800 Z-0.125000
G01 X92.539000 Y59.229900 Z-0.125000
G01 X93.033500 Y61.715400 Z-0.125000
G01 X93.055000 Y62.826700 Z-0.125000
G01 X92.895600 Y63.995900 Z-0.125000
G01 X91.943200 Y66.944900 Z-0.125000
G01 X89.994000 Y71.436100 Z-0.125000
G01 X85.513000 Y70.974900 Z-0.125000
G01 X79.145600 Y70.374700 Z-0.125000
G01 X70.049500 Y69.756300 Z-0.125000
G01 X62.174300 Y69.231700 Z-0.125000
G01 X58.742500 Y68.857200 Z-0.125000
G01 X58.277800 Y66.550100 Z-0.125000
G01 X57.536200 Y61.378900 Z-0.125000
G01 X56.682200 Y55.571000 Z-0.125000
G01 X55.947400 Y51.733000 Z-0.125000
G01 X55.653000 Y50.294000 Z-0.125000
G01 X55.778100 Y49.073000 Z-0.125000
G01 X56.467500 Y47.587000 Z-0.125000
G01 X57.866000 Y45.355000 Z-0.125000
G01 X59.824800 Y42.033000 Z-0.125000
G01 X60.427000 Y40.689000 Z-0.125000
G01 X60.785200 Y39.523000 Z-0.125000
G01 X60.904700 Y38.510000 Z-0.125000
G01 X60.791000 Y37.625000 Z-0.125000
G01 X60.449600 Y36.843000 Z-0.125000
G01 X59.886100 Y36.140000 Z-0.125000
G01 X59.193700 Y35.541000 Z-0.125000
G01 X58.501100 Y35.133000 Z-0.125000
G01 X57.801700 Y34.917000 Z-0.125000
G01 X57.089100 Y34.894000 Z-0.125000
G01 X56.357000 Y35.063000 Z-0.125000
G01 X55.599000 Y35.427000 Z-0.125000
G01 X53.979700 Y36.737000 Z-0.125000
G01 X52.566800 Y38.047000 Z-0.125000
G01 X51.884500 Y38.483000 Z-0.125000
G01 X50.347100 Y35.569000 Z-0.125000
G01 X48.845700 Y33.110000 Z-0.125000
G01 X46.884600 Y30.577000 Z-0.125000
G01 X44.830600 Y28.401000 Z-0.125000
G01 X43.050000 Y27.010000 Z-0.125000
G01 X42.039000 Y26.695000 Z-0.125000
G01 X40.265300 Y26.387000 Z-0.125000
G01 X35.429900 Y25.933000 Z-0.125000
G01 X29.134300 Y25.598000 Z-0.125000
G01 X28.310200 Y21.546000 Z-0.125000
G01 X27.412800 Y18.337000 Z-0.125000
G01 X26.894400 Y17.089000 Z-0.125000
G01 X26.412500 Y16.309000 Z-0.125000
G01 X25.766800 Y15.770000 Z-0.125000
G01 X24.983700 Y15.395000 Z-0.125000
G01 X24.106800 Y15.182000 Z-0.125000
G01 X23.179900 Y15.131000 Z-0.125000
G01 X22.246800 Y15.240000 Z-0.125000
G01 X21.351000 Y15.507000 Z-0.125000
G01 X20.536300 Y15.931000 Z-0.125000
G01 X19.846500 Y16.512000 Z-0.125000
G01 X19.297200 Y17.207000 Z-0.125000
G01 X18.911100 Y17.966000 Z-0.125000
G01 X18.689300 Y18.832000 Z-0.125000
G01 X18.632700 Y19.846000 Z-0.125000
G01 X19.019400 Y22.489000 Z-0.125000
G01 X20.079000 Y26.232000 Z-0.125000
G01 X21.606100 Y31.040000 Z-0.125000
G01 X19.421600 Y34.668000 Z-0.125000
G01 X17.480600 Y38.513000 Z-0.125000
G01 X15.718800 Y43.242000 Z-0.125000
G01 X14.199400 Y48.661000 Z-0.125000
G01 X12.985600 Y54.572900 Z-0.125000
G01 X12.361600 Y58.060700 Z-0.125000
G01 X11.880200 Y59.821100 Z-0.125000
G01 X11.622500 Y60.207700 Z-0.125000
G01 X11.315900 Y60.347500 Z-0.125000
G01 X10.442700 Y60.133800 Z-0.125000
G01 X8.827160 Y59.682400 Z-0.125000
G01 X7.286870 Y59.559400 Z-0.125000
G01 X5.865060 Y59.742500 Z-0.125000
G01 X4.604910 Y60.209500 Z-0.125000
G01 X3.549620 Y60.938000 Z-0.125000
G01 X2.742370 Y61.905700 Z-0.125000
G01 X2.226340 Y63.090300 Z-0.125000
G01 X2.044740 Y64.469600 Z-0.125000
G01 X2.165130 Y65.360600 Z-0.125000
G01 X2.513990 Y66.244500 Z-0.125000
G01 X3.072830 Y67.104000 Z-0.125000
G01 X3.823140 Y67.921600 Z-0.125000
G01 X4.746440 Y68.680000 Z-0.125000
G01 X5.824240 Y69.361800 Z-0.125000
G01 X7.038050 Y69.949500 Z-0.125000
G01 X8.369370 Y70.425600 Z-0.125000
G01 X10.827400 Y71.162100 Z-0.125000
G01 X11.229900 Y77.267600 Z-0.125000
G01 X11.780400 Y84.337100 Z-0.125000
G01 X12.453000 Y90.668800 Z-0.125000
G01 X13.252900 Y96.306000 Z-0.125000
G01 X14.185600 Y101.291800 Z-0.125000
G01 X15.439200 Y107.147500 Z-0.125000
G01 X12.222900 Y111.913900 Z-0.125000
G01 X9.704120 Y115.802500 Z-0.125000
G01 X8.418700 Y118.360100 Z-0.125000
G01 X8.174180 Y119.321600 Z-0.125000
G01 X8.160840 Y120.168800 Z-0.125000
G01 X8.352950 Y120.974200 Z-0.125000
G01 X8.724800 Y121.810700 Z-0.125000
G01 X9.217460 Y122.562700 Z-0.125000
G01 X9.847920 Y123.235600 Z-0.125000
G01 X10.535000 Y123.755700 Z-0.125000
G01 X11.197600 Y124.049700 Z-0.125000
G01 X13.174200 Y124.320700 Z-0.125000
G01 X14.012800 Y124.222700 Z-0.125000
G01 X14.784600 Y123.953000 Z-0.125000
G01 X15.514400 Y123.499800 Z-0.125000
G01 X16.227000 Y122.851200 Z-0.125000
G01 X17.699500 Y120.919900 Z-0.125000
G01 X19.716000 Y117.833500 Z-0.125000
G01 X20.672500 Y119.683000 Z-0.125000
G01 X21.393200 Y120.838800 Z-0.125000
G01 X22.363700 Y122.045900 Z-0.125000
G01 X24.810200 Y124.409800 Z-0.125000
G01 X27.524500 Y126.366800 Z-0.125000
G01 X28.829800 Y127.065200 Z-0.125000
G01 X30.019200 Y127.508800 Z-0.125000
G01 X31.492500 Y127.775700 Z-0.125000
G01 X33.512600 Y127.966100 Z-0.125000
G01 X38.128600 Y128.047000 Z-0.125000
G01 X43.544100 Y127.859800 Z-0.125000
G01 X44.285000 Y131.149100 Z-0.125000
G01 X45.030500 Y133.740100 Z-0.125000
G01 X45.782500 Y135.350300 Z-0.125000
G01 X46.694700 Y136.117600 Z-0.125000
G01 X47.812100 Y136.553500 Z-0.125000
G01 X49.046300 Y136.679300 Z-0.125000
G01 X50.308900 Y136.516300 Z-0.125000
G01 X51.511700 Y136.085700 Z-0.125000
G01 X52.566200 Y135.408800 Z-0.125000
G01 X53.384300 Y134.506800 Z-0.125000
G01 X53.877500 Y133.401100 Z-0.125000
G01 X53.937700 Y132.254800 Z-0.125000
G01 X53.712000 Y130.488000 Z-0.125000
G01 X52.436400 Y125.280100 Z-0.125000
G01 X50.570500 Y118.851800 Z-0.125000
G01 X52.294800 Y115.080100 Z-0.125000
G01 X53.932900 Y110.644600 Z-0.125000
G01 X55.450000 Y105.277000 Z-0.125000
G01 X56.570600 Y100.882000 Z-0.125000
G01 X57.255500 Y98.785000 Z-0.125000
G01 X57.585200 Y98.662700 Z-0.125000
G01 X58.206000 Y98.670300 Z-0.125000
G01 X59.965300 Y99.041200 Z-0.125000
G01 X61.256200 Y99.356900 Z-0.125000
G01 X62.403000 Y99.409900 Z-0.125000
G01 X63.631900 Y99.184000 Z-0.125000
G01 X65.169000 Y98.662500 Z-0.125000
G01 X67.442200 Y97.472000 Z-0.125000
G01 X69.384800 Y95.871900 Z-0.125000
G01 X70.739300 Y94.123800 Z-0.125000
G01 X71.115400 Y93.276000 Z-0.125000
G01 X71.248000 Y92.489200 Z-0.125000
G01 X71.510100 Y91.763700 Z-0.125000
G01 X72.391300 Y90.961900 Z-0.125000
G01 X74.033600 Y89.983600 Z-0.125000
G01 X76.579400 Y88.728600 Z-0.125000
G01 X79.905800 Y87.221000 Z-0.125000
G01 X81.967100 Y86.438300 Z-0.125000
G01 X83.017400 Y86.305600 Z-0.125000
G01 X83.242800 Y86.459700 Z-0.125000
G01 X83.310900 Y86.748300 Z-0.125000
G01 X83.030100 Y87.065800 Z-0.125000
G01 X82.265400 Y87.547500 Z-0.125000
G01 X79.751500 Y88.741600 Z-0.125000
G01 X78.119400 Y89.500900 Z-0.125000
G01 X76.631600 Y90.360600 Z-0.125000
G01 X75.302100 Y91.306900 Z-0.125000
G01 X74.144900 Y92.326100 Z-0.125000
G01 X73.174000 Y93.404400 Z-0.125000
G01 X72.403400 Y94.527900 Z-0.125000
G01 X71.847100 Y95.682800 Z-0.125000
G01 X71.519100 Y96.855300 Z-0.125000
G01 X70.798100 Y99.009600 Z-0.125000
G01 X70.251300 Y100.027800 Z-0.125000
G01 X69.661400 Y100.832700 Z-0.125000
G01 X68.443700 Y102.341400 Z-0.125000
G01 X67.547100 Y103.801400 Z-0.125000
G01 X66.993200 Y105.170600 Z-0.125000
G01 X66.803700 Y106.406600 Z-0.125000
G01 X66.889900 Y106.989000 Z-0.125000
G01 X67.131300 Y107.571100 Z-0.125000
G01 X67.976300 Y108.638600 Z-0.125000
G01 X69.132500 Y109.418800 Z-0.125000
G01 X70.393700 Y109.721200 Z-0.125000
G01 X70.973500 Y109.622400 Z-0.125000
G01 X71.596800 Y109.344000 Z-0.125000
G01 X72.864100 Y108.358100 Z-0.125000
G01 X73.975100 Y106.982500 Z-0.125000
G01 X74.709700 Y105.435700 Z-0.125000
G01 X75.011400 Y104.762200 Z-0.125000
G01 X75.466100 Y104.321100 Z-0.125000
G01 X76.126800 Y104.080300 Z-0.125000
G01 X77.046500 Y104.007200 Z-0.125000
G01 X78.779100 Y103.799500 Z-0.125000
G01 X80.271300 Y103.300100 Z-0.125000
G01 X80.961800 Y102.993200 Z-0.125000
G01 X81.464900 Y102.955500 Z-0.125000
G01 X81.866000 Y103.207500 Z-0.125000
G01 X82.250700 Y103.769300 Z-0.125000
G01 X83.730800 Y105.765000 Z-0.125000
G01 X85.960200 Y108.176300 Z-0.125000
G01 X88.218700 Y110.278900 Z-0.125000
G01 X89.786200 Y111.348500 Z-0.125000
G01 X90.462500 Y111.609100 Z-0.125000
G01 X90.649700 Y111.927900 Z-0.125000
G01 X90.319300 Y112.478300 Z-0.125000
G01 X89.442500 Y113.433600 Z-0.125000
G01 X87.913100 Y115.347600 Z-0.125000
G01 X87.060900 Y117.154300 Z-0.125000
G01 X86.892400 Y118.004600 Z-0.125000
G01 X86.897700 Y118.812900 Z-0.125000
G01 X87.078200 Y119.573900 Z-0.125000
G01 X87.435500 Y120.282600 Z-0.125000
G01 X88.160300 Y121.147800 Z-0.125000
G01 X89.015700 Y121.675700 Z-0.125000
G01 X90.073600 Y121.894200 Z-0.125000
G01 X91.405800 Y121.831600 Z-0.125000
G01 X91.714000 Y121.875500 Z-0.125000
G01 X91.966300 Y122.071300 Z-0.125000
G01 X92.199400 Y122.792400 Z-0.125000
G01 X92.385600 Y123.489200 Z-0.125000
G01 X92.897600 Y124.310200 Z-0.125000
G01 X94.618200 Y126.085700 Z-0.125000
G01 X96.800600 Y127.640300 Z-0.125000
G01 X97.889800 Y128.185400 Z-0.125000
G01 X98.884200 Y128.495900 Z-0.125000
G01 X101.306000 Y128.691900 Z-0.125000
G01 X103.616000 Y128.368200 Z-0.125000
G01 X105.755000 Y127.540500 Z-0.125000
G01 X107.662000 Y126.224100 Z-0.125000
G01 X109.765000 Y124.377800 Z-0.125000
G01 X112.471000 Y127.135300 Z-0.125000
G01 X113.853000 Y128.613700 Z-0.125000
G01 X114.575000 Y129.634900 Z-0.125000
G01 X114.748000 Y130.420800 Z-0.125000
G01 X114.482000 Y131.193400 Z-0.125000
G01 X113.984000 Y132.873300 Z-0.125000
G01 X113.809000 Y135.089800 Z-0.125000
G01 X113.960000 Y137.300100 Z-0.125000
G01 X114.439000 Y138.961400 Z-0.125000
G01 X114.943000 Y139.686900 Z-0.125000
G01 X115.621000 Y140.331900 Z-0.125000
G01 X117.393000 Y141.338500 Z-0.125000
G01 X119.547000 Y141.897800 Z-0.125000
G01 X121.875000 Y141.926600 Z-0.125000
G01 X123.607000 Y141.512300 Z-0.125000
G01 X125.382000 Y140.702700 Z-0.125000
G01 X127.114000 Y139.578100 Z-0.125000
G01 X128.720000 Y138.219100 Z-0.125000
G01 X130.115000 Y136.706200 Z-0.125000
G01 X131.216000 Y135.119700 Z-0.125000
G01 X131.938000 Y133.540300 Z-0.125000
G01 X132.198000 Y132.048200 Z-0.125000
G01 X132.302000 Y131.311600 Z-0.125000
G01 X132.586000 Y130.497000 Z-0.125000
G01 X133.519000 Y129.030000 Z-0.125000
G01 X134.252000 Y128.089000 Z-0.125000
G01 X134.774000 Y127.072100 Z-0.125000
G01 X135.097000 Y125.999800 Z-0.125000
G01 X135.232000 Y124.892600 Z-0.125000
G01 X135.190000 Y123.770900 Z-0.125000
G01 X134.984000 Y122.655400 Z-0.125000
G01 X134.625000 Y121.566600 Z-0.125000
G01 X134.124000 Y120.524900 Z-0.125000
G01 X132.743000 Y118.664900 Z-0.125000
G01 X131.886000 Y117.887700 Z-0.125000
G01 X130.934000 Y117.239700 Z-0.125000
G01 X129.898000 Y116.741400 Z-0.125000
G01 X128.788000 Y116.413400 Z-0.125000
G01 X127.618000 Y116.276000 Z-0.125000
G01 X126.399000 Y116.349900 Z-0.125000
G01 X125.570000 Y116.433200 Z-0.125000
G01 X124.816000 Y116.349700 Z-0.125000
G01 X124.028000 Y116.005500 Z-0.125000
G01 X123.100000 Y115.306600 Z-0.125000
G01 X120.396000 Y112.469300 Z-0.125000
G01 X115.846000 Y107.086000 Z-0.125000
G01 X115.381000 Y106.221500 Z-0.125000
G01 X115.398000 Y105.889100 Z-0.125000
G01 X115.587000 Y105.658400 Z-0.125000
G01 X115.930000 Y105.689100 Z-0.125000
G01 X116.412000 Y106.053300 Z-0.125000
G01 X117.532000 Y107.535500 Z-0.125000
G01 X118.773000 Y109.085500 Z-0.125000
G01 X120.426000 Y110.345500 Z-0.125000
G01 X122.381000 Y111.293000 Z-0.125000
G01 X124.524000 Y111.905700 Z-0.125000
G01 X126.742000 Y112.161000 Z-0.125000
G01 X128.923000 Y112.036500 Z-0.125000
G01 X130.954000 Y111.509800 Z-0.125000
G01 X132.721000 Y110.558400 Z-0.125000
G01 X133.990000 Y109.395600 Z-0.125000
G01 X135.025000 Y107.971200 Z-0.125000
G01 X135.813000 Y106.344500 Z-0.125000
G01 X136.342000 Y104.575100 Z-0.125000
G01 X136.599000 Y102.722100 Z-0.125000
G01 X136.571000 Y100.845100 Z-0.125000
