%
(Header)
(Generated by gcodetools from Inkscape.)
(Using default header. To add your own header create file "header" in the output dir.)
M3
(Header end.)
G21 (All units in mm)

(Start cutting path id: path11316)
(Change tool to Default tool)

G00 Z5.000000
G00 X13.145000 Y125.192900

G01 Z-0.125000 F100.0(Penetrate)
G01 X13.448200 Y125.496100 Z-0.125000 F400.000000
G01 X14.431500 Y126.105200 Z-0.125000
G01 X14.844400 Y126.260900 Z-0.125000
G01 X14.915900 Y126.247600 Z-0.125000
G01 X14.853600 Y126.153100 Z-0.125000
G01 X12.638600 Y123.938200 Z-0.125000
G01 X12.255800 Y123.181200 Z-0.125000
G01 X12.255700 Y122.923900 Z-0.125000
G01 X12.434300 Y122.985500 Z-0.125000
G01 X15.795900 Y126.347100 Z-0.125000
G01 X16.460200 Y126.637200 Z-0.125000
G01 X16.653700 Y126.573500 Z-0.125000
G01 X16.563200 Y126.366000 Z-0.125000
G01 X16.538700 Y126.341500 Z-0.125000
G01 X16.452700 Y126.138600 Z-0.125000
G01 X16.634400 Y126.063100 Z-0.125000
G01 X17.259900 Y126.314300 Z-0.125000
G01 X17.259900 Y126.314300 Z-0.125000
G01 X17.547800 Y126.485400 Z-0.125000
G01 X17.810500 Y126.490800 Z-0.125000
G01 X17.940700 Y126.363800 Z-0.125000
G01 X17.831400 Y126.137500 Z-0.125000
G01 X17.777300 Y126.083400 Z-0.125000
G01 X17.639000 Y125.828100 Z-0.125000
G01 X17.727400 Y125.659400 Z-0.125000
G01 X17.956200 Y125.630900 Z-0.125000
G01 X18.238800 Y125.796600 Z-0.125000
G01 X18.315700 Y125.873500 Z-0.125000
G01 X18.595600 Y126.036500 Z-0.125000
G01 X18.818600 Y126.002100 Z-0.125000
G01 X18.901200 Y125.827500 Z-0.125000
G01 X18.760200 Y125.569600 Z-0.125000
G01 X18.656300 Y125.465700 Z-0.125000
G01 X18.500900 Y125.193400 Z-0.125000
G01 X18.552000 Y124.987200 Z-0.125000
G01 X18.743400 Y124.921400 Z-0.125000
G01 X19.009000 Y125.070000 Z-0.125000
G01 X19.162500 Y125.223500 Z-0.125000
G01 X19.430400 Y125.374500 Z-0.125000
G01 X19.627100 Y125.313900 Z-0.125000
G01 X19.683400 Y125.113000 Z-0.125000
G01 X19.530400 Y124.843100 Z-0.125000
G01 X19.336800 Y124.649500 Z-0.125000
G01 X19.175200 Y124.371000 Z-0.125000
G01 X19.212700 Y124.151200 Z-0.125000
G01 X19.390500 Y124.071800 Z-0.125000
G01 X19.649900 Y124.214300 Z-0.125000
G01 X19.876800 Y124.441200 Z-0.125000
G01 X20.138600 Y124.586000 Z-0.125000
G01 X20.321500 Y124.511700 Z-0.125000
G01 X20.364100 Y124.297100 Z-0.125000
G01 X20.204900 Y124.020900 Z-0.125000
G01 X19.953500 Y123.769500 Z-0.125000
G01 X19.789200 Y123.488200 Z-0.125000
G01 X19.820600 Y123.262400 Z-0.125000
G01 X19.992300 Y123.176900 Z-0.125000
G01 X20.249000 Y123.316600 Z-0.125000
G01 X20.519100 Y123.586700 Z-0.125000
G01 X20.777200 Y123.727900 Z-0.125000
G01 X20.952000 Y123.645500 Z-0.125000
G01 X20.986500 Y123.422800 Z-0.125000
G01 X20.823700 Y123.142900 Z-0.125000
G01 X20.540000 Y122.859300 Z-0.125000
G01 X20.374300 Y122.576600 Z-0.125000
G01 X20.402500 Y122.347600 Z-0.125000
G01 X20.571100 Y122.259000 Z-0.125000
G01 X20.826300 Y122.397200 Z-0.125000
G01 X21.123400 Y122.694400 Z-0.125000
G01 X21.380800 Y122.834700 Z-0.125000
G01 X21.554000 Y122.750700 Z-0.125000
G01 X21.586900 Y122.526400 Z-0.125000
G01 X21.423200 Y122.245800 Z-0.125000
G01 X21.108500 Y121.931100 Z-0.125000
G01 X20.941600 Y121.647300 Z-0.125000
G01 X20.967300 Y121.415700 Z-0.125000
G01 X21.133300 Y121.324400 Z-0.125000
G01 X21.387300 Y121.461500 Z-0.125000
G01 X21.723000 Y121.797200 Z-0.125000
G01 X21.980300 Y121.937600 Z-0.125000
G01 X22.153500 Y121.853600 Z-0.125000
G01 X22.186400 Y121.629200 Z-0.125000
G01 X22.022800 Y121.348700 Z-0.125000
G01 X21.662100 Y120.987900 Z-0.125000
G01 X21.494200 Y120.703100 Z-0.125000
G01 X21.517800 Y120.469500 Z-0.125000
G01 X21.681700 Y120.376100 Z-0.125000
G01 X21.934800 Y120.512300 Z-0.125000
G01 X22.322600 Y120.900100 Z-0.125000
G01 X22.579900 Y121.040500 Z-0.125000
G01 X22.753100 Y120.956400 Z-0.125000
G01 X22.786000 Y120.732100 Z-0.125000
G01 X22.622400 Y120.451500 Z-0.125000
G01 X22.202800 Y120.032000 Z-0.125000
G01 X22.034100 Y119.746400 Z-0.125000
G01 X22.055900 Y119.510900 Z-0.125000
G01 X22.218000 Y119.415700 Z-0.125000
G01 X22.470200 Y119.551000 Z-0.125000
G01 X25.384200 Y122.465000 Z-0.125000
G00 Z5.000000

(End cutting path id: path11316)


(Start cutting path id: path11316)
(Change tool to Default tool)

G00 Z5.000000
G00 X24.424400 Y123.002200

G01 Z-0.125000 F100.0(Penetrate)
G01 X29.157400 Y127.735200 Z-0.125000 F400.000000
G00 Z5.000000

(End cutting path id: path11316)


(Start cutting path id: path11316)
(Change tool to Default tool)

G00 Z5.000000
G00 X30.571600 Y127.652700

G01 Z-0.125000 F100.0(Penetrate)
G01 X32.252800 Y129.333900 Z-0.125000 F400.000000
G01 X33.011000 Y129.717900 Z-0.125000
G01 X33.269200 Y129.718900 Z-0.125000
G01 X33.208000 Y129.540700 Z-0.125000
G01 X32.434000 Y128.766700 Z-0.125000
G01 X32.410300 Y128.626100 Z-0.125000
G01 X32.751100 Y128.709600 Z-0.125000
G01 X33.629400 Y129.213800 Z-0.125000
G01 X34.088300 Y129.672700 Z-0.125000
G01 X34.789200 Y129.999400 Z-0.125000
G01 X35.007900 Y129.960900 Z-0.125000
G01 X34.928700 Y129.764800 Z-0.125000
G01 X34.627600 Y129.463600 Z-0.125000
G01 X34.553400 Y129.272500 Z-0.125000
G01 X34.783100 Y129.244900 Z-0.125000
G01 X35.499800 Y129.587500 Z-0.125000
G01 X35.741900 Y129.829500 Z-0.125000
G01 X36.420600 Y130.134100 Z-0.125000
G01 X36.624200 Y130.080400 Z-0.125000
G01 X36.538100 Y129.877400 Z-0.125000
G01 X36.255600 Y129.594600 Z-0.125000
G01 X36.164600 Y129.386700 Z-0.125000
G01 X36.357400 Y129.322200 Z-0.125000
G01 X37.020400 Y129.611100 Z-0.125000
G01 X37.321300 Y129.912000 Z-0.125000
G01 X37.988100 Y130.204600 Z-0.125000
G01 X38.183400 Y130.142700 Z-0.125000
G01 X38.093600 Y129.935900 Z-0.125000
G01 X37.432600 Y129.274900 Z-0.125000
G00 Z5.000000

(End cutting path id: path11316)


(Start cutting path id: path11316)
(Change tool to Default tool)

G00 Z5.000000
G00 X39.262300 Y128.859500

G01 Z-0.125000 F100.0(Penetrate)
G01 X40.324100 Y129.921400 Z-0.125000 F400.000000
G01 X40.647600 Y130.128000 Z-0.125000
G01 X40.966400 Y130.189500 Z-0.125000
G01 X41.144900 Y130.110800 Z-0.125000
G01 X41.047500 Y129.896400 Z-0.125000
G01 X40.668200 Y129.517200 Z-0.125000
G01 X40.589300 Y129.321300 Z-0.125000
G01 X40.808400 Y129.283200 Z-0.125000
G01 X41.509800 Y129.610400 Z-0.125000
G01 X41.770800 Y129.871400 Z-0.125000
G01 X42.094300 Y130.078000 Z-0.125000
G01 X42.413100 Y130.139500 Z-0.125000
G01 X42.591600 Y130.060800 Z-0.125000
G01 X42.494200 Y129.846400 Z-0.125000
G01 X42.333100 Y129.685300 Z-0.125000
G01 X42.228100 Y129.463400 Z-0.125000
G01 X42.390100 Y129.368100 Z-0.125000
G01 X42.692400 Y129.413200 Z-0.125000
G01 X43.008400 Y129.612200 Z-0.125000
G01 X43.217500 Y129.821400 Z-0.125000
G01 X43.541000 Y130.028000 Z-0.125000
G01 X43.859800 Y130.089500 Z-0.125000
G01 X44.038300 Y130.010800 Z-0.125000
G01 X43.940900 Y129.796400 Z-0.125000
G01 X43.668400 Y129.523900 Z-0.125000
G01 X43.550900 Y129.289500 Z-0.125000
G01 X43.685400 Y129.166700 Z-0.125000
G01 X43.960100 Y129.184200 Z-0.125000
G01 X44.263600 Y129.370800 Z-0.125000
G01 X44.944900 Y130.052000 Z-0.125000
G00 Z5.000000

(End cutting path id: path11316)


(Start cutting path id: path11316)
(Change tool to Default tool)

G00 Z5.000000
G00 X47.501100 Y136.350100

G01 Z-0.125000 F100.0(Penetrate)
G01 X48.999400 Y137.848300 Z-0.125000 F400.000000
G01 X49.803000 Y138.277700 Z-0.125000
G01 X50.092400 Y138.309900 Z-0.125000
G01 X50.045300 Y138.145900 Z-0.125000
G01 X47.428300 Y135.528900 Z-0.125000
G01 X46.992900 Y134.719300 Z-0.125000
G01 X46.956700 Y134.425900 Z-0.125000
G01 X47.118800 Y134.471000 Z-0.125000
G01 X48.629000 Y135.981200 Z-0.125000
G00 Z5.000000

(End cutting path id: path11316)


(Start cutting path id: path11316)
(Change tool to Default tool)

G00 Z5.000000
G00 X50.237600 Y137.589800

G01 Z-0.125000 F100.0(Penetrate)
G01 X50.791700 Y138.143900 Z-0.125000 F400.000000
G01 X51.109100 Y138.344400 Z-0.125000
G01 X51.414500 Y138.392500 Z-0.125000
G01 X51.579600 Y138.300300 Z-0.125000
G01 X51.476000 Y138.079800 Z-0.125000
G01 X51.447800 Y138.051600 Z-0.125000
G01 X51.334500 Y137.821400 Z-0.125000
G01 X51.478200 Y137.707900 Z-0.125000
G01 X51.762200 Y137.734600 Z-0.125000
G01 X52.069900 Y137.925300 Z-0.125000
G01 X52.092100 Y137.947600 Z-0.125000
G01 X52.390300 Y138.128900 Z-0.125000
G01 X52.653500 Y138.134800 Z-0.125000
G01 X52.776500 Y138.000500 Z-0.125000
G01 X52.653700 Y137.760900 Z-0.125000
G01 X52.613000 Y137.720100 Z-0.125000
G01 X52.478100 Y137.468300 Z-0.125000
G01 X52.574200 Y137.307200 Z-0.125000
G01 X52.810700 Y137.286400 Z-0.125000
G01 X53.096700 Y137.455500 Z-0.125000
G01 X53.168000 Y137.526700 Z-0.125000
G01 X53.451900 Y137.693700 Z-0.125000
G01 X53.683500 Y137.668100 Z-0.125000
G01 X53.774900 Y137.502200 Z-0.125000
G01 X53.637800 Y137.248200 Z-0.125000
G01 X53.543500 Y137.153900 Z-0.125000
G01 X53.398700 Y136.892200 Z-0.125000
G01 X53.473200 Y136.709500 Z-0.125000
G01 X53.688000 Y136.667000 Z-0.125000
G01 X53.964200 Y136.826300 Z-0.125000
G01 X54.063500 Y136.925500 Z-0.125000
G01 X54.333100 Y137.078300 Z-0.125000
G01 X54.533500 Y137.021400 Z-0.125000
G01 X54.593600 Y136.824300 Z-0.125000
G01 X54.442400 Y136.556100 Z-0.125000
G01 X54.366600 Y136.480300 Z-0.125000
G01 X54.229100 Y136.225900 Z-0.125000
G01 X54.303900 Y136.043400 Z-0.125000
G01 X54.513400 Y135.995700 Z-0.125000
G01 X54.780100 Y136.145500 Z-0.125000
G01 X54.853800 Y136.219100 Z-0.125000
G01 X55.042200 Y136.290600 Z-0.125000
G01 X55.182600 Y136.173800 Z-0.125000
G01 X55.225200 Y135.959100 Z-0.125000
G01 X55.119900 Y135.736900 Z-0.125000
G01 X55.119900 Y135.736900 Z-0.125000
G01 X54.916100 Y135.159000 Z-0.125000
G01 X54.959600 Y134.945200 Z-0.125000
G01 X55.103900 Y134.972500 Z-0.125000
G01 X55.227500 Y135.096200 Z-0.125000
G01 X55.444300 Y135.196100 Z-0.125000
G01 X55.528500 Y135.022900 Z-0.125000
G01 X55.472300 Y134.709500 Z-0.125000
G01 X55.268100 Y134.388400 Z-0.125000
G01 X54.937900 Y134.058200 Z-0.125000
G01 X54.531800 Y133.278000 Z-0.125000
G01 X54.515800 Y133.004600 Z-0.125000
G01 X54.687000 Y133.059000 Z-0.125000
G01 X55.210700 Y133.582600 Z-0.125000
G01 X55.403200 Y133.658200 Z-0.125000
G01 X55.433800 Y133.431600 Z-0.125000
G01 X55.095700 Y132.719300 Z-0.125000
G01 X54.436200 Y132.059800 Z-0.125000
G01 X54.030100 Y131.279500 Z-0.125000
G01 X54.014000 Y131.006200 Z-0.125000
G01 X54.185300 Y131.060600 Z-0.125000
G01 X54.935400 Y131.810600 Z-0.125000
G01 X55.121000 Y131.879300 Z-0.125000
G01 X55.136500 Y131.637500 Z-0.125000
G01 X54.776300 Y130.903200 Z-0.125000
G01 X53.934500 Y130.061300 Z-0.125000
G01 X53.525200 Y129.277900 Z-0.125000
G01 X53.507000 Y129.002400 Z-0.125000
G01 X53.677300 Y129.055800 Z-0.125000
G01 X54.505700 Y129.884200 Z-0.125000
G01 X54.676100 Y129.937700 Z-0.125000
G01 X54.658000 Y129.662300 Z-0.125000
G01 X54.249000 Y128.879200 Z-0.125000
G01 X53.407300 Y128.037500 Z-0.125000
G01 X52.982600 Y127.238600 Z-0.125000
G01 X52.953600 Y126.952400 Z-0.125000
G01 X53.119100 Y127.000900 Z-0.125000
G01 X53.990500 Y127.872400 Z-0.125000
G01 X54.152600 Y127.917500 Z-0.125000
G01 X54.116200 Y127.623900 Z-0.125000
G01 X53.680600 Y126.814100 Z-0.125000
G01 X52.708300 Y125.841700 Z-0.125000
G01 X52.294400 Y125.053700 Z-0.125000
G01 X52.273000 Y124.775000 Z-0.125000
G01 X52.441900 Y124.826900 Z-0.125000
G01 X53.402600 Y125.787700 Z-0.125000
G01 X53.571200 Y125.839400 Z-0.125000
G01 X53.549300 Y125.560300 Z-0.125000
G01 X53.134800 Y124.771500 Z-0.125000
G01 X51.117800 Y122.754500 Z-0.125000
G01 X50.864600 Y122.618200 Z-0.125000
G01 X50.700500 Y122.711400 Z-0.125000
G01 X50.676700 Y122.944900 Z-0.125000
G01 X50.844500 Y123.229600 Z-0.125000
G01 X51.113700 Y123.498800 Z-0.125000
G01 X51.262000 Y123.764000 Z-0.125000
G01 X51.195100 Y123.954400 Z-0.125000
G01 X50.988000 Y124.004500 Z-0.125000
G01 X50.715200 Y123.848700 Z-0.125000
G01 X50.563700 Y123.697200 Z-0.125000
G01 X50.308200 Y123.558500 Z-0.125000
G01 X50.138800 Y123.646400 Z-0.125000
G01 X50.109700 Y123.874600 Z-0.125000
G01 X50.275100 Y124.156900 Z-0.125000
G01 X50.341800 Y124.223600 Z-0.125000
G01 X50.493400 Y124.492100 Z-0.125000
G01 X50.437100 Y124.693100 Z-0.125000
G01 X50.241700 Y124.754900 Z-0.125000
G01 X49.975700 Y124.605800 Z-0.125000
G01 X49.949200 Y124.579300 Z-0.125000
G01 X49.712400 Y124.459500 Z-0.125000
G01 X49.544100 Y124.548500 Z-0.125000
G01 X49.501800 Y124.763400 Z-0.125000
G01 X49.642900 Y125.021400 Z-0.125000
G01 X49.661800 Y125.040400 Z-0.125000
G01 X49.781200 Y125.276600 Z-0.125000
G01 X49.717600 Y125.470300 Z-0.125000
G01 X49.537700 Y125.547600 Z-0.125000
G01 X49.307600 Y125.434500 Z-0.125000
G01 X49.296100 Y125.423000 Z-0.125000
G01 X49.079000 Y125.322800 Z-0.125000
G01 X48.911200 Y125.412300 Z-0.125000
G01 X48.854200 Y125.612500 Z-0.125000
G01 X48.969100 Y125.844400 Z-0.125000
G01 X48.973300 Y125.848600 Z-0.125000
G01 X49.082000 Y126.074200 Z-0.125000
G01 X49.017000 Y126.266400 Z-0.125000
G01 X48.843400 Y126.350100 Z-0.125000
G01 X48.626300 Y126.249900 Z-0.125000
G01 X48.626300 Y126.249900 Z-0.125000
G01 X48.408500 Y126.149000 Z-0.125000
G01 X48.233300 Y126.231100 Z-0.125000
G01 X48.166800 Y126.421800 Z-0.125000
G01 X48.274800 Y126.646700 Z-0.125000
G01 X48.278100 Y126.650000 Z-0.125000
G01 X48.389600 Y126.878400 Z-0.125000
G01 X48.326100 Y127.072200 Z-0.125000
G01 X48.152500 Y127.155800 Z-0.125000
G01 X47.933200 Y127.053400 Z-0.125000
G01 X47.922800 Y127.043000 Z-0.125000
G01 X47.690000 Y126.927200 Z-0.125000
G01 X47.501100 Y126.995600 Z-0.125000
G01 X47.427800 Y127.179500 Z-0.125000
G01 X47.541400 Y127.410000 Z-0.125000
G01 X47.559600 Y127.428200 Z-0.125000
G01 X47.692600 Y127.678200 Z-0.125000
G01 X47.636400 Y127.879200 Z-0.125000
G01 X47.455500 Y127.955600 Z-0.125000
G01 X47.214700 Y127.831700 Z-0.125000
G01 X47.187700 Y127.804700 Z-0.125000
G01 X46.914800 Y127.648700 Z-0.125000
G01 X46.701200 Y127.692300 Z-0.125000
G01 X46.625600 Y127.874000 Z-0.125000
G01 X46.767000 Y128.132400 Z-0.125000
G01 X46.838400 Y128.203700 Z-0.125000
G01 X46.995000 Y128.477300 Z-0.125000
G01 X46.946600 Y128.686100 Z-0.125000
G01 X46.757900 Y128.754600 Z-0.125000
G01 X46.493500 Y128.607200 Z-0.125000
G01 X46.325500 Y128.439200 Z-0.125000
G01 X46.041200 Y128.271800 Z-0.125000
G01 X45.808600 Y128.296400 Z-0.125000
G01 X45.716300 Y128.461400 Z-0.125000
G01 X45.852900 Y128.715000 Z-0.125000
G01 X46.433900 Y129.295900 Z-0.125000
G01 X46.814000 Y130.050200 Z-0.125000
G01 X46.812200 Y130.305700 Z-0.125000
G01 X46.632800 Y130.243200 Z-0.125000
G01 X45.349300 Y128.959700 Z-0.125000
G01 X45.056200 Y128.783600 Z-0.125000
G01 X44.804400 Y128.789000 Z-0.125000
G01 X44.692900 Y128.934700 Z-0.125000
G01 X44.820700 Y129.179500 Z-0.125000
G01 X46.831700 Y131.190500 Z-0.125000
G01 X47.212200 Y131.945100 Z-0.125000
G01 X47.210600 Y132.200800 Z-0.125000
G01 X47.031400 Y132.138500 Z-0.125000
G01 X46.434700 Y131.541800 Z-0.125000
G01 X46.258200 Y131.482300 Z-0.125000
G01 X46.262800 Y131.744100 Z-0.125000
G01 X46.652200 Y132.507700 Z-0.125000
G01 X47.263700 Y133.119100 Z-0.125000
G01 X47.702600 Y133.932200 Z-0.125000
G01 X47.741200 Y134.228100 Z-0.125000
G01 X47.580200 Y134.184100 Z-0.125000
G01 X46.589100 Y133.193000 Z-0.125000
G00 Z5.000000

(End cutting path id: path11316)


(Start cutting path id: path11316)
(Change tool to Default tool)

G00 Z5.000000
G00 X53.463500 Y129.565700

G01 Z-0.125000 F100.0(Penetrate)
G01 X54.921400 Y135.373100 Z-0.125000 F400.000000
G01 X53.497200 Y136.526400 Z-0.125000
G01 X52.437300 Y137.240900 Z-0.125000
G01 X51.461900 Y137.600500 Z-0.125000
G01 X50.571600 Y137.605800 Z-0.125000
G01 X49.767500 Y137.257300 Z-0.125000
G01 X49.050400 Y136.555800 Z-0.125000
G01 X48.421200 Y135.501800 Z-0.125000
G01 X47.880700 Y134.095900 Z-0.125000
G01 X47.429700 Y132.338700 Z-0.125000
G01 X46.753000 Y129.116200 Z-0.125000
G01 X49.026100 Y126.457100 Z-0.125000
G01 X50.735100 Y124.573300 Z-0.125000
G01 X51.652300 Y123.778200 Z-0.125000
G01 X52.330000 Y125.470100 Z-0.125000
G01 X53.463500 Y129.565700 Z-0.125000
G01 X53.463500 Y129.565700 Z-0.125000
G00 Z5.000000

(End cutting path id: path11316)


(Start cutting path id: path11316)
(Change tool to Default tool)

G00 Z5.000000
G00 X53.159700 Y124.048100

G01 Z-0.125000 F100.0(Penetrate)
G01 X51.384000 Y122.272400 Z-0.125000 F400.000000
G01 X51.214100 Y121.985600 Z-0.125000
G01 X51.233300 Y121.747500 Z-0.125000
G01 X51.392700 Y121.649700 Z-0.125000
G01 X51.643700 Y121.783800 Z-0.125000
G01 X52.686000 Y122.826000 Z-0.125000
G01 X52.858200 Y122.881300 Z-0.125000
G01 X52.844100 Y122.610000 Z-0.125000
G01 X52.441000 Y121.832600 Z-0.125000
G01 X51.897200 Y121.288900 Z-0.125000
G01 X51.725400 Y121.000200 Z-0.125000
G01 X51.740400 Y120.757900 Z-0.125000
G01 X51.895600 Y120.655900 Z-0.125000
G01 X52.144800 Y120.788100 Z-0.125000
G01 X52.469500 Y121.112900 Z-0.125000
G01 X52.706100 Y121.232500 Z-0.125000
G01 X52.833600 Y121.102700 Z-0.125000
G01 X52.820700 Y120.832600 Z-0.125000
G01 X52.636300 Y120.531300 Z-0.125000
G01 X52.386700 Y120.281700 Z-0.125000
G01 X52.213100 Y119.991200 Z-0.125000
G01 X52.224100 Y119.744800 Z-0.125000
G01 X52.375300 Y119.638900 Z-0.125000
G01 X52.622700 Y119.769300 Z-0.125000
G01 X52.821000 Y119.967600 Z-0.125000
G01 X53.061700 Y120.091400 Z-0.125000
G01 X53.198500 Y119.970900 Z-0.125000
G01 X53.194800 Y119.710000 Z-0.125000
G01 X53.014600 Y119.412900 Z-0.125000
G01 X52.852900 Y119.251200 Z-0.125000
G01 X52.677600 Y118.959000 Z-0.125000
G01 X52.684900 Y118.709000 Z-0.125000
G01 X52.832500 Y118.599400 Z-0.125000
G01 X53.078200 Y118.728100 Z-0.125000
G01 X53.213800 Y118.863700 Z-0.125000
G01 X53.456300 Y118.989200 Z-0.125000
G01 X53.596800 Y118.872500 Z-0.125000
G01 X53.597100 Y118.615500 Z-0.125000
G01 X53.418600 Y118.320100 Z-0.125000
G01 X53.298800 Y118.200400 Z-0.125000
G01 X53.122100 Y117.906700 Z-0.125000
G01 X53.126200 Y117.653500 Z-0.125000
G01 X53.270600 Y117.540700 Z-0.125000
G01 X53.514800 Y117.668000 Z-0.125000
G01 X53.627600 Y117.780800 Z-0.125000
G01 X53.871100 Y117.907400 Z-0.125000
G01 X54.014000 Y117.793000 Z-0.125000
G01 X54.016500 Y117.538300 Z-0.125000
G01 X53.839100 Y117.244000 Z-0.125000
G01 X53.726400 Y117.131200 Z-0.125000
G01 X53.548100 Y116.836000 Z-0.125000
G01 X53.548800 Y116.579500 Z-0.125000
G01 X53.689800 Y116.463200 Z-0.125000
G01 X53.932500 Y116.589000 Z-0.125000
G01 X54.055500 Y116.712000 Z-0.125000
G01 X54.299700 Y116.839300 Z-0.125000
G01 X54.444000 Y116.726300 Z-0.125000
G01 X54.448100 Y116.473100 Z-0.125000
G01 X54.271300 Y116.179400 Z-0.125000
G01 X54.134300 Y116.042400 Z-0.125000
G01 X53.954700 Y115.745900 Z-0.125000
G01 X53.952600 Y115.486500 Z-0.125000
G01 X54.090700 Y115.367400 Z-0.125000
G01 X54.332100 Y115.491900 Z-0.125000
G01 X54.481900 Y115.641700 Z-0.125000
G01 X54.723900 Y115.766800 Z-0.125000
G01 X54.863400 Y115.649000 Z-0.125000
G01 X54.862600 Y115.391000 Z-0.125000
G01 X54.683600 Y115.095100 Z-0.125000
G01 X54.525900 Y114.937400 Z-0.125000
G01 X54.345200 Y114.639700 Z-0.125000
G01 X54.340300 Y114.377600 Z-0.125000
G01 X54.475800 Y114.255800 Z-0.125000
G01 X54.716000 Y114.379100 Z-0.125000
G01 X54.883300 Y114.546400 Z-0.125000
G01 X55.123800 Y114.669900 Z-0.125000
G01 X55.260000 Y114.548900 Z-0.125000
G01 X55.255800 Y114.287500 Z-0.125000
G01 X55.075400 Y113.990100 Z-0.125000
G01 X54.900700 Y113.815400 Z-0.125000
G01 X54.718500 Y113.516300 Z-0.125000
G01 X54.710700 Y113.251200 Z-0.125000
G01 X54.843100 Y113.126400 Z-0.125000
G01 X55.081900 Y113.248300 Z-0.125000
G01 X55.265600 Y113.431900 Z-0.125000
G01 X55.504800 Y113.554200 Z-0.125000
G01 X55.638300 Y113.430500 Z-0.125000
G01 X55.631500 Y113.166400 Z-0.125000
G01 X55.449800 Y112.867800 Z-0.125000
G01 X55.259600 Y112.677600 Z-0.125000
G01 X55.076300 Y112.377400 Z-0.125000
G01 X55.066000 Y112.109900 Z-0.125000
G01 X55.196000 Y111.982600 Z-0.125000
G01 X55.433700 Y112.103400 Z-0.125000
G01 X55.631800 Y112.301400 Z-0.125000
G01 X55.870000 Y112.422700 Z-0.125000
G01 X56.001100 Y112.296600 Z-0.125000
G01 X55.991900 Y112.030200 Z-0.125000
G01 X55.809200 Y111.730500 Z-0.125000
G01 X55.603200 Y111.524500 Z-0.125000
G01 X55.418700 Y111.223000 Z-0.125000
G01 X55.405500 Y110.952600 Z-0.125000
G01 X55.532600 Y110.822500 Z-0.125000
G01 X55.769000 Y110.942000 Z-0.125000
G01 X55.983200 Y111.156200 Z-0.125000
G01 X56.220400 Y111.276400 Z-0.125000
G01 X56.349100 Y111.147900 Z-0.125000
G01 X56.337600 Y110.879100 Z-0.125000
G01 X56.153800 Y110.578300 Z-0.125000
G01 X55.931500 Y110.356100 Z-0.125000
G01 X55.745800 Y110.053500 Z-0.125000
G01 X55.730300 Y109.780700 Z-0.125000
G01 X55.855100 Y109.648300 Z-0.125000
G01 X56.090400 Y109.766600 Z-0.125000
G01 X56.319500 Y109.995800 Z-0.125000
G01 X56.555400 Y110.114700 Z-0.125000
G01 X56.681400 Y109.983500 Z-0.125000
G01 X56.667100 Y109.711900 Z-0.125000
G01 X56.482000 Y109.409900 Z-0.125000
G01 X56.242700 Y109.170600 Z-0.125000
G01 X56.056100 Y108.867000 Z-0.125000
G01 X56.038300 Y108.592000 Z-0.125000
G01 X56.160800 Y108.457300 Z-0.125000
G01 X56.395100 Y108.574600 Z-0.125000
G01 X56.638200 Y108.817800 Z-0.125000
G01 X56.872400 Y108.934900 Z-0.125000
G01 X56.994500 Y108.799900 Z-0.125000
G01 X56.976400 Y108.524500 Z-0.125000
G01 X56.789600 Y108.220700 Z-0.125000
G01 X56.543300 Y107.974500 Z-0.125000
G01 X56.355200 Y107.669400 Z-0.125000
G01 X56.334000 Y107.391000 Z-0.125000
G01 X56.453200 Y107.253000 Z-0.125000
G01 X56.686000 Y107.368800 Z-0.125000
G01 X56.933700 Y107.616500 Z-0.125000
G01 X57.166200 Y107.732100 Z-0.125000
G01 X57.284800 Y107.593400 Z-0.125000
G01 X57.263100 Y107.314500 Z-0.125000
G01 X57.074700 Y107.009100 Z-0.125000
G01 X56.828700 Y106.763100 Z-0.125000
G01 X56.639400 Y106.456900 Z-0.125000
G01 X56.615900 Y106.176100 Z-0.125000
G01 X56.732600 Y106.035700 Z-0.125000
G01 X56.964300 Y106.150400 Z-0.125000
G01 X57.214000 Y106.400100 Z-0.125000
G01 X57.447200 Y106.516400 Z-0.125000
G01 X57.567300 Y106.379200 Z-0.125000
G01 X57.547100 Y106.101800 Z-0.125000
G01 X57.359400 Y105.797100 Z-0.125000
G01 X57.097300 Y105.535100 Z-0.125000
G01 X56.907600 Y105.228400 Z-0.125000
G01 X56.883100 Y104.946700 Z-0.125000
G01 X56.998900 Y104.805200 Z-0.125000
G01 X57.230100 Y104.919500 Z-0.125000
G01 X57.507500 Y105.196900 Z-0.125000
G01 X57.741600 Y105.314000 Z-0.125000
G01 X57.863700 Y105.178900 Z-0.125000
G01 X57.845500 Y104.903500 Z-0.125000
G01 X57.658600 Y104.599700 Z-0.125000
G01 X57.353400 Y104.294500 Z-0.125000
G01 X57.162200 Y103.986300 Z-0.125000
G01 X57.134500 Y103.701300 Z-0.125000
G01 X57.247000 Y103.556600 Z-0.125000
G01 X57.476800 Y103.669400 Z-0.125000
G01 X57.816900 Y104.009600 Z-0.125000
G01 X58.053000 Y104.128800 Z-0.125000
G01 X58.179600 Y103.998200 Z-0.125000
G01 X58.165900 Y103.727200 Z-0.125000
G01 X57.981100 Y103.425500 Z-0.125000
G01 X57.597000 Y103.041300 Z-0.125000
G01 X57.404200 Y102.731600 Z-0.125000
G01 X57.373100 Y102.443300 Z-0.125000
G01 X57.482300 Y102.295200 Z-0.125000
G01 X57.710500 Y102.406500 Z-0.125000
G01 X58.154900 Y102.850900 Z-0.125000
G01 X58.395500 Y102.974600 Z-0.125000
G01 X58.532100 Y102.853900 Z-0.125000
G01 X58.528300 Y102.592800 Z-0.125000
G01 X58.348000 Y102.295600 Z-0.125000
G01 X57.824000 Y101.771700 Z-0.125000
G01 X57.630400 Y101.461000 Z-0.125000
G01 X57.597100 Y101.170600 Z-0.125000
G01 X57.704200 Y101.020400 Z-0.125000
G01 X57.931500 Y101.130700 Z-0.125000
G01 X58.707500 Y101.906800 Z-0.125000
G01 X59.029900 Y102.112200 Z-0.125000
G01 X59.346200 Y102.171300 Z-0.125000
G01 X59.522100 Y102.090000 Z-0.125000
G01 X59.423500 Y101.874500 Z-0.125000
G01 X58.035100 Y100.486000 Z-0.125000
G01 X57.840900 Y100.174900 Z-0.125000
G01 X57.806700 Y99.883400 Z-0.125000
G01 X57.912700 Y99.732200 Z-0.125000
G01 X58.139500 Y99.842100 Z-0.125000
G01 X60.429300 Y102.131900 Z-0.125000
G01 X61.202000 Y102.530400 Z-0.125000
G01 X61.470100 Y102.541200 Z-0.125000
G01 X61.413400 Y102.367600 Z-0.125000
G01 X58.232900 Y99.187100 Z-0.125000
G01 X58.037000 Y98.874300 Z-0.125000
G01 X57.999000 Y98.579000 Z-0.125000
G01 X58.101200 Y98.424000 Z-0.125000
G01 X58.326300 Y98.532200 Z-0.125000
G01 X62.319600 Y102.525500 Z-0.125000
G01 X62.991700 Y102.823400 Z-0.125000
G01 X63.190700 Y102.765100 Z-0.125000
G01 X63.102600 Y102.560100 Z-0.125000
G01 X58.417900 Y97.875400 Z-0.125000
G01 X58.220400 Y97.561000 Z-0.125000
G01 X58.178800 Y97.262100 Z-0.125000
G01 X58.277500 Y97.103600 Z-0.125000
G01 X58.501000 Y97.210100 Z-0.125000
G01 X63.815400 Y102.524600 Z-0.125000
G01 X64.128700 Y102.720900 Z-0.125000
G01 X64.425000 Y102.760000 Z-0.125000
G01 X64.581000 Y102.658700 Z-0.125000
G01 X64.473400 Y102.434100 Z-0.125000
G01 X58.584300 Y96.545100 Z-0.125000
G01 X58.385900 Y96.229800 Z-0.125000
G01 X58.342300 Y95.928900 Z-0.125000
G01 X58.439000 Y95.768400 Z-0.125000
G01 X58.661500 Y95.874000 Z-0.125000
G01 X65.091300 Y102.303700 Z-0.125000
G01 X65.393100 Y102.488700 Z-0.125000
G01 X65.664300 Y102.502600 Z-0.125000
G01 X65.795100 Y102.376100 Z-0.125000
G01 X65.676000 Y102.140100 Z-0.125000
G01 X58.735000 Y95.199100 Z-0.125000
G01 X58.535500 Y94.882600 Z-0.125000
G01 X58.489300 Y94.579200 Z-0.125000
G01 X58.583400 Y94.416100 Z-0.125000
G01 X58.804800 Y94.520500 Z-0.125000
G01 X66.237900 Y101.953600 Z-0.125000
G01 X66.529900 Y102.128700 Z-0.125000
G01 X66.779300 Y102.120800 Z-0.125000
G01 X66.888300 Y101.972600 Z-0.125000
G01 X66.759300 Y101.726700 Z-0.125000
G01 X58.868400 Y93.835800 Z-0.125000
G01 X58.667300 Y93.517800 Z-0.125000
G01 X58.617800 Y93.211000 Z-0.125000
G01 X58.708700 Y93.044600 Z-0.125000
G01 X58.928500 Y93.147600 Z-0.125000
G01 X67.264400 Y101.483400 Z-0.125000
G01 X67.550300 Y101.652400 Z-0.125000
G01 X67.786500 Y101.631400 Z-0.125000
G01 X67.882400 Y101.470000 Z-0.125000
G01 X67.747400 Y101.218100 Z-0.125000
G01 X58.984600 Y92.455200 Z-0.125000
G01 X58.782200 Y92.135900 Z-0.125000
G01 X58.729900 Y91.826300 Z-0.125000
G01 X58.817800 Y91.657100 Z-0.125000
G01 X59.036400 Y91.758700 Z-0.125000
G01 X68.206800 Y100.929100 Z-0.125000
G01 X68.485800 Y101.091200 Z-0.125000
G01 X68.706800 Y101.054900 Z-0.125000
G01 X68.787400 Y100.878200 Z-0.125000
G01 X68.645400 Y100.619400 Z-0.125000
G01 X59.082300 Y91.056200 Z-0.125000
G01 X58.878200 Y90.735300 Z-0.125000
G01 X58.822300 Y90.422000 Z-0.125000
G01 X58.906600 Y90.249100 Z-0.125000
G01 X59.123500 Y90.349100 Z-0.125000
G01 X69.063500 Y100.289100 Z-0.125000
G01 X69.335500 Y100.444200 Z-0.125000
G01 X69.541100 Y100.392500 Z-0.125000
G01 X69.606400 Y100.200500 Z-0.125000
G01 X69.457400 Y99.934700 Z-0.125000
G01 X59.160200 Y89.637400 Z-0.125000
G01 X58.954700 Y89.315000 Z-0.125000
G01 X58.895500 Y88.998600 Z-0.125000
G01 X58.976600 Y88.822400 Z-0.125000
G01 X59.192100 Y88.921000 Z-0.125000
G01 X69.830100 Y99.559000 Z-0.125000
G01 X70.095300 Y99.707300 Z-0.125000
G01 X70.285900 Y99.640600 Z-0.125000
G01 X70.336100 Y99.433500 Z-0.125000
G01 X70.180300 Y99.160800 Z-0.125000
G01 X59.219000 Y88.199500 Z-0.125000
G01 X59.011600 Y87.875200 Z-0.125000
G01 X58.948200 Y87.554500 Z-0.125000
G01 X59.025100 Y87.374200 Z-0.125000
G01 X59.238600 Y87.470800 Z-0.125000
G01 X70.506300 Y98.738500 Z-0.125000
G01 X70.765200 Y98.880400 Z-0.125000
G01 X70.941700 Y98.799700 Z-0.125000
G01 X70.978000 Y98.578700 Z-0.125000
G01 X70.815900 Y98.299700 Z-0.125000
G01 X59.253300 Y86.737100 Z-0.125000
G01 X58.977200 Y86.086800 Z-0.125000
G01 X59.050400 Y85.902800 Z-0.125000
G01 X59.262300 Y85.997800 Z-0.125000
G01 X71.105300 Y97.840800 Z-0.125000
G01 X71.357800 Y97.976300 Z-0.125000
G01 X71.520400 Y97.881700 Z-0.125000
G01 X71.542600 Y97.646700 Z-0.125000
G01 X71.374200 Y97.361300 Z-0.125000
G01 X60.922500 Y86.909600 Z-0.125000
G01 X60.779400 Y86.649600 Z-0.125000
G01 X60.857500 Y86.470500 Z-0.125000
G01 X61.076000 Y86.431600 Z-0.125000
G01 X61.353800 Y86.592600 Z-0.125000
G01 X71.605900 Y96.844600 Z-0.125000
G01 X71.841500 Y96.963400 Z-0.125000
G01 X71.967200 Y96.831700 Z-0.125000
G01 X71.952500 Y96.559800 Z-0.125000
G01 X71.767200 Y96.257600 Z-0.125000
G01 X61.881200 Y86.371600 Z-0.125000
G01 X61.765300 Y86.138800 Z-0.125000
G01 X61.903300 Y86.019500 Z-0.125000
G01 X62.181600 Y86.040600 Z-0.125000
G01 X62.486700 Y86.228800 Z-0.125000
G01 X71.895700 Y95.637700 Z-0.125000
G01 X72.153800 Y95.778900 Z-0.125000
G01 X72.328700 Y95.696600 Z-0.125000
G01 X72.363400 Y95.474000 Z-0.125000
G01 X72.200500 Y95.194200 Z-0.125000
G01 X63.141600 Y86.135300 Z-0.125000
G01 X63.039300 Y85.916000 Z-0.125000
G01 X63.207000 Y85.826500 Z-0.125000
G01 X63.515100 Y85.877400 Z-0.125000
G01 X63.833700 Y86.079000 Z-0.125000
G01 X72.588300 Y94.833600 Z-0.125000
G01 X72.866100 Y94.994500 Z-0.125000
G01 X73.084400 Y94.955500 Z-0.125000
G01 X73.162300 Y94.776200 Z-0.125000
G01 X73.019200 Y94.516200 Z-0.125000
G01 X64.565100 Y86.062100 Z-0.125000
G01 X64.474800 Y85.854800 Z-0.125000
G01 X64.668900 Y85.791700 Z-0.125000
G01 X65.334000 Y86.082600 Z-0.125000
G01 X73.474600 Y94.223300 Z-0.125000
G01 X73.758800 Y94.390500 Z-0.125000
G01 X73.991100 Y94.365600 Z-0.125000
G01 X74.083200 Y94.200400 Z-0.125000
G01 X73.946400 Y93.946700 Z-0.125000
G01 X66.143600 Y86.143900 Z-0.125000
G01 X66.071100 Y85.954500 Z-0.125000
G01 X66.304600 Y85.930700 Z-0.125000
G01 X67.026900 Y86.278800 Z-0.125000
G01 X74.429900 Y93.681800 Z-0.125000
G01 X74.717200 Y93.852200 Z-0.125000
G01 X74.956400 Y93.834200 Z-0.125000
G01 X75.055400 Y93.675900 Z-0.125000
G01 X74.921700 Y93.425300 Z-0.125000
G01 X67.658500 Y86.162000 Z-0.125000
G00 Z5.000000

(End cutting path id: path11316)


(Start cutting path id: path11316)
(Change tool to Default tool)

G00 Z5.000000
G00 X69.872800 Y87.628000

G01 Z-0.125000 F100.0(Penetrate)
G01 X70.640300 Y88.395500 Z-0.125000 F400.000000
G00 Z5.000000

(End cutting path id: path11316)


(Start cutting path id: path11316)
(Change tool to Default tool)

G00 Z5.000000
G00 X72.018900 Y79.855000

G01 Z-0.125000 F100.0(Penetrate)
G01 X84.216000 Y80.569100 Z-0.125000 F400.000000
G01 X87.798800 Y80.943600 Z-0.125000
G01 X85.740100 Y83.002300 Z-0.125000
G01 X84.286200 Y84.605800 Z-0.125000
G01 X83.681400 Y85.570400 Z-0.125000
G01 X83.536500 Y85.797200 Z-0.125000
G01 X83.142000 Y86.038000 Z-0.125000
G01 X81.845100 Y86.447100 Z-0.125000
G01 X79.377200 Y87.174900 Z-0.125000
G01 X76.022600 Y88.409100 Z-0.125000
G01 X72.036400 Y90.003800 Z-0.125000
G01 X70.746900 Y88.477100 Z-0.125000
G01 X69.447800 Y87.204400 Z-0.125000
G01 X68.135300 Y86.288100 Z-0.125000
G01 X66.372100 Y85.797200 Z-0.125000
G01 X64.146800 Y85.647800 Z-0.125000
G01 X62.082500 Y85.834600 Z-0.125000
G01 X61.305300 Y86.052400 Z-0.125000
G01 X60.801900 Y86.352200 Z-0.125000
G01 X60.450100 Y86.514600 Z-0.125000
G01 X60.226900 Y86.085500 Z-0.125000
G01 X60.075600 Y83.038300 Z-0.125000
G01 X60.075600 Y78.998100 Z-0.125000
G01 X61.740100 Y79.256700 Z-0.125000
G01 X72.018900 Y79.855000 Z-0.125000
G01 X72.018900 Y79.855000 Z-0.125000
G00 Z5.000000

(End cutting path id: path11316)


(Start cutting path id: path11316)
(Change tool to Default tool)

G00 Z5.000000
G00 X61.299100 Y79.054300

G01 Z-0.125000 F100.0(Penetrate)
G01 X56.766100 Y74.521300 Z-0.125000 F400.000000
G01 X56.675800 Y74.314100 Z-0.125000
G01 X56.870200 Y74.251200 Z-0.125000
G01 X57.535600 Y74.542400 Z-0.125000
G01 X61.894700 Y78.901500 Z-0.125000
G01 X62.583200 Y79.215900 Z-0.125000
G01 X62.793500 Y79.168900 Z-0.125000
G01 X62.710500 Y78.969000 Z-0.125000
G01 X58.300900 Y74.559300 Z-0.125000
G01 X58.167800 Y74.309400 Z-0.125000
G01 X58.268000 Y74.152300 Z-0.125000
G01 X58.508500 Y74.135600 Z-0.125000
G01 X58.796500 Y74.306600 Z-0.125000
G01 X63.511200 Y79.021300 Z-0.125000
G01 X64.192100 Y79.328100 Z-0.125000
G01 X64.397200 Y79.275900 Z-0.125000
G01 X64.311800 Y79.073500 Z-0.125000
G01 X58.953300 Y73.715100 Z-0.125000
G01 X58.681200 Y73.068800 Z-0.125000
G01 X58.757200 Y72.887600 Z-0.125000
G01 X58.970300 Y72.983800 Z-0.125000
G01 X65.109700 Y79.123100 Z-0.125000
G01 X65.785300 Y79.424600 Z-0.125000
G01 X65.986800 Y79.368800 Z-0.125000
G01 X65.899700 Y79.164800 Z-0.125000
G01 X61.167500 Y74.432600 Z-0.125000
G01 X61.088000 Y74.236100 Z-0.125000
G01 X61.305800 Y74.196700 Z-0.125000
G01 X62.005300 Y74.522000 Z-0.125000
G01 X66.689800 Y79.206500 Z-0.125000
G01 X67.365500 Y79.508000 Z-0.125000
G01 X67.566900 Y79.452200 Z-0.125000
G01 X67.479900 Y79.248300 Z-0.125000
G01 X62.828200 Y74.596600 Z-0.125000
G01 X62.745300 Y74.396800 Z-0.125000
G01 X62.955900 Y74.350100 Z-0.125000
G01 X63.644800 Y74.664800 Z-0.125000
G01 X68.270000 Y79.290000 Z-0.125000
G01 X68.941900 Y79.587800 Z-0.125000
G01 X69.140800 Y79.529400 Z-0.125000
G01 X69.052600 Y79.324300 Z-0.125000
G01 X64.454400 Y74.726000 Z-0.125000
G01 X64.370300 Y74.525000 Z-0.125000
G01 X64.578100 Y74.475600 Z-0.125000
G01 X65.263200 Y74.786500 Z-0.125000
G01 X69.835300 Y79.358600 Z-0.125000
G01 X70.507200 Y79.656300 Z-0.125000
G01 X70.706100 Y79.598000 Z-0.125000
G01 X70.617900 Y79.392800 Z-0.125000
G01 X66.066400 Y74.841400 Z-0.125000
G01 X65.981500 Y74.639500 Z-0.125000
G01 X66.187400 Y74.588200 Z-0.125000
G01 X66.869600 Y74.896200 Z-0.125000
G01 X71.400500 Y79.427100 Z-0.125000
G01 X72.072100 Y79.724500 Z-0.125000
G01 X72.270700 Y79.665900 Z-0.125000
G01 X72.182400 Y79.460600 Z-0.125000
G01 X67.669100 Y74.947300 Z-0.125000
G01 X67.583400 Y74.744700 Z-0.125000
G01 X67.787700 Y74.691800 Z-0.125000
G01 X68.467600 Y74.997500 Z-0.125000
G01 X72.963600 Y79.493500 Z-0.125000
G01 X73.635300 Y79.791000 Z-0.125000
G01 X73.834100 Y79.732500 Z-0.125000
G01 X73.745800 Y79.527300 Z-0.125000
G01 X69.264500 Y75.046000 Z-0.125000
G01 X69.178200 Y74.842700 Z-0.125000
G01 X69.381000 Y74.788400 Z-0.125000
G01 X70.058800 Y75.092000 Z-0.125000
G01 X74.531000 Y79.564200 Z-0.125000
G01 X75.204100 Y79.863100 Z-0.125000
G01 X75.403800 Y79.805500 Z-0.125000
G01 X75.315900 Y79.600700 Z-0.125000
G01 X70.853200 Y75.138000 Z-0.125000
G01 X70.766800 Y74.934600 Z-0.125000
G01 X70.969600 Y74.880200 Z-0.125000
G01 X71.647300 Y75.183700 Z-0.125000
G01 X76.104900 Y79.641300 Z-0.125000
G01 X76.780000 Y79.942300 Z-0.125000
G01 X76.981000 Y79.886100 Z-0.125000
G01 X76.893800 Y79.681900 Z-0.125000
G01 X72.441300 Y75.229400 Z-0.125000
G01 X72.354900 Y75.026100 Z-0.125000
G01 X72.557700 Y74.971600 Z-0.125000
G01 X73.235400 Y75.275100 Z-0.125000
G01 X77.685300 Y79.725000 Z-0.125000
G01 X78.362300 Y80.027900 Z-0.125000
G01 X78.564700 Y79.973000 Z-0.125000
G01 X78.478100 Y79.769500 Z-0.125000
G01 X74.029400 Y75.320800 Z-0.125000
G01 X73.943300 Y75.117700 Z-0.125000
G01 X74.146600 Y75.063800 Z-0.125000
G01 X74.825100 Y75.368100 Z-0.125000
G01 X79.273000 Y79.816100 Z-0.125000
G01 X79.952300 Y80.121100 Z-0.125000
G01 X80.156100 Y80.067700 Z-0.125000
G01 X80.070200 Y79.864900 Z-0.125000
G01 X75.623800 Y75.418500 Z-0.125000
G01 X75.538100 Y75.215900 Z-0.125000
G01 X75.742500 Y75.163000 Z-0.125000
G01 X76.422500 Y75.468800 Z-0.125000
G01 X80.870100 Y79.916400 Z-0.125000
G01 X81.552000 Y80.224200 Z-0.125000
G01 X81.757800 Y80.172700 Z-0.125000
G01 X81.672700 Y79.970700 Z-0.125000
G01 X77.221200 Y75.519200 Z-0.125000
G01 X77.136100 Y75.317100 Z-0.125000
G01 X77.341700 Y75.265500 Z-0.125000
G01 X78.023400 Y75.573000 Z-0.125000
G01 X82.481200 Y80.030800 Z-0.125000
G01 X83.169100 Y80.344500 Z-0.125000
G01 X83.378900 Y80.297100 Z-0.125000
G01 X83.295700 Y80.096900 Z-0.125000
G01 X78.828800 Y75.630100 Z-0.125000
G01 X78.744200 Y75.428500 Z-0.125000
G01 X78.950900 Y75.378000 Z-0.125000
G01 X79.634200 Y75.687200 Z-0.125000
G01 X84.122100 Y80.175000 Z-0.125000
G01 X84.820500 Y80.499300 Z-0.125000
G01 X85.037700 Y80.459100 Z-0.125000
G01 X84.957800 Y80.262300 Z-0.125000
G01 X80.441800 Y75.746400 Z-0.125000
G01 X80.358700 Y75.546300 Z-0.125000
G01 X80.568700 Y75.499100 Z-0.125000
G01 X81.256800 Y75.813000 Z-0.125000
G01 X85.793500 Y80.349700 Z-0.125000
G01 X86.491900 Y80.674000 Z-0.125000
G01 X86.709100 Y80.633800 Z-0.125000
G01 X86.629200 Y80.437000 Z-0.125000
G01 X82.071800 Y75.879600 Z-0.125000
G01 X81.989300 Y75.680200 Z-0.125000
G01 X82.200700 Y75.634400 Z-0.125000
G01 X82.890900 Y75.950400 Z-0.125000
G01 X88.988400 Y82.047900 Z-0.125000
G01 X89.107800 Y82.284200 Z-0.125000
G01 X88.977600 Y82.411300 Z-0.125000
G01 X88.707100 Y82.398000 Z-0.125000
G01 X88.405600 Y82.213400 Z-0.125000
G01 X87.841400 Y81.649300 Z-0.125000
G01 X87.572500 Y81.497300 Z-0.125000
G01 X87.373700 Y81.555700 Z-0.125000
G01 X87.315200 Y81.754500 Z-0.125000
G01 X87.467200 Y82.023400 Z-0.125000
G01 X87.869400 Y82.425600 Z-0.125000
G01 X88.001900 Y82.675100 Z-0.125000
G01 X87.900600 Y82.831000 Z-0.125000
G01 X87.659000 Y82.846600 Z-0.125000
G01 X87.370600 Y82.675100 Z-0.125000
G01 X87.093100 Y82.397600 Z-0.125000
G01 X86.824100 Y82.245600 Z-0.125000
G01 X86.625300 Y82.304100 Z-0.125000
G01 X86.566900 Y82.502900 Z-0.125000
G01 X86.718900 Y82.771800 Z-0.125000
G01 X86.910800 Y82.963800 Z-0.125000
G01 X87.055400 Y83.225200 Z-0.125000
G01 X86.980400 Y83.407500 Z-0.125000
G01 X86.765100 Y83.449400 Z-0.125000
G01 X86.488600 Y83.289900 Z-0.125000
G01 X86.344700 Y83.146000 Z-0.125000
G01 X86.076100 Y82.994300 Z-0.125000
G01 X85.877900 Y83.053300 Z-0.125000
G01 X85.820000 Y83.252700 Z-0.125000
G01 X85.972300 Y83.522000 Z-0.125000
G01 X86.099600 Y83.649200 Z-0.125000
G01 X86.255200 Y83.921800 Z-0.125000
G01 X86.204700 Y84.128500 Z-0.125000
G01 X86.013800 Y84.194900 Z-0.125000
G01 X85.748500 Y84.046400 Z-0.125000
G01 X85.605300 Y83.903300 Z-0.125000
G01 X85.338900 Y83.753800 Z-0.125000
G01 X85.145600 Y83.817700 Z-0.125000
G01 X85.092600 Y84.022000 Z-0.125000
G01 X85.247100 Y84.293400 Z-0.125000
G01 X85.431200 Y84.477500 Z-0.125000
G01 X85.597100 Y84.760400 Z-0.125000
G01 X85.569200 Y84.989700 Z-0.125000
G01 X85.401100 Y85.078800 Z-0.125000
G01 X85.146000 Y84.940700 Z-0.125000
G01 X84.898900 Y84.693600 Z-0.125000
G01 X84.636100 Y84.547700 Z-0.125000
G01 X84.450800 Y84.619700 Z-0.125000
G01 X84.405800 Y84.832000 Z-0.125000
G01 X84.564000 Y85.107000 Z-0.125000
G01 X84.898600 Y85.441600 Z-0.125000
G01 X85.075800 Y85.735700 Z-0.125000
G01 X85.072700 Y85.989900 Z-0.125000
G01 X84.929300 Y86.103700 Z-0.125000
G01 X84.685500 Y85.976900 Z-0.125000
G01 X84.250100 Y85.541500 Z-0.125000
G01 X84.003300 Y85.411600 Z-0.125000
G01 X83.853100 Y85.518600 Z-0.125000
G01 X83.843200 Y85.766000 Z-0.125000
G01 X84.017200 Y86.057000 Z-0.125000
G01 X84.502400 Y86.542100 Z-0.125000
G01 X84.688600 Y86.845300 Z-0.125000
G01 X84.705600 Y87.119500 Z-0.125000
G01 X84.582200 Y87.253400 Z-0.125000
G01 X84.347600 Y87.135700 Z-0.125000
G01 X83.590600 Y86.378700 Z-0.125000
G01 X83.298500 Y86.203600 Z-0.125000
G01 X83.048700 Y86.211000 Z-0.125000
G01 X82.939300 Y86.358800 Z-0.125000
G01 X83.068100 Y86.604600 Z-0.125000
G01 X84.248600 Y87.785000 Z-0.125000
G01 X84.446000 Y88.099400 Z-0.125000
G01 X84.487400 Y88.398100 Z-0.125000
G01 X84.388500 Y88.556400 Z-0.125000
G01 X84.165000 Y88.449800 Z-0.125000
G01 X82.494400 Y86.779300 Z-0.125000
G01 X82.189000 Y86.590800 Z-0.125000
G01 X81.910000 Y86.569000 Z-0.125000
G01 X81.771300 Y86.687600 Z-0.125000
G01 X81.886900 Y86.920000 Z-0.125000
G01 X84.195400 Y89.228600 Z-0.125000
G01 X84.595900 Y90.003200 Z-0.125000
G01 X84.608100 Y90.272700 Z-0.125000
G01 X84.435100 Y90.216600 Z-0.125000
G01 X81.015700 Y86.797300 Z-0.125000
G00 Z5.000000

(End cutting path id: path11316)


(Start cutting path id: path11316)
(Change tool to Default tool)

G00 Z5.000000
G00 X85.511900 Y91.293100

G01 Z-0.125000 F100.0(Penetrate)
G01 X86.406100 Y92.187300 Z-0.125000 F400.000000
G01 X86.723600 Y92.387900 Z-0.125000
G01 X87.029200 Y92.436200 Z-0.125000
G01 X87.194500 Y92.344200 Z-0.125000
G01 X87.091000 Y92.123800 Z-0.125000
G01 X85.818000 Y90.850800 Z-0.125000
G01 X85.614000 Y90.530100 Z-0.125000
G01 X85.558000 Y90.216900 Z-0.125000
G01 X85.642300 Y90.044000 Z-0.125000
G01 X85.859200 Y90.144000 Z-0.125000
G01 X87.785300 Y92.070100 Z-0.125000
G01 X88.106100 Y92.274000 Z-0.125000
G01 X88.418800 Y92.329500 Z-0.125000
G01 X88.591300 Y92.244700 Z-0.125000
G01 X88.491100 Y92.027600 Z-0.125000
G01 X87.863400 Y91.399800 Z-0.125000
G01 X87.780300 Y91.199900 Z-0.125000
G01 X87.990500 Y91.152800 Z-0.125000
G01 X88.679000 Y91.467100 Z-0.125000
G01 X89.206200 Y91.994300 Z-0.125000
G01 X89.529700 Y92.200900 Z-0.125000
G01 X89.848700 Y92.262600 Z-0.125000
G01 X90.027300 Y92.184000 Z-0.125000
G01 X89.929900 Y91.969600 Z-0.125000
G01 X89.442800 Y91.482600 Z-0.125000
G01 X89.349800 Y91.272600 Z-0.125000
G01 X89.537900 Y91.203500 Z-0.125000
G01 X90.194400 Y91.485800 Z-0.125000
G01 X90.658300 Y91.949700 Z-0.125000
G01 X91.323900 Y92.241100 Z-0.125000
G01 X91.518400 Y92.178400 Z-0.125000
G01 X91.428200 Y91.971300 Z-0.125000
G01 X90.931900 Y91.475000 Z-0.125000
G01 X90.832400 Y91.258500 Z-0.125000
G01 X91.006400 Y91.175300 Z-0.125000
G01 X91.320700 Y91.232400 Z-0.125000
G01 X91.642200 Y91.436900 Z-0.125000
G01 X92.142600 Y91.937300 Z-0.125000
G01 X92.802500 Y92.223000 Z-0.125000
G01 X92.993000 Y92.156300 Z-0.125000
G01 X92.901100 Y91.947400 Z-0.125000
G01 X92.316500 Y91.362800 Z-0.125000
G01 X92.205900 Y91.135300 Z-0.125000
G01 X92.355500 Y91.027600 Z-0.125000
G01 X92.645400 Y91.060300 Z-0.125000
G01 X92.955700 Y91.253700 Z-0.125000
G01 X93.673000 Y91.971000 Z-0.125000
G01 X94.351300 Y92.275100 Z-0.125000
G01 X94.554500 Y92.221100 Z-0.125000
G01 X94.468300 Y92.017900 Z-0.125000
G01 X93.516200 Y91.065900 Z-0.125000
G01 X93.324900 Y90.640700 Z-0.125000
G01 X93.296800 Y90.098100 Z-0.125000
G01 X93.409100 Y89.695900 Z-0.125000
G01 X93.638700 Y89.691600 Z-0.125000
G01 X96.180200 Y92.233100 Z-0.125000
G01 X96.258900 Y92.428800 Z-0.125000
G01 X96.039200 Y92.466300 Z-0.125000
G01 X95.337000 Y92.138300 Z-0.125000
G01 X92.448200 Y89.249500 Z-0.125000
G00 Z5.000000

(End cutting path id: path11316)


(Start cutting path id: path11316)
(Change tool to Default tool)

G00 Z5.000000
G00 X94.532100 Y89.836700

G01 Z-0.125000 F100.0(Penetrate)
G01 X97.030000 Y92.334600 Z-0.125000 F400.000000
G01 X97.835700 Y92.766200 Z-0.125000
G01 X98.126600 Y92.799800 Z-0.125000
G01 X98.080200 Y92.636500 Z-0.125000
G01 X95.888200 Y90.444500 Z-0.125000
G01 X95.827900 Y90.267200 Z-0.125000
G01 X96.088000 Y90.270100 Z-0.125000
G01 X96.849100 Y90.657100 Z-0.125000
G01 X99.135100 Y92.943100 Z-0.125000
G01 X100.068000 Y93.501900 Z-0.125000
G01 X100.447000 Y93.623000 Z-0.125000
G01 X100.440000 Y93.499500 Z-0.125000
G01 X97.739300 Y90.798900 Z-0.125000
G01 X97.657300 Y90.599900 Z-0.125000
G01 X97.869700 Y90.555100 Z-0.125000
G01 X98.561400 Y90.872700 Z-0.125000
G01 X102.578000 Y94.888700 Z-0.125000
G00 Z5.000000

(End cutting path id: path11316)


(Start cutting path id: path11316)
(Change tool to Default tool)

G00 Z5.000000
G00 X102.448000 Y91.017800

G01 Z-0.125000 F100.0(Penetrate)
G01 X97.669300 Y86.238700 Z-0.125000 F400.000000
G00 Z5.000000

(End cutting path id: path11316)


(Start cutting path id: path11316)
(Change tool to Default tool)

G00 Z5.000000
G00 X96.498700 Y86.564800

G01 Z-0.125000 F100.0(Penetrate)
G01 X95.134400 Y85.200500 Z-0.125000 F400.000000
G01 X95.124100 Y85.073300 Z-0.125000
G01 X95.494300 Y85.186300 Z-0.125000
G01 X96.415600 Y85.733300 Z-0.125000
G01 X103.474000 Y92.791700 Z-0.125000
G00 Z5.000000

(End cutting path id: path11316)


(Start cutting path id: path11316)
(Change tool to Default tool)

G00 Z5.000000
G00 X99.037600 Y90.600400

G01 Z-0.125000 F100.0(Penetrate)
G01 X103.988000 Y95.550400 Z-0.125000 F400.000000
G01 X104.252000 Y95.698200 Z-0.125000
G01 X104.442000 Y95.630500 Z-0.125000
G01 X104.491000 Y95.422400 Z-0.125000
G01 X104.335000 Y95.149200 Z-0.125000
G01 X100.067000 Y90.881000 Z-0.125000
G01 X99.973000 Y90.670500 Z-0.125000
G01 X100.160000 Y90.600400 Z-0.125000
G01 X100.815000 Y90.881000 Z-0.125000
G01 X104.302000 Y94.368200 Z-0.125000
G00 Z5.000000

(End cutting path id: path11316)


(Start cutting path id: path11316)
(Change tool to Default tool)

G00 Z5.000000
G00 X104.473000 Y99.777500

G01 Z-0.125000 F100.0(Penetrate)
G01 X103.729000 Y99.033900 Z-0.125000 F400.000000
G01 X103.647000 Y98.835000 Z-0.125000
G01 X103.860000 Y98.790400 Z-0.125000
G01 X104.552000 Y99.108200 Z-0.125000
G01 X105.149000 Y99.705600 Z-0.125000
G01 X105.800000 Y99.982200 Z-0.125000
G01 X105.984000 Y99.909200 Z-0.125000
G01 X105.889000 Y99.697400 Z-0.125000
G01 X105.387000 Y99.195100 Z-0.125000
G01 X105.304000 Y98.995300 Z-0.125000
G01 X105.515000 Y98.948400 Z-0.125000
G01 X106.203000 Y99.263000 Z-0.125000
G01 X106.567000 Y99.626300 Z-0.125000
G01 X106.872000 Y99.814300 Z-0.125000
G01 X107.150000 Y99.835100 Z-0.125000
G01 X107.287000 Y99.715500 Z-0.125000
G01 X107.171000 Y99.482600 Z-0.125000
G01 X106.940000 Y99.250800 Z-0.125000
G01 X106.834000 Y99.027800 Z-0.125000
G01 X106.993000 Y98.930200 Z-0.125000
G01 X107.293000 Y98.973000 Z-0.125000
G01 X107.608000 Y99.171000 Z-0.125000
G01 X107.710000 Y99.272400 Z-0.125000
G01 X107.995000 Y99.441000 Z-0.125000
G01 X108.230000 Y99.418900 Z-0.125000
G01 X108.325000 Y99.256600 Z-0.125000
G01 X108.190000 Y99.004200 Z-0.125000
G01 X108.150000 Y98.964200 Z-0.125000
G01 X108.010000 Y98.707500 Z-0.125000
G01 X108.095000 Y98.535400 Z-0.125000
G01 X108.321000 Y98.503700 Z-0.125000
G01 X108.602000 Y98.667900 Z-0.125000
G01 X108.615000 Y98.681300 Z-0.125000
G01 X108.881000 Y98.830400 Z-0.125000
G01 X109.078000 Y98.769800 Z-0.125000
G01 X109.136000 Y98.570400 Z-0.125000
G01 X108.985000 Y98.303100 Z-0.125000
G01 X108.975000 Y98.292800 Z-0.125000
G01 X108.831000 Y98.031700 Z-0.125000
G01 X108.888000 Y97.831600 Z-0.125000
G01 X109.079000 Y97.765100 Z-0.125000
G01 X109.336000 Y97.905000 Z-0.125000
G01 X109.363000 Y97.932900 Z-0.125000
G01 X109.591000 Y98.043800 Z-0.125000
G01 X109.757000 Y97.952700 Z-0.125000
G01 X109.804000 Y97.741800 Z-0.125000
G01 X109.672000 Y97.493600 Z-0.125000
G01 X109.606000 Y97.426900 Z-0.125000
G01 X109.536000 Y97.240300 Z-0.125000
G01 X109.625000 Y97.071600 Z-0.125000
G01 X109.800000 Y96.989300 Z-0.125000
G01 X109.989000 Y97.061800 Z-0.125000
G01 X110.162000 Y97.234500 Z-0.125000
G00 Z5.000000

(End cutting path id: path11316)


(Start cutting path id: path11316)
(Change tool to Default tool)

G00 Z5.000000
G00 X108.744000 Y97.793200

G01 Z-0.125000 F100.0(Penetrate)
G01 X108.055000 Y98.420100 Z-0.125000 F400.000000
G01 X107.293000 Y98.762300 Z-0.125000
G01 X106.291000 Y98.861600 Z-0.125000
G01 X104.881000 Y98.760000 Z-0.125000
G01 X102.800000 Y98.642200 Z-0.125000
G01 X102.720000 Y98.723400 Z-0.125000
G01 X102.790000 Y98.857700 Z-0.125000
G01 X103.331000 Y99.303400 Z-0.125000
G01 X103.999000 Y99.694900 Z-0.125000
G01 X104.737000 Y99.958100 Z-0.125000
G01 X106.313000 Y100.107000 Z-0.125000
G01 X107.841000 Y99.763700 Z-0.125000
G01 X108.519000 Y99.411800 Z-0.125000
G01 X109.103000 Y98.942000 Z-0.125000
G01 X109.958000 Y97.909200 Z-0.125000
G01 X110.314000 Y97.126100 Z-0.125000
G01 X110.250000 Y96.659700 Z-0.125000
G01 X110.013000 Y96.596000 Z-0.125000
G01 X108.744000 Y97.793200 Z-0.125000
G01 X108.744000 Y97.793200 Z-0.125000
G00 Z5.000000

(End cutting path id: path11316)


(Start cutting path id: path11316)
(Change tool to Default tool)

G00 Z5.000000
G00 X100.782000 Y99.828300

G01 Z-0.125000 F100.0(Penetrate)
G01 X111.782000 Y110.828200 Z-0.125000 F400.000000
G01 X112.056000 Y110.985200 Z-0.125000
G01 X112.265000 Y110.937600 Z-0.125000
G01 X112.335000 Y110.749800 Z-0.125000
G01 X112.188000 Y110.485800 Z-0.125000
G01 X102.870000 Y101.168000 Z-0.125000
G00 Z5.000000

(End cutting path id: path11316)


(Start cutting path id: path11316)
(Change tool to Default tool)

G00 Z5.000000
G00 X90.664200 Y103.180700

G01 Z-0.125000 F100.0(Penetrate)
G01 X88.999400 Y101.515900 Z-0.125000 F400.000000
G00 Z5.000000

(End cutting path id: path11316)


(Start cutting path id: path11316)
(Change tool to Default tool)

G00 Z5.000000
G00 X86.707800 Y102.433100

G01 Z-0.125000 F100.0(Penetrate)
G01 X86.904600 Y103.734000 Z-0.125000 F400.000000
G01 X87.437500 Y105.066900 Z-0.125000
G01 X88.220300 Y106.343000 Z-0.125000
G01 X89.166700 Y107.473600 Z-0.125000
G01 X90.190400 Y108.370000 Z-0.125000
G01 X91.205200 Y108.943400 Z-0.125000
G01 X92.124800 Y109.105000 Z-0.125000
G01 X92.521900 Y109.003700 Z-0.125000
G01 X92.862900 Y108.766200 Z-0.125000
G01 X93.040200 Y108.462800 Z-0.125000
G01 X93.094200 Y108.050300 Z-0.125000
G01 X92.879700 Y106.968600 Z-0.125000
G01 X92.314300 Y105.663200 Z-0.125000
G01 X91.492400 Y104.276400 Z-0.125000
G01 X90.508800 Y102.950300 Z-0.125000
G01 X89.457900 Y101.827000 Z-0.125000
G01 X88.434500 Y101.048800 Z-0.125000
G01 X87.533200 Y100.757800 Z-0.125000
G01 X87.194000 Y100.877400 Z-0.125000
G01 X86.933700 Y101.216300 Z-0.125000
G01 X86.707800 Y102.433100 Z-0.125000
G01 X86.707800 Y102.433100 Z-0.125000
G00 Z5.000000

(End cutting path id: path11316)


(Start cutting path id: path11316)
(Change tool to Default tool)

G00 Z5.000000
G00 X85.188200 Y105.188400

G01 Z-0.125000 F100.0(Penetrate)
G01 X83.898900 Y103.899100 Z-0.125000 F400.000000
G01 X83.748300 Y103.631600 Z-0.125000
G01 X83.809900 Y103.435900 Z-0.125000
G01 X84.011800 Y103.380600 Z-0.125000
G01 X84.282100 Y103.534000 Z-0.125000
G01 X84.501900 Y103.753800 Z-0.125000
G01 X84.649800 Y103.784700 Z-0.125000
G01 X84.711600 Y103.589300 Z-0.125000
G01 X84.545100 Y103.048600 Z-0.125000
G01 X84.510700 Y103.014300 Z-0.125000
G01 X84.448500 Y102.835200 Z-0.125000
G01 X84.527000 Y102.656400 Z-0.125000
G01 X84.682400 Y102.554600 Z-0.125000
G01 X84.850900 Y102.606100 Z-0.125000
G01 X84.909300 Y102.664500 Z-0.125000
G01 X85.131800 Y102.512800 Z-0.125000
G01 X85.163400 Y102.170200 Z-0.125000
G01 X85.067900 Y102.074800 Z-0.125000
G00 Z5.000000

(End cutting path id: path11316)


(Start cutting path id: path11316)
(Change tool to Default tool)

G00 Z5.000000
G00 X87.721800 Y105.477000

G01 Z-0.125000 F100.0(Penetrate)
G01 X90.638500 Y108.393700 Z-0.125000 F400.000000
G01 X91.443600 Y108.824600 Z-0.125000
G01 X91.734000 Y108.857800 Z-0.125000
G01 X91.687500 Y108.694300 Z-0.125000
G01 X87.415700 Y104.422500 Z-0.125000
G01 X87.012800 Y103.645500 Z-0.125000
G01 X86.998900 Y103.374300 Z-0.125000
G01 X87.171200 Y103.429700 Z-0.125000
G01 X92.289200 Y108.547700 Z-0.125000
G01 X92.553400 Y108.694900 Z-0.125000
G01 X92.741700 Y108.626000 Z-0.125000
G01 X92.789700 Y108.416800 Z-0.125000
G01 X92.632900 Y108.143100 Z-0.125000
G01 X87.124200 Y102.634300 Z-0.125000
G01 X86.924700 Y102.317900 Z-0.125000
G01 X86.878800 Y102.014700 Z-0.125000
G01 X86.973200 Y101.851900 Z-0.125000
G01 X87.194700 Y101.956400 Z-0.125000
G01 X92.682600 Y107.444300 Z-0.125000
G01 X92.839000 Y107.483800 Z-0.125000
G01 X92.790200 Y107.177800 Z-0.125000
G01 X92.336600 Y106.350000 Z-0.125000
G01 X87.410500 Y101.423900 Z-0.125000
G01 X87.276000 Y101.172500 Z-0.125000
G01 X87.372900 Y101.012100 Z-0.125000
G01 X87.610100 Y100.992100 Z-0.125000
G01 X87.896500 Y101.161600 Z-0.125000
G01 X91.992200 Y105.257300 Z-0.125000
G00 Z5.000000

(End cutting path id: path11316)


(Start cutting path id: path11316)
(Change tool to Default tool)

G00 Z5.000000
G00 X89.157200 Y112.899300

G01 Z-0.125000 F100.0(Penetrate)
G01 X91.949800 Y115.691800 Z-0.125000 F400.000000
G01 X92.273400 Y115.898500 Z-0.125000
G01 X92.592600 Y115.960400 Z-0.125000
G01 X92.771400 Y115.882000 Z-0.125000
G01 X92.674000 Y115.667700 Z-0.125000
G01 X91.180600 Y114.174300 Z-0.125000
G01 X91.075300 Y113.952100 Z-0.125000
G01 X91.236600 Y113.856200 Z-0.125000
G01 X91.538300 Y113.900500 Z-0.125000
G01 X91.854000 Y114.099300 Z-0.125000
G01 X93.572100 Y115.817500 Z-0.125000
G01 X94.319800 Y116.191000 Z-0.125000
G01 X94.570800 Y116.184700 Z-0.125000
G01 X94.506300 Y116.003300 Z-0.125000
G01 X91.638900 Y113.135900 Z-0.125000
G01 X91.260400 Y112.383200 Z-0.125000
G01 X91.263200 Y112.128800 Z-0.125000
G01 X91.443100 Y112.191700 Z-0.125000
G01 X95.423900 Y116.172500 Z-0.125000
G01 X96.164800 Y116.539300 Z-0.125000
G01 X96.411200 Y116.528400 Z-0.125000
G01 X96.344600 Y116.344800 Z-0.125000
G01 X94.062700 Y114.062900 Z-0.125000
G00 Z5.000000

(End cutting path id: path11316)


(Start cutting path id: path11316)
(Change tool to Default tool)

G00 Z5.000000
G00 X95.760600 Y115.012500

G01 Z-0.125000 F100.0(Penetrate)
G01 X97.218700 Y116.470600 Z-0.125000 F400.000000
G01 X97.939900 Y116.817600 Z-0.125000
G01 X98.172600 Y116.793000 Z-0.125000
G01 X98.099700 Y116.603300 Z-0.125000
G01 X97.148700 Y115.652200 Z-0.125000
G01 X97.106000 Y115.492600 Z-0.125000
G01 X97.405000 Y115.534300 Z-0.125000
G01 X98.222500 Y115.977700 Z-0.125000
G01 X99.258800 Y117.014000 Z-0.125000
G00 Z5.000000

(End cutting path id: path11316)


(Start cutting path id: path11316)
(Change tool to Default tool)

G00 Z5.000000
G00 X97.703400 Y116.917400

G01 Z-0.125000 F100.0(Penetrate)
G01 X99.922400 Y117.246100 Z-0.125000 F400.000000
G01 X96.218100 Y120.219000 Z-0.125000
G01 X93.356100 Y122.339700 Z-0.125000
G01 X91.261700 Y123.442600 Z-0.125000
G01 X90.451900 Y123.630000 Z-0.125000
G01 X89.773400 Y123.584100 Z-0.125000
G01 X89.205900 Y123.311700 Z-0.125000
G01 X88.729300 Y122.820100 Z-0.125000
G01 X88.247400 Y121.710300 Z-0.125000
G01 X88.338200 Y120.466500 Z-0.125000
G01 X89.006200 Y119.072100 Z-0.125000
G01 X90.256200 Y117.510700 Z-0.125000
G01 X91.133000 Y116.667700 Z-0.125000
G01 X91.894700 Y116.205800 Z-0.125000
G01 X92.690300 Y116.067500 Z-0.125000
G01 X93.668500 Y116.195700 Z-0.125000
G01 X97.703400 Y116.917400 Z-0.125000
G01 X97.703400 Y116.917400 Z-0.125000
G00 Z5.000000

(End cutting path id: path11316)


(Start cutting path id: path11316)
(Change tool to Default tool)

G00 Z5.000000
G00 X100.407000 Y115.917400

G01 Z-0.125000 F100.0(Penetrate)
G01 X101.229000 Y116.738900 Z-0.125000 F400.000000
G01 X101.521000 Y116.914200 Z-0.125000
G01 X101.771000 Y116.907100 Z-0.125000
G01 X101.881000 Y116.759700 Z-0.125000
G01 X101.752000 Y116.514100 Z-0.125000
G01 X101.384000 Y116.145800 Z-0.125000
G01 X101.275000 Y115.919800 Z-0.125000
G01 X101.428000 Y115.815300 Z-0.125000
G01 X101.721000 Y115.851200 Z-0.125000
G01 X102.033000 Y116.046100 Z-0.125000
G01 X102.276000 Y116.289300 Z-0.125000
G01 X102.568000 Y116.464700 Z-0.125000
G01 X102.818000 Y116.457500 Z-0.125000
G01 X102.928000 Y116.310100 Z-0.125000
G01 X102.800000 Y116.064500 Z-0.125000
G01 X102.639000 Y115.903800 Z-0.125000
G01 X102.517000 Y115.665100 Z-0.125000
G01 X102.642000 Y115.532600 Z-0.125000
G01 X102.907000 Y115.540500 Z-0.125000
G01 X103.206000 Y115.722700 Z-0.125000
G01 X103.323000 Y115.839700 Z-0.125000
G01 X103.615000 Y116.015100 Z-0.125000
G01 X103.866000 Y116.008000 Z-0.125000
G01 X103.975000 Y115.860600 Z-0.125000
G01 X103.847000 Y115.615000 Z-0.125000
G01 X103.739000 Y115.506700 Z-0.125000
G01 X103.605000 Y115.256500 Z-0.125000
G01 X103.705000 Y115.099000 Z-0.125000
G01 X103.945000 Y115.081800 Z-0.125000
G01 X104.233000 Y115.252600 Z-0.125000
G01 X104.370000 Y115.390200 Z-0.125000
G01 X104.662000 Y115.565000 Z-0.125000
G01 X104.911000 Y115.556600 Z-0.125000
G01 X105.020000 Y115.408000 Z-0.125000
G01 X104.890000 Y115.161800 Z-0.125000
G01 X104.694000 Y114.965000 Z-0.125000
G01 X104.550000 Y114.704400 Z-0.125000
G01 X104.627000 Y114.523900 Z-0.125000
G01 X104.844000 Y114.483700 Z-0.125000
G01 X105.121000 Y114.644000 Z-0.125000
G01 X105.406000 Y114.929000 Z-0.125000
G01 X105.695000 Y115.101300 Z-0.125000
G01 X105.938000 Y115.087300 Z-0.125000
G01 X106.041000 Y114.933000 Z-0.125000
G01 X105.909000 Y114.684300 Z-0.125000
G01 X105.514000 Y114.288700 Z-0.125000
G01 X105.359000 Y114.017100 Z-0.125000
G01 X105.412000 Y113.812300 Z-0.125000
G01 X105.604000 Y113.747800 Z-0.125000
G01 X105.871000 Y113.897100 Z-0.125000
G01 X106.409000 Y114.435400 Z-0.125000
G01 X106.696000 Y114.605500 Z-0.125000
G01 X106.935000 Y114.587100 Z-0.125000
G01 X107.033000 Y114.428300 Z-0.125000
G01 X106.899000 Y114.177500 Z-0.125000
G01 X106.189000 Y113.466900 Z-0.125000
G01 X106.022000 Y113.183000 Z-0.125000
G01 X106.048000 Y112.951500 Z-0.125000
G01 X106.214000 Y112.860200 Z-0.125000
G01 X106.468000 Y112.997300 Z-0.125000
G01 X107.384000 Y113.914200 Z-0.125000
G01 X107.670000 Y114.082700 Z-0.125000
G01 X107.905000 Y114.060500 Z-0.125000
G01 X108.000000 Y113.898000 Z-0.125000
G01 X107.864000 Y113.645600 Z-0.125000
G01 X106.702000 Y112.482900 Z-0.125000
G01 X106.520000 Y112.184600 Z-0.125000
G01 X106.514000 Y111.921400 Z-0.125000
G01 X106.649000 Y111.798500 Z-0.125000
G01 X106.888000 Y111.921200 Z-0.125000
G01 X108.335000 Y113.368300 Z-0.125000
G01 X108.619000 Y113.534800 Z-0.125000
G01 X108.849000 Y113.508200 Z-0.125000
G01 X108.940000 Y113.341400 Z-0.125000
G01 X108.802000 Y113.087000 Z-0.125000
G01 X107.022000 Y111.306200 Z-0.125000
G01 X106.822000 Y110.989800 Z-0.125000
G01 X106.776000 Y110.686700 Z-0.125000
G01 X106.871000 Y110.523900 Z-0.125000
G01 X107.092000 Y110.628500 Z-0.125000
G01 X109.259000 Y112.795300 Z-0.125000
G01 X109.540000 Y112.959200 Z-0.125000
G01 X109.765000 Y112.926800 Z-0.125000
G01 X109.849000 Y112.754200 Z-0.125000
G01 X109.709000 Y112.497100 Z-0.125000
G01 X107.087000 Y109.875100 Z-0.125000
G01 X106.759000 Y109.172500 Z-0.125000
G01 X106.796000 Y108.952700 Z-0.125000
G01 X106.992000 Y109.031300 Z-0.125000
G01 X110.145000 Y112.184800 Z-0.125000
G01 X110.421000 Y112.343800 Z-0.125000
G01 X110.635000 Y112.300700 Z-0.125000
G01 X110.709000 Y112.117300 Z-0.125000
G01 X110.564000 Y111.855300 Z-0.125000
G01 X106.773000 Y108.064600 Z-0.125000
G01 X106.264000 Y107.181500 Z-0.125000
G01 X106.178000 Y106.837400 Z-0.125000
G01 X106.317000 Y106.859600 Z-0.125000
G01 X110.970000 Y111.512900 Z-0.125000
G01 X111.244000 Y111.669900 Z-0.125000
G01 X111.454000 Y111.622300 Z-0.125000
G01 X111.523000 Y111.434500 Z-0.125000
G01 X111.376000 Y111.170500 Z-0.125000
G01 X105.257000 Y105.051800 Z-0.125000
G00 Z5.000000

(End cutting path id: path11316)


(Start cutting path id: path11316)
(Change tool to Default tool)

G00 Z5.000000
G00 X112.874000 Y110.424000

G01 Z-0.125000 F100.0(Penetrate)
G01 X104.858000 Y102.408100 Z-0.125000 F400.000000
G01 X104.857000 Y102.289500 Z-0.125000
G01 X105.246000 Y102.421500 Z-0.125000
G01 X106.195000 Y102.996100 Z-0.125000
G01 X132.324000 Y129.125000 Z-0.125000
G01 X132.565000 Y129.249500 Z-0.125000
G01 X132.703000 Y129.130600 Z-0.125000
G01 X132.701000 Y128.871300 Z-0.125000
G01 X132.522000 Y128.574900 Z-0.125000
G01 X123.581000 Y119.634300 Z-0.125000
G01 X123.495000 Y119.431400 Z-0.125000
G01 X123.699000 Y119.378000 Z-0.125000
G01 X124.378000 Y119.682900 Z-0.125000
G01 X132.670000 Y127.974100 Z-0.125000
G01 X132.894000 Y128.082100 Z-0.125000
G01 X132.996000 Y127.926900 Z-0.125000
G01 X132.958000 Y127.631300 Z-0.125000
G01 X132.762000 Y127.318300 Z-0.125000
G01 X125.044000 Y119.599900 Z-0.125000
G01 X124.939000 Y119.378500 Z-0.125000
G01 X125.102000 Y119.284300 Z-0.125000
G01 X125.406000 Y119.330500 Z-0.125000
G01 X125.722000 Y119.530100 Z-0.125000
G01 X132.784000 Y126.592300 Z-0.125000
G01 X132.985000 Y126.675600 Z-0.125000
G01 X133.032000 Y126.466100 Z-0.125000
G01 X132.719000 Y125.778600 Z-0.125000
G01 X126.482000 Y119.541200 Z-0.125000
G01 X126.407000 Y119.349700 Z-0.125000
G01 X126.636000 Y119.321400 Z-0.125000
G01 X127.352000 Y119.662900 Z-0.125000
G01 X132.534000 Y124.845300 Z-0.125000
G01 X132.697000 Y124.891000 Z-0.125000
G01 X132.662000 Y124.598800 Z-0.125000
G01 X132.228000 Y123.791100 Z-0.125000
G01 X128.145000 Y119.708200 Z-0.125000
G00 Z5.000000

(End cutting path id: path11316)


(Start cutting path id: path11316)
(Change tool to Default tool)

G00 Z5.000000
G00 X131.579000 Y122.393600

G01 Z-0.125000 F100.0(Penetrate)
G01 X129.639000 Y120.453700 Z-0.125000 F400.000000
G00 Z5.000000

(End cutting path id: path11316)


(Start cutting path id: path11316)
(Change tool to Default tool)

G00 Z5.000000
G00 X122.098000 Y120.395800

G01 Z-0.125000 F100.0(Penetrate)
G01 X131.803000 Y130.101000 Z-0.125000 F400.000000
G01 X132.057000 Y130.238200 Z-0.125000
G01 X132.224000 Y130.147300 Z-0.125000
G01 X132.250000 Y129.916100 Z-0.125000
G01 X132.083000 Y129.632400 Z-0.125000
G01 X115.226000 Y112.775900 Z-0.125000
G00 Z5.000000

(End cutting path id: path11316)


(Start cutting path id: path11316)
(Change tool to Default tool)

G00 Z5.000000
G00 X116.599000 Y112.652100

G01 Z-0.125000 F100.0(Penetrate)
G01 X107.318000 Y103.371100 Z-0.125000 F400.000000
G01 X107.250000 Y103.185900 Z-0.125000
G01 X107.492000 Y103.171100 Z-0.125000
G01 X108.228000 Y103.532400 Z-0.125000
G01 X113.955000 Y109.260000 Z-0.125000
G01 X114.183000 Y109.370900 Z-0.125000
G01 X114.292000 Y109.221900 Z-0.125000
G01 X114.260000 Y108.932700 Z-0.125000
G01 X114.066000 Y108.622600 Z-0.125000
G01 X109.034000 Y103.590100 Z-0.125000
G01 X108.937000 Y103.376600 Z-0.125000
G01 X109.118000 Y103.299800 Z-0.125000
G01 X109.439000 Y103.363300 Z-0.125000
G01 X109.763000 Y103.570800 Z-0.125000
G01 X119.838000 Y113.646300 Z-0.125000
G01 X120.751000 Y114.184700 Z-0.125000
G01 X121.115000 Y114.291800 Z-0.125000
G01 X121.102000 Y114.161900 Z-0.125000
G01 X110.425000 Y103.484500 Z-0.125000
G01 X110.312000 Y103.254400 Z-0.125000
G01 X110.456000 Y103.141200 Z-0.125000
G01 X110.740000 Y103.168200 Z-0.125000
G01 X111.048000 Y103.359100 Z-0.125000
G01 X122.153000 Y114.464400 Z-0.125000
G01 X122.901000 Y114.838100 Z-0.125000
G01 X123.152000 Y114.831900 Z-0.125000
G01 X123.088000 Y114.650500 Z-0.125000
G01 X111.620000 Y103.182800 Z-0.125000
G01 X111.493000 Y102.938600 Z-0.125000
G01 X111.605000 Y102.794100 Z-0.125000
G01 X111.859000 Y102.789900 Z-0.125000
G01 X112.152000 Y102.966600 Z-0.125000
G01 X123.941000 Y114.755600 Z-0.125000
G01 X124.618000 Y115.058500 Z-0.125000
G01 X124.821000 Y115.003700 Z-0.125000
G01 X124.734000 Y114.800200 Z-0.125000
G01 X112.652000 Y102.717900 Z-0.125000
G01 X112.514000 Y102.462800 Z-0.125000
G01 X112.603000 Y102.294500 Z-0.125000
G01 X112.832000 Y102.266600 Z-0.125000
G01 X113.115000 Y102.432500 Z-0.125000
G01 X125.468000 Y114.786200 Z-0.125000
G01 X125.788000 Y114.988800 Z-0.125000
G01 X126.098000 Y115.041500 Z-0.125000
G01 X126.268000 Y114.954000 Z-0.125000
G01 X126.166000 Y114.735600 Z-0.125000
G01 X113.550000 Y102.119600 Z-0.125000
G01 X113.404000 Y101.856100 Z-0.125000
G01 X113.474000 Y101.669300 Z-0.125000
G01 X113.685000 Y101.622800 Z-0.125000
G01 X113.959000 Y101.780200 Z-0.125000
G01 X126.818000 Y114.639000 Z-0.125000
G01 X127.125000 Y114.829300 Z-0.125000
G01 X127.408000 Y114.855000 Z-0.125000
G01 X127.551000 Y114.740400 Z-0.125000
G01 X127.437000 Y114.509800 Z-0.125000
G01 X114.340000 Y101.412500 Z-0.125000
G01 X114.185000 Y101.140700 Z-0.125000
G01 X114.237000 Y100.935500 Z-0.125000
G01 X114.429000 Y100.870600 Z-0.125000
G01 X114.695000 Y101.019700 Z-0.125000
G01 X128.026000 Y114.350500 Z-0.125000
G01 X128.323000 Y114.530500 Z-0.125000
G01 X128.583000 Y114.533500 Z-0.125000
G01 X128.703000 Y114.396200 Z-0.125000
G01 X128.579000 Y114.155200 Z-0.125000
G01 X115.028000 Y100.603500 Z-0.125000
G01 X114.865000 Y100.324500 Z-0.125000
G01 X114.902000 Y100.103500 Z-0.125000
G01 X115.078000 Y100.022800 Z-0.125000
G01 X115.337000 Y100.164700 Z-0.125000
G01 X129.104000 Y113.931400 Z-0.125000
G01 X129.392000 Y114.102600 Z-0.125000
G01 X129.633000 Y114.086100 Z-0.125000
G01 X129.733000 Y113.929400 Z-0.125000
G01 X129.600000 Y113.679600 Z-0.125000
G01 X115.625000 Y99.704600 Z-0.125000
G01 X115.456000 Y99.418400 Z-0.125000
G01 X115.476000 Y99.181400 Z-0.125000
G01 X115.637000 Y99.084800 Z-0.125000
G01 X115.889000 Y99.219400 Z-0.125000
G01 X130.069000 Y113.400200 Z-0.125000
G01 X130.349000 Y113.563000 Z-0.125000
G01 X130.571000 Y113.528100 Z-0.125000
G01 X130.653000 Y113.353000 Z-0.125000
G01 X130.512000 Y113.094800 Z-0.125000
G01 X116.122000 Y98.704500 Z-0.125000
G01 X115.942000 Y98.407600 Z-0.125000
G01 X115.939000 Y98.147400 Z-0.125000
G01 X116.076000 Y98.027400 Z-0.125000
G01 X116.317000 Y98.151500 Z-0.125000
G01 X130.927000 Y112.761200 Z-0.125000
G01 X131.199000 Y112.915900 Z-0.125000
G01 X131.403000 Y112.863200 Z-0.125000
G01 X131.467000 Y112.670200 Z-0.125000
G01 X131.318000 Y112.403900 Z-0.125000
G01 X116.480000 Y97.565300 Z-0.125000
G01 X116.288000 Y97.256900 Z-0.125000
G01 X116.260000 Y96.971300 Z-0.125000
G01 X116.372000 Y96.825900 Z-0.125000
G01 X116.601000 Y96.938500 Z-0.125000
G01 X131.686000 Y112.023400 Z-0.125000
G01 X131.950000 Y112.170900 Z-0.125000
G01 X132.139000 Y112.102400 Z-0.125000
G01 X132.188000 Y111.893700 Z-0.125000
G01 X132.031000 Y111.620200 Z-0.125000
G01 X116.693000 Y96.282300 Z-0.125000
G01 X116.489000 Y95.961500 Z-0.125000
G01 X116.434000 Y95.648500 Z-0.125000
G01 X116.518000 Y95.475900 Z-0.125000
G01 X116.735000 Y95.576000 Z-0.125000
G01 X132.354000 Y111.194700 Z-0.125000
G01 X132.611000 Y111.335200 Z-0.125000
G01 X132.785000 Y111.251500 Z-0.125000
G01 X132.818000 Y111.027400 Z-0.125000
G01 X132.655000 Y110.746900 Z-0.125000
G01 X116.735000 Y94.827000 Z-0.125000
G01 X116.416000 Y94.134700 Z-0.125000
G01 X116.461000 Y93.921700 Z-0.125000
G01 X116.659000 Y94.003500 Z-0.125000
G01 X118.344000 Y95.687900 Z-0.125000
G01 X118.479000 Y95.706100 Z-0.125000
G01 X118.383000 Y95.353200 Z-0.125000
G01 X117.861000 Y94.457200 Z-0.125000
G01 X116.502000 Y93.097400 Z-0.125000
G01 X115.997000 Y92.219000 Z-0.125000
G01 X115.914000 Y91.878200 Z-0.125000
G01 X116.055000 Y91.901900 Z-0.125000
G01 X117.537000 Y93.384800 Z-0.125000
G01 X117.672000 Y93.402600 Z-0.125000
G01 X117.576000 Y93.048900 Z-0.125000
G01 X117.053000 Y92.151700 Z-0.125000
G01 X114.492000 Y89.591100 Z-0.125000
G00 Z5.000000

(End cutting path id: path11316)


(Start cutting path id: path11316)
(Change tool to Default tool)

G00 Z5.000000
G00 X116.724000 Y91.075000

G01 Z-0.125000 F100.0(Penetrate)
G01 X110.790000 Y85.140500 Z-0.125000 F400.000000
G00 Z5.000000

(End cutting path id: path11316)


(Start cutting path id: path11316)
(Change tool to Default tool)

G00 Z5.000000
G00 X109.890000 Y85.736600

G01 Z-0.125000 F100.0(Penetrate)
G01 X93.395400 Y69.242500 Z-0.125000 F400.000000
G01 X93.201700 Y68.931800 Z-0.125000
G01 X93.168400 Y68.641300 Z-0.125000
G01 X93.275400 Y68.491000 Z-0.125000
G01 X93.502600 Y68.601300 Z-0.125000
G01 X112.366000 Y87.465100 Z-0.125000
G00 Z5.000000

(End cutting path id: path11316)


(Start cutting path id: path11316)
(Change tool to Default tool)

G00 Z5.000000
G00 X112.543000 Y86.145300

G01 Z-0.125000 F100.0(Penetrate)
G01 X115.151000 Y88.753800 Z-0.125000 F400.000000
G00 Z5.000000

(End cutting path id: path11316)


(Start cutting path id: path11316)
(Change tool to Default tool)

G00 Z5.000000
G00 X119.498000 Y96.841600

G01 Z-0.125000 F100.0(Penetrate)
G01 X132.935000 Y110.279000 Z-0.125000 F400.000000
G01 X133.184000 Y110.411400 Z-0.125000
G01 X133.340000 Y110.309900 Z-0.125000
G01 X133.355000 Y110.068000 Z-0.125000
G01 X133.184000 Y109.779500 Z-0.125000
G01 X120.407000 Y97.002600 Z-0.125000
G01 X120.283000 Y96.761400 Z-0.125000
G01 X120.402000 Y96.623800 Z-0.125000
G01 X120.662000 Y96.626400 Z-0.125000
G01 X120.959000 Y96.806200 Z-0.125000
G01 X133.413000 Y109.260000 Z-0.125000
G01 X133.655000 Y109.385400 Z-0.125000
G01 X133.795000 Y109.268600 Z-0.125000
G01 X133.796000 Y109.011500 Z-0.125000
G01 X133.617000 Y108.716000 Z-0.125000
G01 X121.528000 Y96.627200 Z-0.125000
G01 X121.409000 Y96.391300 Z-0.125000
G01 X121.540000 Y96.265000 Z-0.125000
G01 X121.811000 Y96.279000 Z-0.125000
G01 X122.113000 Y96.464000 Z-0.125000
G01 X133.796000 Y108.146400 Z-0.125000
G01 X134.029000 Y108.262900 Z-0.125000
G01 X134.150000 Y108.126200 Z-0.125000
G01 X134.130000 Y107.849300 Z-0.125000
G01 X133.943000 Y107.544900 Z-0.125000
G01 X122.771000 Y96.372900 Z-0.125000
G01 X122.665000 Y96.150700 Z-0.125000
G01 X122.827000 Y96.054800 Z-0.125000
G01 X123.128000 Y96.099300 Z-0.125000
G01 X123.444000 Y96.298100 Z-0.125000
G01 X134.058000 Y106.912400 Z-0.125000
G01 X134.282000 Y107.018900 Z-0.125000
G01 X134.380000 Y106.860200 Z-0.125000
G01 X134.339000 Y106.561200 Z-0.125000
G01 X134.141000 Y106.246800 Z-0.125000
G01 X124.165000 Y96.271000 Z-0.125000
G01 X124.072000 Y96.061200 Z-0.125000
G01 X124.261000 Y95.992400 Z-0.125000
G01 X124.918000 Y96.275100 Z-0.125000
G01 X134.177000 Y105.534500 Z-0.125000
G01 X134.386000 Y105.626700 Z-0.125000
G01 X134.454000 Y105.436800 Z-0.125000
G01 X134.169000 Y104.777800 Z-0.125000
G01 X125.754000 Y96.362800 Z-0.125000
G01 X125.684000 Y96.175300 Z-0.125000
G01 X125.921000 Y96.155800 Z-0.125000
G01 X126.650000 Y96.510000 Z-0.125000
G01 X134.092000 Y103.951800 Z-0.125000
G01 X134.277000 Y104.020000 Z-0.125000
G01 X134.291000 Y103.777400 Z-0.125000
G01 X133.930000 Y103.041700 Z-0.125000
G01 X127.638000 Y96.750100 Z-0.125000
G01 X127.587000 Y96.581900 Z-0.125000
G01 X127.867000 Y96.604800 Z-0.125000
G01 X128.657000 Y97.020800 Z-0.125000
G01 X133.639000 Y102.002900 Z-0.125000
G01 X133.786000 Y102.033100 Z-0.125000
G01 X133.717000 Y101.706500 Z-0.125000
G01 X133.234000 Y100.848700 Z-0.125000
G01 X129.924000 Y97.539600 Z-0.125000
G00 Z5.000000

(End cutting path id: path11316)


(Start cutting path id: path11316)
(Change tool to Default tool)

G00 Z5.000000
G00 X118.337000 Y112.893200

G01 Z-0.125000 F100.0(Penetrate)
G01 X116.656000 Y111.212000 Z-0.125000 F400.000000
G00 Z5.000000

(End cutting path id: path11316)


(Start cutting path id: path11316)
(Change tool to Default tool)

G00 Z5.000000
G00 X121.985000 Y120.320900

G01 Z-0.125000 F100.0(Penetrate)
G01 X126.822000 Y125.660100 Z-0.125000 F400.000000
G01 X126.142000 Y127.931100 Z-0.125000
G01 X125.676000 Y129.137800 Z-0.125000
G01 X125.013000 Y130.043500 Z-0.125000
G01 X123.981000 Y130.818300 Z-0.125000
G01 X122.408000 Y131.632300 Z-0.125000
G01 X120.050000 Y132.885000 Z-0.125000
G01 X118.669000 Y133.888500 Z-0.125000
G01 X118.205000 Y134.181000 Z-0.125000
G01 X117.551000 Y133.995800 Z-0.125000
G01 X116.560000 Y133.249400 Z-0.125000
G01 X115.084000 Y131.858400 Z-0.125000
G01 X113.127000 Y129.693300 Z-0.125000
G01 X112.603000 Y128.919600 Z-0.125000
G01 X112.495000 Y128.498800 Z-0.125000
G01 X113.238000 Y128.143200 Z-0.125000
G01 X114.586000 Y127.995300 Z-0.125000
G01 X115.818000 Y127.915400 Z-0.125000
G01 X116.134000 Y127.777800 Z-0.125000
G01 X116.251000 Y127.541400 Z-0.125000
G01 X115.896000 Y126.671900 Z-0.125000
G01 X114.768000 Y125.105400 Z-0.125000
G01 X113.923000 Y124.160000 Z-0.125000
G01 X112.913000 Y123.290400 Z-0.125000
G01 X110.642000 Y121.894200 Z-0.125000
G01 X109.502000 Y121.425400 Z-0.125000
G01 X108.438000 Y121.148000 Z-0.125000
G01 X107.512000 Y121.090800 Z-0.125000
G01 X106.784000 Y121.282900 Z-0.125000
G01 X106.129000 Y121.487200 Z-0.125000
G01 X105.443000 Y121.320100 Z-0.125000
G01 X104.587000 Y120.712100 Z-0.125000
G01 X103.423000 Y119.593300 Z-0.125000
G01 X101.186000 Y117.302400 Z-0.125000
G01 X104.993000 Y115.667900 Z-0.125000
G01 X108.304000 Y113.988700 Z-0.125000
G01 X110.919000 Y112.246500 Z-0.125000
G01 X113.037000 Y110.459600 Z-0.125000
G01 X115.092000 Y112.720700 Z-0.125000
G01 X121.985000 Y120.320900 Z-0.125000
G01 X121.985000 Y120.320900 Z-0.125000
G00 Z5.000000

(End cutting path id: path11316)


(Start cutting path id: path11316)
(Change tool to Default tool)

G00 Z5.000000
G00 X113.767000 Y124.038100

G01 Z-0.125000 F100.0(Penetrate)
G01 X114.268000 Y124.538800 Z-0.125000 F400.000000
G00 Z5.000000

(End cutting path id: path11316)


(Start cutting path id: path11316)
(Change tool to Default tool)

G00 Z5.000000
G00 X112.039000 Y123.762100

G01 Z-0.125000 F100.0(Penetrate)
G01 X113.707000 Y125.066000 Z-0.125000 F400.000000
G01 X114.404000 Y125.953900 Z-0.125000
G01 X114.406000 Y126.301400 Z-0.125000
G01 X114.187000 Y126.616500 Z-0.125000
G01 X113.116000 Y127.244200 Z-0.125000
G01 X112.275000 Y127.511800 Z-0.125000
G01 X111.503000 Y127.364400 Z-0.125000
G01 X110.554000 Y126.683600 Z-0.125000
G01 X109.181000 Y125.351300 Z-0.125000
G01 X107.416000 Y123.426100 Z-0.125000
G01 X106.682000 Y122.373600 Z-0.125000
G01 X106.818000 Y122.060000 Z-0.125000
G01 X107.197000 Y121.909000 Z-0.125000
G01 X108.503000 Y122.048000 Z-0.125000
G01 X110.237000 Y122.697000 Z-0.125000
G01 X112.039000 Y123.762100 Z-0.125000
G01 X112.039000 Y123.762100 Z-0.125000
G00 Z5.000000

(End cutting path id: path11316)


(Start cutting path id: path11316)
(Change tool to Default tool)

G00 Z5.000000
G00 X106.109000 Y121.618900

G01 Z-0.125000 F100.0(Penetrate)
G01 X106.436000 Y121.945600 Z-0.125000 F400.000000
G01 X106.630000 Y122.023600 Z-0.125000
G01 X106.824000 Y121.959400 Z-0.125000
G01 X106.933000 Y121.811100 Z-0.125000
G01 X106.875000 Y121.636600 Z-0.125000
G01 X106.875000 Y121.636600 Z-0.125000
G01 X106.833000 Y121.478100 Z-0.125000
G01 X106.978000 Y121.365100 Z-0.125000
G01 X107.417000 Y121.430300 Z-0.125000
G01 X107.504000 Y121.517400 Z-0.125000
G01 X108.231000 Y121.870500 Z-0.125000
G01 X108.492000 Y121.873800 Z-0.125000
G01 X108.448000 Y121.712800 Z-0.125000
G01 X108.238000 Y121.503000 Z-0.125000
G01 X108.157000 Y121.304600 Z-0.125000
G01 X108.370000 Y121.260900 Z-0.125000
G01 X109.064000 Y121.580100 Z-0.125000
G01 X109.869000 Y122.385400 Z-0.125000
G00 Z5.000000

(End cutting path id: path11316)


(Start cutting path id: path11316)
(Change tool to Default tool)

G00 Z5.000000
G00 X117.998000 Y134.256700

G01 Z-0.125000 F100.0(Penetrate)
G01 X124.850000 Y141.108200 Z-0.125000 F400.000000
G01 X125.127000 Y141.268800 Z-0.125000
G01 X125.345000 Y141.229200 Z-0.125000
G01 X125.422000 Y141.049300 Z-0.125000
G01 X125.279000 Y140.789000 Z-0.125000
G01 X118.898000 Y134.407900 Z-0.125000
G01 X118.747000 Y134.140100 Z-0.125000
G01 X118.808000 Y133.943700 Z-0.125000
G01 X119.009000 Y133.887700 Z-0.125000
G01 X119.279000 Y134.040800 Z-0.125000
G01 X125.695000 Y140.457100 Z-0.125000
G01 X125.969000 Y140.613800 Z-0.125000
G01 X126.178000 Y140.565600 Z-0.125000
G01 X126.247000 Y140.377200 Z-0.125000
G01 X126.099000 Y140.112900 Z-0.125000
G01 X119.709000 Y133.722900 Z-0.125000
G01 X119.570000 Y133.466200 Z-0.125000
G01 X119.655000 Y133.294400 Z-0.125000
G01 X119.881000 Y133.262900 Z-0.125000
G01 X120.162000 Y133.427100 Z-0.125000
G01 X126.492000 Y139.756600 Z-0.125000
G01 X126.761000 Y139.909500 Z-0.125000
G01 X126.962000 Y139.853000 Z-0.125000
G01 X127.023000 Y139.656200 Z-0.125000
G01 X126.871000 Y139.388100 Z-0.125000
G01 X120.628000 Y133.145000 Z-0.125000
G01 X120.492000 Y132.892100 Z-0.125000
G01 X120.586000 Y132.728400 Z-0.125000
G01 X120.820000 Y132.705100 Z-0.125000
G01 X121.105000 Y132.873100 Z-0.125000
G01 X127.239000 Y139.007300 Z-0.125000
G01 X127.505000 Y139.156300 Z-0.125000
G01 X127.697000 Y139.091100 Z-0.125000
G01 X127.749000 Y138.885700 Z-0.125000
G01 X127.594000 Y138.613700 Z-0.125000
G01 X121.590000 Y132.609600 Z-0.125000
G01 X121.456000 Y132.359300 Z-0.125000
G01 X121.556000 Y132.201500 Z-0.125000
G01 X121.795000 Y132.184000 Z-0.125000
G01 X122.083000 Y132.354600 Z-0.125000
G01 X127.934000 Y138.206100 Z-0.125000
G01 X128.196000 Y138.350500 Z-0.125000
G01 X128.378000 Y138.275300 Z-0.125000
G01 X128.419000 Y138.059700 Z-0.125000
G01 X128.260000 Y137.783200 Z-0.125000
G01 X122.586000 Y132.109500 Z-0.125000
G01 X122.455000 Y131.861100 Z-0.125000
G01 X122.558000 Y131.707600 Z-0.125000
G01 X122.802000 Y131.694300 Z-0.125000
G01 X123.092000 Y131.866900 Z-0.125000
G01 X128.569000 Y137.344300 Z-0.125000
G01 X128.825000 Y137.483400 Z-0.125000
G01 X128.996000 Y137.396600 Z-0.125000
G01 X129.026000 Y137.169500 Z-0.125000
G01 X128.861000 Y136.887600 Z-0.125000
G01 X123.592000 Y131.618900 Z-0.125000
G01 X123.458000 Y131.367400 Z-0.125000
G01 X123.555000 Y131.207200 Z-0.125000
G01 X123.792000 Y131.187300 Z-0.125000
G01 X124.079000 Y131.356800 Z-0.125000
G01 X129.133000 Y136.410800 Z-0.125000
G01 X129.381000 Y136.542700 Z-0.125000
G01 X129.536000 Y136.439800 Z-0.125000
G01 X129.550000 Y136.196600 Z-0.125000
G01 X129.378000 Y135.907500 Z-0.125000
G01 X124.546000 Y131.075800 Z-0.125000
G01 X124.404000 Y130.817000 Z-0.125000
G01 X124.485000 Y130.640500 Z-0.125000
G01 X124.706000 Y130.604400 Z-0.125000
G01 X124.985000 Y130.766500 Z-0.125000
G01 X129.590000 Y135.371600 Z-0.125000
G01 X129.827000 Y135.491600 Z-0.125000
G01 X129.955000 Y135.362700 Z-0.125000
G01 X129.943000 Y135.093400 Z-0.125000
G01 X129.759000 Y134.792400 Z-0.125000
G01 X125.386000 Y130.419200 Z-0.125000
G01 X125.230000 Y130.146200 Z-0.125000
G01 X125.279000 Y129.938400 Z-0.125000
G01 X125.469000 Y129.870900 Z-0.125000
G01 X125.734000 Y130.018900 Z-0.125000
G01 X129.866000 Y134.150700 Z-0.125000
G01 X130.084000 Y134.251400 Z-0.125000
G01 X130.170000 Y134.080200 Z-0.125000
G01 X130.115000 Y133.768600 Z-0.125000
G01 X129.912000 Y133.448400 Z-0.125000
G01 X126.027000 Y129.563400 Z-0.125000
G01 X125.854000 Y129.273600 Z-0.125000
G01 X125.867000 Y129.028900 Z-0.125000
G01 X126.019000 Y128.924500 Z-0.125000
G01 X126.268000 Y129.055700 Z-0.125000
G01 X130.062000 Y132.849700 Z-0.125000
G01 X130.304000 Y132.975500 Z-0.125000
G01 X130.445000 Y132.859400 Z-0.125000
G01 X130.446000 Y132.602900 Z-0.125000
G01 X130.268000 Y132.307800 Z-0.125000
G01 X126.468000 Y128.507300 Z-0.125000
G01 X126.285000 Y128.207400 Z-0.125000
G01 X126.275000 Y127.940400 Z-0.125000
G01 X126.405000 Y127.813700 Z-0.125000
G01 X126.643000 Y127.934700 Z-0.125000
G01 X130.519000 Y131.810600 Z-0.125000
G01 X130.775000 Y131.949200 Z-0.125000
G01 X130.944000 Y131.861400 Z-0.125000
G01 X130.973000 Y131.633200 Z-0.125000
G01 X130.808000 Y131.350900 Z-0.125000
G01 X126.816000 Y127.358900 Z-0.125000
G01 X126.632000 Y127.058400 Z-0.125000
G01 X126.621000 Y126.790300 Z-0.125000
G01 X126.751000 Y126.662600 Z-0.125000
G01 X126.988000 Y126.783100 Z-0.125000
G01 X131.140000 Y130.934900 Z-0.125000
G01 X131.405000 Y131.082700 Z-0.125000
G01 X131.594000 Y131.014900 Z-0.125000
G01 X131.644000 Y130.806900 Z-0.125000
G01 X131.487000 Y130.533700 Z-0.125000
G01 X126.880000 Y125.926600 Z-0.125000
G00 Z5.000000

(End cutting path id: path11316)


(Start cutting path id: path11316)
(Change tool to Default tool)

G00 Z5.000000
G00 X114.591000 Y142.074500

G01 Z-0.125000 F100.0(Penetrate)
G01 X113.969000 Y141.453000 Z-0.125000 F400.000000
G01 X113.444000 Y140.553200 Z-0.125000
G01 X113.345000 Y140.197700 Z-0.125000
G01 X113.479000 Y140.214700 Z-0.125000
G01 X115.837000 Y142.572860 Z-0.125000
G01 X116.669000 Y143.030470 Z-0.125000
G01 X116.978000 Y143.081990 Z-0.125000
G01 X116.940000 Y142.926820 Z-0.125000
G01 X113.294000 Y139.281300 Z-0.125000
G01 X112.968000 Y138.581300 Z-0.125000
G01 X113.007000 Y138.363100 Z-0.125000
G01 X113.204000 Y138.442600 Z-0.125000
G01 X117.878000 Y143.116960 Z-0.125000
G01 X118.574000 Y143.438170 Z-0.125000
G01 X118.789000 Y143.395910 Z-0.125000
G01 X118.708000 Y143.198110 Z-0.125000
G01 X113.174000 Y137.664000 Z-0.125000
G01 X112.896000 Y137.011800 Z-0.125000
G01 X112.967000 Y136.826600 Z-0.125000
G01 X113.179000 Y136.921000 Z-0.125000
G01 X119.461000 Y143.203180 Z-0.125000
G01 X119.780000 Y143.405830 Z-0.125000
G01 X120.091000 Y143.458780 Z-0.125000
G01 X120.260000 Y143.371410 Z-0.125000
G01 X120.159000 Y143.153110 Z-0.125000
G01 X113.217000 Y136.211400 Z-0.125000
G01 X113.019000 Y135.895700 Z-0.125000
G01 X112.974000 Y135.593900 Z-0.125000
G01 X113.070000 Y135.432400 Z-0.125000
G01 X113.292000 Y135.537600 Z-0.125000
G01 X120.798000 Y143.043650 Z-0.125000
G01 X121.101000 Y143.230160 Z-0.125000
G01 X121.376000 Y143.247600 Z-0.125000
G01 X121.510000 Y143.124720 Z-0.125000
G01 X121.393000 Y142.890280 Z-0.125000
G01 X113.400000 Y134.897000 Z-0.125000
G01 X113.212000 Y134.592800 Z-0.125000
G01 X113.193000 Y134.316500 Z-0.125000
G01 X113.315000 Y134.180500 Z-0.125000
G01 X113.548000 Y134.297300 Z-0.125000
G01 X121.950000 Y142.698910 Z-0.125000
G01 X122.243000 Y142.875460 Z-0.125000
G01 X122.496000 Y142.870990 Z-0.125000
G01 X122.609000 Y142.726190 Z-0.125000
G01 X122.481000 Y142.481800 Z-0.125000
G01 X113.756000 Y133.756700 Z-0.125000
G01 X113.582000 Y133.465500 Z-0.125000
G01 X113.591000 Y133.217700 Z-0.125000
G01 X113.741000 Y133.110200 Z-0.125000
G01 X113.988000 Y133.240000 Z-0.125000
G01 X122.994000 Y142.245900 Z-0.125000
G01 X123.280000 Y142.415380 Z-0.125000
G01 X123.517000 Y142.395300 Z-0.125000
G01 X123.614000 Y142.234800 Z-0.125000
G01 X123.479000 Y141.983300 Z-0.125000
G01 X113.780000 Y132.283400 Z-0.125000
G00 Z5.000000

(End cutting path id: path11316)


(Start cutting path id: path11316)
(Change tool to Default tool)

G00 Z5.000000
G00 X96.256000 Y129.726600

G01 Z-0.125000 F100.0(Penetrate)
G01 X92.713600 Y126.184200 Z-0.125000 F400.000000
G01 X92.316900 Y125.413400 Z-0.125000
G01 X92.307300 Y125.146500 Z-0.125000
G01 X92.481500 Y125.203800 Z-0.125000
G01 X97.318900 Y130.041200 Z-0.125000
G01 X98.126900 Y130.475000 Z-0.125000
G01 X98.419300 Y130.510100 Z-0.125000
G01 X98.373600 Y130.347500 Z-0.125000
G01 X91.795900 Y123.769800 Z-0.125000
G01 X91.666500 Y123.523500 Z-0.125000
G01 X91.774700 Y123.374400 Z-0.125000
G01 X92.023100 Y123.365700 Z-0.125000
G01 X92.314700 Y123.540300 Z-0.125000
G01 X99.270900 Y130.496500 Z-0.125000
G01 X99.955900 Y130.807300 Z-0.125000
G01 X100.164000 Y130.758000 Z-0.125000
G01 X100.080000 Y130.556900 Z-0.125000
G01 X92.804700 Y123.282000 Z-0.125000
G01 X92.667600 Y123.027900 Z-0.125000
G01 X92.758900 Y122.862000 Z-0.125000
G01 X92.990500 Y122.836300 Z-0.125000
G01 X93.274400 Y123.003300 Z-0.125000
G01 X100.816000 Y130.545100 Z-0.125000
G01 X101.134000 Y130.746200 Z-0.125000
G01 X101.441000 Y130.795800 Z-0.125000
G01 X101.608000 Y130.705100 Z-0.125000
G01 X101.505000 Y130.485200 Z-0.125000
G01 X93.733800 Y122.714300 Z-0.125000
G01 X93.593000 Y122.456600 Z-0.125000
G01 X93.676000 Y122.282400 Z-0.125000
G01 X93.899400 Y122.248500 Z-0.125000
G01 X94.179600 Y122.411700 Z-0.125000
G01 X102.149000 Y130.381100 Z-0.125000
G01 X102.454000 Y130.569500 Z-0.125000
G01 X102.733000 Y130.591100 Z-0.125000
G01 X102.872000 Y130.472500 Z-0.125000
G01 X102.756000 Y130.239900 Z-0.125000
G01 X94.618300 Y122.102100 Z-0.125000
G01 X94.475700 Y121.842600 Z-0.125000
G01 X94.554900 Y121.664500 Z-0.125000
G01 X94.774300 Y121.626700 Z-0.125000
G01 X95.052700 Y121.788100 Z-0.125000
G01 X103.330000 Y130.065200 Z-0.125000
G01 X103.626000 Y130.244200 Z-0.125000
G01 X103.884000 Y130.245200 Z-0.125000
G01 X104.002000 Y130.105800 Z-0.125000
G01 X103.877000 Y129.863900 Z-0.125000
G01 X95.477800 Y121.464900 Z-0.125000
G01 X95.333500 Y121.203700 Z-0.125000
G01 X95.408900 Y121.021800 Z-0.125000
G01 X95.624600 Y120.980200 Z-0.125000
G01 X95.901200 Y121.139900 Z-0.125000
G01 X104.393000 Y129.631300 Z-0.125000
G01 X104.680000 Y129.801700 Z-0.125000
G01 X104.919000 Y129.783800 Z-0.125000
G01 X105.018000 Y129.625500 Z-0.125000
G01 X104.885000 Y129.375000 Z-0.125000
G01 X96.319400 Y120.809800 Z-0.125000
G01 X96.174100 Y120.547500 Z-0.125000
G01 X96.247300 Y120.363500 Z-0.125000
G01 X96.460800 Y120.319800 Z-0.125000
G01 X96.736500 Y120.478500 Z-0.125000
G01 X105.354000 Y129.095900 Z-0.125000
G01 X105.634000 Y129.259300 Z-0.125000
G01 X105.858000 Y129.226000 Z-0.125000
G01 X105.942000 Y129.052400 Z-0.125000
G01 X105.801000 Y128.794900 Z-0.125000
G01 X97.151600 Y120.145300 Z-0.125000
G01 X97.006000 Y119.882800 Z-0.125000
G01 X97.078600 Y119.698100 Z-0.125000
G01 X97.291400 Y119.653700 Z-0.125000
G01 X97.566800 Y119.812100 Z-0.125000
G01 X106.225000 Y128.470500 Z-0.125000
G01 X106.499000 Y128.627400 Z-0.125000
G01 X106.708000 Y128.579600 Z-0.125000
G01 X106.778000 Y128.391400 Z-0.125000
G01 X106.630000 Y128.127300 Z-0.125000
G01 X97.981900 Y119.478900 Z-0.125000
G01 X97.836300 Y119.216400 Z-0.125000
G01 X97.908900 Y119.031700 Z-0.125000
G01 X98.121800 Y118.987300 Z-0.125000
G01 X98.397100 Y119.145700 Z-0.125000
G01 X107.029000 Y127.777500 Z-0.125000
G01 X107.302000 Y127.933300 Z-0.125000
G01 X107.509000 Y127.883200 Z-0.125000
G01 X107.576000 Y127.692700 Z-0.125000
G01 X107.427000 Y127.427600 Z-0.125000
G01 X98.812300 Y118.812500 Z-0.125000
G01 X98.666700 Y118.550000 Z-0.125000
G01 X98.739200 Y118.365300 Z-0.125000
G01 X98.952100 Y118.320900 Z-0.125000
G01 X99.227400 Y118.479300 Z-0.125000
G01 X107.826000 Y127.077700 Z-0.125000
G01 X108.099000 Y127.233500 Z-0.125000
G01 X108.306000 Y127.183400 Z-0.125000
G01 X108.373000 Y126.993000 Z-0.125000
G01 X108.224000 Y126.727800 Z-0.125000
G01 X99.642600 Y118.146200 Z-0.125000
G01 X99.497000 Y117.883600 Z-0.125000
G01 X99.569600 Y117.698900 Z-0.125000
G01 X99.782400 Y117.654600 Z-0.125000
G01 X100.058000 Y117.813000 Z-0.125000
G01 X123.951000 Y141.706300 Z-0.125000
G01 X124.233000 Y141.871100 Z-0.125000
G01 X124.460000 Y141.840900 Z-0.125000
G01 X124.547000 Y141.670400 Z-0.125000
G01 X124.407000 Y141.414200 Z-0.125000
G01 X99.123400 Y116.130200 Z-0.125000
G01 X99.040100 Y115.930000 Z-0.125000
G01 X99.249900 Y115.882500 Z-0.125000
G01 X99.937600 Y116.196100 Z-0.125000
G01 X112.165000 Y128.423700 Z-0.125000
G01 X112.404000 Y128.545300 Z-0.125000
G01 X112.556000 Y128.440300 Z-0.125000
G01 X112.575000 Y128.202300 Z-0.125000
G01 X112.415000 Y127.924700 Z-0.125000
G01 X112.389000 Y127.899600 Z-0.125000
G01 X112.305000 Y127.698000 Z-0.125000
G01 X112.456000 Y127.591700 Z-0.125000
G01 X112.727000 Y127.605900 Z-0.125000
G01 X113.004000 Y127.765700 Z-0.125000
G01 X113.004000 Y127.765700 Z-0.125000
G01 X113.285000 Y127.929900 Z-0.125000
G01 X113.566000 Y127.953800 Z-0.125000
G01 X113.727000 Y127.857100 Z-0.125000
G01 X113.646000 Y127.659800 Z-0.125000
G01 X113.574000 Y127.587000 Z-0.125000
G01 X113.441000 Y127.337100 Z-0.125000
G01 X113.541000 Y127.180300 Z-0.125000
G01 X113.782000 Y127.163800 Z-0.125000
G01 X114.070000 Y127.334900 Z-0.125000
G01 X114.317000 Y127.582300 Z-0.125000
G01 X114.963000 Y127.853700 Z-0.125000
G01 X115.144000 Y127.777300 Z-0.125000
G01 X115.047000 Y127.564000 Z-0.125000
G01 X114.515000 Y127.031400 Z-0.125000
G01 X114.352000 Y126.751400 Z-0.125000
G01 X114.386000 Y126.528200 Z-0.125000
G01 X114.560000 Y126.445400 Z-0.125000
G01 X114.818000 Y126.586300 Z-0.125000
G01 X115.680000 Y127.448700 Z-0.125000
G01 X115.908000 Y127.559500 Z-0.125000
G01 X116.016000 Y127.410500 Z-0.125000
G01 X115.984000 Y127.121100 Z-0.125000
G01 X115.791000 Y126.811000 Z-0.125000
G01 X111.575000 Y122.595100 Z-0.125000
G01 X110.580000 Y121.974500 Z-0.125000
G01 X110.159000 Y121.810900 Z-0.125000
G01 X110.085000 Y121.821600 Z-0.125000
G01 X110.147000 Y121.915100 Z-0.125000
G01 X111.550000 Y123.318300 Z-0.125000
G00 Z5.000000

(End cutting path id: path11316)


(Start cutting path id: path11316)
(Change tool to Default tool)

G00 Z5.000000
G00 X89.334200 Y124.301600

G01 Z-0.125000 F100.0(Penetrate)
G01 X87.551100 Y122.518500 Z-0.125000 F400.000000
G01 X87.227700 Y121.820900 Z-0.125000
G01 X87.268500 Y121.604400 Z-0.125000
G01 X87.465600 Y121.684600 Z-0.125000
G01 X90.102200 Y124.321200 Z-0.125000
G01 X90.415900 Y124.518000 Z-0.125000
G01 X90.713200 Y124.558000 Z-0.125000
G01 X90.870100 Y124.457700 Z-0.125000
G01 X90.762800 Y124.233500 Z-0.125000
G01 X90.583300 Y124.053900 Z-0.125000
G01 X90.474100 Y123.827800 Z-0.125000
G01 X90.626900 Y123.723300 Z-0.125000
G01 X90.919900 Y123.759100 Z-0.125000
G01 X91.231700 Y123.954000 Z-0.125000
G01 X91.696500 Y124.418800 Z-0.125000
G00 Z5.000000

(End cutting path id: path11316)


(Start cutting path id: path11316)
(Change tool to Default tool)

G00 Z5.000000
G00 X88.148800 Y121.619500

G01 Z-0.125000 F100.0(Penetrate)
G01 X87.516200 Y120.986800 Z-0.125000 F400.000000
G01 X87.328000 Y120.681700 Z-0.125000
G01 X87.306900 Y120.403400 Z-0.125000
G01 X87.426100 Y120.265400 Z-0.125000
G01 X87.658900 Y120.381200 Z-0.125000
G01 X87.855600 Y120.577900 Z-0.125000
G01 X88.087400 Y120.692800 Z-0.125000
G01 X88.204500 Y120.552600 Z-0.125000
G01 X88.181200 Y120.272100 Z-0.125000
G01 X87.992100 Y119.966000 Z-0.125000
G01 X87.842700 Y119.816700 Z-0.125000
G01 X87.667900 Y119.524900 Z-0.125000
G01 X87.676100 Y119.275900 Z-0.125000
G01 X87.824600 Y119.167200 Z-0.125000
G01 X88.070700 Y119.296300 Z-0.125000
G01 X88.207500 Y119.433100 Z-0.125000
G01 X88.459500 Y119.568200 Z-0.125000
G01 X88.621200 Y119.472600 Z-0.125000
G01 X88.642500 Y119.236700 Z-0.125000
G01 X88.473600 Y118.950800 Z-0.125000
G01 X88.327300 Y118.804500 Z-0.125000
G01 X88.160900 Y118.521200 Z-0.125000
G01 X88.187700 Y118.290800 Z-0.125000
G01 X88.354900 Y118.200800 Z-0.125000
G01 X88.609500 Y118.338400 Z-0.125000
G01 X88.767900 Y118.496800 Z-0.125000
G01 X89.028000 Y118.640000 Z-0.125000
G01 X89.207300 Y118.562000 Z-0.125000
G01 X89.246300 Y118.343800 Z-0.125000
G01 X89.085400 Y118.066000 Z-0.125000
G01 X88.915500 Y117.896000 Z-0.125000
G01 X88.756300 Y117.620000 Z-0.125000
G01 X88.799100 Y117.405500 Z-0.125000
G01 X88.982200 Y117.331300 Z-0.125000
G01 X89.244000 Y117.476200 Z-0.125000
G01 X89.421600 Y117.653900 Z-0.125000
G01 X89.687000 Y117.802300 Z-0.125000
G01 X89.878000 Y117.736000 Z-0.125000
G01 X89.928600 Y117.529400 Z-0.125000
G01 X89.773100 Y117.256900 Z-0.125000
G01 X89.594600 Y117.078400 Z-0.125000
G01 X89.440600 Y116.807600 Z-0.125000
G01 X89.494900 Y116.604600 Z-0.125000
G01 X89.689500 Y116.541900 Z-0.125000
G01 X89.956500 Y116.692000 Z-0.125000
G01 X90.135800 Y116.871300 Z-0.125000
G01 X90.405700 Y117.024300 Z-0.125000
G01 X90.606600 Y116.968000 Z-0.125000
G01 X90.667300 Y116.771300 Z-0.125000
G01 X90.516200 Y116.503400 Z-0.125000
G01 X90.318400 Y116.305600 Z-0.125000
G01 X90.164500 Y116.034700 Z-0.125000
G01 X90.218800 Y115.831700 Z-0.125000
G01 X90.413300 Y115.769100 Z-0.125000
G01 X90.680400 Y115.919100 Z-0.125000
G01 X90.925900 Y116.164600 Z-0.125000
G01 X91.208700 Y116.330600 Z-0.125000
G01 X91.438200 Y116.302800 Z-0.125000
G01 X91.527400 Y116.134700 Z-0.125000
G01 X91.389300 Y115.879700 Z-0.125000
G01 X82.771100 Y107.261600 Z-0.125000
G00 Z5.000000

(End cutting path id: path11316)


(Start cutting path id: path11316)
(Change tool to Default tool)

G00 Z5.000000
G00 X76.566300 Y105.546800

G01 Z-0.125000 F100.0(Penetrate)
G01 X72.669800 Y101.650400 Z-0.125000 F400.000000
G01 X72.482900 Y101.346500 Z-0.125000
G01 X72.464500 Y101.070900 Z-0.125000
G01 X72.586400 Y100.935500 Z-0.125000
G01 X72.820400 Y101.052600 Z-0.125000
G01 X76.316200 Y104.548400 Z-0.125000
G01 X76.544600 Y104.659800 Z-0.125000
G01 X76.654100 Y104.512100 Z-0.125000
G01 X76.623200 Y104.224000 Z-0.125000
G01 X76.430600 Y103.914500 Z-0.125000
G01 X74.665500 Y102.149300 Z-0.125000
G01 X74.550200 Y101.917100 Z-0.125000
G01 X74.689400 Y101.799000 Z-0.125000
G01 X74.968900 Y101.821300 Z-0.125000
G01 X75.274500 Y102.010000 Z-0.125000
G01 X76.507800 Y103.243200 Z-0.125000
G01 X76.711900 Y103.330500 Z-0.125000
G01 X76.768300 Y103.129600 Z-0.125000
G01 X76.467500 Y102.454600 Z-0.125000
G01 X75.724300 Y101.711400 Z-0.125000
G00 Z5.000000

(End cutting path id: path11316)


(Start cutting path id: path11316)
(Change tool to Default tool)

G00 Z5.000000
G00 X73.278000 Y100.762100

G01 Z-0.125000 F100.0(Penetrate)
G01 X72.949100 Y100.433300 Z-0.125000 F400.000000
G01 X72.764200 Y100.131400 Z-0.125000
G01 X72.750100 Y99.860100 Z-0.125000
G01 X72.876400 Y99.729100 Z-0.125000
G01 X73.112300 Y99.848100 Z-0.125000
G01 X73.139300 Y99.875100 Z-0.125000
G01 X73.383700 Y100.002600 Z-0.125000
G01 X73.528400 Y99.890000 Z-0.125000
G01 X73.532700 Y99.637100 Z-0.125000
G01 X73.356100 Y99.343600 Z-0.125000
G01 X73.311700 Y99.299200 Z-0.125000
G01 X73.137700 Y99.008200 Z-0.125000
G01 X73.147600 Y98.760900 Z-0.125000
G01 X73.297900 Y98.653900 Z-0.125000
G01 X73.544800 Y98.783900 Z-0.125000
G01 X73.610200 Y98.849300 Z-0.125000
G01 X73.864900 Y98.987100 Z-0.125000
G01 X74.032300 Y98.897200 Z-0.125000
G01 X74.059400 Y98.667000 Z-0.125000
G01 X73.893100 Y98.383800 Z-0.125000
G01 X73.809100 Y98.299800 Z-0.125000
G01 X73.644400 Y98.018200 Z-0.125000
G01 X73.675000 Y97.791500 Z-0.125000
G01 X73.845800 Y97.705200 Z-0.125000
G01 X74.102100 Y97.844500 Z-0.125000
G01 X74.198300 Y97.940700 Z-0.125000
G01 X74.459500 Y98.085000 Z-0.125000
G01 X74.641300 Y98.009600 Z-0.125000
G01 X74.682800 Y97.793800 Z-0.125000
G01 X74.523100 Y97.517200 Z-0.125000
G01 X74.421300 Y97.415400 Z-0.125000
G01 X74.264500 Y97.141600 Z-0.125000
G01 X74.312500 Y96.932400 Z-0.125000
G01 X74.500800 Y96.863400 Z-0.125000
G01 X74.765000 Y97.010600 Z-0.125000
G01 X74.865400 Y97.111000 Z-0.125000
G01 X75.132100 Y97.260800 Z-0.125000
G01 X75.325900 Y97.197400 Z-0.125000
G01 X75.379400 Y96.993700 Z-0.125000
G01 X75.225200 Y96.722500 Z-0.125000
G01 X75.132000 Y96.629300 Z-0.125000
G01 X74.981900 Y96.362300 Z-0.125000
G01 X75.044700 Y96.167800 Z-0.125000
G01 X75.247800 Y96.113700 Z-0.125000
G01 X75.518700 Y96.267600 Z-0.125000
G01 X75.599700 Y96.348700 Z-0.125000
G01 X75.871100 Y96.503100 Z-0.125000
G01 X76.075200 Y96.450000 Z-0.125000
G01 X76.139000 Y96.256500 Z-0.125000
G01 X75.989400 Y95.990000 Z-0.125000
G01 X75.924300 Y95.924900 Z-0.125000
G01 X75.780000 Y95.663700 Z-0.125000
G01 X75.855400 Y95.481800 Z-0.125000
G01 X76.071000 Y95.440200 Z-0.125000
G01 X76.347700 Y95.599900 Z-0.125000
G01 X76.396900 Y95.649200 Z-0.125000
G01 X76.673500 Y95.808800 Z-0.125000
G01 X76.889100 Y95.767200 Z-0.125000
G01 X76.964300 Y95.585200 Z-0.125000
G01 X76.820000 Y95.323900 Z-0.125000
G01 X76.786200 Y95.290100 Z-0.125000
G01 X76.646600 Y95.033600 Z-0.125000
G01 X76.732400 Y94.862100 Z-0.125000
G01 X76.958500 Y94.831000 Z-0.125000
G01 X77.239900 Y94.995500 Z-0.125000
G01 X77.258600 Y95.014100 Z-0.125000
G01 X77.540300 Y95.179000 Z-0.125000
G01 X77.767300 Y95.148700 Z-0.125000
G01 X77.853900 Y94.978000 Z-0.125000
G01 X77.714700 Y94.721900 Z-0.125000
G01 X77.706600 Y94.713800 Z-0.125000
G01 X77.571000 Y94.461200 Z-0.125000
G01 X77.665400 Y94.298400 Z-0.125000
G01 X77.900100 Y94.275900 Z-0.125000
G01 X78.185400 Y94.444200 Z-0.125000
G01 X78.188300 Y94.447100 Z-0.125000
G01 X78.474600 Y94.616500 Z-0.125000
G01 X78.712500 Y94.597200 Z-0.125000
G01 X78.810500 Y94.437900 Z-0.125000
G01 X78.676800 Y94.187300 Z-0.125000
G01 X78.676800 Y94.187300 Z-0.125000
G01 X78.544900 Y93.938500 Z-0.125000
G01 X78.646800 Y93.783100 Z-0.125000
G01 X78.888600 Y93.767600 Z-0.125000
G01 X79.176700 Y93.938800 Z-0.125000
G01 X79.180800 Y93.942900 Z-0.125000
G01 X79.472800 Y94.118000 Z-0.125000
G01 X79.722600 Y94.110500 Z-0.125000
G01 X79.831900 Y93.962600 Z-0.125000
G01 X79.703100 Y93.716900 Z-0.125000
G01 X79.689200 Y93.703000 Z-0.125000
G01 X79.559200 Y93.456000 Z-0.125000
G01 X79.666100 Y93.305700 Z-0.125000
G01 X79.913300 Y93.295600 Z-0.125000
G01 X80.204200 Y93.469600 Z-0.125000
G01 X80.240600 Y93.506000 Z-0.125000
G01 X80.537400 Y93.685900 Z-0.125000
G01 X80.797500 Y93.688700 Z-0.125000
G01 X80.917300 Y93.551300 Z-0.125000
G01 X80.793100 Y93.310200 Z-0.125000
G01 X80.721100 Y93.238200 Z-0.125000
G01 X80.590400 Y92.990500 Z-0.125000
G01 X80.695800 Y92.838700 Z-0.125000
G01 X80.941500 Y92.827100 Z-0.125000
G01 X81.231700 Y93.000400 Z-0.125000
G01 X81.361200 Y93.129900 Z-0.125000
G01 X81.662900 Y93.314700 Z-0.125000
G01 X81.933800 Y93.328300 Z-0.125000
G01 X82.064400 Y93.201600 Z-0.125000
G01 X81.945100 Y92.965500 Z-0.125000
G01 X81.737400 Y92.757800 Z-0.125000
G01 X81.604900 Y92.508300 Z-0.125000
G01 X81.706100 Y92.352300 Z-0.125000
G01 X81.947700 Y92.336600 Z-0.125000
G01 X82.236100 Y92.508100 Z-0.125000
G01 X82.543000 Y92.814900 Z-0.125000
G01 X82.849000 Y93.004000 Z-0.125000
G01 X83.129300 Y93.027100 Z-0.125000
G01 X83.269300 Y92.909900 Z-0.125000
G01 X83.154400 Y92.678000 Z-0.125000
G01 X82.724800 Y92.248500 Z-0.125000
G01 X82.589000 Y91.995700 Z-0.125000
G01 X82.683100 Y91.832500 Z-0.125000
G01 X82.917400 Y91.809700 Z-0.125000
G01 X83.202600 Y91.977900 Z-0.125000
G01 X83.778700 Y92.554000 Z-0.125000
G01 X84.089000 Y92.747400 Z-0.125000
G01 X84.378800 Y92.779900 Z-0.125000
G01 X84.528300 Y92.672200 Z-0.125000
G01 X84.417700 Y92.444600 Z-0.125000
G01 X83.661700 Y91.688600 Z-0.125000
G01 X83.513100 Y91.423100 Z-0.125000
G01 X83.579300 Y91.232000 Z-0.125000
G01 X83.785800 Y91.181300 Z-0.125000
G01 X84.058200 Y91.336800 Z-0.125000
G01 X85.068900 Y92.347400 Z-0.125000
G01 X85.382900 Y92.544600 Z-0.125000
G01 X85.680900 Y92.585300 Z-0.125000
G01 X85.838600 Y92.485800 Z-0.125000
G01 X85.731700 Y92.261900 Z-0.125000
G01 X80.720700 Y87.250900 Z-0.125000
G01 X80.421600 Y87.068700 Z-0.125000
G01 X80.156400 Y87.060800 Z-0.125000
G01 X80.031600 Y87.193200 Z-0.125000
G01 X80.153400 Y87.432000 Z-0.125000
G01 X82.851100 Y90.129700 Z-0.125000
G01 X82.959900 Y90.355500 Z-0.125000
G01 X82.806500 Y90.459200 Z-0.125000
G01 X82.512700 Y90.422700 Z-0.125000
G01 X82.200500 Y90.227500 Z-0.125000
G01 X79.591400 Y87.618300 Z-0.125000
G01 X79.294000 Y87.437800 Z-0.125000
G01 X79.032500 Y87.433700 Z-0.125000
G01 X78.911400 Y87.569800 Z-0.125000
G01 X79.035000 Y87.810200 Z-0.125000
G01 X81.629600 Y90.404900 Z-0.125000
G01 X81.755000 Y90.647200 Z-0.125000
G01 X81.638100 Y90.787500 Z-0.125000
G01 X81.380800 Y90.787600 Z-0.125000
G01 X81.085300 Y90.609000 Z-0.125000
G01 X78.483000 Y88.006700 Z-0.125000
G01 X78.186800 Y87.827300 Z-0.125000
G01 X77.927800 Y87.825700 Z-0.125000
G01 X77.809300 Y87.964300 Z-0.125000
G01 X77.933900 Y88.205900 Z-0.125000
G01 X80.551200 Y90.823200 Z-0.125000
G01 X80.679300 Y91.068300 Z-0.125000
G01 X80.568400 Y91.214500 Z-0.125000
G01 X80.317100 Y91.220500 Z-0.125000
G01 X80.024300 Y91.044600 Z-0.125000
G01 X77.389600 Y88.410000 Z-0.125000
G01 X77.094700 Y88.232000 Z-0.125000
G01 X76.838900 Y88.233400 Z-0.125000
G01 X76.723300 Y88.375100 Z-0.125000
G01 X76.849300 Y88.618000 Z-0.125000
G01 X79.502900 Y91.271600 Z-0.125000
G01 X79.632500 Y91.518200 Z-0.125000
G01 X79.524800 Y91.667700 Z-0.125000
G01 X79.276800 Y91.676900 Z-0.125000
G01 X78.985500 Y91.502500 Z-0.125000
G01 X76.311600 Y88.828700 Z-0.125000
G01 X76.017600 Y88.651600 Z-0.125000
G01 X75.763800 Y88.655000 Z-0.125000
G01 X75.650200 Y88.798700 Z-0.125000
G01 X75.777100 Y89.042500 Z-0.125000
G01 X78.470700 Y91.736100 Z-0.125000
G01 X78.601200 Y91.983500 Z-0.125000
G01 X78.495400 Y92.135000 Z-0.125000
G01 X78.249300 Y92.146100 Z-0.125000
G01 X77.958800 Y91.972600 Z-0.125000
G01 X75.242600 Y89.256400 Z-0.125000
G01 X74.948600 Y89.079300 Z-0.125000
G01 X74.694700 Y89.082700 Z-0.125000
G01 X74.581100 Y89.226300 Z-0.125000
G01 X74.708100 Y89.470200 Z-0.125000
G01 X77.447000 Y92.209100 Z-0.125000
G01 X77.577500 Y92.456600 Z-0.125000
G01 X77.471700 Y92.608000 Z-0.125000
G01 X77.225600 Y92.619200 Z-0.125000
G01 X76.935200 Y92.445600 Z-0.125000
G01 X74.173600 Y89.684100 Z-0.125000
G01 X73.879600 Y89.507000 Z-0.125000
G01 X73.625700 Y89.510300 Z-0.125000
G01 X73.512100 Y89.654000 Z-0.125000
G01 X73.639100 Y89.897900 Z-0.125000
G01 X76.429100 Y92.687900 Z-0.125000
G01 X76.560500 Y92.936200 Z-0.125000
G01 X76.456700 Y93.089700 Z-0.125000
G01 X76.212600 Y93.102900 Z-0.125000
G01 X75.923100 Y92.930300 Z-0.125000
G01 X73.104600 Y90.111700 Z-0.125000
G01 X72.810600 Y89.934700 Z-0.125000
G01 X72.556700 Y89.938000 Z-0.125000
G01 X72.443100 Y90.081700 Z-0.125000
G01 X72.570000 Y90.325600 Z-0.125000
G01 X75.700000 Y93.455500 Z-0.125000
G00 Z5.000000

(End cutting path id: path11316)


(Start cutting path id: path11316)
(Change tool to Default tool)

G00 Z5.000000
G00 X86.604800 Y90.141500

G01 Z-0.125000 F100.0(Penetrate)
G01 X85.901400 Y89.438000 Z-0.125000 F400.000000
G01 X85.705200 Y89.124900 Z-0.125000
G01 X85.666300 Y88.828800 Z-0.125000
G01 X85.767800 Y88.673000 Z-0.125000
G01 X85.992500 Y88.780800 Z-0.125000
G01 X86.295200 Y89.083400 Z-0.125000
G01 X86.515600 Y89.186900 Z-0.125000
G01 X86.607700 Y89.021800 Z-0.125000
G01 X86.559400 Y88.716200 Z-0.125000
G01 X86.358900 Y88.398800 Z-0.125000
G01 X86.132900 Y88.172800 Z-0.125000
G01 X85.952200 Y87.875200 Z-0.125000
G01 X85.947500 Y87.613200 Z-0.125000
G01 X86.083100 Y87.491600 Z-0.125000
G01 X86.323400 Y87.614900 Z-0.125000
G01 X86.529900 Y87.821500 Z-0.125000
G01 X86.777700 Y87.952400 Z-0.125000
G01 X86.930100 Y87.847500 Z-0.125000
G01 X86.942100 Y87.602300 Z-0.125000
G01 X86.769000 Y87.312200 Z-0.125000
G01 X86.559900 Y87.103200 Z-0.125000
G01 X86.393300 Y86.819600 Z-0.125000
G01 X86.419600 Y86.588700 Z-0.125000
G01 X86.586300 Y86.498100 Z-0.125000
G01 X86.840600 Y86.635500 Z-0.125000
G01 X87.058300 Y86.853200 Z-0.125000
G01 X87.320700 Y86.998600 Z-0.125000
G01 X87.505100 Y86.925800 Z-0.125000
G01 X87.549100 Y86.712600 Z-0.125000
G01 X87.390600 Y86.437100 Z-0.125000
G01 X87.164700 Y86.211300 Z-0.125000
G01 X87.011900 Y85.941500 Z-0.125000
G01 X87.068600 Y85.740900 Z-0.125000
G01 X87.265600 Y85.680700 Z-0.125000
G01 X87.533700 Y85.831900 Z-0.125000
G01 X87.760600 Y86.058700 Z-0.125000
G01 X88.034300 Y86.215600 Z-0.125000
G01 X88.243700 Y86.167700 Z-0.125000
G01 X88.312800 Y85.979500 Z-0.125000
G01 X88.165600 Y85.715400 Z-0.125000
G01 X87.947000 Y85.496800 Z-0.125000
G01 X87.808000 Y85.240800 Z-0.125000
G01 X87.894900 Y85.070600 Z-0.125000
G01 X88.122200 Y85.040600 Z-0.125000
G01 X88.404100 Y85.205600 Z-0.125000
G01 X88.606600 Y85.408000 Z-0.125000
G01 X88.892000 Y85.576500 Z-0.125000
G01 X89.127100 Y85.554400 Z-0.125000
G01 X89.221800 Y85.391900 Z-0.125000
G01 X89.086300 Y85.139400 Z-0.125000
G01 X88.906400 Y84.959500 Z-0.125000
G01 X88.781700 Y84.717900 Z-0.125000
G01 X88.900400 Y84.579300 Z-0.125000
G01 X89.159400 Y84.581100 Z-0.125000
G01 X89.455800 Y84.760500 Z-0.125000
G01 X89.607200 Y84.912000 Z-0.125000
G01 X89.907700 Y85.095500 Z-0.125000
