%
(Header)
(Generated by gcodetools from Inkscape.)
(Using default header. To add your own header create file "header" in the output dir.)
M3
(Header end.)
G21 (All units in mm)

(Start cutting path id: path215)
(Change tool to Default tool)

G00 Z5.000000
G00 X11.314900 Y126.203800

G01 Z-0.125000 F100.0(Penetrate)
G01 X11.378400 Y126.267300 Z-0.125000 F400.000000
G01 X11.428500 Y125.569000 Z-0.125000
G01 X11.351600 Y124.743700 Z-0.125000
G01 X10.433700 Y123.825900 Z-0.125000
G01 X10.231500 Y123.506700 Z-0.125000
G01 X10.179500 Y123.197500 Z-0.125000
G01 X10.267800 Y123.028500 Z-0.125000
G01 X10.486500 Y123.130300 Z-0.125000
G01 X10.805300 Y123.449100 Z-0.125000
G01 X11.022300 Y123.549200 Z-0.125000
G01 X11.106700 Y123.376300 Z-0.125000
G01 X11.050800 Y123.063200 Z-0.125000
G01 X10.846800 Y122.742300 Z-0.125000
G01 X10.634700 Y122.530100 Z-0.125000
G01 X10.455700 Y122.234200 Z-0.125000
G01 X10.454800 Y121.976000 Z-0.125000
G01 X10.594100 Y121.858200 Z-0.125000
G01 X10.836100 Y121.983200 Z-0.125000
G01 X10.969400 Y122.116500 Z-0.125000
G01 X11.206700 Y122.236800 Z-0.125000
G01 X11.335700 Y122.108700 Z-0.125000
G01 X11.324500 Y121.840200 Z-0.125000
G01 X11.140800 Y121.539600 Z-0.125000
G01 X11.067900 Y121.466600 Z-0.125000
G01 X10.896400 Y121.178200 Z-0.125000
G01 X10.911900 Y120.936500 Z-0.125000
G01 X11.067800 Y120.835100 Z-0.125000
G01 X11.317300 Y120.967700 Z-0.125000
G01 X11.349100 Y120.999400 Z-0.125000
G01 X11.589900 Y121.123400 Z-0.125000
G01 X11.736600 Y121.012800 Z-0.125000
G01 X11.746400 Y120.765400 Z-0.125000
G01 X11.576700 Y120.478700 Z-0.125000
G01 X11.561000 Y120.463100 Z-0.125000
G01 X11.410300 Y120.195400 Z-0.125000
G01 X11.439900 Y119.967800 Z-0.125000
G01 X11.598600 Y119.869200 Z-0.125000
G01 X11.835000 Y119.988700 Z-0.125000
G01 X11.845300 Y119.999000 Z-0.125000
G01 X12.071600 Y120.108400 Z-0.125000
G01 X12.222600 Y120.002100 Z-0.125000
G01 X12.249600 Y119.771800 Z-0.125000
G01 X12.104100 Y119.509500 Z-0.125000
G01 X12.093300 Y119.498600 Z-0.125000
G01 X11.960400 Y119.248800 Z-0.125000
G01 X12.000000 Y119.031100 Z-0.125000
G01 X12.158000 Y118.931900 Z-0.125000
G01 X12.380700 Y119.037700 Z-0.125000
G01 X12.387300 Y119.044300 Z-0.125000
G01 X12.603400 Y119.143400 Z-0.125000
G01 X12.756100 Y119.038900 Z-0.125000
G01 X12.793600 Y118.819200 Z-0.125000
G01 X12.664100 Y118.572700 Z-0.125000
G01 X12.659200 Y118.567800 Z-0.125000
G01 X12.535900 Y118.327600 Z-0.125000
G01 X12.580600 Y118.115000 Z-0.125000
G01 X12.738000 Y118.015200 Z-0.125000
G01 X12.953100 Y118.113400 Z-0.125000
G01 X12.955300 Y118.115600 Z-0.125000
G01 X13.168400 Y118.211700 Z-0.125000
G01 X13.324500 Y118.110500 Z-0.125000
G01 X13.368800 Y117.897700 Z-0.125000
G01 X13.246900 Y117.658800 Z-0.125000
G01 X13.246000 Y117.657900 Z-0.125000
G01 X13.125800 Y117.420800 Z-0.125000
G01 X13.172900 Y117.210600 Z-0.125000
G01 X13.331100 Y117.111600 Z-0.125000
G01 X13.544700 Y117.208200 Z-0.125000
G01 X13.545000 Y117.208500 Z-0.125000
G01 X13.758300 Y117.304900 Z-0.125000
G01 X13.916600 Y117.206000 Z-0.125000
G01 X13.963800 Y116.995900 Z-0.125000
G01 X13.843900 Y116.759100 Z-0.125000
G01 X13.843900 Y116.759100 Z-0.125000
G01 X13.724400 Y116.522700 Z-0.125000
G01 X13.772700 Y116.313700 Z-0.125000
G01 X13.932000 Y116.215800 Z-0.125000
G01 X14.145800 Y116.312600 Z-0.125000
G01 X14.147000 Y116.313800 Z-0.125000
G01 X14.362100 Y116.412000 Z-0.125000
G01 X14.522500 Y116.315200 Z-0.125000
G01 X14.571300 Y116.106700 Z-0.125000
G01 X14.451300 Y115.869800 Z-0.125000
G01 X14.450100 Y115.868600 Z-0.125000
G01 X14.329000 Y115.630600 Z-0.125000
G01 X14.377000 Y115.421300 Z-0.125000
G01 X14.537300 Y115.324400 Z-0.125000
G01 X14.753100 Y115.423300 Z-0.125000
G01 X14.753800 Y115.423900 Z-0.125000
G01 X14.970400 Y115.523600 Z-0.125000
G01 X15.131700 Y115.427600 Z-0.125000
G01 X15.180200 Y115.219000 Z-0.125000
G01 X15.059000 Y114.980700 Z-0.125000
G01 X15.058000 Y114.979700 Z-0.125000
G01 X14.935600 Y114.740500 Z-0.125000
G01 X14.983300 Y114.530900 Z-0.125000
G01 X15.144100 Y114.434400 Z-0.125000
G01 X15.361100 Y114.534500 Z-0.125000
G01 X15.364100 Y114.537500 Z-0.125000
G01 X15.584400 Y114.640800 Z-0.125000
G01 X15.747900 Y114.547200 Z-0.125000
G01 X15.796800 Y114.338800 Z-0.125000
G01 X15.673200 Y114.098300 Z-0.125000
G01 X15.670200 Y114.095300 Z-0.125000
G01 X15.543400 Y113.851600 Z-0.125000
G01 X15.589600 Y113.640500 Z-0.125000
G01 X15.751900 Y113.545500 Z-0.125000
G01 X15.973400 Y113.650100 Z-0.125000
G01 X15.976400 Y113.653100 Z-0.125000
G01 X16.201300 Y113.761100 Z-0.125000
G01 X16.366900 Y113.669500 Z-0.125000
G01 X16.414900 Y113.460200 Z-0.125000
G01 X16.287100 Y113.215500 Z-0.125000
G01 X16.283300 Y113.211700 Z-0.125000
G01 X16.151500 Y112.962900 Z-0.125000
G01 X16.195900 Y112.750100 Z-0.125000
G01 X16.359900 Y112.656800 Z-0.125000
G01 X16.586500 Y112.766500 Z-0.125000
G01 X16.591600 Y112.771600 Z-0.125000
G01 X16.824000 Y112.887100 Z-0.125000
G01 X16.993800 Y112.799600 Z-0.125000
G01 X17.041500 Y112.590000 Z-0.125000
G01 X16.907800 Y112.339500 Z-0.125000
G01 X16.901300 Y112.333000 Z-0.125000
G01 X16.760800 Y112.075500 Z-0.125000
G01 X16.802300 Y111.859800 Z-0.125000
G01 X16.969200 Y111.769400 Z-0.125000
G01 X17.204500 Y111.887800 Z-0.125000
G01 X17.212600 Y111.895900 Z-0.125000
G01 X17.457500 Y112.023900 Z-0.125000
G01 X17.634300 Y111.943400 Z-0.125000
G01 X17.681700 Y111.733600 Z-0.125000
G01 X17.538600 Y111.473600 Z-0.125000
G01 X17.460200 Y111.395200 Z-0.125000
G01 X17.090000 Y110.650800 Z-0.125000
G01 X17.098600 Y110.402100 Z-0.125000
G01 X17.281100 Y110.467700 Z-0.125000
G01 X17.865300 Y111.051900 Z-0.125000
G01 X18.139900 Y111.209600 Z-0.125000
G01 X18.351300 Y111.163700 Z-0.125000
G01 X18.422300 Y110.977400 Z-0.125000
G01 X18.275900 Y110.714200 Z-0.125000
G01 X17.102000 Y109.540200 Z-0.125000
G01 X16.731800 Y108.795800 Z-0.125000
G01 X16.740400 Y108.547200 Z-0.125000
G01 X16.922900 Y108.612700 Z-0.125000
G01 X17.191600 Y108.881500 Z-0.125000
G01 X17.355600 Y108.928500 Z-0.125000
G01 X17.323400 Y108.639100 Z-0.125000
G01 X16.893900 Y107.835400 Z-0.125000
G01 X16.743700 Y107.685300 Z-0.125000
G01 X16.373500 Y106.940900 Z-0.125000
G01 X16.382100 Y106.692200 Z-0.125000
G01 X16.564600 Y106.757800 Z-0.125000
G01 X16.729900 Y106.923000 Z-0.125000
G01 X16.906000 Y106.982200 Z-0.125000
G01 X16.900600 Y106.719600 Z-0.125000
G01 X16.510100 Y105.954900 Z-0.125000
G01 X16.385500 Y105.830300 Z-0.125000
G01 X16.015300 Y105.085900 Z-0.125000
G01 X16.023900 Y104.837300 Z-0.125000
G01 X16.206400 Y104.902800 Z-0.125000
G01 X16.338200 Y105.034600 Z-0.125000
G01 X16.522400 Y105.102000 Z-0.125000
G01 X16.534900 Y104.857200 Z-0.125000
G01 X16.170400 Y104.118500 Z-0.125000
G01 X16.031200 Y103.979300 Z-0.125000
G01 X15.663800 Y103.237800 Z-0.125000
G01 X15.674400 Y102.991000 Z-0.125000
G01 X15.857700 Y103.057500 Z-0.125000
G01 X16.007100 Y103.206900 Z-0.125000
G01 X16.193400 Y103.276200 Z-0.125000
G01 X16.210400 Y103.036000 Z-0.125000
G01 X15.852400 Y102.303800 Z-0.125000
G01 X15.697600 Y102.149000 Z-0.125000
G01 X15.337900 Y101.415200 Z-0.125000
G01 X15.353800 Y101.173800 Z-0.125000
G01 X15.539600 Y101.242600 Z-0.125000
G01 X15.701800 Y101.404900 Z-0.125000
G01 X15.889700 Y101.475900 Z-0.125000
G01 X15.910300 Y101.239100 Z-0.125000
G01 X15.557500 Y100.512200 Z-0.125000
G01 X15.390800 Y100.345500 Z-0.125000
G01 X15.038000 Y99.618500 Z-0.125000
G01 X15.058600 Y99.381800 Z-0.125000
G01 X15.246500 Y99.452800 Z-0.125000
G01 X15.420300 Y99.626700 Z-0.125000
G01 X15.618200 Y99.707600 Z-0.125000
G01 X15.660600 Y99.492800 Z-0.125000
G01 X15.339600 Y98.797600 Z-0.125000
G01 X15.108300 Y98.566300 Z-0.125000
G01 X14.761700 Y97.845500 Z-0.125000
G01 X14.786500 Y97.613100 Z-0.125000
G01 X14.976400 Y97.686000 Z-0.125000
G01 X15.161700 Y97.871400 Z-0.125000
G01 X15.353500 Y97.946200 Z-0.125000
G01 X15.382500 Y97.717900 Z-0.125000
G01 X15.041900 Y97.003200 Z-0.125000
G01 X14.848200 Y96.809500 Z-0.125000
G01 X14.507400 Y96.094500 Z-0.125000
G01 X14.536200 Y95.866000 Z-0.125000
G01 X14.727800 Y95.940700 Z-0.125000
G01 X14.925800 Y96.138800 Z-0.125000
G01 X15.119600 Y96.215600 Z-0.125000
G01 X15.153100 Y95.991900 Z-0.125000
G01 X14.819100 Y95.283700 Z-0.125000
G01 X14.609000 Y95.073500 Z-0.125000
G01 X14.273800 Y94.364200 Z-0.125000
G01 X14.306500 Y94.139700 Z-0.125000
G01 X14.500000 Y94.216200 Z-0.125000
G01 X14.716100 Y94.432300 Z-0.125000
G01 X14.911300 Y94.510600 Z-0.125000
G01 X14.948000 Y94.290000 Z-0.125000
G01 X14.618600 Y93.586400 Z-0.125000
G01 X14.392000 Y93.359900 Z-0.125000
G01 X14.061600 Y92.655300 Z-0.125000
G01 X14.097500 Y92.434000 Z-0.125000
G01 X14.292400 Y92.511900 Z-0.125000
G01 X14.528200 Y92.747700 Z-0.125000
G01 X14.731000 Y92.833600 Z-0.125000
G01 X14.784300 Y92.629700 Z-0.125000
G01 X14.479200 Y91.950300 Z-0.125000
G01 X14.195300 Y91.666500 Z-0.125000
G01 X13.869600 Y90.966600 Z-0.125000
G01 X13.908800 Y90.748500 Z-0.125000
G01 X14.105200 Y90.828000 Z-0.125000
G01 X14.361800 Y91.084600 Z-0.125000
G01 X14.560600 Y91.166500 Z-0.125000
G01 X14.605100 Y90.953700 Z-0.125000
G01 X14.287100 Y90.261500 Z-0.125000
G01 X14.019100 Y89.993600 Z-0.125000
G01 X13.698200 Y89.298500 Z-0.125000
G01 X13.740700 Y89.083700 Z-0.125000
G01 X13.938600 Y89.164700 Z-0.125000
G01 X14.216400 Y89.442500 Z-0.125000
G01 X14.417000 Y89.526200 Z-0.125000
G01 X14.465500 Y89.317500 Z-0.125000
G01 X14.153400 Y88.631100 Z-0.125000
G01 X13.864000 Y88.341800 Z-0.125000
G01 X13.528400 Y87.632000 Z-0.125000
G01 X13.560700 Y87.407100 Z-0.125000
G01 X13.754000 Y87.483400 Z-0.125000
G01 X14.093100 Y87.822500 Z-0.125000
G01 X14.295200 Y87.907700 Z-0.125000
G01 X14.347000 Y87.702200 Z-0.125000
G01 X14.039600 Y87.020600 Z-0.125000
G01 X13.731600 Y86.712600 Z-0.125000
G01 X13.421400 Y86.028200 Z-0.125000
G01 X13.471200 Y85.820800 Z-0.125000
G01 X13.672500 Y85.905100 Z-0.125000
G01 X13.990500 Y86.223100 Z-0.125000
G01 X14.193900 Y86.309600 Z-0.125000
G01 X14.248500 Y86.106900 Z-0.125000
G01 X13.945200 Y85.429500 Z-0.125000
G01 X13.623500 Y85.107800 Z-0.125000
G01 X13.320800 Y84.430900 Z-0.125000
G01 X13.375800 Y84.228600 Z-0.125000
G01 X13.579300 Y84.315300 Z-0.125000
G01 X13.906600 Y84.642600 Z-0.125000
G01 X14.112700 Y84.731700 Z-0.125000
G01 X14.173200 Y84.534900 Z-0.125000
G01 X13.878400 Y83.866000 Z-0.125000
G01 X13.542600 Y83.530200 Z-0.125000
G01 X13.248600 Y82.862000 Z-0.125000
G01 X13.309500 Y82.665700 Z-0.125000
G01 X13.515800 Y82.755000 Z-0.125000
G01 X13.840900 Y83.080100 Z-0.125000
G01 X14.047000 Y83.169300 Z-0.125000
G01 X14.107500 Y82.972500 Z-0.125000
G01 X13.812800 Y82.303700 Z-0.125000
G01 X13.495000 Y81.985900 Z-0.125000
G01 X13.210200 Y81.326900 Z-0.125000
G01 X13.277500 Y81.137000 Z-0.125000
G01 X13.486700 Y81.229300 Z-0.125000
G01 X13.786800 Y81.529300 Z-0.125000
G01 X13.993200 Y81.618800 Z-0.125000
G01 X14.054500 Y81.422800 Z-0.125000
G01 X13.760800 Y80.755000 Z-0.125000
G01 X13.484000 Y80.478200 Z-0.125000
G01 X13.203400 Y79.823400 Z-0.125000
G01 X13.273500 Y79.636300 Z-0.125000
G01 X13.484000 Y79.729800 Z-0.125000
G01 X13.739400 Y79.985200 Z-0.125000
G01 X13.948100 Y80.077000 Z-0.125000
G01 X14.014400 Y79.886000 Z-0.125000
G01 X13.728200 Y79.225600 Z-0.125000
G01 X13.484000 Y78.981500 Z-0.125000
G01 X13.203400 Y78.326600 Z-0.125000
G01 X13.273500 Y78.139600 Z-0.125000
G01 X13.484000 Y78.233100 Z-0.125000
G01 X13.738500 Y78.487600 Z-0.125000
G01 X13.956900 Y78.589100 Z-0.125000
G01 X14.044400 Y78.419400 Z-0.125000
G01 X13.991700 Y78.109400 Z-0.125000
G01 X13.789100 Y77.789900 Z-0.125000
G01 X13.203400 Y77.204100 Z-0.125000
G00 Z5.000000

(End cutting path id: path215)


(Start cutting path id: path215)
(Change tool to Default tool)

G00 Z5.000000
G00 X11.839900 Y75.840100

G01 Z-0.125000 F100.0(Penetrate)
G01 X10.754800 Y74.755000 Z-0.125000 F400.000000
G01 X10.731200 Y74.614500 Z-0.125000
G01 X11.072200 Y74.698200 Z-0.125000
G01 X11.950800 Y75.202600 Z-0.125000
G01 X13.925800 Y77.177600 Z-0.125000
G01 X14.178900 Y77.313800 Z-0.125000
G01 X14.342800 Y77.220400 Z-0.125000
G01 X14.366400 Y76.986800 Z-0.125000
G01 X14.198600 Y76.702000 Z-0.125000
G01 X13.059100 Y75.562400 Z-0.125000
G01 X13.010000 Y75.396400 Z-0.125000
G01 X13.294700 Y75.423900 Z-0.125000
G01 X14.091700 Y75.846700 Z-0.125000
G01 X14.642500 Y76.397500 Z-0.125000
G01 X14.945600 Y76.583700 Z-0.125000
G01 X15.219500 Y76.600300 Z-0.125000
G01 X15.353100 Y76.476600 Z-0.125000
G01 X15.235200 Y76.241800 Z-0.125000
G01 X15.039300 Y76.045900 Z-0.125000
G01 X14.962900 Y75.852600 Z-0.125000
G01 X15.187800 Y75.820200 Z-0.125000
G01 X15.897600 Y76.155900 Z-0.125000
G01 X15.936000 Y76.194300 Z-0.125000
G01 X16.554300 Y76.438400 Z-0.125000
G01 X16.733800 Y76.360600 Z-0.125000
G01 X16.648600 Y76.158600 Z-0.125000
G01 X16.648600 Y76.158600 Z-0.125000
G01 X16.558800 Y75.951800 Z-0.125000
G01 X16.727800 Y75.863600 Z-0.125000
G01 X17.027900 Y75.906400 Z-0.125000
G01 X17.331000 Y76.092600 Z-0.125000
G01 X17.348800 Y76.110400 Z-0.125000
G01 X17.632700 Y76.277400 Z-0.125000
G01 X17.893900 Y76.281300 Z-0.125000
G01 X18.025300 Y76.155500 Z-0.125000
G01 X17.919900 Y75.933100 Z-0.125000
G01 X17.893400 Y75.906700 Z-0.125000
G01 X17.800900 Y75.697200 Z-0.125000
G01 X17.923700 Y75.562700 Z-0.125000
G01 X18.162900 Y75.544700 Z-0.125000
G01 X18.420000 Y75.684900 Z-0.125000
G01 X18.436500 Y75.701400 Z-0.125000
G01 X18.662900 Y75.810900 Z-0.125000
G01 X18.857900 Y75.748600 Z-0.125000
G01 X18.944600 Y75.578000 Z-0.125000
G01 X18.846200 Y75.362700 Z-0.125000
G01 X18.839100 Y75.355600 Z-0.125000
G01 X18.740600 Y75.140100 Z-0.125000
G01 X18.817100 Y74.959400 Z-0.125000
G01 X18.998300 Y74.883400 Z-0.125000
G01 X19.214000 Y74.982200 Z-0.125000
G01 X19.214000 Y74.982200 Z-0.125000
G01 X19.420700 Y75.071900 Z-0.125000
G01 X19.582100 Y74.976100 Z-0.125000
G01 X19.638800 Y74.775500 Z-0.125000
G01 X19.531200 Y74.551000 Z-0.125000
G01 X19.530400 Y74.550200 Z-0.125000
G01 X19.413500 Y74.316400 Z-0.125000
G01 X19.450900 Y74.096500 Z-0.125000
G01 X19.593400 Y73.981700 Z-0.125000
G01 X19.792000 Y74.063400 Z-0.125000
G01 X19.797100 Y74.068500 Z-0.125000
G01 X19.993600 Y74.148200 Z-0.125000
G01 X20.124600 Y74.021900 Z-0.125000
G01 X20.147800 Y73.787800 Z-0.125000
G01 X20.021300 Y73.544400 Z-0.125000
G01 X20.003600 Y73.526600 Z-0.125000
G01 X19.799100 Y72.948000 Z-0.125000
G01 X19.877100 Y72.768800 Z-0.125000
G01 X20.061000 Y72.835700 Z-0.125000
G01 X20.121000 Y72.895700 Z-0.125000
G01 X20.343700 Y73.001500 Z-0.125000
G01 X20.440700 Y72.841300 Z-0.125000
G01 X20.397500 Y72.540800 Z-0.125000
G01 X20.199200 Y72.225600 Z-0.125000
G01 X19.331500 Y71.357900 Z-0.125000
G00 Z5.000000

(End cutting path id: path215)


(Start cutting path id: path215)
(Change tool to Default tool)

G00 Z5.000000
G00 X20.380700 Y71.659400

G01 Z-0.125000 F100.0(Penetrate)
G01 X17.140900 Y68.419600 Z-0.125000 F400.000000
G00 Z5.000000

(End cutting path id: path215)


(Start cutting path id: path215)
(Change tool to Default tool)

G00 Z5.000000
G00 X17.604600 Y69.631700

G01 Z-0.125000 F100.0(Penetrate)
G01 X15.103700 Y67.130800 Z-0.125000 F400.000000
G00 Z5.000000

(End cutting path id: path215)


(Start cutting path id: path215)
(Change tool to Default tool)

G00 Z5.000000
G00 X15.482500 Y68.243700

G01 Z-0.125000 F100.0(Penetrate)
G01 X17.939000 Y69.934100 Z-0.125000 F400.000000
G01 X18.763000 Y70.718800 Z-0.125000
G01 X19.325700 Y71.477100 Z-0.125000
G01 X19.633000 Y72.219500 Z-0.125000
G01 X19.691200 Y72.956500 Z-0.125000
G01 X19.506200 Y73.698500 Z-0.125000
G01 X19.084200 Y74.456100 Z-0.125000
G01 X18.571800 Y75.024000 Z-0.125000
G01 X17.935700 Y75.432100 Z-0.125000
G01 X17.166000 Y75.680400 Z-0.125000
G01 X16.252800 Y75.769000 Z-0.125000
G01 X13.956600 Y75.467700 Z-0.125000
G01 X10.968200 Y74.528800 Z-0.125000
G01 X8.935210 Y73.670200 Z-0.125000
G01 X7.301510 Y72.768000 Z-0.125000
G01 X6.070620 Y71.827900 Z-0.125000
G01 X5.246100 Y70.855400 Z-0.125000
G01 X4.831500 Y69.856300 Z-0.125000
G01 X4.830400 Y68.836200 Z-0.125000
G01 X5.246340 Y67.800800 Z-0.125000
G01 X6.082880 Y66.755700 Z-0.125000
G01 X6.806080 Y66.190400 Z-0.125000
G01 X7.640370 Y65.837000 Z-0.125000
G01 X8.594730 Y65.696700 Z-0.125000
G01 X9.678160 Y65.771200 Z-0.125000
G01 X10.899700 Y66.061600 Z-0.125000
G01 X12.268200 Y66.569600 Z-0.125000
G01 X15.482500 Y68.243700 Z-0.125000
G01 X15.482500 Y68.243700 Z-0.125000
G00 Z5.000000

(End cutting path id: path215)


(Start cutting path id: path215)
(Change tool to Default tool)

G00 Z5.000000
G00 X7.381100 Y72.878600

G01 Z-0.125000 F100.0(Penetrate)
G01 X8.776600 Y74.274100 Z-0.125000 F400.000000
G01 X9.758520 Y74.881800 Z-0.125000
G01 X10.170500 Y75.036500 Z-0.125000
G01 X10.241700 Y75.023000 Z-0.125000
G01 X10.179200 Y74.928300 Z-0.125000
G01 X9.022870 Y73.772000 Z-0.125000
G00 Z5.000000

(End cutting path id: path215)


(Start cutting path id: path215)
(Change tool to Default tool)

G00 Z5.000000
G00 X5.805580 Y72.799800

G01 Z-0.125000 F100.0(Penetrate)
G01 X5.090110 Y72.084300 Z-0.125000 F400.000000
G01 X4.602000 Y71.222000 Z-0.125000
G01 X4.529520 Y70.892300 Z-0.125000
G01 X4.675160 Y70.921000 Z-0.125000
G01 X7.557930 Y73.803800 Z-0.125000
G00 Z5.000000

(End cutting path id: path215)


(Start cutting path id: path215)
(Change tool to Default tool)

G00 Z5.000000
G00 X4.823640 Y70.321100

G01 Z-0.125000 F100.0(Penetrate)
G01 X4.455850 Y69.953300 Z-0.125000 F400.000000
G01 X4.274820 Y69.398100 Z-0.125000
G01 X4.323920 Y69.190000 Z-0.125000
G01 X4.464050 Y69.213200 Z-0.125000
G01 X4.475470 Y69.224600 Z-0.125000
G01 X4.617190 Y69.249400 Z-0.125000
G01 X4.685790 Y69.060700 Z-0.125000
G01 X4.548700 Y68.549500 Z-0.125000
G01 X4.548700 Y68.549500 Z-0.125000
G01 X4.456930 Y68.083500 Z-0.125000
G01 X4.556680 Y67.926000 Z-0.125000
G01 X4.712570 Y67.965000 Z-0.125000
G01 X4.725140 Y67.977500 Z-0.125000
G01 X4.905330 Y68.040800 Z-0.125000
G01 X5.041000 Y67.919200 Z-0.125000
G01 X5.083520 Y67.704500 Z-0.125000
G01 X4.984320 Y67.488400 Z-0.125000
G01 X4.965630 Y67.469700 Z-0.125000
G01 X4.855310 Y67.242400 Z-0.125000
G01 X4.899560 Y67.029400 Z-0.125000
G01 X5.046270 Y66.918900 Z-0.125000
G01 X5.243380 Y66.999100 Z-0.125000
G01 X5.258920 Y67.014600 Z-0.125000
G01 X5.478500 Y67.117300 Z-0.125000
G01 X5.652870 Y67.034400 Z-0.125000
G01 X5.717000 Y66.841300 Z-0.125000
G01 X5.605840 Y66.613200 Z-0.125000
G01 X5.590600 Y66.597900 Z-0.125000
G01 X5.486720 Y66.377100 Z-0.125000
G01 X5.566840 Y66.200000 Z-0.125000
G01 X5.757190 Y66.133100 Z-0.125000
G01 X5.984000 Y66.243000 Z-0.125000
G01 X5.999550 Y66.258500 Z-0.125000
G01 X6.220210 Y66.362300 Z-0.125000
G01 X6.418790 Y66.303600 Z-0.125000
G01 X6.514900 Y66.142500 Z-0.125000
G01 X6.428200 Y65.938800 Z-0.125000
G01 X6.413240 Y65.923900 Z-0.125000
G01 X6.351230 Y65.744900 Z-0.125000
G01 X6.480730 Y65.617200 Z-0.125000
G01 X6.705200 Y65.584400 Z-0.125000
G01 X6.928110 Y65.690400 Z-0.125000
G01 X6.928260 Y65.690500 Z-0.125000
G01 X7.397950 Y65.786000 Z-0.125000
G01 X7.542930 Y65.673800 Z-0.125000
G01 X7.488040 Y65.502000 Z-0.125000
G01 X7.488040 Y65.502000 Z-0.125000
G01 X7.441120 Y65.338100 Z-0.125000
G01 X7.603630 Y65.243400 Z-0.125000
G01 X8.098810 Y65.364400 Z-0.125000
G01 X8.112200 Y65.377800 Z-0.125000
G01 X8.683000 Y65.574400 Z-0.125000
G01 X8.884940 Y65.519100 Z-0.125000
G01 X8.847420 Y65.364600 Z-0.125000
G01 X8.805690 Y65.322900 Z-0.125000
G01 X8.729190 Y65.129500 Z-0.125000
G01 X8.903780 Y65.046800 Z-0.125000
G01 X9.491710 Y65.260600 Z-0.125000
G01 X9.625900 Y65.394800 Z-0.125000
G01 X10.404900 Y65.799500 Z-0.125000
G01 X10.677300 Y65.814700 Z-0.125000
G01 X10.622500 Y65.643000 Z-0.125000
G01 X10.312400 Y65.332900 Z-0.125000
G01 X10.235500 Y65.139100 Z-0.125000
G01 X10.459300 Y65.105600 Z-0.125000
G01 X11.167500 Y65.439700 Z-0.125000
G01 X11.905900 Y66.178100 Z-0.125000
G01 X12.821800 Y66.719700 Z-0.125000
G01 X13.188300 Y66.829000 Z-0.125000
G01 X13.176300 Y66.700100 Z-0.125000
G01 X12.158100 Y65.681900 Z-0.125000
G01 X12.137000 Y65.543900 Z-0.125000
G01 X12.483400 Y65.633000 Z-0.125000
G01 X13.369900 Y66.145300 Z-0.125000
G01 X14.805100 Y67.580500 Z-0.125000
G01 X14.920500 Y67.579000 Z-0.125000
G01 X14.781700 Y67.182900 Z-0.125000
G01 X14.197000 Y66.224100 Z-0.125000
G01 X13.826000 Y65.853000 Z-0.125000
G01 X13.652600 Y65.562800 Z-0.125000
G01 X13.664100 Y65.317000 Z-0.125000
G01 X13.815900 Y65.211600 Z-0.125000
G01 X14.063500 Y65.342300 Z-0.125000
G01 X14.285700 Y65.564500 Z-0.125000
G01 X14.510100 Y65.671900 Z-0.125000
G01 X14.610700 Y65.515300 Z-0.125000
G01 X14.571100 Y65.218400 Z-0.125000
G01 X14.374400 Y64.904800 Z-0.125000
G01 X14.232900 Y64.763300 Z-0.125000
G01 X14.043700 Y64.457200 Z-0.125000
G01 X14.020400 Y64.176600 Z-0.125000
G01 X14.137400 Y64.036400 Z-0.125000
G01 X14.369200 Y64.151200 Z-0.125000
G01 X14.463200 Y64.245200 Z-0.125000
G01 X14.687500 Y64.352600 Z-0.125000
G01 X14.788200 Y64.196000 Z-0.125000
G01 X14.748500 Y63.899100 Z-0.125000
G01 X14.551900 Y63.585600 Z-0.125000
G01 X14.492100 Y63.525800 Z-0.125000
G01 X14.299400 Y63.216200 Z-0.125000
G01 X14.268500 Y62.928000 Z-0.125000
G01 X14.377800 Y62.780000 Z-0.125000
G01 X14.606100 Y62.891400 Z-0.125000
G01 X14.640600 Y62.925900 Z-0.125000
G01 X14.865200 Y63.033600 Z-0.125000
G01 X14.966300 Y62.877500 Z-0.125000
G01 X14.927200 Y62.581100 Z-0.125000
G01 X14.730800 Y62.267800 Z-0.125000
G01 X14.715500 Y62.252500 Z-0.125000
G01 X14.523100 Y61.943100 Z-0.125000
G01 X14.491300 Y61.654100 Z-0.125000
G01 X14.599300 Y61.504800 Z-0.125000
G01 X14.826400 Y61.615000 Z-0.125000
G01 X14.833300 Y61.621900 Z-0.125000
G01 X15.053100 Y61.724800 Z-0.125000
G01 X15.155000 Y61.569400 Z-0.125000
G01 X15.120400 Y61.277600 Z-0.125000
G01 X14.931100 Y60.971400 Z-0.125000
G01 X14.928200 Y60.968500 Z-0.125000
G01 X14.743300 Y60.666600 Z-0.125000
G01 X14.714200 Y60.380300 Z-0.125000
G01 X14.820100 Y60.228900 Z-0.125000
G01 X15.039900 Y60.331800 Z-0.125000
G01 X15.043900 Y60.335800 Z-0.125000
G01 X15.260300 Y60.435200 Z-0.125000
G01 X15.364200 Y60.281900 Z-0.125000
G01 X15.335100 Y59.995600 Z-0.125000
G01 X15.152800 Y59.696300 Z-0.125000
G01 X15.150900 Y59.694300 Z-0.125000
G01 X14.971700 Y59.398200 Z-0.125000
G01 X14.947000 Y59.116300 Z-0.125000
G01 X15.054300 Y58.966400 Z-0.125000
G01 X15.271100 Y59.066200 Z-0.125000
G01 X15.271500 Y59.066600 Z-0.125000
G01 X15.487700 Y59.165900 Z-0.125000
G01 X15.594500 Y59.015400 Z-0.125000
G01 X15.569500 Y58.733200 Z-0.125000
G01 X15.390400 Y58.437200 Z-0.125000
G01 X15.389100 Y58.436200 Z-0.125000
G01 X15.212600 Y58.142700 Z-0.125000
G01 X15.191500 Y57.864300 Z-0.125000
G01 X15.301400 Y57.717000 Z-0.125000
G01 X15.518200 Y57.816900 Z-0.125000
G01 X15.518700 Y57.817400 Z-0.125000
G01 X15.735100 Y57.916800 Z-0.125000
G01 X15.844600 Y57.769100 Z-0.125000
G01 X15.823200 Y57.490400 Z-0.125000
G01 X15.646900 Y57.197200 Z-0.125000
G01 X15.646900 Y57.197200 Z-0.125000
G01 X15.471200 Y56.904600 Z-0.125000
G01 X15.451300 Y56.627400 Z-0.125000
G01 X15.562200 Y56.481100 Z-0.125000
G01 X15.779200 Y56.581200 Z-0.125000
G01 X15.782200 Y56.584200 Z-0.125000
G01 X16.000400 Y56.685500 Z-0.125000
G01 X16.112900 Y56.540700 Z-0.125000
G01 X16.094100 Y56.264600 Z-0.125000
G01 X15.918400 Y55.972000 Z-0.125000
G01 X15.918400 Y55.972000 Z-0.125000
G01 X15.743000 Y55.679700 Z-0.125000
G01 X15.725000 Y55.404400 Z-0.125000
G01 X15.838200 Y55.260400 Z-0.125000
G01 X16.056800 Y55.362100 Z-0.125000
G01 X16.060900 Y55.366100 Z-0.125000
G01 X16.283400 Y55.471600 Z-0.125000
G01 X16.400000 Y55.331000 Z-0.125000
G01 X16.383500 Y55.057200 Z-0.125000
G01 X16.206500 Y54.763300 Z-0.125000
G01 X16.206500 Y54.763300 Z-0.125000
G01 X16.029800 Y54.469700 Z-0.125000
G01 X16.014200 Y54.196800 Z-0.125000
G01 X16.131600 Y54.057000 Z-0.125000
G01 X16.354500 Y54.163000 Z-0.125000
G01 X16.357500 Y54.166000 Z-0.125000
G01 X16.583700 Y54.275300 Z-0.125000
G01 X16.704300 Y54.138500 Z-0.125000
G01 X16.690100 Y53.867100 Z-0.125000
G01 X16.512300 Y53.572400 Z-0.125000
G01 X16.510300 Y53.570400 Z-0.125000
G01 X16.331400 Y53.274600 Z-0.125000
G01 X16.317900 Y53.003900 Z-0.125000
G01 X16.440100 Y52.868800 Z-0.125000
G01 X16.668400 Y52.980100 Z-0.125000
G01 X16.670200 Y52.982100 Z-0.125000
G01 X16.900600 Y53.095600 Z-0.125000
G01 X17.025200 Y52.962900 Z-0.125000
G01 X17.013100 Y52.693600 Z-0.125000
G01 X16.833800 Y52.397000 Z-0.125000
G01 X16.831000 Y52.394000 Z-0.125000
G01 X16.649700 Y52.096000 Z-0.125000
G01 X16.637200 Y51.826000 Z-0.125000
G01 X16.762700 Y51.695000 Z-0.125000
G01 X16.995300 Y51.810000 Z-0.125000
G01 X16.997700 Y51.812000 Z-0.125000
G01 X17.233400 Y51.931000 Z-0.125000
G01 X17.362300 Y51.803000 Z-0.125000
G01 X17.352000 Y51.535000 Z-0.125000
G01 X17.170200 Y51.236000 Z-0.125000
G01 X17.168400 Y51.234000 Z-0.125000
G01 X16.985300 Y50.934000 Z-0.125000
G01 X16.974800 Y50.667000 Z-0.125000
G01 X17.104400 Y50.539000 Z-0.125000
G01 X17.341600 Y50.659000 Z-0.125000
G01 X17.344400 Y50.662000 Z-0.125000
G01 X17.583200 Y50.784000 Z-0.125000
G01 X17.715700 Y50.659000 Z-0.125000
G01 X17.707800 Y50.394000 Z-0.125000
G01 X17.525700 Y50.095000 Z-0.125000
G01 X17.519600 Y50.089000 Z-0.125000
G01 X17.337500 Y49.790000 Z-0.125000
G01 X17.329900 Y49.525000 Z-0.125000
G01 X17.462600 Y49.401000 Z-0.125000
G01 X17.701600 Y49.523000 Z-0.125000
G01 X17.709500 Y49.531000 Z-0.125000
G01 X17.949600 Y49.654000 Z-0.125000
G01 X18.085200 Y49.532000 Z-0.125000
G01 X18.080400 Y49.270000 Z-0.125000
G01 X17.899600 Y48.973000 Z-0.125000
G01 X17.889300 Y48.962000 Z-0.125000
G01 X17.708800 Y48.665000 Z-0.125000
G01 X17.704700 Y48.404000 Z-0.125000
G01 X17.841000 Y48.283000 Z-0.125000
G01 X18.081500 Y48.406000 Z-0.125000
G01 X18.097300 Y48.422000 Z-0.125000
G01 X18.337800 Y48.546000 Z-0.125000
G01 X18.474100 Y48.425000 Z-0.125000
G01 X18.470100 Y48.163000 Z-0.125000
G01 X18.289700 Y47.866000 Z-0.125000
G01 X18.278500 Y47.855000 Z-0.125000
G01 X18.099500 Y47.559000 Z-0.125000
G01 X18.098800 Y47.301000 Z-0.125000
G01 X18.238300 Y47.183000 Z-0.125000
G01 X18.480300 Y47.308000 Z-0.125000
G01 X18.488800 Y47.316000 Z-0.125000
G01 X18.731700 Y47.442000 Z-0.125000
G01 X18.873200 Y47.326000 Z-0.125000
G01 X18.874400 Y47.070000 Z-0.125000
G01 X18.696400 Y46.775000 Z-0.125000
G01 X18.687200 Y46.766000 Z-0.125000
G01 X18.509800 Y46.472000 Z-0.125000
G01 X18.512500 Y46.218000 Z-0.125000
G01 X18.655600 Y46.103000 Z-0.125000
G01 X18.899200 Y46.230000 Z-0.125000
G01 X18.904500 Y46.235000 Z-0.125000
G01 X19.148600 Y46.362000 Z-0.125000
G01 X19.292800 Y46.249000 Z-0.125000
G01 X19.296700 Y45.996000 Z-0.125000
G01 X19.119900 Y45.702000 Z-0.125000
G01 X19.116300 Y45.698000 Z-0.125000
G01 X18.939800 Y45.405000 Z-0.125000
G01 X18.944300 Y45.152000 Z-0.125000
G01 X19.089200 Y45.040000 Z-0.125000
G01 X19.333700 Y45.167000 Z-0.125000
G01 X19.340900 Y45.174000 Z-0.125000
G01 X19.583600 Y45.300000 Z-0.125000
G01 X19.729700 Y45.189000 Z-0.125000
G01 X19.737400 Y44.939000 Z-0.125000
G01 X19.564500 Y44.649000 Z-0.125000
G01 X19.560900 Y44.645000 Z-0.125000
G01 X19.392400 Y44.360000 Z-0.125000
G01 X19.404600 Y44.115000 Z-0.125000
G01 X19.553500 Y44.007000 Z-0.125000
G01 X19.795200 Y44.131000 Z-0.125000
G01 X19.799000 Y44.135000 Z-0.125000
G01 X20.037500 Y44.257000 Z-0.125000
G01 X20.184800 Y44.147000 Z-0.125000
G01 X20.197300 Y43.902000 Z-0.125000
G01 X20.031300 Y43.619000 Z-0.125000
G01 X20.027000 Y43.615000 Z-0.125000
G01 X19.866300 Y43.338000 Z-0.125000
G01 X19.884400 Y43.099000 Z-0.125000
G01 X20.035200 Y42.992000 Z-0.125000
G01 X20.272700 Y43.113000 Z-0.125000
G01 X20.278500 Y43.119000 Z-0.125000
G01 X20.510700 Y43.234000 Z-0.125000
G01 X20.658100 Y43.124000 Z-0.125000
G01 X20.675600 Y42.884000 Z-0.125000
G01 X20.518400 Y42.610000 Z-0.125000
G01 X20.511500 Y42.603000 Z-0.125000
G01 X20.362200 Y42.337000 Z-0.125000
G01 X20.387500 Y42.105000 Z-0.125000
G01 X20.539200 Y41.999000 Z-0.125000
G01 X20.769000 Y42.112000 Z-0.125000
G01 X20.779000 Y42.122000 Z-0.125000
G01 X20.999100 Y42.225000 Z-0.125000
G01 X21.143500 Y42.113000 Z-0.125000
G01 X21.166600 Y41.878000 Z-0.125000
G01 X21.022500 Y41.618000 Z-0.125000
G01 X21.009700 Y41.605000 Z-0.125000
G01 X20.879400 Y41.357000 Z-0.125000
G01 X20.914600 Y41.135000 Z-0.125000
G01 X21.064800 Y41.028000 Z-0.125000
G01 X21.279400 Y41.126000 Z-0.125000
G01 X21.293400 Y41.140000 Z-0.125000
G01 X21.494000 Y41.224000 Z-0.125000
G01 X21.633300 Y41.106000 Z-0.125000
G01 X21.664500 Y40.880000 Z-0.125000
G01 X21.541300 Y40.640000 Z-0.125000
G01 X21.526300 Y40.625000 Z-0.125000
G01 X21.419600 Y40.401000 Z-0.125000
G01 X21.466300 Y40.190000 Z-0.125000
G01 X21.613400 Y40.080000 Z-0.125000
G01 X21.808100 Y40.158000 Z-0.125000
G01 X21.821600 Y40.172000 Z-0.125000
G01 X22.002500 Y40.236000 Z-0.125000
G01 X22.138000 Y40.114000 Z-0.125000
G01 X22.179800 Y39.898000 Z-0.125000
G01 X22.079500 Y39.681000 Z-0.125000
G01 X22.071400 Y39.673000 Z-0.125000
G01 X21.981400 Y39.466000 Z-0.125000
G01 X22.034500 Y39.262000 Z-0.125000
G01 X22.177200 Y39.148000 Z-0.125000
G01 X22.356200 Y39.210000 Z-0.125000
G01 X22.356200 Y39.210000 Z-0.125000
G01 X22.535700 Y39.272000 Z-0.125000
G01 X22.679400 Y39.159000 Z-0.125000
G01 X22.733400 Y38.955000 Z-0.125000
G01 X22.643800 Y38.749000 Z-0.125000
G01 X22.642400 Y38.748000 Z-0.125000
G01 X22.551400 Y38.540000 Z-0.125000
G01 X22.604100 Y38.335000 Z-0.125000
G01 X22.747200 Y38.221000 Z-0.125000
G01 X22.927300 Y38.284000 Z-0.125000
G01 X22.950100 Y38.307000 Z-0.125000
G01 X23.175000 Y38.415000 Z-0.125000
G01 X23.384800 Y38.368000 Z-0.125000
G01 X23.492700 Y38.218000 Z-0.125000
G01 X23.412300 Y38.021000 Z-0.125000
G01 X23.312000 Y37.921000 Z-0.125000
G01 X23.148700 Y37.641000 Z-0.125000
G01 X23.182500 Y37.417000 Z-0.125000
G01 X23.356500 Y37.334000 Z-0.125000
G01 X23.614200 Y37.475000 Z-0.125000
G01 X25.229700 Y39.090000 Z-0.125000
G01 X26.052400 Y39.539000 Z-0.125000
G01 X26.355000 Y39.584000 Z-0.125000
G01 X26.313900 Y39.426000 Z-0.125000
G01 X23.295900 Y36.408000 Z-0.125000
G01 X22.846700 Y35.585000 Z-0.125000
G01 X22.800900 Y35.281000 Z-0.125000
G01 X22.958600 Y35.322000 Z-0.125000
G01 X24.481700 Y36.845000 Z-0.125000
G00 Z5.000000

(End cutting path id: path215)


(Start cutting path id: path215)
(Change tool to Default tool)

G00 Z5.000000
G00 X26.527700 Y38.891000

G01 Z-0.125000 F100.0(Penetrate)
G01 X27.070900 Y39.434000 Z-0.125000 F400.000000
G01 X27.352300 Y39.599000 Z-0.125000
G01 X27.629100 Y39.618000 Z-0.125000
G01 X27.783700 Y39.516000 Z-0.125000
G01 X27.698400 Y39.314000 Z-0.125000
G01 X27.653800 Y39.269000 Z-0.125000
G01 X27.605200 Y39.103000 Z-0.125000
G01 X27.777900 Y39.019000 Z-0.125000
G01 X28.301700 Y39.169000 Z-0.125000
G01 X28.301700 Y39.169000 Z-0.125000
G01 X28.531300 Y39.281000 Z-0.125000
G01 X28.756900 Y39.250000 Z-0.125000
G01 X28.882600 Y39.118000 Z-0.125000
G01 X28.812500 Y38.931000 Z-0.125000
G01 X28.810300 Y38.929000 Z-0.125000
G01 X28.723200 Y38.725000 Z-0.125000
G01 X28.814400 Y38.559000 Z-0.125000
G01 X29.006600 Y38.494000 Z-0.125000
G01 X29.222500 Y38.593000 Z-0.125000
G01 X29.244100 Y38.614000 Z-0.125000
G01 X29.465800 Y38.719000 Z-0.125000
G01 X29.640600 Y38.637000 Z-0.125000
G01 X29.703600 Y38.443000 Z-0.125000
G01 X29.590000 Y38.212000 Z-0.125000
G01 X29.569300 Y38.191000 Z-0.125000
G01 X29.445900 Y37.951000 Z-0.125000
G01 X29.479200 Y37.727000 Z-0.125000
G01 X29.621400 Y37.612000 Z-0.125000
G01 X29.824600 Y37.698000 Z-0.125000
G01 X29.840800 Y37.714000 Z-0.125000
G01 X30.013200 Y37.770000 Z-0.125000
G01 X30.110400 Y37.610000 Z-0.125000
G01 X29.976700 Y37.102000 Z-0.125000
G01 X29.972800 Y37.098000 Z-0.125000
G01 X29.811600 Y36.563000 Z-0.125000
G01 X29.886000 Y36.380000 Z-0.125000
G01 X30.045600 Y36.422000 Z-0.125000
G01 X30.051300 Y36.428000 Z-0.125000
G01 X30.199000 Y36.459000 Z-0.125000
G01 X30.255100 Y36.258000 Z-0.125000
G01 X30.075000 Y35.704000 Z-0.125000
G01 X30.075000 Y35.704000 Z-0.125000
G01 X29.865100 Y35.120000 Z-0.125000
G01 X29.900700 Y34.898000 Z-0.125000
G01 X30.039000 Y34.919000 Z-0.125000
G01 X30.058000 Y34.938000 Z-0.125000
G01 X30.216300 Y34.980000 Z-0.125000
G01 X30.269000 Y34.775000 Z-0.125000
G01 X30.058000 Y34.190000 Z-0.125000
G01 X30.025600 Y34.158000 Z-0.125000
G01 X29.738100 Y33.496000 Z-0.125000
G01 X29.768500 Y33.269000 Z-0.125000
G01 X29.937200 Y33.321000 Z-0.125000
G01 X30.269000 Y33.653000 Z-0.125000
G00 Z5.000000

(End cutting path id: path215)


(Start cutting path id: path215)
(Change tool to Default tool)

G00 Z5.000000
G00 X35.143600 Y34.032000

G01 Z-0.125000 F100.0(Penetrate)
G01 X33.384200 Y35.377000 Z-0.125000 F400.000000
G01 X31.756700 Y37.288000 Z-0.125000
G01 X30.064500 Y40.043000 Z-0.125000
G01 X28.111100 Y43.917000 Z-0.125000
G01 X27.054900 Y46.398000 Z-0.125000
G01 X26.104300 Y49.156000 Z-0.125000
G01 X25.260600 Y52.169000 Z-0.125000
G01 X24.525000 Y55.415500 Z-0.125000
G01 X23.383600 Y62.515300 Z-0.125000
G01 X22.690600 Y70.274700 Z-0.125000
G01 X22.456500 Y78.513600 Z-0.125000
G01 X22.691700 Y87.051500 Z-0.125000
G01 X23.406700 Y95.707900 Z-0.125000
G01 X24.611800 Y104.302500 Z-0.125000
G01 X25.418800 Y108.420300 Z-0.125000
G01 X26.387200 Y112.312800 Z-0.125000
G01 X27.501800 Y115.942800 Z-0.125000
G01 X28.747300 Y119.273200 Z-0.125000
G01 X30.108500 Y122.267200 Z-0.125000
G01 X31.570000 Y124.887500 Z-0.125000
G01 X33.116600 Y127.097100 Z-0.125000
G01 X34.733100 Y128.859100 Z-0.125000
G01 X36.365400 Y130.371900 Z-0.125000
G01 X34.314200 Y130.371900 Z-0.125000
G01 X32.776800 Y130.195300 Z-0.125000
G01 X31.158000 Y129.690900 Z-0.125000
G01 X29.509700 Y128.896100 Z-0.125000
G01 X27.883800 Y127.848800 Z-0.125000
G01 X26.331900 Y126.586600 Z-0.125000
G01 X24.906100 Y125.147200 Z-0.125000
G01 X23.658200 Y123.568200 Z-0.125000
G01 X22.639900 Y121.887300 Z-0.125000
G01 X21.956200 Y120.482100 Z-0.125000
G01 X21.734000 Y119.536700 Z-0.125000
G01 X21.978200 Y118.643400 Z-0.125000
G01 X22.693700 Y117.394300 Z-0.125000
G01 X23.310500 Y116.235300 Z-0.125000
G01 X23.731600 Y115.115700 Z-0.125000
G01 X23.958200 Y114.053700 Z-0.125000
G01 X23.991700 Y113.067600 Z-0.125000
G01 X23.833100 Y112.175700 Z-0.125000
G01 X23.483700 Y111.396100 Z-0.125000
G01 X22.944800 Y110.747200 Z-0.125000
G01 X22.217500 Y110.247100 Z-0.125000
G01 X21.374700 Y109.898300 Z-0.125000
G01 X20.551500 Y109.716700 Z-0.125000
G01 X19.773700 Y109.705300 Z-0.125000
G01 X19.067100 Y109.867200 Z-0.125000
G01 X18.273800 Y110.028400 Z-0.125000
G01 X17.984200 Y109.877400 Z-0.125000
G01 X17.734500 Y109.505500 Z-0.125000
G01 X17.259800 Y107.900500 Z-0.125000
G01 X16.659900 Y104.815500 Z-0.125000
G01 X15.721700 Y99.167600 Z-0.125000
G01 X15.010100 Y93.675100 Z-0.125000
G01 X14.517300 Y88.267500 Z-0.125000
G01 X14.235500 Y82.874400 Z-0.125000
G01 X14.139300 Y79.162500 Z-0.125000
G01 X14.204700 Y78.054500 Z-0.125000
G01 X14.403200 Y77.329700 Z-0.125000
G01 X14.777800 Y76.901500 Z-0.125000
G01 X15.371600 Y76.683100 Z-0.125000
G01 X17.388800 Y76.529800 Z-0.125000
G01 X18.082800 Y76.377200 Z-0.125000
G01 X18.741300 Y76.018000 Z-0.125000
G01 X19.338800 Y75.491300 Z-0.125000
G01 X19.850100 Y74.836000 Z-0.125000
G01 X20.512600 Y73.295300 Z-0.125000
G01 X20.613200 Y72.487800 Z-0.125000
G01 X20.526200 Y71.707400 Z-0.125000
G01 X20.160500 Y70.960600 Z-0.125000
G01 X19.452900 Y70.099800 Z-0.125000
G01 X18.491500 Y69.217100 Z-0.125000
G01 X17.364600 Y68.404600 Z-0.125000
G01 X14.591500 Y66.650200 Z-0.125000
G01 X15.119200 Y62.727500 Z-0.125000
G01 X16.015100 Y57.589700 Z-0.125000
G01 X17.296300 Y52.485300 Z-0.125000
G01 X18.906600 Y47.608000 Z-0.125000
G01 X20.789800 Y43.152000 Z-0.125000
G01 X22.249200 Y40.182000 Z-0.125000
G01 X23.161500 Y38.698000 Z-0.125000
G01 X23.504900 Y38.407000 Z-0.125000
G01 X23.822400 Y38.358000 Z-0.125000
G01 X24.527200 Y38.819000 Z-0.125000
G01 X25.565100 Y39.523000 Z-0.125000
G01 X26.679100 Y39.822000 Z-0.125000
G01 X27.875200 Y39.716000 Z-0.125000
G01 X29.159700 Y39.205000 Z-0.125000
G01 X29.751500 Y38.747000 Z-0.125000
G01 X30.134000 Y38.067000 Z-0.125000
G01 X30.339800 Y37.074000 Z-0.125000
G01 X30.401200 Y35.675000 Z-0.125000
G01 X30.401200 Y32.809000 Z-0.125000
G01 X33.771000 Y32.811000 Z-0.125000
G01 X37.140700 Y32.813000 Z-0.125000
G01 X35.143600 Y34.032000 Z-0.125000
G00 Z5.000000

(End cutting path id: path215)


(Start cutting path id: path215)
(Change tool to Default tool)

G00 Z5.000000
G00 X37.920200 Y32.324000

G01 Z-0.125000 F100.0(Penetrate)
G01 X38.489600 Y32.893000 Z-0.125000 F400.000000
G01 X38.792300 Y33.079000 Z-0.125000
G01 X39.065500 Y33.095000 Z-0.125000
G01 X39.198300 Y32.971000 Z-0.125000
G01 X39.080100 Y32.736000 Z-0.125000
G01 X38.963500 Y32.619000 Z-0.125000
G01 X38.887500 Y32.426000 Z-0.125000
G01 X39.092900 Y32.374000 Z-0.125000
G01 X39.754800 Y32.662000 Z-0.125000
G01 X39.783600 Y32.691000 Z-0.125000
G01 X40.399700 Y32.933000 Z-0.125000
G01 X40.600700 Y32.876000 Z-0.125000
G01 X40.541000 Y32.700000 Z-0.125000
G01 X40.541000 Y32.700000 Z-0.125000
G01 X40.486900 Y32.529000 Z-0.125000
G01 X40.700200 Y32.485000 Z-0.125000
G01 X41.334100 Y32.744000 Z-0.125000
G01 X41.449600 Y32.860000 Z-0.125000
G01 X42.417200 Y33.453000 Z-0.125000
G01 X42.819400 Y33.598000 Z-0.125000
G01 X42.823600 Y33.486000 Z-0.125000
G01 X42.265600 Y32.928000 Z-0.125000
G01 X42.215300 Y32.760000 Z-0.125000
G01 X42.497500 Y32.785000 Z-0.125000
G01 X43.290700 Y33.204000 Z-0.125000
G01 X50.263700 Y40.177000 Z-0.125000
G00 Z5.000000

(End cutting path id: path215)


(Start cutting path id: path215)
(Change tool to Default tool)

G00 Z5.000000
G00 X50.442100 Y41.852000

G01 Z-0.125000 F100.0(Penetrate)
G01 X52.077000 Y43.487000 Z-0.125000 F400.000000
G00 Z5.000000

(End cutting path id: path215)


(Start cutting path id: path215)
(Change tool to Default tool)

G00 Z5.000000
G00 X51.044300 Y41.706000

G01 Z-0.125000 F100.0(Penetrate)
G01 X49.474900 Y40.137000 Z-0.125000 F400.000000
G00 Z5.000000

(End cutting path id: path215)


(Start cutting path id: path215)
(Change tool to Default tool)

G00 Z5.000000
G00 X49.040900 Y38.206000

G01 Z-0.125000 F100.0(Penetrate)
G01 X44.330600 Y33.496000 Z-0.125000 F400.000000
G00 Z5.000000

(End cutting path id: path215)


(Start cutting path id: path215)
(Change tool to Default tool)

G00 Z5.000000
G00 X45.017400 Y35.145000

G01 Z-0.125000 F100.0(Penetrate)
G01 X47.055100 Y37.054000 Z-0.125000 F400.000000
G01 X48.952200 Y39.556000 Z-0.125000
G01 X50.702000 Y42.634000 Z-0.125000
G01 X52.297500 Y46.270000 Z-0.125000
G01 X53.732100 Y50.447000 Z-0.125000
G01 X54.999000 Y55.147000 Z-0.125000
G01 X56.091300 Y60.353100 Z-0.125000
G01 X57.002300 Y66.047700 Z-0.125000
G01 X57.706200 Y71.244300 Z-0.125000
G01 X57.870300 Y73.747200 Z-0.125000
G01 X57.723100 Y74.280700 Z-0.125000
G01 X57.408800 Y74.491500 Z-0.125000
G01 X56.236000 Y74.412400 Z-0.125000
G01 X55.218700 Y74.180600 Z-0.125000
G01 X54.873400 Y73.899900 Z-0.125000
G01 X54.599900 Y73.418400 Z-0.125000
G01 X54.156800 Y71.579700 Z-0.125000
G01 X53.666400 Y68.118600 Z-0.125000
G01 X53.033600 Y63.922600 Z-0.125000
G01 X52.298000 Y60.152500 Z-0.125000
G01 X51.454400 Y56.794100 Z-0.125000
G01 X50.497700 Y53.833600 Z-0.125000
G01 X49.422700 Y51.257000 Z-0.125000
G01 X48.224300 Y49.050000 Z-0.125000
G01 X46.897400 Y47.199000 Z-0.125000
G01 X45.436800 Y45.691000 Z-0.125000
G01 X44.399800 Y44.878000 Z-0.125000
G01 X43.388700 Y44.288000 Z-0.125000
G01 X42.396600 Y43.921000 Z-0.125000
G01 X41.416500 Y43.775000 Z-0.125000
G01 X40.441500 Y43.852000 Z-0.125000
G01 X39.464500 Y44.151000 Z-0.125000
G01 X38.478600 Y44.670000 Z-0.125000
G01 X37.476900 Y45.411000 Z-0.125000
G01 X36.525400 Y46.362000 Z-0.125000
G01 X35.551800 Y47.612000 Z-0.125000
G01 X33.639800 Y50.813000 Z-0.125000
G01 X31.944100 Y54.619500 Z-0.125000
G01 X30.667900 Y58.637600 Z-0.125000
G01 X30.187400 Y61.335100 Z-0.125000
G01 X29.794000 Y65.062900 Z-0.125000
G01 X29.301400 Y74.424000 Z-0.125000
G01 X29.256100 Y84.349800 Z-0.125000
G01 X29.421900 Y88.783400 Z-0.125000
G01 X29.724300 Y92.468900 Z-0.125000
G01 X30.337200 Y96.766500 Z-0.125000
G01 X31.143600 Y100.868000 Z-0.125000
G01 X32.120600 Y104.709400 Z-0.125000
G01 X33.245200 Y108.226700 Z-0.125000
G01 X34.494700 Y111.355600 Z-0.125000
G01 X35.846100 Y114.032200 Z-0.125000
G01 X37.276500 Y116.192400 Z-0.125000
G01 X38.763100 Y117.772000 Z-0.125000
G01 X40.382700 Y118.898600 Z-0.125000
G01 X41.136500 Y119.216800 Z-0.125000
G01 X41.877900 Y119.374400 Z-0.125000
G01 X42.625600 Y119.373100 Z-0.125000
G01 X43.398500 Y119.215100 Z-0.125000
G01 X45.094300 Y118.436600 Z-0.125000
G01 X46.054500 Y117.765100 Z-0.125000
G01 X46.966200 Y116.914000 Z-0.125000
G01 X48.643500 Y114.674500 Z-0.125000
G01 X50.125300 Y111.721400 Z-0.125000
G01 X51.410600 Y108.057700 Z-0.125000
G01 X52.498500 Y103.686500 Z-0.125000
G01 X53.388100 Y98.611200 Z-0.125000
G01 X54.078300 Y92.834700 Z-0.125000
G01 X54.568400 Y86.360300 Z-0.125000
G01 X54.836100 Y82.139400 Z-0.125000
G01 X55.138800 Y79.958900 Z-0.125000
G01 X55.361300 Y79.423200 Z-0.125000
G01 X55.662400 Y79.144800 Z-0.125000
G01 X56.593000 Y79.023200 Z-0.125000
G01 X58.198500 Y79.023200 Z-0.125000
G01 X57.764000 Y88.652500 Z-0.125000
G01 X57.449600 Y93.931100 Z-0.125000
G01 X56.996000 Y98.742000 Z-0.125000
G01 X56.388300 Y103.152600 Z-0.125000
G01 X55.611600 Y107.230700 Z-0.125000
G01 X54.651100 Y111.043800 Z-0.125000
G01 X53.491900 Y114.659500 Z-0.125000
G01 X52.119000 Y118.145500 Z-0.125000
G01 X50.517700 Y121.569400 Z-0.125000
G01 X48.756700 Y124.609700 Z-0.125000
G01 X46.873200 Y127.015700 Z-0.125000
G01 X44.897600 Y128.776000 Z-0.125000
G01 X43.884900 Y129.410400 Z-0.125000
G01 X42.860500 Y129.879000 Z-0.125000
G01 X41.828400 Y130.180600 Z-0.125000
G01 X40.792400 Y130.313500 Z-0.125000
G01 X39.756300 Y130.276400 Z-0.125000
G01 X38.723800 Y130.067900 Z-0.125000
G01 X37.698800 Y129.686500 Z-0.125000
G01 X36.685200 Y129.130800 Z-0.125000
G01 X34.707000 Y127.490900 Z-0.125000
G01 X33.437400 Y126.012200 Z-0.125000
G01 X32.228800 Y124.259900 Z-0.125000
G01 X31.084300 Y122.246800 Z-0.125000
G01 X30.006700 Y119.985300 Z-0.125000
G01 X28.063700 Y114.767700 Z-0.125000
G01 X26.423000 Y108.707800 Z-0.125000
G01 X25.107800 Y101.906500 Z-0.125000
G01 X24.141300 Y94.464300 Z-0.125000
G01 X23.546500 Y86.482100 Z-0.125000
G01 X23.346600 Y78.060400 Z-0.125000
G01 X23.444600 Y72.462400 Z-0.125000
G01 X23.734200 Y67.248600 Z-0.125000
G01 X24.219200 Y62.397300 Z-0.125000
G01 X24.903600 Y57.886900 Z-0.125000
G01 X25.791200 Y53.695900 Z-0.125000
G01 X26.885900 Y49.803000 Z-0.125000
G01 X28.191800 Y46.185000 Z-0.125000
G01 X29.712600 Y42.822000 Z-0.125000
G01 X31.338400 Y39.744000 Z-0.125000
G01 X32.695500 Y37.658000 Z-0.125000
G01 X34.094300 Y36.159000 Z-0.125000
G01 X35.844800 Y34.845000 Z-0.125000
G01 X37.156100 Y34.036000 Z-0.125000
G01 X38.339900 Y33.467000 Z-0.125000
G01 X39.436500 Y33.138000 Z-0.125000
G01 X40.486100 Y33.050000 Z-0.125000
G01 X41.528800 Y33.206000 Z-0.125000
G01 X42.604800 Y33.606000 Z-0.125000
G01 X43.754300 Y34.252000 Z-0.125000
G01 X45.017400 Y35.145000 Z-0.125000
G01 X45.017400 Y35.145000 Z-0.125000
G00 Z5.000000

(End cutting path id: path215)


(Start cutting path id: path215)
(Change tool to Default tool)

G00 Z5.000000
G00 X45.239000 Y46.693000

G01 Z-0.125000 F100.0(Penetrate)
G01 X46.564500 Y48.248000 Z-0.125000 F400.000000
G01 X47.824200 Y50.306000 Z-0.125000
G01 X49.001800 Y52.818400 Z-0.125000
G01 X50.080900 Y55.734700 Z-0.125000
G01 X51.045100 Y59.005800 Z-0.125000
G01 X51.877900 Y62.582000 Z-0.125000
G01 X52.563200 Y66.413700 Z-0.125000
G01 X53.084400 Y70.451400 Z-0.125000
G01 X53.431700 Y73.753900 Z-0.125000
G01 X51.383900 Y74.066000 Z-0.125000
G01 X49.858800 Y74.214200 Z-0.125000
G01 X49.067900 Y74.132500 Z-0.125000
G01 X48.793600 Y72.935500 Z-0.125000
G01 X48.510700 Y70.402400 Z-0.125000
G01 X48.423600 Y68.574100 Z-0.125000
G01 X48.548400 Y67.210600 Z-0.125000
G01 X48.932800 Y66.079600 Z-0.125000
G01 X49.624000 Y64.948700 Z-0.125000
G01 X50.224700 Y63.967300 Z-0.125000
G01 X50.618100 Y63.008300 Z-0.125000
G01 X50.805600 Y62.080200 Z-0.125000
G01 X50.788200 Y61.191600 Z-0.125000
G01 X50.567200 Y60.351200 Z-0.125000
G01 X50.143700 Y59.567700 Z-0.125000
G01 X49.519000 Y58.849500 Z-0.125000
G01 X48.694200 Y58.205500 Z-0.125000
G01 X47.739500 Y57.366000 Z-0.125000
G01 X46.681500 Y56.060400 Z-0.125000
G01 X45.586900 Y54.381000 Z-0.125000
G01 X44.522100 Y52.420100 Z-0.125000
G01 X43.354700 Y50.234000 Z-0.125000
G01 X42.300600 Y48.656000 Z-0.125000
G01 X41.262500 Y47.562000 Z-0.125000
G01 X40.142700 Y46.828000 Z-0.125000
G01 X39.027400 Y46.234000 Z-0.125000
G01 X38.538500 Y45.822000 Z-0.125000
G01 X38.611000 Y45.472000 Z-0.125000
G01 X39.179900 Y45.067000 Z-0.125000
G01 X39.815600 Y44.786000 Z-0.125000
G01 X40.516000 Y44.651000 Z-0.125000
G01 X42.050900 Y44.804000 Z-0.125000
G01 X43.665100 Y45.496000 Z-0.125000
G01 X45.239000 Y46.693000 Z-0.125000
G01 X45.239000 Y46.693000 Z-0.125000
G00 Z5.000000

(End cutting path id: path215)


(Start cutting path id: path215)
(Change tool to Default tool)

G00 Z5.000000
G00 X47.146600 Y47.537000

G01 Z-0.125000 F100.0(Penetrate)
G01 X44.985500 Y45.376000 Z-0.125000 F400.000000
G00 Z5.000000

(End cutting path id: path215)


(Start cutting path id: path215)
(Change tool to Default tool)

G00 Z5.000000
G00 X41.077700 Y47.455000

G01 Z-0.125000 F100.0(Penetrate)
G01 X42.195200 Y48.573000 Z-0.125000 F400.000000
G00 Z5.000000

(End cutting path id: path215)


(Start cutting path id: path215)
(Change tool to Default tool)

G00 Z5.000000
G00 X41.061300 Y48.546000

G01 Z-0.125000 F100.0(Penetrate)
G01 X42.669000 Y50.742000 Z-0.125000 F400.000000
G01 X44.265600 Y53.753900 Z-0.125000
G01 X45.854200 Y57.346100 Z-0.125000
G01 X42.728200 Y63.603700 Z-0.125000
G01 X39.602200 Y69.861200 Z-0.125000
G01 X37.569100 Y60.419000 Z-0.125000
G01 X36.262200 Y54.157900 Z-0.125000
G01 X35.674400 Y50.538000 Z-0.125000
G01 X35.622800 Y49.443000 Z-0.125000
G01 X35.718200 Y48.679000 Z-0.125000
G01 X35.949700 Y48.135000 Z-0.125000
G01 X36.306300 Y47.701000 Z-0.125000
G01 X37.318400 Y47.072000 Z-0.125000
G01 X38.485800 Y47.010000 Z-0.125000
G01 X39.752200 Y47.504000 Z-0.125000
G01 X41.061300 Y48.546000 Z-0.125000
G01 X41.061300 Y48.546000 Z-0.125000
G00 Z5.000000

(End cutting path id: path215)


(Start cutting path id: path215)
(Change tool to Default tool)

G00 Z5.000000
G00 X42.751500 Y50.625000

G01 Z-0.125000 F100.0(Penetrate)
G01 X43.918500 Y51.792000 Z-0.125000 F400.000000
G01 X44.011900 Y51.854000 Z-0.125000
G01 X44.022200 Y51.779000 Z-0.125000
G01 X43.857500 Y51.357000 Z-0.125000
G01 X43.235300 Y50.361000 Z-0.125000
G01 X39.334300 Y46.460000 Z-0.125000
G00 Z5.000000

(End cutting path id: path215)


(Start cutting path id: path215)
(Change tool to Default tool)

G00 Z5.000000
G00 X45.208100 Y53.830300

G01 Z-0.125000 F100.0(Penetrate)
G01 X43.665000 Y52.287000 Z-0.125000 F400.000000
G00 Z5.000000

(End cutting path id: path215)


(Start cutting path id: path215)
(Change tool to Default tool)

G00 Z5.000000
G00 X49.297900 Y51.185000

G01 Z-0.125000 F100.0(Penetrate)
G01 X47.367400 Y49.255000 Z-0.125000 F400.000000
G00 Z5.000000

(End cutting path id: path215)


(Start cutting path id: path215)
(Change tool to Default tool)

G00 Z5.000000
G00 X54.213900 Y51.611000

G01 Z-0.125000 F100.0(Penetrate)
G01 X55.054400 Y52.451600 Z-0.125000 F400.000000
G01 X55.211100 Y52.491300 Z-0.125000
G01 X55.162800 Y52.186000 Z-0.125000
G01 X54.709900 Y51.359000 Z-0.125000
G01 X54.147300 Y50.796000 Z-0.125000
G01 X53.694100 Y49.969000 Z-0.125000
G01 X53.645700 Y49.663000 Z-0.125000
G01 X53.802300 Y49.703000 Z-0.125000
G01 X54.365400 Y50.266000 Z-0.125000
G01 X54.522600 Y50.306000 Z-0.125000
G01 X54.475300 Y50.002000 Z-0.125000
G01 X54.024000 Y49.176000 Z-0.125000
G01 X53.473500 Y48.626000 Z-0.125000
G01 X52.988600 Y47.767000 Z-0.125000
G01 X52.918300 Y47.439000 Z-0.125000
G01 X53.065000 Y47.469000 Z-0.125000
G01 X53.799300 Y48.203000 Z-0.125000
G01 X53.970600 Y48.257000 Z-0.125000
G01 X53.954700 Y47.984000 Z-0.125000
G01 X53.548900 Y47.204000 Z-0.125000
G01 X52.323800 Y45.979000 Z-0.125000
G00 Z5.000000

(End cutting path id: path215)


(Start cutting path id: path215)
(Change tool to Default tool)

G00 Z5.000000
G00 X60.001000 Y43.307000

G01 Z-0.125000 F100.0(Penetrate)
G01 X60.191600 Y43.933000 Z-0.125000 F400.000000
G01 X60.225800 Y44.650000 Z-0.125000
G01 X59.805200 Y46.406000 Z-0.125000
G01 X58.698700 Y48.681000 Z-0.125000
G01 X56.865800 Y51.582000 Z-0.125000
G01 X55.667000 Y53.345500 Z-0.125000
G01 X54.553000 Y49.812000 Z-0.125000
G01 X53.931000 Y47.574000 Z-0.125000
G01 X53.852500 Y46.050000 Z-0.125000
G01 X54.041700 Y45.407000 Z-0.125000
G01 X54.396300 Y44.764000 Z-0.125000
G01 X55.641000 Y43.240000 Z-0.125000
G01 X56.909400 Y42.194000 Z-0.125000
G01 X57.530300 Y41.937000 Z-0.125000
G01 X58.125700 Y41.858000 Z-0.125000
G01 X58.683000 Y41.955000 Z-0.125000
G01 X59.189600 Y42.229000 Z-0.125000
G01 X59.633200 Y42.680000 Z-0.125000
G01 X60.001000 Y43.307000 Z-0.125000
G01 X60.001000 Y43.307000 Z-0.125000
G00 Z5.000000

(End cutting path id: path215)


(Start cutting path id: path215)
(Change tool to Default tool)

G00 Z5.000000
G00 X60.227700 Y41.909000

G01 Z-0.125000 F100.0(Penetrate)
G01 X60.368100 Y42.050000 Z-0.125000 F400.000000
G00 Z5.000000

(End cutting path id: path215)


(Start cutting path id: path215)
(Change tool to Default tool)

G00 Z5.000000
G00 X62.469200 Y33.674000

G01 Z-0.125000 F100.0(Penetrate)
G01 X63.625700 Y34.831000 Z-0.125000 F400.000000
G01 X64.474400 Y35.305000 Z-0.125000
G01 X64.794900 Y35.368000 Z-0.125000
G01 X64.761900 Y35.219000 Z-0.125000
G01 X62.071800 Y32.528000 Z-0.125000
G01 X61.639200 Y31.722000 Z-0.125000
G01 X61.604800 Y31.430000 Z-0.125000
G01 X61.767800 Y31.476000 Z-0.125000
G01 X65.758900 Y35.467000 Z-0.125000
G01 X66.454100 Y35.788000 Z-0.125000
G01 X66.668900 Y35.746000 Z-0.125000
G01 X66.588000 Y35.548000 Z-0.125000
G01 X66.046700 Y35.007000 Z-0.125000
G01 X65.960300 Y34.803000 Z-0.125000
G01 X66.163100 Y34.749000 Z-0.125000
G01 X66.840800 Y35.052000 Z-0.125000
G01 X67.321100 Y35.533000 Z-0.125000
G01 X67.635600 Y35.730000 Z-0.125000
G01 X67.934700 Y35.772000 Z-0.125000
G01 X68.093500 Y35.674000 Z-0.125000
G01 X67.987100 Y35.450000 Z-0.125000
G01 X67.536300 Y34.999000 Z-0.125000
G01 X67.429800 Y34.776000 Z-0.125000
G01 X67.588500 Y34.678000 Z-0.125000
G01 X67.887500 Y34.719000 Z-0.125000
G01 X68.202000 Y34.917000 Z-0.125000
G01 X68.616800 Y35.332000 Z-0.125000
G01 X68.921500 Y35.519000 Z-0.125000
G01 X69.199000 Y35.540000 Z-0.125000
G01 X69.336200 Y35.420000 Z-0.125000
G01 X69.220000 Y35.186000 Z-0.125000
G01 X68.850800 Y34.817000 Z-0.125000
G01 X68.740400 Y34.590000 Z-0.125000
G01 X68.890300 Y34.483000 Z-0.125000
G01 X69.180500 Y34.516000 Z-0.125000
G01 X69.491100 Y34.709000 Z-0.125000
G01 X69.803600 Y35.022000 Z-0.125000
G01 X70.103100 Y35.204000 Z-0.125000
G01 X70.368900 Y35.213000 Z-0.125000
G01 X70.494500 Y35.081000 Z-0.125000
G01 X70.373000 Y34.843000 Z-0.125000
G01 X70.123000 Y34.593000 Z-0.125000
G01 X70.010000 Y34.363000 Z-0.125000
G01 X70.154200 Y34.250000 Z-0.125000
G01 X70.438800 Y34.277000 Z-0.125000
G01 X70.746700 Y34.468000 Z-0.125000
G01 X70.931900 Y34.653000 Z-0.125000
G01 X71.228500 Y34.833000 Z-0.125000
G01 X71.488200 Y34.835000 Z-0.125000
G01 X71.607500 Y34.697000 Z-0.125000
G01 X71.483100 Y34.456000 Z-0.125000
G01 X71.361400 Y34.334000 Z-0.125000
G01 X71.245400 Y34.102000 Z-0.125000
G01 X71.383000 Y33.982000 Z-0.125000
G01 X71.661000 Y34.003000 Z-0.125000
G01 X71.965900 Y34.191000 Z-0.125000
G01 X72.028200 Y34.253000 Z-0.125000
G01 X72.323500 Y34.431000 Z-0.125000
G01 X72.580400 Y34.431000 Z-0.125000
G01 X72.697000 Y34.290000 Z-0.125000
G01 X72.571400 Y34.048000 Z-0.125000
G01 X72.544500 Y34.021000 Z-0.125000
G01 X72.439200 Y33.799000 Z-0.125000
G01 X72.575500 Y33.678000 Z-0.125000
G01 X72.843300 Y33.688000 Z-0.125000
G01 X73.132400 Y33.860000 Z-0.125000
G01 X73.147300 Y33.875000 Z-0.125000
G01 X73.419200 Y34.030000 Z-0.125000
G01 X73.670000 Y34.024000 Z-0.125000
G01 X73.796800 Y33.893000 Z-0.125000
G01 X73.696500 Y33.676000 Z-0.125000
G01 X73.693100 Y33.673000 Z-0.125000
G01 X73.598500 Y33.462000 Z-0.125000
G01 X73.732900 Y33.339000 Z-0.125000
G01 X73.989600 Y33.338000 Z-0.125000
G01 X74.262000 Y33.494000 Z-0.125000
G01 X74.262000 Y33.494000 Z-0.125000
G01 X74.537600 Y33.652000 Z-0.125000
G01 X74.801200 Y33.659000 Z-0.125000
G01 X74.942600 Y33.543000 Z-0.125000
G01 X74.851100 Y33.334000 Z-0.125000
G01 X74.835100 Y33.318000 Z-0.125000
G01 X74.724900 Y33.091000 Z-0.125000
G01 X74.847400 Y32.957000 Z-0.125000
G01 X75.100300 Y32.952000 Z-0.125000
G01 X75.381100 Y33.116000 Z-0.125000
G01 X75.484300 Y33.219000 Z-0.125000
G01 X76.152700 Y33.514000 Z-0.125000
G01 X76.349100 Y33.453000 Z-0.125000
G01 X76.259800 Y33.246000 Z-0.125000
G01 X75.934600 Y32.921000 Z-0.125000
G01 X75.805300 Y32.675000 Z-0.125000
G01 X75.913600 Y32.526000 Z-0.125000
G01 X76.162300 Y32.517000 Z-0.125000
G01 X76.453900 Y32.692000 Z-0.125000
G01 X77.659200 Y33.897000 Z-0.125000
G00 Z5.000000

(End cutting path id: path215)


(Start cutting path id: path215)
(Change tool to Default tool)

G00 Z5.000000
G00 X79.164100 Y34.654000

G01 Z-0.125000 F100.0(Penetrate)
G01 X76.675700 Y32.165000 Z-0.125000 F400.000000
G00 Z5.000000

(End cutting path id: path215)


(Start cutting path id: path215)
(Change tool to Default tool)

G00 Z5.000000
G00 X79.509200 Y24.521000

G01 Z-0.125000 F100.0(Penetrate)
G01 X78.037400 Y23.049000 Z-0.125000 F400.000000
G01 X77.947600 Y22.843000 Z-0.125000
G01 X78.142800 Y22.780000 Z-0.125000
G01 X78.809300 Y23.073000 Z-0.125000
G01 X80.002000 Y24.266000 Z-0.125000
G01 X80.673400 Y24.563000 Z-0.125000
G01 X80.871900 Y24.504000 Z-0.125000
G01 X80.783600 Y24.299000 Z-0.125000
G01 X79.525300 Y23.040000 Z-0.125000
G01 X79.415200 Y22.813000 Z-0.125000
G01 X79.565700 Y22.707000 Z-0.125000
G01 X79.856600 Y22.740000 Z-0.125000
G01 X80.167400 Y22.934000 Z-0.125000
G01 X81.851100 Y24.618000 Z-0.125000
G00 Z5.000000

(End cutting path id: path215)


(Start cutting path id: path215)
(Change tool to Default tool)

G00 Z5.000000
G00 X87.154000 Y21.689000

G01 Z-0.125000 F100.0(Penetrate)
G01 X89.884200 Y24.419000 Z-0.125000 F400.000000
G01 X90.062700 Y24.481000 Z-0.125000
G01 X90.062600 Y24.223000 Z-0.125000
G01 X89.679700 Y23.466000 Z-0.125000
G01 X88.218000 Y22.005000 Z-0.125000
G00 Z5.000000

(End cutting path id: path215)


(Start cutting path id: path215)
(Change tool to Default tool)

G00 Z5.000000
G00 X88.892200 Y23.623000

G01 Z-0.125000 F100.0(Penetrate)
G01 X89.423700 Y24.447000 Z-0.125000 F400.000000
G01 X88.597300 Y24.265000 Z-0.125000
G01 X86.828500 Y23.953000 Z-0.125000
G01 X84.226900 Y23.823000 Z-0.125000
G01 X81.999000 Y23.651000 Z-0.125000
G01 X81.486600 Y23.449000 Z-0.125000
G01 X81.428900 Y23.182000 Z-0.125000
G01 X81.906600 Y22.831000 Z-0.125000
G01 X82.746500 Y22.611000 Z-0.125000
G01 X85.048900 Y22.531000 Z-0.125000
G01 X87.407100 Y22.886000 Z-0.125000
G01 X88.316800 Y23.210000 Z-0.125000
G01 X88.892200 Y23.623000 Z-0.125000
G01 X88.892200 Y23.623000 Z-0.125000
G00 Z5.000000

(End cutting path id: path215)


(Start cutting path id: path215)
(Change tool to Default tool)

G00 Z5.000000
G00 X89.080000 Y25.706000

G01 Z-0.125000 F100.0(Penetrate)
G01 X89.473700 Y26.178000 Z-0.125000 F400.000000
G01 X89.796100 Y26.839000 Z-0.125000
G01 X90.094000 Y28.379000 Z-0.125000
G01 X90.041000 Y29.376000 Z-0.125000
G01 X89.778900 Y29.885000 Z-0.125000
G01 X89.152900 Y30.018000 Z-0.125000
G01 X88.008000 Y29.888000 Z-0.125000
G01 X86.585900 Y29.745000 Z-0.125000
G01 X86.691500 Y29.884000 Z-0.125000
G01 X87.300400 Y30.180000 Z-0.125000
G01 X88.461500 Y30.845000 Z-0.125000
G01 X89.099400 Y31.570000 Z-0.125000
G01 X89.209400 Y32.344000 Z-0.125000
G01 X88.787000 Y33.159000 Z-0.125000
G01 X87.885400 Y33.907000 Z-0.125000
G01 X87.057300 Y34.093000 Z-0.125000
G01 X86.742400 Y33.984000 Z-0.125000
G01 X86.531900 Y33.745000 Z-0.125000
G01 X86.454400 Y33.378000 Z-0.125000
G01 X86.538500 Y32.889000 Z-0.125000
G01 X86.639900 Y32.314000 Z-0.125000
G01 X86.519300 Y31.879000 Z-0.125000
G01 X86.161200 Y31.558000 Z-0.125000
G01 X85.550100 Y31.326000 Z-0.125000
G01 X84.010600 Y31.216000 Z-0.125000
G01 X82.607400 Y31.571000 Z-0.125000
G01 X81.665500 Y32.251000 Z-0.125000
G01 X81.469100 Y32.667000 Z-0.125000
G01 X81.509900 Y33.110000 Z-0.125000
G01 X81.535200 Y33.757000 Z-0.125000
G01 X81.079400 Y34.059000 Z-0.125000
G01 X80.280000 Y33.988000 Z-0.125000
G01 X79.274200 Y33.522000 Z-0.125000
G01 X78.922300 Y33.185000 Z-0.125000
G01 X78.739100 Y32.727000 Z-0.125000
G01 X78.724400 Y32.147000 Z-0.125000
G01 X78.878100 Y31.445000 Z-0.125000
G01 X79.353000 Y29.921000 Z-0.125000
G01 X77.936900 Y31.186000 Z-0.125000
G01 X76.360200 Y32.179000 Z-0.125000
G01 X74.010800 Y33.112000 Z-0.125000
G01 X71.106400 Y33.913000 Z-0.125000
G01 X67.864500 Y34.510000 Z-0.125000
G01 X66.482400 Y34.641000 Z-0.125000
G01 X65.463800 Y34.547000 Z-0.125000
G01 X64.642500 Y34.189000 Z-0.125000
G01 X63.852900 Y33.526000 Z-0.125000
G01 X62.930300 Y32.202000 Z-0.125000
G01 X62.545900 Y30.729000 Z-0.125000
G01 X62.713900 Y29.297000 Z-0.125000
G01 X63.009400 Y28.656000 Z-0.125000
G01 X63.448300 Y28.096000 Z-0.125000
G01 X64.742000 Y27.286000 Z-0.125000
G01 X66.923600 Y26.366000 Z-0.125000
G01 X69.536000 Y25.504000 Z-0.125000
G01 X72.122000 Y24.871000 Z-0.125000
G01 X73.768600 Y24.689000 Z-0.125000
G01 X76.037800 Y24.613000 Z-0.125000
G01 X81.469400 Y24.730000 Z-0.125000
G01 X86.466700 Y25.126000 Z-0.125000
G01 X88.193200 Y25.399000 Z-0.125000
G01 X89.080000 Y25.706000 Z-0.125000
G01 X89.080000 Y25.706000 Z-0.125000
G00 Z5.000000

(End cutting path id: path215)


(Start cutting path id: path215)
(Change tool to Default tool)

G00 Z5.000000
G00 X91.140300 Y26.424000

G01 Z-0.125000 F100.0(Penetrate)
G01 X89.278500 Y24.562000 Z-0.125000 F400.000000
G00 Z5.000000

(End cutting path id: path215)


(Start cutting path id: path215)
(Change tool to Default tool)

G00 Z5.000000
G00 X87.098200 Y29.865000

G01 Z-0.125000 F100.0(Penetrate)
G01 X87.253200 Y30.020000 Z-0.125000 F400.000000
G00 Z5.000000

(End cutting path id: path215)


(Start cutting path id: path215)
(Change tool to Default tool)

G00 Z5.000000
G00 X86.772300 Y34.030000

G01 Z-0.125000 F100.0(Penetrate)
G01 X87.370600 Y34.628000 Z-0.125000 F400.000000
G01 X87.633300 Y34.774000 Z-0.125000
G01 X87.870500 Y34.754000 Z-0.125000
G01 X87.986000 Y34.612000 Z-0.125000
G01 X87.883700 Y34.393000 Z-0.125000
G01 X87.883700 Y34.393000 Z-0.125000
G01 X87.780200 Y34.173000 Z-0.125000
G01 X87.893400 Y34.029000 Z-0.125000
G01 X88.128200 Y34.006000 Z-0.125000
G01 X88.389700 Y34.151000 Z-0.125000
G01 X88.391700 Y34.153000 Z-0.125000
G01 X88.651700 Y34.296000 Z-0.125000
G01 X88.879900 Y34.267000 Z-0.125000
G01 X88.985200 Y34.115000 Z-0.125000
G01 X88.876800 Y33.889000 Z-0.125000
G01 X88.844400 Y33.857000 Z-0.125000
G01 X88.692200 Y33.588000 Z-0.125000
G01 X88.746700 Y33.385000 Z-0.125000
G01 X88.940300 Y33.322000 Z-0.125000
G01 X89.205400 Y33.470000 Z-0.125000
G01 X89.281200 Y33.546000 Z-0.125000
G01 X89.548500 Y33.696000 Z-0.125000
G01 X89.743600 Y33.634000 Z-0.125000
G01 X89.798400 Y33.431000 Z-0.125000
G01 X89.644700 Y33.161000 Z-0.125000
G01 X89.496400 Y33.012000 Z-0.125000
G01 X89.308200 Y32.707000 Z-0.125000
G01 X89.286900 Y32.429000 Z-0.125000
G01 X89.406000 Y32.291000 Z-0.125000
G01 X89.638700 Y32.406000 Z-0.125000
G01 X89.897000 Y32.665000 Z-0.125000
G01 X90.126100 Y32.777000 Z-0.125000
G01 X90.237400 Y32.631000 Z-0.125000
G01 X90.208300 Y32.344000 Z-0.125000
G01 X90.016500 Y32.036000 Z-0.125000
G01 X88.282100 Y30.301000 Z-0.125000
G01 X88.206100 Y30.108000 Z-0.125000
G01 X88.431700 Y30.077000 Z-0.125000
G01 X89.142700 Y30.414000 Z-0.125000
G01 X90.049100 Y31.320000 Z-0.125000
G01 X90.272300 Y31.426000 Z-0.125000
G01 X90.370400 Y31.267000 Z-0.125000
G01 X90.328100 Y30.968000 Z-0.125000
G01 X90.130400 Y30.653000 Z-0.125000
G01 X89.853300 Y30.376000 Z-0.125000
G01 X89.725800 Y30.131000 Z-0.125000
G01 X89.810000 Y29.958000 Z-0.125000
G01 X90.024500 Y29.916000 Z-0.125000
G01 X90.287800 Y30.062000 Z-0.125000
G01 X90.287800 Y30.062000 Z-0.125000
G01 X90.519200 Y30.176000 Z-0.125000
G01 X90.663600 Y30.064000 Z-0.125000
G01 X90.677600 Y29.820000 Z-0.125000
G01 X90.518200 Y29.544000 Z-0.125000
G01 X90.477600 Y29.503000 Z-0.125000
G01 X90.194900 Y28.846000 Z-0.125000
G01 X90.263600 Y28.658000 Z-0.125000
G01 X90.473600 Y28.751000 Z-0.125000
G01 X90.769700 Y29.047000 Z-0.125000
G01 X91.000900 Y29.161000 Z-0.125000
G01 X91.116600 Y29.020000 Z-0.125000
G01 X91.092100 Y28.738000 Z-0.125000
G01 X90.902300 Y28.431000 Z-0.125000
G01 X90.426200 Y27.955000 Z-0.125000
G01 X89.960800 Y27.116000 Z-0.125000
G01 X89.904000 Y26.801000 Z-0.125000
G01 X90.056800 Y26.837000 Z-0.125000
G01 X90.952400 Y27.733000 Z-0.125000
G01 X91.159000 Y27.823000 Z-0.125000
G01 X91.220600 Y27.627000 Z-0.125000
G01 X90.927600 Y26.960000 Z-0.125000
G01 X88.555000 Y24.587000 Z-0.125000
G01 X87.821200 Y24.228000 Z-0.125000
G01 X87.579800 Y24.243000 Z-0.125000
G01 X87.648700 Y24.429000 Z-0.125000
G01 X88.387400 Y25.168000 Z-0.125000
G01 X88.435800 Y25.333000 Z-0.125000
G01 X88.149300 Y25.304000 Z-0.125000
G01 X87.349900 Y24.879000 Z-0.125000
G01 X86.811500 Y24.340000 Z-0.125000
G01 X86.127400 Y24.030000 Z-0.125000
G01 X85.920100 Y24.080000 Z-0.125000
G01 X86.004500 Y24.282000 Z-0.125000
G01 X86.472100 Y24.749000 Z-0.125000
G01 X86.550300 Y24.945000 Z-0.125000
G01 X86.329600 Y24.981000 Z-0.125000
G01 X85.625900 Y24.652000 Z-0.125000
G01 X85.220400 Y24.246000 Z-0.125000
G01 X84.560400 Y23.960000 Z-0.125000
G01 X84.369800 Y24.027000 Z-0.125000
G01 X84.461700 Y24.236000 Z-0.125000
G01 X84.793200 Y24.567000 Z-0.125000
G01 X84.875500 Y24.766000 Z-0.125000
G01 X84.663600 Y24.812000 Z-0.125000
G01 X83.972800 Y24.495000 Z-0.125000
G01 X83.696500 Y24.219000 Z-0.125000
G01 X83.011700 Y23.908000 Z-0.125000
G01 X82.803900 Y23.958000 Z-0.125000
G01 X82.888100 Y24.159000 Z-0.125000
G01 X83.165600 Y24.436000 Z-0.125000
G01 X83.250700 Y24.638000 Z-0.125000
G01 X83.045100 Y24.690000 Z-0.125000
G01 X82.363400 Y24.382000 Z-0.125000
G01 X80.731600 Y22.751000 Z-0.125000
G01 X80.595900 Y22.498000 Z-0.125000
G01 X80.690100 Y22.335000 Z-0.125000
G01 X80.924600 Y22.312000 Z-0.125000
G01 X81.209800 Y22.480000 Z-0.125000
G01 X81.302600 Y22.573000 Z-0.125000
G01 X81.593900 Y22.748000 Z-0.125000
G01 X81.841800 Y22.738000 Z-0.125000
G01 X81.949400 Y22.589000 Z-0.125000
G01 X81.819800 Y22.342000 Z-0.125000
G01 X81.678000 Y22.200000 Z-0.125000
G01 X81.550400 Y21.956000 Z-0.125000
G01 X81.662600 Y21.811000 Z-0.125000
G01 X81.915200 Y21.806000 Z-0.125000
G01 X82.208500 Y21.982000 Z-0.125000
G01 X82.428000 Y22.202000 Z-0.125000
G01 X82.743500 Y22.400000 Z-0.125000
G01 X83.044500 Y22.444000 Z-0.125000
G01 X83.205200 Y22.348000 Z-0.125000
G01 X83.099600 Y22.125000 Z-0.125000
G01 X82.793200 Y21.819000 Z-0.125000
G01 X82.681800 Y21.590000 Z-0.125000
G01 X82.829800 Y21.481000 Z-0.125000
G01 X83.118100 Y21.512000 Z-0.125000
G01 X83.427700 Y21.705000 Z-0.125000
G01 X83.820500 Y22.098000 Z-0.125000
G01 X84.481900 Y22.385000 Z-0.125000
G01 X84.673500 Y22.319000 Z-0.125000
G01 X84.582000 Y22.111000 Z-0.125000
G01 X84.089700 Y21.619000 Z-0.125000
G01 X83.996700 Y21.409000 Z-0.125000
G01 X84.185000 Y21.340000 Z-0.125000
G01 X84.841600 Y21.622000 Z-0.125000
G01 X85.386100 Y22.166000 Z-0.125000
G01 X86.101400 Y22.507000 Z-0.125000
G01 X86.330000 Y22.479000 Z-0.125000
G01 X86.255300 Y22.287000 Z-0.125000
G01 X85.619000 Y21.651000 Z-0.125000
G01 X85.544500 Y21.459000 Z-0.125000
G01 X85.773500 Y21.431000 Z-0.125000
G01 X86.489300 Y21.773000 Z-0.125000
G01 X87.571800 Y22.855000 Z-0.125000
G00 Z5.000000

(End cutting path id: path215)


(Start cutting path id: path215)
(Change tool to Default tool)

G00 Z5.000000
G00 X99.010800 Y22.320000

G01 Z-0.125000 F100.0(Penetrate)
G01 X99.832400 Y23.142000 Z-0.125000 F400.000000
G01 X100.019000 Y23.212000 Z-0.125000
G01 X100.037000 Y22.973000 Z-0.125000
G01 X99.681300 Y22.243000 Z-0.125000
G01 X99.112300 Y21.674000 Z-0.125000
G01 X98.771300 Y20.958000 Z-0.125000
G01 X98.799900 Y20.730000 Z-0.125000
G01 X98.991500 Y20.804000 Z-0.125000
G01 X99.829800 Y21.643000 Z-0.125000
G01 X100.078000 Y21.774000 Z-0.125000
G01 X100.231000 Y21.670000 Z-0.125000
G01 X100.244000 Y21.426000 Z-0.125000
G01 X100.072000 Y21.136000 Z-0.125000
G01 X99.914500 Y20.979000 Z-0.125000
G01 X99.823300 Y20.771000 Z-0.125000
G01 X99.940400 Y20.631000 Z-0.125000
G01 X100.171000 Y20.604000 Z-0.125000
G01 X100.420000 Y20.736000 Z-0.125000
G01 X100.469000 Y20.786000 Z-0.125000
G01 X100.654000 Y20.854000 Z-0.125000
G01 X100.813000 Y20.755000 Z-0.125000
G01 X100.882000 Y20.567000 Z-0.125000
G01 X100.800000 Y20.368000 Z-0.125000
G01 X100.782000 Y20.349000 Z-0.125000
G01 X100.724000 Y20.175000 Z-0.125000
G01 X100.820000 Y20.014000 Z-0.125000
G01 X100.996000 Y19.932000 Z-0.125000
G01 X101.177000 Y19.996000 Z-0.125000
G01 X101.177000 Y19.996000 Z-0.125000
G01 X101.355000 Y20.058000 Z-0.125000
G01 X101.525000 Y19.971000 Z-0.125000
G01 X101.616000 Y19.804000 Z-0.125000
G01 X101.556000 Y19.627000 Z-0.125000
G01 X101.552000 Y19.623000 Z-0.125000
G01 X101.482000 Y19.436000 Z-0.125000
G01 X101.558000 Y19.255000 Z-0.125000
G01 X101.715000 Y19.155000 Z-0.125000
G01 X101.891000 Y19.213000 Z-0.125000
G01 X101.919000 Y19.242000 Z-0.125000
G01 X102.127000 Y19.333000 Z-0.125000
G01 X102.316000 Y19.265000 Z-0.125000
G01 X102.409000 Y19.100000 Z-0.125000
G01 X102.329000 Y18.903000 Z-0.125000
G01 X102.275000 Y18.849000 Z-0.125000
G01 X102.127000 Y18.585000 Z-0.125000
G01 X102.148000 Y18.348000 Z-0.125000
G01 X102.292000 Y18.235000 Z-0.125000
G01 X102.514000 Y18.341000 Z-0.125000
G01 X102.661000 Y18.488000 Z-0.125000
G01 X102.935000 Y18.644000 Z-0.125000
G01 X103.145000 Y18.597000 Z-0.125000
G01 X103.214000 Y18.409000 Z-0.125000
G01 X103.067000 Y18.145000 Z-0.125000
G01 X101.481000 Y16.559000 Z-0.125000
G01 X101.199000 Y16.394000 Z-0.125000
G01 X100.971000 Y16.423000 Z-0.125000
G01 X100.883000 Y16.592000 Z-0.125000
G01 X101.021000 Y16.848000 Z-0.125000
G01 X101.030000 Y16.857000 Z-0.125000
G01 X101.163000 Y17.107000 Z-0.125000
G01 X101.076000 Y17.276000 Z-0.125000
G01 X100.852000 Y17.309000 Z-0.125000
G01 X100.577000 Y17.151000 Z-0.125000
G01 X100.577000 Y17.151000 Z-0.125000
G01 X100.310000 Y17.001000 Z-0.125000
G01 X100.102000 Y17.051000 Z-0.125000
G01 X100.030000 Y17.236000 Z-0.125000
G01 X100.170000 Y17.493000 Z-0.125000
G01 X100.174000 Y17.497000 Z-0.125000
G01 X100.324000 Y17.764000 Z-0.125000
G01 X100.267000 Y17.964000 Z-0.125000
G01 X100.072000 Y18.026000 Z-0.125000
G01 X99.807100 Y17.878000 Z-0.125000
G01 X99.788900 Y17.860000 Z-0.125000
G01 X99.522000 Y17.710000 Z-0.125000
G01 X99.327700 Y17.773000 Z-0.125000
G01 X99.273800 Y17.976000 Z-0.125000
G01 X99.427800 Y18.247000 Z-0.125000
G01 X99.457600 Y18.277000 Z-0.125000
G01 X99.618700 Y18.555000 Z-0.125000
G01 X99.580200 Y18.774000 Z-0.125000
G01 X99.401400 Y18.852000 Z-0.125000
G01 X99.141500 Y18.709000 Z-0.125000
G01 X99.091200 Y18.659000 Z-0.125000
G01 X98.883500 Y18.568000 Z-0.125000
G01 X98.761200 Y18.703000 Z-0.125000
G01 X98.758500 Y18.958000 Z-0.125000
G01 X98.909400 Y19.226000 Z-0.125000
G01 X98.975800 Y19.292000 Z-0.125000
G01 X99.067500 Y19.758000 Z-0.125000
G01 X98.968600 Y19.916000 Z-0.125000
G01 X98.813800 Y19.878000 Z-0.125000
G01 X98.641100 Y19.706000 Z-0.125000
G00 Z5.000000

(End cutting path id: path215)


(Start cutting path id: path215)
(Change tool to Default tool)

G00 Z5.000000
G00 X101.293000 Y19.368000

G01 Z-0.125000 F100.0(Penetrate)
G01 X100.337000 Y20.248000 Z-0.125000 F400.000000
G01 X99.622400 Y20.614000 Z-0.125000
G01 X99.321000 Y20.557000 Z-0.125000
G01 X99.144700 Y20.396000 Z-0.125000
G01 X99.150600 Y19.808000 Z-0.125000
G01 X99.607800 Y18.951000 Z-0.125000
G01 X100.484000 Y17.926000 Z-0.125000
G01 X101.088000 Y17.412000 Z-0.125000
G01 X101.582000 Y17.155000 Z-0.125000
G01 X101.949000 Y17.127000 Z-0.125000
G01 X102.173000 Y17.297000 Z-0.125000
G01 X102.235000 Y17.636000 Z-0.125000
G01 X102.121000 Y18.114000 Z-0.125000
G01 X101.293000 Y19.368000 Z-0.125000
G01 X101.293000 Y19.368000 Z-0.125000
G00 Z5.000000

(End cutting path id: path215)


(Start cutting path id: path215)
(Change tool to Default tool)

G00 Z5.000000
G00 X103.693000 Y18.022000

G01 Z-0.125000 F100.0(Penetrate)
G01 X101.968000 Y16.297000 Z-0.125000 F400.000000
G01 X101.839000 Y16.052000 Z-0.125000
G01 X101.950000 Y15.905000 Z-0.125000
G01 X102.201000 Y15.899000 Z-0.125000
G01 X102.493000 Y16.075000 Z-0.125000
G01 X103.596000 Y17.177000 Z-0.125000
G01 X103.847000 Y17.311000 Z-0.125000
G01 X104.006000 Y17.213000 Z-0.125000
G01 X104.025000 Y16.975000 Z-0.125000
G01 X103.855000 Y16.688000 Z-0.125000
G01 X103.077000 Y15.910000 Z-0.125000
G01 X102.973000 Y15.689000 Z-0.125000
G01 X103.136000 Y15.594000 Z-0.125000
G01 X103.439000 Y15.640000 Z-0.125000
G01 X103.755000 Y15.840000 Z-0.125000
G01 X104.499000 Y16.583000 Z-0.125000
G01 X104.804000 Y16.772000 Z-0.125000
G01 X105.084000 Y16.794000 Z-0.125000
G01 X105.223000 Y16.676000 Z-0.125000
G01 X105.107000 Y16.444000 Z-0.125000
G01 X104.342000 Y15.678000 Z-0.125000
G01 X104.216000 Y15.435000 Z-0.125000
G01 X104.332000 Y15.294000 Z-0.125000
G01 X104.589000 Y15.293000 Z-0.125000
G01 X104.884000 Y15.472000 Z-0.125000
G01 X105.698000 Y16.286000 Z-0.125000
G01 X105.999000 Y16.470000 Z-0.125000
G01 X106.268000 Y16.482000 Z-0.125000
G01 X106.397000 Y16.353000 Z-0.125000
G01 X106.277000 Y16.116000 Z-0.125000
G01 X105.395000 Y15.234000 Z-0.125000
G01 X105.260000 Y14.983000 Z-0.125000
G01 X105.357000 Y14.823000 Z-0.125000
G01 X105.595000 Y14.803000 Z-0.125000
G01 X105.881000 Y14.972000 Z-0.125000
G01 X106.847000 Y15.938000 Z-0.125000
G01 X107.145000 Y16.119000 Z-0.125000
G01 X107.408000 Y16.125000 Z-0.125000
G01 X107.531000 Y15.990000 Z-0.125000
G01 X107.408000 Y15.751000 Z-0.125000
G01 X106.342000 Y14.685000 Z-0.125000
G01 X106.202000 Y14.428000 Z-0.125000
G01 X106.285000 Y14.254000 Z-0.125000
G01 X106.509000 Y14.220000 Z-0.125000
G01 X106.789000 Y14.384000 Z-0.125000
G01 X106.790000 Y14.385000 Z-0.125000
G01 X107.072000 Y14.550000 Z-0.125000
G01 X107.300000 Y14.521000 Z-0.125000
G01 X107.388000 Y14.351000 Z-0.125000
G01 X107.249000 Y14.095000 Z-0.125000
G01 X107.242000 Y14.088000 Z-0.125000
G01 X107.104000 Y13.833000 Z-0.125000
G01 X107.193000 Y13.665000 Z-0.125000
G01 X107.423000 Y13.638000 Z-0.125000
G01 X107.706000 Y13.804000 Z-0.125000
G01 X107.721000 Y13.818000 Z-0.125000
G01 X108.006000 Y13.987000 Z-0.125000
G01 X108.242000 Y13.965000 Z-0.125000
G01 X108.337000 Y13.803000 Z-0.125000
G01 X108.201000 Y13.551000 Z-0.125000
G01 X108.178000 Y13.527000 Z-0.125000
G01 X108.042000 Y13.274000 Z-0.125000
G01 X108.136000 Y13.112000 Z-0.125000
G01 X108.371000 Y13.089000 Z-0.125000
G01 X108.657000 Y13.258000 Z-0.125000
G01 X108.685000 Y13.286000 Z-0.125000
G01 X108.973000 Y13.457000 Z-0.125000
G01 X109.213000 Y13.440000 Z-0.125000
G01 X109.313000 Y13.283000 Z-0.125000
G01 X109.180000 Y13.033000 Z-0.125000
G01 X109.143000 Y12.996000 Z-0.125000
G01 X109.010000 Y12.745000 Z-0.125000
G01 X109.110000 Y12.588000 Z-0.125000
G01 X109.350000 Y12.571000 Z-0.125000
G01 X109.638000 Y12.742000 Z-0.125000
G01 X109.703000 Y12.807000 Z-0.125000
G01 X109.999000 Y12.986000 Z-0.125000
G01 X110.258000 Y12.988000 Z-0.125000
G01 X110.376000 Y12.849000 Z-0.125000
G01 X110.251000 Y12.607000 Z-0.125000
G01 X110.143000 Y12.499000 Z-0.125000
G01 X110.014000 Y12.253000 Z-0.125000
G01 X110.123000 Y12.104000 Z-0.125000
G01 X110.372000 Y12.096000 Z-0.125000
G01 X110.664000 Y12.271000 Z-0.125000
G01 X110.822000 Y12.430000 Z-0.125000
G01 X111.126000 Y12.617000 Z-0.125000
G01 X111.402000 Y12.636000 Z-0.125000
G01 X111.538000 Y12.514000 Z-0.125000
G01 X111.421000 Y12.280000 Z-0.125000
G01 X111.217000 Y12.076000 Z-0.125000
G01 X111.097000 Y11.839000 Z-0.125000
G01 X111.227000 Y11.713000 Z-0.125000
G01 X111.498000 Y11.726000 Z-0.125000
G01 X111.800000 Y11.911000 Z-0.125000
G01 X112.040000 Y12.151000 Z-0.125000
G01 X112.352000 Y12.346000 Z-0.125000
G01 X112.643000 Y12.380000 Z-0.125000
G01 X112.795000 Y12.274000 Z-0.125000
G01 X112.685000 Y12.048000 Z-0.125000
G01 X112.410000 Y11.773000 Z-0.125000
G01 X112.299000 Y11.545000 Z-0.125000
G01 X112.449000 Y11.437000 Z-0.125000
G01 X112.738000 Y11.469000 Z-0.125000
G01 X113.048000 Y11.663000 Z-0.125000
G01 X113.354000 Y11.968000 Z-0.125000
G01 X113.673000 Y12.170000 Z-0.125000
G01 X113.981000 Y12.221000 Z-0.125000
G01 X114.149000 Y12.132000 Z-0.125000
G01 X114.047000 Y11.913000 Z-0.125000
G01 X113.708000 Y11.574000 Z-0.125000
G01 X113.605000 Y11.354000 Z-0.125000
G01 X113.770000 Y11.262000 Z-0.125000
G01 X114.076000 Y11.310000 Z-0.125000
G01 X114.393000 Y11.511000 Z-0.125000
G01 X114.770000 Y11.888000 Z-0.125000
G01 X115.424000 Y12.167000 Z-0.125000
G01 X115.610000 Y12.096000 Z-0.125000
G01 X115.516000 Y11.885000 Z-0.125000
G01 X115.103000 Y11.472000 Z-0.125000
G01 X115.007000 Y11.259000 Z-0.125000
G01 X115.191000 Y11.185000 Z-0.125000
G01 X115.840000 Y11.460000 Z-0.125000
G01 X116.286000 Y11.907000 Z-0.125000
G01 X116.973000 Y12.219000 Z-0.125000
G01 X117.182000 Y12.171000 Z-0.125000
G01 X117.099000 Y11.971000 Z-0.125000
G01 X116.607000 Y11.479000 Z-0.125000
G01 X116.522000 Y11.277000 Z-0.125000
G01 X116.727000 Y11.225000 Z-0.125000
G01 X117.409000 Y11.533000 Z-0.125000
G01 X118.016000 Y12.140000 Z-0.125000
G01 X118.849000 Y12.599000 Z-0.125000
G01 X119.159000 Y12.651000 Z-0.125000
G01 X119.121000 Y12.496000 Z-0.125000
G01 X118.255000 Y11.631000 Z-0.125000
G01 X118.177000 Y11.436000 Z-0.125000
G01 X118.398000 Y11.400000 Z-0.125000
G01 X119.103000 Y11.730000 Z-0.125000
G01 X120.969000 Y13.596000 Z-0.125000
G00 Z5.000000

(End cutting path id: path215)


(Start cutting path id: path215)
(Change tool to Default tool)

G00 Z5.000000
G00 X121.915000 Y14.356000

G01 Z-0.125000 F100.0(Penetrate)
G01 X124.175000 Y16.112000 Z-0.125000 F400.000000
G01 X124.927000 Y16.866000 Z-0.125000
G01 X125.281000 Y17.405000 Z-0.125000
G01 X125.256000 Y17.663000 Z-0.125000
G01 X124.961000 Y17.616000 Z-0.125000
G01 X123.716000 Y16.676000 Z-0.125000
G01 X122.146000 Y15.364000 Z-0.125000
G01 X120.613000 Y14.349000 Z-0.125000
G01 X119.079000 Y13.624000 Z-0.125000
G01 X117.509000 Y13.183000 Z-0.125000
G01 X115.867000 Y13.018000 Z-0.125000
G01 X114.118000 Y13.124000 Z-0.125000
G01 X112.225000 Y13.493000 Z-0.125000
G01 X110.152000 Y14.118000 Z-0.125000
G01 X107.772000 Y14.879000 Z-0.125000
G01 X106.782000 Y15.075000 Z-0.125000
G01 X109.189000 Y13.597000 Z-0.125000
G01 X110.456000 Y13.053000 Z-0.125000
G01 X111.911000 Y12.649000 Z-0.125000
G01 X113.511000 Y12.394000 Z-0.125000
G01 X115.214000 Y12.298000 Z-0.125000
G01 X117.182000 Y12.363000 Z-0.125000
G01 X118.734000 Y12.659000 Z-0.125000
G01 X120.201000 Y13.290000 Z-0.125000
G01 X121.915000 Y14.356000 Z-0.125000
G01 X121.915000 Y14.356000 Z-0.125000
G00 Z5.000000

(End cutting path id: path215)


(Start cutting path id: path215)
(Change tool to Default tool)

G00 Z5.000000
G00 X121.829000 Y15.205000

G01 Z-0.125000 F100.0(Penetrate)
G01 X125.246000 Y18.621000 Z-0.125000 F400.000000
G01 X125.522000 Y18.781000 Z-0.125000
G01 X125.738000 Y18.740000 Z-0.125000
G01 X125.814000 Y18.558000 Z-0.125000
G01 X125.670000 Y18.297000 Z-0.125000
G01 X125.139000 Y17.766000 Z-0.125000
G00 Z5.000000

(End cutting path id: path215)


(Start cutting path id: path215)
(Change tool to Default tool)

G00 Z5.000000
G00 X123.300000 Y18.172000

G01 Z-0.125000 F100.0(Penetrate)
G01 X124.982000 Y19.855000 Z-0.125000 F400.000000
G01 X125.202000 Y19.957000 Z-0.125000
G01 X125.291000 Y19.790000 Z-0.125000
G01 X125.241000 Y19.482000 Z-0.125000
G01 X125.039000 Y19.163000 Z-0.125000
G01 X120.213000 Y14.337000 Z-0.125000
G01 X119.344000 Y13.842000 Z-0.125000
G01 X119.009000 Y13.765000 Z-0.125000
G01 X119.036000 Y13.908000 Z-0.125000
G01 X120.572000 Y15.445000 Z-0.125000
G00 Z5.000000

(End cutting path id: path215)


(Start cutting path id: path215)
(Change tool to Default tool)

G00 Z5.000000
G00 X120.032000 Y15.245000

G01 Z-0.125000 F100.0(Penetrate)
G01 X121.589000 Y16.288000 Z-0.125000 F400.000000
G01 X122.889000 Y17.725000 Z-0.125000
G01 X123.781000 Y19.344000 Z-0.125000
G01 X124.027000 Y20.155000 Z-0.125000
G01 X124.112000 Y20.932000 Z-0.125000
G01 X123.990000 Y21.452000 Z-0.125000
G01 X123.657000 Y22.111000 Z-0.125000
G01 X122.561000 Y23.508000 Z-0.125000
G01 X121.386000 Y24.429000 Z-0.125000
G01 X120.675000 Y24.684000 Z-0.125000
G01 X119.752000 Y24.811000 Z-0.125000
G01 X116.880000 Y24.700000 Z-0.125000
G01 X111.990000 Y24.145000 Z-0.125000
G01 X109.817000 Y23.876000 Z-0.125000
G01 X111.188000 Y25.335000 Z-0.125000
G01 X112.188000 Y26.537000 Z-0.125000
G01 X112.510000 Y27.231000 Z-0.125000
G01 X112.418000 Y27.360000 Z-0.125000
G01 X112.157000 Y27.330000 Z-0.125000
G01 X111.133000 Y26.748000 Z-0.125000
G01 X109.769000 Y26.083000 Z-0.125000
G01 X108.242000 Y25.797000 Z-0.125000
G01 X106.752000 Y25.903000 Z-0.125000
G01 X105.499000 Y26.413000 Z-0.125000
G01 X105.039000 Y26.781000 Z-0.125000
G01 X104.921000 Y27.110000 Z-0.125000
G01 X105.161000 Y27.486000 Z-0.125000
G01 X105.773000 Y28.001000 Z-0.125000
G01 X106.541000 Y28.773000 Z-0.125000
G01 X106.692000 Y29.090000 Z-0.125000
G01 X106.651000 Y29.304000 Z-0.125000
G01 X106.327000 Y29.452000 Z-0.125000
G01 X105.829000 Y29.472000 Z-0.125000
G01 X104.523000 Y29.195000 Z-0.125000
G01 X103.162000 Y28.611000 Z-0.125000
G01 X102.176000 Y27.859000 Z-0.125000
G01 X101.830000 Y27.314000 Z-0.125000
G01 X101.820000 Y26.823000 Z-0.125000
G01 X102.182000 Y26.280000 Z-0.125000
G01 X102.952000 Y25.580000 Z-0.125000
G01 X104.536000 Y24.275000 Z-0.125000
G01 X102.796000 Y24.697000 Z-0.125000
G01 X101.915000 Y24.841000 Z-0.125000
G01 X101.267000 Y24.756000 Z-0.125000
G01 X100.768000 Y24.411000 Z-0.125000
G01 X100.338000 Y23.776000 Z-0.125000
G01 X100.133000 Y23.240000 Z-0.125000
G01 X100.082000 Y22.686000 Z-0.125000
G01 X100.448000 Y21.511000 Z-0.125000
G01 X101.451000 Y20.227000 Z-0.125000
G01 X103.102000 Y18.811000 Z-0.125000
G01 X103.820000 Y18.074000 Z-0.125000
G01 X103.973000 Y17.745000 Z-0.125000
G01 X103.952000 Y17.498000 Z-0.125000
G01 X103.926000 Y17.315000 Z-0.125000
G01 X104.067000 Y17.156000 Z-0.125000
G01 X104.743000 Y16.977000 Z-0.125000
G01 X106.540000 Y16.542000 Z-0.125000
G01 X109.350000 Y15.579000 Z-0.125000
G01 X112.413000 Y14.645000 Z-0.125000
G01 X115.194000 Y14.279000 Z-0.125000
G01 X117.723000 Y14.479000 Z-0.125000
G01 X118.903000 Y14.791000 Z-0.125000
G01 X120.032000 Y15.245000 Z-0.125000
G01 X120.032000 Y15.245000 Z-0.125000
G00 Z5.000000

(End cutting path id: path215)


(Start cutting path id: path215)
(Change tool to Default tool)

G00 Z5.000000
G00 X119.912000 Y11.791000

G01 Z-0.125000 F100.0(Penetrate)
G01 X126.153000 Y18.032000 Z-0.125000 F400.000000
G01 X126.322000 Y18.084000 Z-0.125000
G01 X126.302000 Y17.807000 Z-0.125000
G01 X125.890000 Y17.020000 Z-0.125000
G01 X121.134000 Y12.265000 Z-0.125000
G00 Z5.000000

(End cutting path id: path215)


(Start cutting path id: path215)
(Change tool to Default tool)

G00 Z5.000000
G00 X110.108000 Y11.962000

G01 Z-0.125000 F100.0(Penetrate)
G01 X108.070000 Y12.996000 Z-0.125000 F400.000000
G01 X106.158000 Y14.183000 Z-0.125000
G01 X104.488000 Y15.098000 Z-0.125000
G01 X103.028000 Y15.479000 Z-0.125000
G01 X102.383000 Y15.597000 Z-0.125000
G01 X101.595000 Y15.917000 Z-0.125000
G01 X99.988300 Y16.968000 Z-0.125000
G01 X99.067300 Y17.855000 Z-0.125000
G01 X98.604000 Y18.690000 Z-0.125000
G01 X98.510800 Y19.774000 Z-0.125000
G01 X98.700300 Y21.409000 Z-0.125000
G01 X99.267000 Y23.704000 Z-0.125000
G01 X99.637200 Y24.567000 Z-0.125000
G01 X100.008000 Y25.078000 Z-0.125000
G01 X100.533000 Y25.916000 Z-0.125000
G01 X100.579000 Y26.921000 Z-0.125000
G01 X100.531000 Y27.591000 Z-0.125000
G01 X100.728000 Y28.226000 Z-0.125000
G01 X101.147000 Y28.809000 Z-0.125000
G01 X101.764000 Y29.325000 Z-0.125000
G01 X102.556000 Y29.758000 Z-0.125000
G01 X103.499000 Y30.092000 Z-0.125000
G01 X105.745000 Y30.401000 Z-0.125000
G01 X107.174000 Y30.541000 Z-0.125000
G01 X108.464000 Y30.914000 Z-0.125000
G01 X109.607000 Y31.512000 Z-0.125000
G01 X110.598000 Y32.330000 Z-0.125000
G01 X111.429000 Y33.360000 Z-0.125000
G01 X112.096000 Y34.597000 Z-0.125000
G01 X112.591000 Y36.033000 Z-0.125000
G01 X112.908000 Y37.664000 Z-0.125000
G01 X113.334000 Y40.914000 Z-0.125000
G01 X110.219000 Y41.515000 Z-0.125000
G01 X108.537000 Y41.890000 Z-0.125000
G01 X107.602000 Y42.301000 Z-0.125000
G01 X107.203000 Y42.911000 Z-0.125000
G01 X107.129000 Y43.882000 Z-0.125000
G01 X107.056000 Y44.602000 Z-0.125000
G01 X106.826000 Y45.137000 Z-0.125000
G01 X106.452000 Y45.486000 Z-0.125000
G01 X105.949000 Y45.645000 Z-0.125000
G01 X105.331000 Y45.614000 Z-0.125000
G01 X104.613000 Y45.391000 Z-0.125000
G01 X102.931000 Y44.363000 Z-0.125000
G01 X101.697000 Y43.472000 Z-0.125000
G01 X101.189000 Y43.261000 Z-0.125000
G01 X100.656000 Y43.212000 Z-0.125000
G01 X99.219600 Y43.619000 Z-0.125000
G01 X96.798000 Y44.728000 Z-0.125000
G01 X93.311700 Y46.378000 Z-0.125000
G01 X90.777000 Y44.568000 Z-0.125000
G01 X89.064000 Y43.179000 Z-0.125000
G01 X87.891800 Y41.754000 Z-0.125000
G01 X87.107300 Y40.048000 Z-0.125000
G01 X86.557600 Y37.816000 Z-0.125000
G01 X86.393400 Y36.611000 Z-0.125000
G01 X86.544200 Y35.839000 Z-0.125000
G01 X87.133000 Y35.279000 Z-0.125000
G01 X88.282900 Y34.710000 Z-0.125000
G01 X89.311100 Y34.175000 Z-0.125000
G01 X89.971700 Y33.603000 Z-0.125000
G01 X90.328200 Y32.915000 Z-0.125000
G01 X90.444300 Y32.031000 Z-0.125000
G01 X90.597800 Y30.669000 Z-0.125000
G01 X90.925700 Y29.838000 Z-0.125000
G01 X91.286900 Y28.925000 Z-0.125000
G01 X91.361100 Y27.547000 Z-0.125000
G01 X91.170200 Y26.212000 Z-0.125000
G01 X90.982100 Y25.719000 Z-0.125000
G01 X90.735900 Y25.428000 Z-0.125000
G01 X90.282500 Y24.777000 Z-0.125000
G01 X90.094000 Y23.770000 Z-0.125000
G01 X89.799300 Y22.968000 Z-0.125000
G01 X89.000900 Y22.288000 Z-0.125000
G01 X87.827700 Y21.755000 Z-0.125000
G01 X86.408500 Y21.391000 Z-0.125000
G01 X84.872000 Y21.220000 Z-0.125000
G01 X83.347000 Y21.265000 Z-0.125000
G01 X81.962400 Y21.549000 Z-0.125000
G01 X80.846900 Y22.096000 Z-0.125000
G01 X80.137200 Y22.449000 Z-0.125000
G01 X79.184500 Y22.632000 Z-0.125000
G01 X76.391700 Y22.502000 Z-0.125000
G01 X73.058000 Y22.278000 Z-0.125000
G01 X69.422000 Y22.364000 Z-0.125000
G01 X66.071100 Y22.724000 Z-0.125000
G01 X63.592800 Y23.320000 Z-0.125000
G01 X62.157600 Y24.124000 Z-0.125000
G01 X61.193300 Y25.174000 Z-0.125000
G01 X60.923800 Y25.733000 Z-0.125000
G01 X60.815300 Y26.284000 Z-0.125000
G01 X60.882200 Y26.803000 Z-0.125000
G01 X61.139000 Y27.268000 Z-0.125000
G01 X61.496100 Y28.245000 Z-0.125000
G01 X61.428400 Y29.478000 Z-0.125000
G01 X61.318900 Y30.268000 Z-0.125000
G01 X61.372500 Y31.112000 Z-0.125000
G01 X61.901300 Y32.818000 Z-0.125000
G01 X62.879600 Y34.307000 Z-0.125000
G01 X63.495100 Y34.881000 Z-0.125000
G01 X64.172300 Y35.294000 Z-0.125000
G01 X65.858000 Y35.853000 Z-0.125000
G01 X67.625600 Y35.944000 Z-0.125000
G01 X69.722400 Y35.547000 Z-0.125000
G01 X72.395900 Y34.642000 Z-0.125000
G01 X74.489500 Y33.881000 Z-0.125000
G01 X75.854500 Y33.603000 Z-0.125000
G01 X77.028900 Y33.789000 Z-0.125000
G01 X78.550600 Y34.419000 Z-0.125000
G01 X79.821500 Y35.066000 Z-0.125000
G01 X80.603800 Y35.686000 Z-0.125000
G01 X80.998800 Y36.394000 Z-0.125000
G01 X81.108000 Y37.304000 Z-0.125000
G01 X81.226800 Y38.874000 Z-0.125000
G01 X81.576400 Y40.420000 Z-0.125000
G01 X82.146400 Y41.925000 Z-0.125000
G01 X82.926700 Y43.374000 Z-0.125000
G01 X83.906900 Y44.750000 Z-0.125000
G01 X85.076800 Y46.036000 Z-0.125000
G01 X86.426100 Y47.215000 Z-0.125000
G01 X87.944500 Y48.272000 Z-0.125000
G01 X88.876900 Y48.928000 Z-0.125000
G01 X89.443700 Y49.537000 Z-0.125000
G01 X89.680900 Y50.153000 Z-0.125000
G01 X89.624800 Y50.832000 Z-0.125000
G01 X89.539200 Y51.446000 Z-0.125000
G01 X89.652700 Y51.910000 Z-0.125000
G01 X89.975700 Y52.243000 Z-0.125000
G01 X90.518500 Y52.464200 Z-0.125000
G01 X91.162600 Y52.763500 Z-0.125000
G01 X91.501800 Y53.406800 Z-0.125000
G01 X91.595500 Y54.652400 Z-0.125000
G01 X91.502800 Y56.758800 Z-0.125000
G01 X91.473000 Y58.660400 Z-0.125000
G01 X91.600200 Y60.697200 Z-0.125000
G01 X91.869800 Y62.720400 Z-0.125000
G01 X92.267300 Y64.581400 Z-0.125000
G01 X92.822500 Y66.863100 Z-0.125000
G01 X92.930700 Y68.455400 Z-0.125000
G01 X92.524800 Y70.080800 Z-0.125000
G01 X91.538100 Y72.462100 Z-0.125000
G01 X90.551000 Y74.624600 Z-0.125000
G01 X89.813600 Y75.794700 Z-0.125000
G01 X89.098500 Y76.222400 Z-0.125000
G01 X88.178300 Y76.158000 Z-0.125000
G01 X83.898000 Y75.744200 Z-0.125000
G01 X75.948500 Y75.206900 Z-0.125000
G01 X67.492300 Y74.739800 Z-0.125000
G01 X61.691800 Y74.536400 Z-0.125000
G01 X59.945400 Y74.496600 Z-0.125000
G01 X59.038400 Y74.260400 Z-0.125000
G01 X58.813800 Y74.009800 Z-0.125000
G01 X58.695900 Y73.639200 Z-0.125000
G01 X58.642800 Y72.444200 Z-0.125000
G01 X58.261400 Y68.633800 Z-0.125000
G01 X57.344600 Y62.402000 Z-0.125000
G01 X56.046400 Y54.445800 Z-0.125000
G01 X58.628400 Y50.483000 Z-0.125000
G01 X60.396400 Y47.332000 Z-0.125000
G01 X60.907100 Y45.995000 Z-0.125000
G01 X61.169700 Y44.812000 Z-0.125000
G01 X61.184900 Y43.776000 Z-0.125000
G01 X60.953300 Y42.884000 Z-0.125000
G01 X60.475400 Y42.131000 Z-0.125000
G01 X59.751800 Y41.511000 Z-0.125000
G01 X59.051300 Y41.140000 Z-0.125000
G01 X58.336800 Y40.929000 Z-0.125000
G01 X57.621400 Y40.874000 Z-0.125000
G01 X56.918100 Y40.971000 Z-0.125000
G01 X55.599900 Y41.612000 Z-0.125000
G01 X54.486000 Y42.825000 Z-0.125000
G01 X53.627800 Y43.911000 Z-0.125000
G01 X52.979400 Y44.363000 Z-0.125000
G01 X52.677500 Y44.141000 Z-0.125000
G01 X52.224800 Y43.535000 Z-0.125000
G01 X51.111500 Y41.546000 Z-0.125000
G01 X49.591400 Y38.927000 Z-0.125000
G01 X47.721200 Y36.475000 Z-0.125000
G01 X45.722400 Y34.446000 Z-0.125000
G01 X43.816800 Y33.098000 Z-0.125000
G01 X42.668400 Y32.695000 Z-0.125000
G01 X41.007900 Y32.404000 Z-0.125000
G01 X36.242100 Y32.168000 Z-0.125000
G01 X30.465800 Y32.168000 Z-0.125000
G01 X29.699800 Y28.274000 Z-0.125000
G01 X28.838100 Y25.128000 Z-0.125000
G01 X28.326400 Y23.863000 Z-0.125000
G01 X27.842000 Y23.032000 Z-0.125000
G01 X27.189600 Y22.420000 Z-0.125000
G01 X26.401200 Y21.988000 Z-0.125000
G01 X25.521400 Y21.735000 Z-0.125000
G01 X24.594800 Y21.662000 Z-0.125000
G01 X23.666300 Y21.768000 Z-0.125000
G01 X22.780400 Y22.051000 Z-0.125000
G01 X21.981800 Y22.510000 Z-0.125000
G01 X21.315200 Y23.146000 Z-0.125000
G01 X20.465300 Y24.534000 Z-0.125000
G01 X20.269000 Y25.297000 Z-0.125000
G01 X20.228400 Y26.186000 Z-0.125000
G01 X20.623500 Y28.592000 Z-0.125000
G01 X21.669800 Y32.243000 Z-0.125000
G01 X23.188800 Y37.132000 Z-0.125000
G01 X21.460200 Y39.945000 Z-0.125000
G01 X20.294300 Y41.995000 Z-0.125000
G01 X19.214200 Y44.213000 Z-0.125000
G01 X17.300000 Y49.187000 Z-0.125000
G01 X15.695800 Y54.935500 Z-0.125000
G01 X14.379200 Y61.524800 Z-0.125000
G01 X13.925000 Y64.010300 Z-0.125000
G01 X13.534800 Y65.326500 Z-0.125000
G01 X13.322100 Y65.631000 Z-0.125000
G01 X13.075600 Y65.744900 Z-0.125000
G01 X12.414700 Y65.536500 Z-0.125000
G01 X11.589500 Y65.196900 Z-0.125000
G01 X10.658200 Y64.985900 Z-0.125000
G01 X8.657860 Y64.932800 Z-0.125000
G01 X6.774410 Y65.344000 Z-0.125000
G01 X5.989310 Y65.713200 Z-0.125000
G01 X5.368760 Y66.186100 Z-0.125000
G01 X4.846750 Y66.842700 Z-0.125000
G01 X4.465770 Y67.604100 Z-0.125000
G01 X4.130930 Y69.296100 Z-0.125000
G01 X4.179080 Y70.154200 Z-0.125000
G01 X4.372290 Y70.972000 Z-0.125000
G01 X4.711550 Y71.713400 Z-0.125000
G01 X5.197890 Y72.342100 Z-0.125000
G01 X6.976750 Y73.582600 Z-0.125000
G01 X9.690890 Y75.002400 Z-0.125000
G01 X13.071100 Y76.549900 Z-0.125000
G01 X13.071100 Y80.700200 Z-0.125000
G01 X13.264000 Y85.701700 Z-0.125000
G01 X13.806700 Y91.619900 Z-0.125000
G01 X14.644800 Y97.972000 Z-0.125000
G01 X15.723900 Y104.275300 Z-0.125000
G01 X17.067900 Y111.234500 Z-0.125000
G01 X14.157900 Y115.507800 Z-0.125000
G01 X11.713100 Y119.241200 Z-0.125000
G01 X10.399300 Y121.732900 Z-0.125000
G01 X10.106100 Y122.664300 Z-0.125000
G01 X10.023100 Y123.466500 Z-0.125000
G01 X10.126200 Y124.200100 Z-0.125000
G01 X10.391100 Y124.925500 Z-0.125000
G01 X11.370800 Y126.275200 Z-0.125000
G01 X12.693300 Y127.253500 Z-0.125000
G01 X13.634800 Y127.591600 Z-0.125000
G01 X14.534200 Y127.726600 Z-0.125000
G01 X15.395400 Y127.656500 Z-0.125000
G01 X16.222300 Y127.379500 Z-0.125000
G01 X17.019000 Y126.893800 Z-0.125000
G01 X17.789200 Y126.197500 Z-0.125000
G01 X19.266300 Y124.165600 Z-0.125000
G01 X21.015100 Y121.181500 Z-0.125000
G01 X22.017500 Y122.722100 Z-0.125000
G01 X23.698300 Y124.989000 Z-0.125000
G01 X25.637900 Y127.105500 Z-0.125000
G01 X27.604900 Y128.843400 Z-0.125000
G01 X29.368300 Y129.974600 Z-0.125000
G01 X30.455700 Y130.312200 Z-0.125000
G01 X32.110000 Y130.611100 Z-0.125000
G01 X36.398000 Y131.045400 Z-0.125000
G01 X40.789900 Y131.182600 Z-0.125000
G01 X42.574100 Y131.110000 Z-0.125000
G01 X43.843300 Y130.927600 Z-0.125000
G01 X44.297600 Y130.993300 Z-0.125000
G01 X44.668800 Y131.478400 Z-0.125000
G01 X44.980100 Y132.431700 Z-0.125000
G01 X45.254800 Y133.902100 Z-0.125000
G01 X45.658000 Y135.644000 Z-0.125000
G01 X46.279700 Y137.120600 Z-0.125000
G01 X47.085000 Y138.307600 Z-0.125000
G01 X48.039300 Y139.180900 Z-0.125000
G01 X49.107700 Y139.716200 Z-0.125000
G01 X50.255500 Y139.889200 Z-0.125000
G01 X51.447900 Y139.675900 Z-0.125000
G01 X52.650100 Y139.051900 Z-0.125000
G01 X53.370600 Y138.444900 Z-0.125000
G01 X53.893500 Y137.738800 Z-0.125000
G01 X54.220500 Y136.883100 Z-0.125000
G01 X54.353000 Y135.827400 Z-0.125000
G01 X54.292600 Y134.521300 Z-0.125000
G01 X54.040900 Y132.914500 Z-0.125000
G01 X52.969400 Y128.596700 Z-0.125000
G01 X51.954700 Y124.871300 Z-0.125000
G01 X51.548100 Y122.703700 Z-0.125000
G01 X51.691500 Y121.307700 Z-0.125000
G01 X52.326800 Y119.897000 Z-0.125000
G01 X53.672500 Y116.756200 Z-0.125000
G01 X55.099800 Y112.644200 Z-0.125000
G01 X56.325600 Y108.447100 Z-0.125000
G01 X57.067000 Y105.051300 Z-0.125000
G01 X57.335800 Y103.558500 Z-0.125000
G01 X57.629800 Y102.720200 Z-0.125000
G01 X58.015900 Y102.424900 Z-0.125000
G01 X58.561200 Y102.561000 Z-0.125000
G01 X60.275100 Y102.923200 Z-0.125000
G01 X62.928900 Y103.080800 Z-0.125000
G01 X64.529300 Y103.012200 Z-0.125000
G01 X65.913100 Y102.770500 Z-0.125000
G01 X67.124100 Y102.320300 Z-0.125000
G01 X68.206300 Y101.626500 Z-0.125000
G01 X69.203600 Y100.654000 Z-0.125000
G01 X70.160000 Y99.367400 Z-0.125000
G01 X72.125500 Y95.711500 Z-0.125000
G01 X72.714000 Y95.161000 Z-0.125000
G01 X73.943200 Y94.415600 Z-0.125000
G01 X77.489800 Y92.703400 Z-0.125000
G01 X81.096700 Y91.301500 Z-0.125000
G01 X82.401500 Y90.943800 Z-0.125000
G01 X83.095700 Y90.936000 Z-0.125000
G01 X83.623700 Y91.454200 Z-0.125000
G01 X83.629100 Y91.704600 Z-0.125000
G01 X83.458000 Y91.953300 Z-0.125000
G01 X82.574200 Y92.456700 Z-0.125000
G01 X80.947500 Y92.988000 Z-0.125000
G01 X79.021700 Y93.644400 Z-0.125000
G01 X77.236900 Y94.497300 Z-0.125000
G01 X75.628700 Y95.513200 Z-0.125000
G01 X74.232800 Y96.658700 Z-0.125000
G01 X73.084700 Y97.900600 Z-0.125000
G01 X72.219900 Y99.205300 Z-0.125000
G01 X71.674000 Y100.539700 Z-0.125000
G01 X71.482500 Y101.870200 Z-0.125000
G01 X71.129900 Y103.137500 Z-0.125000
G01 X70.285300 Y104.296200 Z-0.125000
G01 X69.106700 Y105.802100 Z-0.125000
G01 X67.951000 Y107.904500 Z-0.125000
G01 X67.349600 Y109.336700 Z-0.125000
G01 X67.140500 Y110.297000 Z-0.125000
G01 X67.318100 Y111.099300 Z-0.125000
G01 X67.876900 Y112.057500 Z-0.125000
G01 X68.681100 Y112.951000 Z-0.125000
G01 X69.615200 Y113.442300 Z-0.125000
G01 X70.627100 Y113.552800 Z-0.125000
G01 X71.664600 Y113.303600 Z-0.125000
G01 X72.675600 Y112.716200 Z-0.125000
G01 X73.607700 Y111.811900 Z-0.125000
G01 X74.409000 Y110.611900 Z-0.125000
G01 X75.027100 Y109.137600 Z-0.125000
G01 X75.315600 Y108.585600 Z-0.125000
G01 X75.786300 Y108.202500 Z-0.125000
G01 X76.456200 Y107.979200 Z-0.125000
G01 X77.342300 Y107.906800 Z-0.125000
G01 X79.036400 Y107.727600 Z-0.125000
G01 X80.407100 Y107.296600 Z-0.125000
G01 X81.060900 Y107.107400 Z-0.125000
G01 X81.712400 Y107.351300 Z-0.125000
G01 X82.494800 Y108.122500 Z-0.125000
G01 X83.541300 Y109.515300 Z-0.125000
G01 X85.682000 Y112.043800 Z-0.125000
G01 X88.028600 Y114.150300 Z-0.125000
G01 X90.521800 Y115.956400 Z-0.125000
G01 X88.703300 Y117.748700 Z-0.125000
G01 X87.747200 Y118.963900 Z-0.125000
G01 X87.163400 Y120.290100 Z-0.125000
G01 X86.934000 Y121.643600 Z-0.125000
G01 X87.040600 Y122.940500 Z-0.125000
G01 X87.465200 Y124.097100 Z-0.125000
G01 X88.189700 Y125.029500 Z-0.125000
G01 X89.195800 Y125.654000 Z-0.125000
G01 X90.465500 Y125.886800 Z-0.125000
G01 X91.058400 Y126.058200 Z-0.125000
G01 X91.748700 Y126.522000 Z-0.125000
G01 X92.457000 Y127.212800 Z-0.125000
G01 X93.104300 Y128.065500 Z-0.125000
G01 X93.954400 Y129.145400 Z-0.125000
G01 X94.990400 Y130.076900 Z-0.125000
G01 X96.173200 Y130.845500 Z-0.125000
G01 X97.463800 Y131.436600 Z-0.125000
G01 X98.823200 Y131.835500 Z-0.125000
G01 X100.212000 Y132.027800 Z-0.125000
G01 X101.592000 Y131.998700 Z-0.125000
G01 X102.923000 Y131.733700 Z-0.125000
G01 X105.245000 Y130.743200 Z-0.125000
G01 X107.293000 Y129.420800 Z-0.125000
G01 X109.146000 Y127.862100 Z-0.125000
G01 X111.542000 Y130.316000 Z-0.125000
G01 X112.873000 Y131.747100 Z-0.125000
G01 X113.509000 Y132.778000 Z-0.125000
G01 X113.591000 Y133.819300 Z-0.125000
G01 X113.261000 Y135.281800 Z-0.125000
G01 X112.971000 Y136.723900 Z-0.125000
G01 X112.886000 Y138.084100 Z-0.125000
G01 X112.994000 Y139.352800 Z-0.125000
G01 X113.279000 Y140.520800 Z-0.125000
G01 X113.728000 Y141.578800 Z-0.125000
G01 X114.327000 Y142.517290 Z-0.125000
G01 X115.061000 Y143.327000 Z-0.125000
G01 X115.915000 Y143.998560 Z-0.125000
G01 X116.877000 Y144.522630 Z-0.125000
G01 X117.931000 Y144.889850 Z-0.125000
G01 X119.063000 Y145.090860 Z-0.125000
G01 X120.260000 Y145.116320 Z-0.125000
G01 X121.506000 Y144.956870 Z-0.125000
G01 X122.789000 Y144.603150 Z-0.125000
G01 X124.092000 Y144.045820 Z-0.125000
G01 X125.404000 Y143.275520 Z-0.125000
G01 X127.566000 Y141.462500 Z-0.125000
G01 X129.406000 Y139.263100 Z-0.125000
G01 X130.687000 Y137.016900 Z-0.125000
G01 X131.043000 Y135.982300 Z-0.125000
G01 X131.170000 Y135.063200 Z-0.125000
G01 X131.380000 Y133.941600 Z-0.125000
G01 X131.880000 Y133.219700 Z-0.125000
G01 X132.635000 Y132.299600 Z-0.125000
G01 X133.457000 Y130.701400 Z-0.125000
G01 X133.786000 Y129.647700 Z-0.125000
G01 X133.927000 Y128.535600 Z-0.125000
G01 X133.886000 Y127.388000 Z-0.125000
G01 X133.669000 Y126.227700 Z-0.125000
G01 X133.282000 Y125.077600 Z-0.125000
G01 X132.732000 Y123.960700 Z-0.125000
G01 X132.023000 Y122.899800 Z-0.125000
G01 X131.162000 Y121.917800 Z-0.125000
G01 X130.119000 Y121.001800 Z-0.125000
G01 X129.093000 Y120.447900 Z-0.125000
G01 X127.861000 Y120.175000 Z-0.125000
G01 X126.201000 Y120.102100 Z-0.125000
G01 X124.321000 Y120.020700 Z-0.125000
G01 X123.602000 Y119.833500 Z-0.125000
G01 X122.916000 Y119.472900 Z-0.125000
G01 X121.307000 Y118.003900 Z-0.125000
G01 X118.813000 Y115.158500 Z-0.125000
G01 X115.931000 Y111.480400 Z-0.125000
G01 X115.144000 Y110.216200 Z-0.125000
G01 X114.962000 Y109.579500 Z-0.125000
G01 X115.169000 Y109.426900 Z-0.125000
G01 X115.441000 Y109.485900 Z-0.125000
G01 X116.043000 Y110.165700 Z-0.125000
G01 X117.037000 Y111.646900 Z-0.125000
G01 X118.231000 Y112.948800 Z-0.125000
G01 X119.591000 Y114.053400 Z-0.125000
G01 X121.078000 Y114.942500 Z-0.125000
G01 X122.659000 Y115.598000 Z-0.125000
G01 X124.296000 Y116.001800 Z-0.125000
G01 X125.953000 Y116.135600 Z-0.125000
G01 X127.595000 Y115.981400 Z-0.125000
G01 X128.773000 Y115.646400 Z-0.125000
G01 X129.952000 Y115.099800 Z-0.125000
G01 X131.098000 Y114.372900 Z-0.125000
G01 X132.175000 Y113.497200 Z-0.125000
G01 X133.150000 Y112.503800 Z-0.125000
G01 X133.989000 Y111.424100 Z-0.125000
G01 X134.656000 Y110.289400 Z-0.125000
G01 X135.118000 Y109.131000 Z-0.125000
G01 X135.429000 Y107.404600 Z-0.125000
G01 X135.382000 Y105.610500 Z-0.125000
G01 X135.007000 Y103.812900 Z-0.125000
G01 X134.335000 Y102.075900 Z-0.125000
G01 X133.396000 Y100.463400 Z-0.125000
G01 X132.223000 Y99.039600 Z-0.125000
G01 X130.845000 Y97.868500 Z-0.125000
G01 X129.293000 Y97.014300 Z-0.125000
G01 X127.340000 Y96.591600 Z-0.125000
G01 X124.757000 Y96.498000 Z-0.125000
G01 X122.165000 Y96.718400 Z-0.125000
G01 X120.189000 Y97.237400 Z-0.125000
G01 X119.661000 Y97.360900 Z-0.125000
G01 X119.282000 Y97.121500 Z-0.125000
G01 X118.998000 Y96.447000 Z-0.125000
G01 X118.758000 Y95.265200 Z-0.125000
G01 X118.478000 Y94.074200 Z-0.125000
G01 X118.024000 Y92.852300 Z-0.125000
G01 X116.661000 Y90.406400 Z-0.125000
G01 X114.793000 Y88.110200 Z-0.125000
G01 X112.543000 Y86.146100 Z-0.125000
G01 X110.041000 Y84.333100 Z-0.125000
G01 X115.033000 Y79.592100 Z-0.125000
G01 X119.413000 Y75.750700 Z-0.125000
G01 X122.933000 Y73.172400 Z-0.125000
G01 X124.167000 Y72.349400 Z-0.125000
G01 X125.252000 Y71.398800 Z-0.125000
G01 X126.187000 Y70.332200 Z-0.125000
G01 X126.971000 Y69.160900 Z-0.125000
G01 X127.605000 Y67.896200 Z-0.125000
G01 X128.086000 Y66.549600 Z-0.125000
G01 X128.414000 Y65.132400 Z-0.125000
G01 X128.589000 Y63.655900 Z-0.125000
G01 X128.609000 Y62.131600 Z-0.125000
G01 X128.475000 Y60.570800 Z-0.125000
G01 X128.184000 Y58.985000 Z-0.125000
G01 X127.738000 Y57.385400 Z-0.125000
G01 X127.134000 Y55.783500 Z-0.125000
G01 X126.372000 Y54.190600 Z-0.125000
G01 X125.451000 Y52.618100 Z-0.125000
G01 X124.371000 Y51.077000 Z-0.125000
G01 X122.644000 Y48.814000 Z-0.125000
G01 X123.945000 Y47.391000 Z-0.125000
G01 X125.349000 Y45.550000 Z-0.125000
G01 X126.529000 Y43.203000 Z-0.125000
G01 X127.641000 Y39.966000 Z-0.125000
G01 X128.846000 Y35.455000 Z-0.125000
G01 X129.867000 Y31.771000 Z-0.125000
G01 X130.982000 Y28.659000 Z-0.125000
G01 X132.209000 Y26.096000 Z-0.125000
G01 X133.569000 Y24.055000 Z-0.125000
G01 X135.083000 Y22.512000 Z-0.125000
G01 X136.770000 Y21.441000 Z-0.125000
G01 X138.650000 Y20.817000 Z-0.125000
G01 X140.745000 Y20.614000 Z-0.125000
G01 X142.101000 Y20.697000 Z-0.125000
G01 X143.204000 Y20.972000 Z-0.125000
G01 X144.160000 Y21.482000 Z-0.125000
G01 X145.079000 Y22.267000 Z-0.125000
G01 X145.935000 Y23.238000 Z-0.125000
G01 X146.393000 Y24.178000 Z-0.125000
G01 X146.532000 Y25.361000 Z-0.125000
G01 X146.429000 Y27.065000 Z-0.125000
G01 X146.183000 Y28.559000 Z-0.125000
G01 X145.742000 Y30.071000 Z-0.125000
G01 X145.135000 Y31.523000 Z-0.125000
G01 X144.390000 Y32.836000 Z-0.125000
G01 X143.200000 Y34.859000 Z-0.125000
G01 X143.207000 Y35.007000 Z-0.125000
G01 X143.329000 Y35.036000 Z-0.125000
G01 X143.910000 Y34.788000 Z-0.125000
G01 X144.598000 Y34.257000 Z-0.125000
G01 X145.289000 Y33.429000 Z-0.125000
G01 X146.562000 Y31.147000 Z-0.125000
G01 X147.498000 Y28.469000 Z-0.125000
G01 X147.765000 Y27.144000 Z-0.125000
G01 X147.861000 Y25.917000 Z-0.125000
G01 X147.774000 Y24.547000 Z-0.125000
G01 X147.470000 Y23.434000 Z-0.125000
G01 X146.889000 Y22.429000 Z-0.125000
G01 X145.967000 Y21.386000 Z-0.125000
G01 X144.619000 Y20.274000 Z-0.125000
G01 X143.168000 Y19.517000 Z-0.125000
G01 X141.639000 Y19.113000 Z-0.125000
G01 X140.053000 Y19.061000 Z-0.125000
G01 X138.434000 Y19.358000 Z-0.125000
G01 X136.804000 Y20.003000 Z-0.125000
G01 X135.186000 Y20.995000 Z-0.125000
G01 X133.604000 Y22.330000 Z-0.125000
G01 X131.492000 Y24.615000 Z-0.125000
G01 X130.681000 Y25.778000 Z-0.125000
G01 X129.971000 Y27.082000 Z-0.125000
G01 X128.672000 Y30.495000 Z-0.125000
G01 X127.230000 Y35.620000 Z-0.125000
G01 X125.535000 Y41.169000 Z-0.125000
G01 X124.715000 Y43.310000 Z-0.125000
G01 X124.051000 Y44.632000 Z-0.125000
G01 X123.008000 Y46.003000 Z-0.125000
G01 X122.923000 Y45.822000 Z-0.125000
G01 X123.052000 Y45.099000 Z-0.125000
G01 X123.128000 Y44.289000 Z-0.125000
G01 X122.869000 Y43.675000 Z-0.125000
G01 X122.172000 Y43.134000 Z-0.125000
G01 X120.934000 Y42.542000 Z-0.125000
G01 X119.530000 Y41.869000 Z-0.125000
G01 X119.078000 Y41.517000 Z-0.125000
G01 X118.751000 Y41.079000 Z-0.125000
G01 X118.344000 Y39.714000 Z-0.125000
G01 X118.055000 Y37.313000 Z-0.125000
G01 X117.760000 Y35.093000 Z-0.125000
G01 X117.331000 Y33.511000 Z-0.125000
G01 X116.647000 Y32.258000 Z-0.125000
G01 X115.585000 Y31.019000 Z-0.125000
G01 X114.765000 Y30.047000 Z-0.125000
G01 X114.099000 Y29.014000 Z-0.125000
G01 X113.643000 Y28.020000 Z-0.125000
G01 X113.454000 Y27.168000 Z-0.125000
G01 X113.464000 Y26.177000 Z-0.125000
G01 X113.584000 Y25.877000 Z-0.125000
G01 X113.831000 Y25.684000 Z-0.125000
G01 X114.857000 Y25.554000 Z-0.125000
G01 X116.846000 Y25.650000 Z-0.125000
G01 X119.763000 Y25.691000 Z-0.125000
G01 X121.887000 Y25.480000 Z-0.125000
