;Generated with Makelangelo 7.52.1
;FLAVOR:Marlin-polargraph
;MINX:-102.600
;MINY:-132.525
;MAXX:102.600
;MAXY:132.525
; 2024-06-15 at 13:33:23 CDT
;Start of user gcode

;End of user gcode
G28 X Y
M280 P0 S90 T250
M0 Ready black and click
G0 X65.250 Y-131.849 F3000.0
M280 P0 S25 T150
G1 X61.100 Y-131.849 F3000.0
G1 X56.950 Y-131.849 F3000.0
G1 X52.800 Y-131.849 F3000.0
G1 X48.650 Y-131.849 F3000.0
G1 X44.500 Y-131.849 F3000.0
G1 X40.350 Y-131.849 F3000.0
G1 X36.200 Y-131.849 F3000.0
G1 X32.050 Y-131.849 F3000.0
G1 X27.900 Y-131.849 F3000.0
G1 X23.750 Y-131.849 F3000.0
G1 X19.600 Y-131.849 F3000.0
G1 X15.450 Y-131.849 F3000.0
G1 X11.300 Y-131.849 F3000.0
G1 X7.150 Y-131.849 F3000.0
G1 X3.000 Y-131.849 F3000.0
G1 X-1.150 Y-131.849 F3000.0
G1 X-5.300 Y-131.849 F3000.0
G1 X-9.450 Y-131.849 F3000.0
G1 X-13.600 Y-131.849 F3000.0
G1 X-17.750 Y-131.849 F3000.0
G1 X-21.900 Y-131.849 F3000.0
G1 X-26.050 Y-131.849 F3000.0
M280 P0 S90 T250
G0 X-50.950 Y-131.849 F3000.0
M280 P0 S25 T150
G1 X-55.100 Y-131.849 F3000.0
G1 X-59.250 Y-131.849 F3000.0
G1 X-63.400 Y-131.849 F3000.0
M280 P0 S90 T250
G0 X-84.150 Y-131.849 F3000.0
M280 P0 S25 T150
G1 X-88.300 Y-131.849 F3000.0
M280 P0 S90 T250
G0 X-92.450 Y-131.849 F3000.0
M280 P0 S25 T150
G1 X-96.600 Y-131.849 F3000.0
G1 X-100.750 Y-131.849 F3000.0
M280 P0 S90 T250
G0 X-102.600 Y-127.699 F3000.0
M280 P0 S25 T150
G1 X-102.600 Y-127.699 F3000.0
G1 X-98.450 Y-127.699 F3000.0
G1 X-94.300 Y-127.699 F3000.0
G1 X-90.150 Y-127.699 F3000.0
M280 P0 S90 T250
G0 X-73.550 Y-127.699 F3000.0
M280 P0 S25 T150
G1 X-69.400 Y-127.699 F3000.0
G1 X-65.250 Y-127.699 F3000.0
G1 X-61.100 Y-127.699 F3000.0
G1 X-56.950 Y-127.699 F3000.0
M280 P0 S90 T250
G0 X-23.750 Y-127.699 F3000.0
M280 P0 S25 T150
G1 X-19.600 Y-127.699 F3000.0
G1 X-15.450 Y-127.699 F3000.0
G1 X-11.300 Y-127.699 F3000.0
G1 X-7.150 Y-127.699 F3000.0
G1 X-3.000 Y-127.699 F3000.0
G1 X1.150 Y-127.699 F3000.0
G1 X5.300 Y-127.699 F3000.0
G1 X9.450 Y-127.699 F3000.0
G1 X13.600 Y-127.699 F3000.0
G1 X17.750 Y-127.699 F3000.0
G1 X21.900 Y-127.699 F3000.0
G1 X26.050 Y-127.699 F3000.0
G1 X30.200 Y-127.699 F3000.0
G1 X34.350 Y-127.699 F3000.0
G1 X38.500 Y-127.699 F3000.0
G1 X42.650 Y-127.699 F3000.0
G1 X46.800 Y-127.699 F3000.0
G1 X50.950 Y-127.699 F3000.0
G1 X55.100 Y-127.699 F3000.0
G1 X59.250 Y-127.699 F3000.0
G1 X63.400 Y-127.699 F3000.0
M280 P0 S90 T250
G0 X69.400 Y-123.549 F3000.0
M280 P0 S25 T150
G1 X65.250 Y-123.549 F3000.0
G1 X61.100 Y-123.549 F3000.0
G1 X56.950 Y-123.549 F3000.0
G1 X52.800 Y-123.549 F3000.0
G1 X48.650 Y-123.549 F3000.0
G1 X44.500 Y-123.549 F3000.0
G1 X40.350 Y-123.549 F3000.0
G1 X36.200 Y-123.549 F3000.0
G1 X32.050 Y-123.549 F3000.0
G1 X27.900 Y-123.549 F3000.0
G1 X23.750 Y-123.549 F3000.0
G1 X19.600 Y-123.549 F3000.0
G1 X15.450 Y-123.549 F3000.0
G1 X11.300 Y-123.549 F3000.0
G1 X7.150 Y-123.549 F3000.0
G1 X3.000 Y-123.549 F3000.0
G1 X-1.150 Y-123.549 F3000.0
G1 X-5.300 Y-123.549 F3000.0
G1 X-9.450 Y-123.549 F3000.0
G1 X-13.600 Y-123.549 F3000.0
M280 P0 S90 T250
G0 X-50.950 Y-123.549 F3000.0
M280 P0 S25 T150
G1 X-55.100 Y-123.549 F3000.0
G1 X-59.250 Y-123.549 F3000.0
G1 X-63.400 Y-123.549 F3000.0
M280 P0 S90 T250
G0 X-80.000 Y-123.549 F3000.0
M280 P0 S25 T150
G1 X-84.150 Y-123.549 F3000.0
G1 X-88.300 Y-123.549 F3000.0
G1 X-92.450 Y-123.549 F3000.0
G1 X-96.600 Y-123.549 F3000.0
G1 X-100.750 Y-123.549 F3000.0
M280 P0 S90 T250
G0 X-102.600 Y-119.399 F3000.0
M280 P0 S25 T150
G1 X-102.600 Y-119.399 F3000.0
G1 X-98.450 Y-119.399 F3000.0
G1 X-94.300 Y-119.399 F3000.0
G1 X-90.150 Y-119.399 F3000.0
M280 P0 S90 T250
G0 X-65.250 Y-119.399 F3000.0
M280 P0 S25 T150
G1 X-61.100 Y-119.399 F3000.0
G1 X-56.950 Y-119.399 F3000.0
G1 X-52.800 Y-119.399 F3000.0
M280 P0 S90 T250
G0 X-32.050 Y-119.399 F3000.0
M280 P0 S25 T150
G1 X-27.900 Y-119.399 F3000.0
M280 P0 S90 T250
G0 X-15.450 Y-119.399 F3000.0
M280 P0 S25 T150
G1 X-11.300 Y-119.399 F3000.0
G1 X-7.150 Y-119.399 F3000.0
G1 X-3.000 Y-119.399 F3000.0
G1 X1.150 Y-119.399 F3000.0
G1 X5.300 Y-119.399 F3000.0
G1 X9.450 Y-119.399 F3000.0
G1 X13.600 Y-119.399 F3000.0
G1 X17.750 Y-119.399 F3000.0
G1 X21.900 Y-119.399 F3000.0
G1 X26.050 Y-119.399 F3000.0
G1 X30.200 Y-119.399 F3000.0
G1 X34.350 Y-119.399 F3000.0
G1 X38.500 Y-119.399 F3000.0
G1 X42.650 Y-119.399 F3000.0
G1 X46.800 Y-119.399 F3000.0
G1 X50.950 Y-119.399 F3000.0
G1 X55.100 Y-119.399 F3000.0
G1 X59.250 Y-119.399 F3000.0
G1 X63.400 Y-119.399 F3000.0
G1 X67.550 Y-119.399 F3000.0
G1 X71.700 Y-119.399 F3000.0
M280 P0 S90 T250
G0 X77.700 Y-115.249 F3000.0
M280 P0 S25 T150
G1 X73.550 Y-115.249 F3000.0
G1 X69.400 Y-115.249 F3000.0
G1 X65.250 Y-115.249 F3000.0
G1 X61.100 Y-115.249 F3000.0
G1 X56.950 Y-115.249 F3000.0
G1 X52.800 Y-115.249 F3000.0
G1 X48.650 Y-115.249 F3000.0
G1 X44.500 Y-115.249 F3000.0
G1 X40.350 Y-115.249 F3000.0
G1 X36.200 Y-115.249 F3000.0
G1 X32.050 Y-115.249 F3000.0
G1 X27.900 Y-115.249 F3000.0
G1 X23.750 Y-115.249 F3000.0
G1 X19.600 Y-115.249 F3000.0
G1 X15.450 Y-115.249 F3000.0
G1 X11.300 Y-115.249 F3000.0
G1 X7.150 Y-115.249 F3000.0
G1 X3.000 Y-115.249 F3000.0
G1 X-1.150 Y-115.249 F3000.0
G1 X-5.300 Y-115.249 F3000.0
M280 P0 S90 T250
G0 X-26.050 Y-115.249 F3000.0
M280 P0 S25 T150
G1 X-30.200 Y-115.249 F3000.0
G1 X-34.350 Y-115.249 F3000.0
G1 X-38.500 Y-115.249 F3000.0
G1 X-42.650 Y-115.249 F3000.0
G1 X-46.800 Y-115.249 F3000.0
G1 X-50.950 Y-115.249 F3000.0
G1 X-55.100 Y-115.249 F3000.0
G1 X-59.250 Y-115.249 F3000.0
M280 P0 S90 T250
G0 X-84.150 Y-115.249 F3000.0
M280 P0 S25 T150
G1 X-88.300 Y-115.249 F3000.0
G1 X-92.450 Y-115.249 F3000.0
G1 X-96.600 Y-115.249 F3000.0
G1 X-100.750 Y-115.249 F3000.0
M280 P0 S90 T250
G0 X-98.450 Y-111.099 F3000.0
M280 P0 S25 T150
G1 X-94.300 Y-111.099 F3000.0
G1 X-90.150 Y-111.099 F3000.0
M280 P0 S90 T250
G0 X-65.250 Y-111.099 F3000.0
M280 P0 S25 T150
G1 X-61.100 Y-111.099 F3000.0
G1 X-56.950 Y-111.099 F3000.0
G1 X-52.800 Y-111.099 F3000.0
G1 X-48.650 Y-111.099 F3000.0
G1 X-44.500 Y-111.099 F3000.0
G1 X-40.350 Y-111.099 F3000.0
G1 X-36.200 Y-111.099 F3000.0
M280 P0 S90 T250
G0 X-3.000 Y-111.099 F3000.0
M280 P0 S25 T150
G1 X1.150 Y-111.099 F3000.0
G1 X5.300 Y-111.099 F3000.0
G1 X9.450 Y-111.099 F3000.0
G1 X13.600 Y-111.099 F3000.0
G1 X17.750 Y-111.099 F3000.0
G1 X21.900 Y-111.099 F3000.0
G1 X26.050 Y-111.099 F3000.0
G1 X30.200 Y-111.099 F3000.0
G1 X34.350 Y-111.099 F3000.0
G1 X38.500 Y-111.099 F3000.0
G1 X42.650 Y-111.099 F3000.0
G1 X46.800 Y-111.099 F3000.0
G1 X50.950 Y-111.099 F3000.0
G1 X55.100 Y-111.099 F3000.0
G1 X59.250 Y-111.099 F3000.0
G1 X63.400 Y-111.099 F3000.0
G1 X67.550 Y-111.099 F3000.0
G1 X71.700 Y-111.099 F3000.0
G1 X75.850 Y-111.099 F3000.0
M280 P0 S90 T250
G0 X86.000 Y-106.949 F3000.0
M280 P0 S25 T150
G1 X81.850 Y-106.949 F3000.0
G1 X77.700 Y-106.949 F3000.0
G1 X73.550 Y-106.949 F3000.0
G1 X69.400 Y-106.949 F3000.0
G1 X65.250 Y-106.949 F3000.0
G1 X61.100 Y-106.949 F3000.0
G1 X56.950 Y-106.949 F3000.0
G1 X52.800 Y-106.949 F3000.0
G1 X48.650 Y-106.949 F3000.0
G1 X44.500 Y-106.949 F3000.0
G1 X40.350 Y-106.949 F3000.0
G1 X36.200 Y-106.949 F3000.0
G1 X32.050 Y-106.949 F3000.0
G1 X27.900 Y-106.949 F3000.0
G1 X23.750 Y-106.949 F3000.0
G1 X19.600 Y-106.949 F3000.0
G1 X15.450 Y-106.949 F3000.0
G1 X11.300 Y-106.949 F3000.0
G1 X7.150 Y-106.949 F3000.0
M280 P0 S90 T250
G0 X-38.500 Y-106.949 F3000.0
M280 P0 S25 T150
G1 X-42.650 Y-106.949 F3000.0
G1 X-46.800 Y-106.949 F3000.0
G1 X-50.950 Y-106.949 F3000.0
G1 X-55.100 Y-106.949 F3000.0
M280 P0 S90 T250
G0 X-80.000 Y-106.949 F3000.0
M280 P0 S25 T150
G1 X-84.150 Y-106.949 F3000.0
G1 X-88.300 Y-106.949 F3000.0
M280 P0 S90 T250
G0 X-94.300 Y-102.799 F3000.0
M280 P0 S25 T150
G1 X-90.150 Y-102.799 F3000.0
G1 X-86.000 Y-102.799 F3000.0
G1 X-81.850 Y-102.799 F3000.0
M280 P0 S90 T250
G0 X-61.100 Y-102.799 F3000.0
M280 P0 S25 T150
G1 X-56.950 Y-102.799 F3000.0
G1 X-52.800 Y-102.799 F3000.0
G1 X-48.650 Y-102.799 F3000.0
G1 X-44.500 Y-102.799 F3000.0
M280 P0 S90 T250
G0 X9.450 Y-102.799 F3000.0
M280 P0 S25 T150
G1 X13.600 Y-102.799 F3000.0
G1 X17.750 Y-102.799 F3000.0
G1 X21.900 Y-102.799 F3000.0
G1 X26.050 Y-102.799 F3000.0
G1 X30.200 Y-102.799 F3000.0
G1 X34.350 Y-102.799 F3000.0
G1 X38.500 Y-102.799 F3000.0
G1 X42.650 Y-102.799 F3000.0
G1 X46.800 Y-102.799 F3000.0
G1 X50.950 Y-102.799 F3000.0
G1 X55.100 Y-102.799 F3000.0
G1 X59.250 Y-102.799 F3000.0
G1 X63.400 Y-102.799 F3000.0
G1 X67.550 Y-102.799 F3000.0
G1 X71.700 Y-102.799 F3000.0
G1 X75.850 Y-102.799 F3000.0
G1 X80.000 Y-102.799 F3000.0
G1 X84.150 Y-102.799 F3000.0
M280 P0 S90 T250
G0 X94.300 Y-98.649 F3000.0
M280 P0 S25 T150
G1 X90.150 Y-98.649 F3000.0
G1 X86.000 Y-98.649 F3000.0
G1 X81.850 Y-98.649 F3000.0
G1 X77.700 Y-98.649 F3000.0
G1 X73.550 Y-98.649 F3000.0
G1 X69.400 Y-98.649 F3000.0
G1 X65.250 Y-98.649 F3000.0
G1 X61.100 Y-98.649 F3000.0
G1 X56.950 Y-98.649 F3000.0
G1 X52.800 Y-98.649 F3000.0
G1 X48.650 Y-98.649 F3000.0
G1 X44.500 Y-98.649 F3000.0
G1 X40.350 Y-98.649 F3000.0
G1 X36.200 Y-98.649 F3000.0
G1 X32.050 Y-98.649 F3000.0
G1 X27.900 Y-98.649 F3000.0
G1 X23.750 Y-98.649 F3000.0
G1 X19.600 Y-98.649 F3000.0
M280 P0 S90 T250
G0 X-46.800 Y-98.649 F3000.0
M280 P0 S25 T150
G1 X-50.950 Y-98.649 F3000.0
G1 X-55.100 Y-98.649 F3000.0
M280 P0 S90 T250
G0 X-71.700 Y-98.649 F3000.0
M280 P0 S25 T150
G1 X-75.850 Y-98.649 F3000.0
G1 X-80.000 Y-98.649 F3000.0
G1 X-84.150 Y-98.649 F3000.0
G1 X-88.300 Y-98.649 F3000.0
G1 X-92.450 Y-98.649 F3000.0
M280 P0 S90 T250
G0 X-98.450 Y-94.499 F3000.0
M280 P0 S25 T150
G1 X-94.300 Y-94.499 F3000.0
G1 X-90.150 Y-94.499 F3000.0
G1 X-86.000 Y-94.499 F3000.0
G1 X-81.850 Y-94.499 F3000.0
G1 X-77.700 Y-94.499 F3000.0
G1 X-73.550 Y-94.499 F3000.0
M280 P0 S90 T250
G0 X-65.250 Y-94.499 F3000.0
M280 P0 S25 T150
G1 X-61.100 Y-94.499 F3000.0
G1 X-56.950 Y-94.499 F3000.0
G1 X-52.800 Y-94.499 F3000.0
M280 P0 S90 T250
G0 X21.900 Y-94.499 F3000.0
M280 P0 S25 T150
G1 X26.050 Y-94.499 F3000.0
G1 X30.200 Y-94.499 F3000.0
G1 X34.350 Y-94.499 F3000.0
G1 X38.500 Y-94.499 F3000.0
G1 X42.650 Y-94.499 F3000.0
G1 X46.800 Y-94.499 F3000.0
G1 X50.950 Y-94.499 F3000.0
G1 X55.100 Y-94.499 F3000.0
G1 X59.250 Y-94.499 F3000.0
G1 X63.400 Y-94.499 F3000.0
G1 X67.550 Y-94.499 F3000.0
G1 X71.700 Y-94.499 F3000.0
G1 X75.850 Y-94.499 F3000.0
G1 X80.000 Y-94.499 F3000.0
G1 X84.150 Y-94.499 F3000.0
G1 X88.300 Y-94.499 F3000.0
G1 X92.450 Y-94.499 F3000.0
M280 P0 S90 T250
G0 X98.450 Y-90.349 F3000.0
M280 P0 S25 T150
G1 X94.300 Y-90.349 F3000.0
G1 X90.150 Y-90.349 F3000.0
G1 X86.000 Y-90.349 F3000.0
G1 X81.850 Y-90.349 F3000.0
G1 X77.700 Y-90.349 F3000.0
G1 X73.550 Y-90.349 F3000.0
G1 X69.400 Y-90.349 F3000.0
G1 X65.250 Y-90.349 F3000.0
G1 X61.100 Y-90.349 F3000.0
G1 X56.950 Y-90.349 F3000.0
G1 X52.800 Y-90.349 F3000.0
G1 X48.650 Y-90.349 F3000.0
G1 X44.500 Y-90.349 F3000.0
G1 X40.350 Y-90.349 F3000.0
G1 X36.200 Y-90.349 F3000.0
G1 X32.050 Y-90.349 F3000.0
G1 X27.900 Y-90.349 F3000.0
M280 P0 S90 T250
G0 X-50.950 Y-90.349 F3000.0
M280 P0 S25 T150
G1 X-55.100 Y-90.349 F3000.0
G1 X-59.250 Y-90.349 F3000.0
G1 X-63.400 Y-90.349 F3000.0
G1 X-67.550 Y-90.349 F3000.0
G1 X-71.700 Y-90.349 F3000.0
G1 X-75.850 Y-90.349 F3000.0
G1 X-80.000 Y-90.349 F3000.0
G1 X-84.150 Y-90.349 F3000.0
G1 X-88.300 Y-90.349 F3000.0
G1 X-92.450 Y-90.349 F3000.0
G1 X-96.600 Y-90.349 F3000.0
M280 P0 S90 T250
G0 X-102.600 Y-86.199 F3000.0
M280 P0 S25 T150
G1 X-102.600 Y-86.199 F3000.0
G1 X-98.450 Y-86.199 F3000.0
G1 X-94.300 Y-86.199 F3000.0
G1 X-90.150 Y-86.199 F3000.0
G1 X-86.000 Y-86.199 F3000.0
G1 X-81.850 Y-86.199 F3000.0
G1 X-77.700 Y-86.199 F3000.0
G1 X-73.550 Y-86.199 F3000.0
G1 X-69.400 Y-86.199 F3000.0
G1 X-65.250 Y-86.199 F3000.0
G1 X-61.100 Y-86.199 F3000.0
G1 X-56.950 Y-86.199 F3000.0
M280 P0 S90 T250
G0 X26.050 Y-86.199 F3000.0
M280 P0 S25 T150
G1 X30.200 Y-86.199 F3000.0
G1 X34.350 Y-86.199 F3000.0
G1 X38.500 Y-86.199 F3000.0
G1 X42.650 Y-86.199 F3000.0
G1 X46.800 Y-86.199 F3000.0
G1 X50.950 Y-86.199 F3000.0
G1 X55.100 Y-86.199 F3000.0
G1 X59.250 Y-86.199 F3000.0
G1 X63.400 Y-86.199 F3000.0
G1 X67.550 Y-86.199 F3000.0
G1 X71.700 Y-86.199 F3000.0
G1 X75.850 Y-86.199 F3000.0
G1 X80.000 Y-86.199 F3000.0
G1 X84.150 Y-86.199 F3000.0
G1 X88.300 Y-86.199 F3000.0
G1 X92.450 Y-86.199 F3000.0
G1 X96.600 Y-86.199 F3000.0
G1 X100.750 Y-86.199 F3000.0
M280 P0 S90 T250
G0 X102.600 Y-82.049 F3000.0
M280 P0 S25 T150
G1 X102.600 Y-82.049 F3000.0
G1 X98.450 Y-82.049 F3000.0
G1 X94.300 Y-82.049 F3000.0
G1 X90.150 Y-82.049 F3000.0
G1 X86.000 Y-82.049 F3000.0
G1 X81.850 Y-82.049 F3000.0
G1 X77.700 Y-82.049 F3000.0
G1 X73.550 Y-82.049 F3000.0
G1 X69.400 Y-82.049 F3000.0
G1 X65.250 Y-82.049 F3000.0
G1 X61.100 Y-82.049 F3000.0
G1 X56.950 Y-82.049 F3000.0
G1 X52.800 Y-82.049 F3000.0
G1 X48.650 Y-82.049 F3000.0
G1 X44.500 Y-82.049 F3000.0
G1 X40.350 Y-82.049 F3000.0
M280 P0 S90 T250
G0 X-55.100 Y-82.049 F3000.0
M280 P0 S25 T150
G1 X-59.250 Y-82.049 F3000.0
G1 X-63.400 Y-82.049 F3000.0
G1 X-67.550 Y-82.049 F3000.0
G1 X-71.700 Y-82.049 F3000.0
G1 X-75.850 Y-82.049 F3000.0
G1 X-80.000 Y-82.049 F3000.0
G1 X-84.150 Y-82.049 F3000.0
G1 X-88.300 Y-82.049 F3000.0
G1 X-92.450 Y-82.049 F3000.0
G1 X-96.600 Y-82.049 F3000.0
G1 X-100.750 Y-82.049 F3000.0
M280 P0 S90 T250
G0 X-102.600 Y-77.899 F3000.0
M280 P0 S25 T150
G1 X-102.600 Y-77.899 F3000.0
G1 X-98.450 Y-77.899 F3000.0
G1 X-94.300 Y-77.899 F3000.0
G1 X-90.150 Y-77.899 F3000.0
G1 X-86.000 Y-77.899 F3000.0
G1 X-81.850 Y-77.899 F3000.0
G1 X-77.700 Y-77.899 F3000.0
G1 X-73.550 Y-77.899 F3000.0
G1 X-69.400 Y-77.899 F3000.0
G1 X-65.250 Y-77.899 F3000.0
G1 X-61.100 Y-77.899 F3000.0
M280 P0 S90 T250
G0 X38.500 Y-77.899 F3000.0
M280 P0 S25 T150
G1 X42.650 Y-77.899 F3000.0
G1 X46.800 Y-77.899 F3000.0
G1 X50.950 Y-77.899 F3000.0
G1 X55.100 Y-77.899 F3000.0
G1 X59.250 Y-77.899 F3000.0
G1 X63.400 Y-77.899 F3000.0
G1 X67.550 Y-77.899 F3000.0
G1 X71.700 Y-77.899 F3000.0
G1 X75.850 Y-77.899 F3000.0
G1 X80.000 Y-77.899 F3000.0
G1 X84.150 Y-77.899 F3000.0
G1 X88.300 Y-77.899 F3000.0
G1 X92.450 Y-77.899 F3000.0
G1 X96.600 Y-77.899 F3000.0
G1 X100.750 Y-77.899 F3000.0
M280 P0 S90 T250
G0 X102.600 Y-73.749 F3000.0
M280 P0 S25 T150
G1 X102.600 Y-73.749 F3000.0
G1 X98.450 Y-73.749 F3000.0
G1 X94.300 Y-73.749 F3000.0
G1 X90.150 Y-73.749 F3000.0
G1 X86.000 Y-73.749 F3000.0
G1 X81.850 Y-73.749 F3000.0
G1 X77.700 Y-73.749 F3000.0
G1 X73.550 Y-73.749 F3000.0
G1 X69.400 Y-73.749 F3000.0
G1 X65.250 Y-73.749 F3000.0
G1 X61.100 Y-73.749 F3000.0
G1 X56.950 Y-73.749 F3000.0
G1 X52.800 Y-73.749 F3000.0
G1 X48.650 Y-73.749 F3000.0
M280 P0 S90 T250
G0 X-59.250 Y-73.749 F3000.0
M280 P0 S25 T150
G1 X-63.400 Y-73.749 F3000.0
G1 X-67.550 Y-73.749 F3000.0
G1 X-71.700 Y-73.749 F3000.0
G1 X-75.850 Y-73.749 F3000.0
G1 X-80.000 Y-73.749 F3000.0
G1 X-84.150 Y-73.749 F3000.0
G1 X-88.300 Y-73.749 F3000.0
G1 X-92.450 Y-73.749 F3000.0
G1 X-96.600 Y-73.749 F3000.0
G1 X-100.750 Y-73.749 F3000.0
M280 P0 S90 T250
G0 X-102.600 Y-69.599 F3000.0
M280 P0 S25 T150
G1 X-102.600 Y-69.599 F3000.0
G1 X-98.450 Y-69.599 F3000.0
G1 X-94.300 Y-69.599 F3000.0
G1 X-90.150 Y-69.599 F3000.0
G1 X-86.000 Y-69.599 F3000.0
G1 X-81.850 Y-69.599 F3000.0
G1 X-77.700 Y-69.599 F3000.0
G1 X-73.550 Y-69.599 F3000.0
G1 X-69.400 Y-69.599 F3000.0
G1 X-65.250 Y-69.599 F3000.0
M280 P0 S90 T250
G0 X46.800 Y-69.599 F3000.0
M280 P0 S25 T150
G1 X50.950 Y-69.599 F3000.0
G1 X55.100 Y-69.599 F3000.0
G1 X59.250 Y-69.599 F3000.0
G1 X63.400 Y-69.599 F3000.0
G1 X67.550 Y-69.599 F3000.0
G1 X71.700 Y-69.599 F3000.0
G1 X75.850 Y-69.599 F3000.0
G1 X80.000 Y-69.599 F3000.0
G1 X84.150 Y-69.599 F3000.0
G1 X88.300 Y-69.599 F3000.0
G1 X92.450 Y-69.599 F3000.0
G1 X96.600 Y-69.599 F3000.0
G1 X100.750 Y-69.599 F3000.0
M280 P0 S90 T250
G0 X102.600 Y-65.449 F3000.0
M280 P0 S25 T150
G1 X102.600 Y-65.449 F3000.0
G1 X98.450 Y-65.449 F3000.0
G1 X94.300 Y-65.449 F3000.0
G1 X90.150 Y-65.449 F3000.0
G1 X86.000 Y-65.449 F3000.0
G1 X81.850 Y-65.449 F3000.0
G1 X77.700 Y-65.449 F3000.0
G1 X73.550 Y-65.449 F3000.0
G1 X69.400 Y-65.449 F3000.0
G1 X65.250 Y-65.449 F3000.0
G1 X61.100 Y-65.449 F3000.0
G1 X56.950 Y-65.449 F3000.0
M280 P0 S90 T250
G0 X-63.400 Y-65.449 F3000.0
M280 P0 S25 T150
