;Generated with Makelangelo 7.52.1
;FLAVOR:Marlin-polargraph
;MINX:-102.600
;MINY:-132.525
;MAXX:102.600
;MAXY:132.525
; 2024-06-15 at 16:10:37 CDT
;Start of user gcode

;End of user gcode
G28 X Y
M280 P0 S90 T250
M0 Ready black and click
G0 X-102.600 Y-131.499 F3000.0
M280 P0 S25 T150
G1 X-102.600 Y-131.499 F3000.0
G1 X-101.550 Y-131.499 F3000.0
G1 X-100.500 Y-131.499 F3000.0
G1 X-99.450 Y-131.499 F3000.0
G1 X-98.400 Y-131.499 F3000.0
G1 X-97.350 Y-131.499 F3000.0
G1 X-96.300 Y-131.499 F3000.0
G1 X-95.250 Y-131.499 F3000.0
G1 X-94.200 Y-131.499 F3000.0
M280 P0 S90 T250
G0 X-90.000 Y-131.499 F3000.0
M280 P0 S25 T150
G1 X-88.950 Y-131.499 F3000.0
G1 X-87.900 Y-131.499 F3000.0
M280 P0 S90 T250
G0 X-71.100 Y-131.499 F3000.0
M280 P0 S25 T150
G1 X-70.050 Y-131.499 F3000.0
G1 X-69.000 Y-131.499 F3000.0
M280 P0 S90 T250
G0 X-65.850 Y-131.499 F3000.0
M280 P0 S25 T150
G1 X-64.800 Y-131.499 F3000.0
G1 X-63.750 Y-131.499 F3000.0
G1 X-62.700 Y-131.499 F3000.0
G1 X-61.650 Y-131.499 F3000.0
G1 X-60.600 Y-131.499 F3000.0
G1 X-59.550 Y-131.499 F3000.0
G1 X-58.500 Y-131.499 F3000.0
G1 X-57.450 Y-131.499 F3000.0
G1 X-56.400 Y-131.499 F3000.0
M280 P0 S90 T250
G0 X-40.650 Y-131.499 F3000.0
M280 P0 S25 T150
G1 X-39.600 Y-131.499 F3000.0
M280 P0 S90 T250
G0 X-29.100 Y-131.499 F3000.0
M280 P0 S25 T150
G1 X-28.050 Y-131.499 F3000.0
G1 X-27.000 Y-131.499 F3000.0
G1 X-25.950 Y-131.499 F3000.0
G1 X-24.900 Y-131.499 F3000.0
G1 X-23.850 Y-131.499 F3000.0
G1 X-22.800 Y-131.499 F3000.0
G1 X-21.750 Y-131.499 F3000.0
G1 X-20.700 Y-131.499 F3000.0
G1 X-19.650 Y-131.499 F3000.0
G1 X-18.600 Y-131.499 F3000.0
G1 X-17.550 Y-131.499 F3000.0
G1 X-16.500 Y-131.499 F3000.0
G1 X-15.450 Y-131.499 F3000.0
G1 X-14.400 Y-131.499 F3000.0
G1 X-13.350 Y-131.499 F3000.0
G1 X-12.300 Y-131.499 F3000.0
G1 X-11.250 Y-131.499 F3000.0
G1 X-10.200 Y-131.499 F3000.0
G1 X-9.150 Y-131.499 F3000.0
G1 X-8.100 Y-131.499 F3000.0
G1 X-7.050 Y-131.499 F3000.0
G1 X-6.000 Y-131.499 F3000.0
G1 X-4.950 Y-131.499 F3000.0
G1 X-3.900 Y-131.499 F3000.0
G1 X-2.850 Y-131.499 F3000.0
G1 X-1.800 Y-131.499 F3000.0
G1 X-0.750 Y-131.499 F3000.0
G1 X0.300 Y-131.499 F3000.0
G1 X1.350 Y-131.499 F3000.0
G1 X2.400 Y-131.499 F3000.0
G1 X3.450 Y-131.499 F3000.0
G1 X4.500 Y-131.499 F3000.0
G1 X5.550 Y-131.499 F3000.0
G1 X6.600 Y-131.499 F3000.0
G1 X7.650 Y-131.499 F3000.0
G1 X8.700 Y-131.499 F3000.0
G1 X9.750 Y-131.499 F3000.0
G1 X10.800 Y-131.499 F3000.0
G1 X11.850 Y-131.499 F3000.0
G1 X12.900 Y-131.499 F3000.0
G1 X13.950 Y-131.499 F3000.0
G1 X15.000 Y-131.499 F3000.0
G1 X16.050 Y-131.499 F3000.0
G1 X17.100 Y-131.499 F3000.0
G1 X18.150 Y-131.499 F3000.0
G1 X19.200 Y-131.499 F3000.0
G1 X20.250 Y-131.499 F3000.0
G1 X21.300 Y-131.499 F3000.0
G1 X22.350 Y-131.499 F3000.0
G1 X23.400 Y-131.499 F3000.0
G1 X24.450 Y-131.499 F3000.0
G1 X25.500 Y-131.499 F3000.0
G1 X26.550 Y-131.499 F3000.0
G1 X27.600 Y-131.499 F3000.0
G1 X28.650 Y-131.499 F3000.0
G1 X29.700 Y-131.499 F3000.0
G1 X30.750 Y-131.499 F3000.0
G1 X31.800 Y-131.499 F3000.0
G1 X32.850 Y-131.499 F3000.0
G1 X33.900 Y-131.499 F3000.0
G1 X34.950 Y-131.499 F3000.0
G1 X36.000 Y-131.499 F3000.0
G1 X37.050 Y-131.499 F3000.0
G1 X38.100 Y-131.499 F3000.0
G1 X39.150 Y-131.499 F3000.0
G1 X40.200 Y-131.499 F3000.0
G1 X41.250 Y-131.499 F3000.0
G1 X42.300 Y-131.499 F3000.0
G1 X43.350 Y-131.499 F3000.0
G1 X44.400 Y-131.499 F3000.0
G1 X45.450 Y-131.499 F3000.0
G1 X46.500 Y-131.499 F3000.0
G1 X47.550 Y-131.499 F3000.0
G1 X48.600 Y-131.499 F3000.0
G1 X49.650 Y-131.499 F3000.0
G1 X50.700 Y-131.499 F3000.0
G1 X51.750 Y-131.499 F3000.0
G1 X52.800 Y-131.499 F3000.0
G1 X53.850 Y-131.499 F3000.0
G1 X54.900 Y-131.499 F3000.0
G1 X55.950 Y-131.499 F3000.0
G1 X57.000 Y-131.499 F3000.0
G1 X58.050 Y-131.499 F3000.0
G1 X59.100 Y-131.499 F3000.0
G1 X60.150 Y-131.499 F3000.0
G1 X61.200 Y-131.499 F3000.0
G1 X62.250 Y-131.499 F3000.0
M280 P0 S90 T250
G0 X62.700 Y-130.449 F3000.0
M280 P0 S25 T150
G1 X61.650 Y-130.449 F3000.0
G1 X60.600 Y-130.449 F3000.0
G1 X59.550 Y-130.449 F3000.0
G1 X58.500 Y-130.449 F3000.0
G1 X57.450 Y-130.449 F3000.0
G1 X56.400 Y-130.449 F3000.0
G1 X55.350 Y-130.449 F3000.0
G1 X54.300 Y-130.449 F3000.0
G1 X53.250 Y-130.449 F3000.0
G1 X52.200 Y-130.449 F3000.0
G1 X51.150 Y-130.449 F3000.0
G1 X50.100 Y-130.449 F3000.0
G1 X49.050 Y-130.449 F3000.0
G1 X48.000 Y-130.449 F3000.0
G1 X46.950 Y-130.449 F3000.0
G1 X45.900 Y-130.449 F3000.0
G1 X44.850 Y-130.449 F3000.0
G1 X43.800 Y-130.449 F3000.0
G1 X42.750 Y-130.449 F3000.0
G1 X41.700 Y-130.449 F3000.0
G1 X40.650 Y-130.449 F3000.0
G1 X39.600 Y-130.449 F3000.0
G1 X38.550 Y-130.449 F3000.0
G1 X37.500 Y-130.449 F3000.0
G1 X36.450 Y-130.449 F3000.0
G1 X35.400 Y-130.449 F3000.0
G1 X34.350 Y-130.449 F3000.0
G1 X33.300 Y-130.449 F3000.0
G1 X32.250 Y-130.449 F3000.0
G1 X31.200 Y-130.449 F3000.0
G1 X30.150 Y-130.449 F3000.0
G1 X29.100 Y-130.449 F3000.0
G1 X28.050 Y-130.449 F3000.0
G1 X27.000 Y-130.449 F3000.0
G1 X25.950 Y-130.449 F3000.0
G1 X24.900 Y-130.449 F3000.0
G1 X23.850 Y-130.449 F3000.0
G1 X22.800 Y-130.449 F3000.0
G1 X21.750 Y-130.449 F3000.0
G1 X20.700 Y-130.449 F3000.0
G1 X19.650 Y-130.449 F3000.0
G1 X18.600 Y-130.449 F3000.0
G1 X17.550 Y-130.449 F3000.0
G1 X16.500 Y-130.449 F3000.0
G1 X15.450 Y-130.449 F3000.0
G1 X14.400 Y-130.449 F3000.0
G1 X13.350 Y-130.449 F3000.0
G1 X12.300 Y-130.449 F3000.0
G1 X11.250 Y-130.449 F3000.0
G1 X10.200 Y-130.449 F3000.0
G1 X9.150 Y-130.449 F3000.0
G1 X8.100 Y-130.449 F3000.0
G1 X7.050 Y-130.449 F3000.0
G1 X6.000 Y-130.449 F3000.0
G1 X4.950 Y-130.449 F3000.0
G1 X3.900 Y-130.449 F3000.0
G1 X2.850 Y-130.449 F3000.0
G1 X1.800 Y-130.449 F3000.0
G1 X0.750 Y-130.449 F3000.0
G1 X-0.300 Y-130.449 F3000.0
G1 X-1.350 Y-130.449 F3000.0
G1 X-2.400 Y-130.449 F3000.0
G1 X-3.450 Y-130.449 F3000.0
G1 X-4.500 Y-130.449 F3000.0
G1 X-5.550 Y-130.449 F3000.0
G1 X-6.600 Y-130.449 F3000.0
G1 X-7.650 Y-130.449 F3000.0
G1 X-8.700 Y-130.449 F3000.0
G1 X-9.750 Y-130.449 F3000.0
G1 X-10.800 Y-130.449 F3000.0
G1 X-11.850 Y-130.449 F3000.0
G1 X-12.900 Y-130.449 F3000.0
G1 X-13.950 Y-130.449 F3000.0
G1 X-15.000 Y-130.449 F3000.0
G1 X-16.050 Y-130.449 F3000.0
G1 X-17.100 Y-130.449 F3000.0
G1 X-18.150 Y-130.449 F3000.0
G1 X-19.200 Y-130.449 F3000.0
G1 X-20.250 Y-130.449 F3000.0
G1 X-21.300 Y-130.449 F3000.0
G1 X-22.350 Y-130.449 F3000.0
G1 X-23.400 Y-130.449 F3000.0
G1 X-24.450 Y-130.449 F3000.0
G1 X-25.500 Y-130.449 F3000.0
M280 P0 S90 T250
G0 X-39.150 Y-130.449 F3000.0
M280 P0 S25 T150
G1 X-40.200 Y-130.449 F3000.0
M280 P0 S90 T250
G0 X-53.850 Y-130.449 F3000.0
M280 P0 S25 T150
G1 X-54.900 Y-130.449 F3000.0
G1 X-55.950 Y-130.449 F3000.0
G1 X-57.000 Y-130.449 F3000.0
G1 X-58.050 Y-130.449 F3000.0
G1 X-59.100 Y-130.449 F3000.0
G1 X-60.150 Y-130.449 F3000.0
G1 X-61.200 Y-130.449 F3000.0
G1 X-62.250 Y-130.449 F3000.0
G1 X-63.300 Y-130.449 F3000.0
G1 X-64.350 Y-130.449 F3000.0
G1 X-65.400 Y-130.449 F3000.0
M280 P0 S90 T250
G0 X-83.250 Y-130.449 F3000.0
M280 P0 S25 T150
G1 X-84.300 Y-130.449 F3000.0
G1 X-85.350 Y-130.449 F3000.0
G1 X-86.400 Y-130.449 F3000.0
M280 P0 S90 T250
G0 X-87.450 Y-130.449 F3000.0
M280 P0 S25 T150
G1 X-88.500 Y-130.449 F3000.0
G1 X-89.550 Y-130.449 F3000.0
M280 P0 S90 T250
G0 X-91.650 Y-130.449 F3000.0
M280 P0 S25 T150
G1 X-92.700 Y-130.449 F3000.0
G1 X-93.750 Y-130.449 F3000.0
G1 X-94.800 Y-130.449 F3000.0
G1 X-95.850 Y-130.449 F3000.0
G1 X-96.900 Y-130.449 F3000.0
G1 X-97.950 Y-130.449 F3000.0
G1 X-99.000 Y-130.449 F3000.0
G1 X-100.050 Y-130.449 F3000.0
G1 X-101.100 Y-130.449 F3000.0
G1 X-102.150 Y-130.449 F3000.0
G1 X-102.600 Y-129.399 F3000.0
G1 X-101.550 Y-129.399 F3000.0
G1 X-100.500 Y-129.399 F3000.0
G1 X-99.450 Y-129.399 F3000.0
G1 X-98.400 Y-129.399 F3000.0
G1 X-97.350 Y-129.399 F3000.0
G1 X-96.300 Y-129.399 F3000.0
G1 X-95.250 Y-129.399 F3000.0
G1 X-94.200 Y-129.399 F3000.0
G1 X-93.150 Y-129.399 F3000.0
M280 P0 S90 T250
G0 X-91.050 Y-129.399 F3000.0
M280 P0 S25 T150
G1 X-90.000 Y-129.399 F3000.0
G1 X-88.950 Y-129.399 F3000.0
M280 P0 S90 T250
G0 X-87.900 Y-129.399 F3000.0
M280 P0 S25 T150
G1 X-86.850 Y-129.399 F3000.0
G1 X-85.800 Y-129.399 F3000.0
G1 X-84.750 Y-129.399 F3000.0
M280 P0 S90 T250
G0 X-82.650 Y-129.399 F3000.0
M280 P0 S25 T150
G1 X-81.600 Y-129.399 F3000.0
M280 P0 S90 T250
G0 X-72.150 Y-129.399 F3000.0
M280 P0 S25 T150
G1 X-71.100 Y-129.399 F3000.0
G1 X-70.050 Y-129.399 F3000.0
G1 X-69.000 Y-129.399 F3000.0
G1 X-67.950 Y-129.399 F3000.0
M280 P0 S90 T250
G0 X-65.850 Y-129.399 F3000.0
M280 P0 S25 T150
G1 X-64.800 Y-129.399 F3000.0
G1 X-63.750 Y-129.399 F3000.0
M280 P0 S90 T250
G0 X-61.650 Y-129.399 F3000.0
M280 P0 S25 T150
G1 X-60.600 Y-129.399 F3000.0
G1 X-59.550 Y-129.399 F3000.0
G1 X-58.500 Y-129.399 F3000.0
G1 X-57.450 Y-129.399 F3000.0
G1 X-56.400 Y-129.399 F3000.0
G1 X-55.350 Y-129.399 F3000.0
M280 P0 S90 T250
G0 X-25.950 Y-129.399 F3000.0
M280 P0 S25 T150
G1 X-24.900 Y-129.399 F3000.0
G1 X-23.850 Y-129.399 F3000.0
G1 X-22.800 Y-129.399 F3000.0
G1 X-21.750 Y-129.399 F3000.0
G1 X-20.700 Y-129.399 F3000.0
G1 X-19.650 Y-129.399 F3000.0
G1 X-18.600 Y-129.399 F3000.0
G1 X-17.550 Y-129.399 F3000.0
G1 X-16.500 Y-129.399 F3000.0
G1 X-15.450 Y-129.399 F3000.0
G1 X-14.400 Y-129.399 F3000.0
G1 X-13.350 Y-129.399 F3000.0
G1 X-12.300 Y-129.399 F3000.0
G1 X-11.250 Y-129.399 F3000.0
G1 X-10.200 Y-129.399 F3000.0
G1 X-9.150 Y-129.399 F3000.0
G1 X-8.100 Y-129.399 F3000.0
G1 X-7.050 Y-129.399 F3000.0
G1 X-6.000 Y-129.399 F3000.0
G1 X-4.950 Y-129.399 F3000.0
G1 X-3.900 Y-129.399 F3000.0
G1 X-2.850 Y-129.399 F3000.0
G1 X-1.800 Y-129.399 F3000.0
G1 X-0.750 Y-129.399 F3000.0
G1 X0.300 Y-129.399 F3000.0
G1 X1.350 Y-129.399 F3000.0
G1 X2.400 Y-129.399 F3000.0
G1 X3.450 Y-129.399 F3000.0
G1 X4.500 Y-129.399 F3000.0
G1 X5.550 Y-129.399 F3000.0
G1 X6.600 Y-129.399 F3000.0
G1 X7.650 Y-129.399 F3000.0
G1 X8.700 Y-129.399 F3000.0
G1 X9.750 Y-129.399 F3000.0
G1 X10.800 Y-129.399 F3000.0
G1 X11.850 Y-129.399 F3000.0
G1 X12.900 Y-129.399 F3000.0
G1 X13.950 Y-129.399 F3000.0
G1 X15.000 Y-129.399 F3000.0
G1 X16.050 Y-129.399 F3000.0
G1 X17.100 Y-129.399 F3000.0
G1 X18.150 Y-129.399 F3000.0
G1 X19.200 Y-129.399 F3000.0
G1 X20.250 Y-129.399 F3000.0
G1 X21.300 Y-129.399 F3000.0
G1 X22.350 Y-129.399 F3000.0
G1 X23.400 Y-129.399 F3000.0
G1 X24.450 Y-129.399 F3000.0
G1 X25.500 Y-129.399 F3000.0
G1 X26.550 Y-129.399 F3000.0
G1 X27.600 Y-129.399 F3000.0
G1 X28.650 Y-129.399 F3000.0
G1 X29.700 Y-129.399 F3000.0
G1 X30.750 Y-129.399 F3000.0
G1 X31.800 Y-129.399 F3000.0
G1 X32.850 Y-129.399 F3000.0
G1 X33.900 Y-129.399 F3000.0
G1 X34.950 Y-129.399 F3000.0
G1 X36.000 Y-129.399 F3000.0
G1 X37.050 Y-129.399 F3000.0
G1 X38.100 Y-129.399 F3000.0
G1 X39.150 Y-129.399 F3000.0
G1 X40.200 Y-129.399 F3000.0
G1 X41.250 Y-129.399 F3000.0
G1 X42.300 Y-129.399 F3000.0
G1 X43.350 Y-129.399 F3000.0
G1 X44.400 Y-129.399 F3000.0
G1 X45.450 Y-129.399 F3000.0
G1 X46.500 Y-129.399 F3000.0
G1 X47.550 Y-129.399 F3000.0
G1 X48.600 Y-129.399 F3000.0
G1 X49.650 Y-129.399 F3000.0
G1 X50.700 Y-129.399 F3000.0
G1 X51.750 Y-129.399 F3000.0
G1 X52.800 Y-129.399 F3000.0
G1 X53.850 Y-129.399 F3000.0
G1 X54.900 Y-129.399 F3000.0
G1 X55.950 Y-129.399 F3000.0
G1 X57.000 Y-129.399 F3000.0
G1 X58.050 Y-129.399 F3000.0
G1 X59.100 Y-129.399 F3000.0
G1 X60.150 Y-129.399 F3000.0
G1 X61.200 Y-129.399 F3000.0
G1 X62.250 Y-129.399 F3000.0
G1 X63.300 Y-129.399 F3000.0
G1 X64.350 Y-129.399 F3000.0
M280 P0 S90 T250
G0 X100.500 Y-128.349 F3000.0
M280 P0 S25 T150
G1 X99.450 Y-128.349 F3000.0
M280 P0 S90 T250
G0 X65.850 Y-128.349 F3000.0
M280 P0 S25 T150
G1 X64.800 Y-128.349 F3000.0
G1 X63.750 Y-128.349 F3000.0
G1 X62.700 Y-128.349 F3000.0
G1 X61.650 Y-128.349 F3000.0
G1 X60.600 Y-128.349 F3000.0
G1 X59.550 Y-128.349 F3000.0
G1 X58.500 Y-128.349 F3000.0
G1 X57.450 Y-128.349 F3000.0
G1 X56.400 Y-128.349 F3000.0
G1 X55.350 Y-128.349 F3000.0
G1 X54.300 Y-128.349 F3000.0
G1 X53.250 Y-128.349 F3000.0
G1 X52.200 Y-128.349 F3000.0
G1 X51.150 Y-128.349 F3000.0
G1 X50.100 Y-128.349 F3000.0
G1 X49.050 Y-128.349 F3000.0
G1 X48.000 Y-128.349 F3000.0
G1 X46.950 Y-128.349 F3000.0
G1 X45.900 Y-128.349 F3000.0
G1 X44.850 Y-128.349 F3000.0
G1 X43.800 Y-128.349 F3000.0
G1 X42.750 Y-128.349 F3000.0
G1 X41.700 Y-128.349 F3000.0
G1 X40.650 Y-128.349 F3000.0
G1 X39.600 Y-128.349 F3000.0
G1 X38.550 Y-128.349 F3000.0
G1 X37.500 Y-128.349 F3000.0
G1 X36.450 Y-128.349 F3000.0
G1 X35.400 Y-128.349 F3000.0
G1 X34.350 Y-128.349 F3000.0
G1 X33.300 Y-128.349 F3000.0
G1 X32.250 Y-128.349 F3000.0
G1 X31.200 Y-128.349 F3000.0
G1 X30.150 Y-128.349 F3000.0
G1 X29.100 Y-128.349 F3000.0
G1 X28.050 Y-128.349 F3000.0
G1 X27.000 Y-128.349 F3000.0
G1 X25.950 Y-128.349 F3000.0
G1 X24.900 Y-128.349 F3000.0
G1 X23.850 Y-128.349 F3000.0
G1 X22.800 Y-128.349 F3000.0
G1 X21.750 Y-128.349 F3000.0
G1 X20.700 Y-128.349 F3000.0
G1 X19.650 Y-128.349 F3000.0
G1 X18.600 Y-128.349 F3000.0
G1 X17.550 Y-128.349 F3000.0
G1 X16.500 Y-128.349 F3000.0
G1 X15.450 Y-128.349 F3000.0
G1 X14.400 Y-128.349 F3000.0
G1 X13.350 Y-128.349 F3000.0
G1 X12.300 Y-128.349 F3000.0
G1 X11.250 Y-128.349 F3000.0
G1 X10.200 Y-128.349 F3000.0
G1 X9.150 Y-128.349 F3000.0
G1 X8.100 Y-128.349 F3000.0
G1 X7.050 Y-128.349 F3000.0
G1 X6.000 Y-128.349 F3000.0
G1 X4.950 Y-128.349 F3000.0
G1 X3.900 Y-128.349 F3000.0
G1 X2.850 Y-128.349 F3000.0
G1 X1.800 Y-128.349 F3000.0
G1 X0.750 Y-128.349 F3000.0
G1 X-0.300 Y-128.349 F3000.0
G1 X-1.350 Y-128.349 F3000.0
G1 X-2.400 Y-128.349 F3000.0
G1 X-3.450 Y-128.349 F3000.0
G1 X-4.500 Y-128.349 F3000.0
G1 X-5.550 Y-128.349 F3000.0
G1 X-6.600 Y-128.349 F3000.0
G1 X-7.650 Y-128.349 F3000.0
G1 X-8.700 Y-128.349 F3000.0
G1 X-9.750 Y-128.349 F3000.0
G1 X-10.800 Y-128.349 F3000.0
G1 X-11.850 Y-128.349 F3000.0
G1 X-12.900 Y-128.349 F3000.0
G1 X-13.950 Y-128.349 F3000.0
G1 X-15.000 Y-128.349 F3000.0
G1 X-16.050 Y-128.349 F3000.0
G1 X-17.100 Y-128.349 F3000.0
G1 X-18.150 Y-128.349 F3000.0
G1 X-19.200 Y-128.349 F3000.0
G1 X-20.250 Y-128.349 F3000.0
G1 X-21.300 Y-128.349 F3000.0
G1 X-22.350 Y-128.349 F3000.0
G1 X-23.400 Y-128.349 F3000.0
G1 X-24.450 Y-128.349 F3000.0
M280 P0 S90 T250
G0 X-54.900 Y-128.349 F3000.0
M280 P0 S25 T150
G1 X-55.950 Y-128.349 F3000.0
G1 X-57.000 Y-128.349 F3000.0
G1 X-58.050 Y-128.349 F3000.0
G1 X-59.100 Y-128.349 F3000.0
G1 X-60.150 Y-128.349 F3000.0
G1 X-61.200 Y-128.349 F3000.0
M280 P0 S90 T250
G0 X-66.450 Y-128.349 F3000.0
M280 P0 S25 T150
G1 X-67.500 Y-128.349 F3000.0
G1 X-68.550 Y-128.349 F3000.0
G1 X-69.600 Y-128.349 F3000.0
G1 X-70.650 Y-128.349 F3000.0
G1 X-71.700 Y-128.349 F3000.0
M280 P0 S90 T250
G0 X-86.400 Y-128.349 F3000.0
M280 P0 S25 T150
G1 X-87.450 Y-128.349 F3000.0
M280 P0 S90 T250
G0 X-91.650 Y-128.349 F3000.0
M280 P0 S25 T150
G1 X-92.700 Y-128.349 F3000.0
G1 X-93.750 Y-128.349 F3000.0
G1 X-94.800 Y-128.349 F3000.0
G1 X-95.850 Y-128.349 F3000.0
M280 P0 S90 T250
G0 X-96.900 Y-128.349 F3000.0
M280 P0 S25 T150
G1 X-97.950 Y-128.349 F3000.0
G1 X-99.000 Y-128.349 F3000.0
G1 X-100.050 Y-128.349 F3000.0
G1 X-101.100 Y-128.349 F3000.0
G1 X-102.150 Y-128.349 F3000.0
G1 X-102.600 Y-127.299 F3000.0
G1 X-101.550 Y-127.299 F3000.0
G1 X-100.500 Y-127.299 F3000.0
G1 X-99.450 Y-127.299 F3000.0
G1 X-98.400 Y-127.299 F3000.0
G1 X-97.350 Y-127.299 F3000.0
G1 X-96.300 Y-127.299 F3000.0
G1 X-95.250 Y-127.299 F3000.0
G1 X-94.200 Y-127.299 F3000.0
G1 X-93.150 Y-127.299 F3000.0
M280 P0 S90 T250
G0 X-92.100 Y-127.299 F3000.0
M280 P0 S25 T150
G1 X-91.050 Y-127.299 F3000.0
G1 X-90.000 Y-127.299 F3000.0
G1 X-88.950 Y-127.299 F3000.0
M280 P0 S90 T250
G0 X-65.850 Y-127.299 F3000.0
M280 P0 S25 T150
G1 X-64.800 Y-127.299 F3000.0
G1 X-63.750 Y-127.299 F3000.0
G1 X-62.700 Y-127.299 F3000.0
G1 X-61.650 Y-127.299 F3000.0
G1 X-60.600 Y-127.299 F3000.0
G1 X-59.550 Y-127.299 F3000.0
G1 X-58.500 Y-127.299 F3000.0
G1 X-57.450 Y-127.299 F3000.0
G1 X-56.400 Y-127.299 F3000.0
M280 P0 S90 T250
G0 X-21.750 Y-127.299 F3000.0
M280 P0 S25 T150
G1 X-20.700 Y-127.299 F3000.0
G1 X-19.650 Y-127.299 F3000.0
G1 X-18.600 Y-127.299 F3000.0
G1 X-17.550 Y-127.299 F3000.0
G1 X-16.500 Y-127.299 F3000.0
G1 X-15.450 Y-127.299 F3000.0
G1 X-14.400 Y-127.299 F3000.0
G1 X-13.350 Y-127.299 F3000.0
G1 X-12.300 Y-127.299 F3000.0
